; HEADER_BLOCK_START
; generated by OrcaSlicer 1.6.3 on 2023-06-25 at 17:50:40
; total layer number: 40
; HEADER_BLOCK_END

; THUMBNAIL_BLOCK_START
; THUMBNAIL_BLOCK_END

; external perimeters extrusion width = 0.40mm
; perimeters extrusion width = 0.45mm
; infill extrusion width = 0.45mm
; solid infill extrusion width = 0.40mm
; top infill extrusion width = 0.40mm
; first layer extrusion width = 0.50mm

; EXECUTABLE_BLOCK_START
EXCLUDE_OBJECT_DEFINE NAME=(Unsaved).stl_id_0_copy_0 CENTER=165,165 POLYGON=[[144.387,169.674],[144.435,169.272],[144.538,168.88],[144.692,168.506],[144.895,168.156],[145.144,167.836],[148.217,164.558],[148.508,164.294],[158.304,156.946],[158.72,156.641],[158.956,156.482],[159.382,156.215],[159.64,156.066],[160.072,155.837],[160.353,155.701],[160.788,155.509],[161.091,155.388],[161.525,155.233],[161.849,155.131],[162.28,155.011],[162.624,154.929],[163.05,154.843],[163.411,154.784],[163.829,154.731],[164.207,154.696],[164.614,154.674],[165.008,154.667],[165.401,154.674],[165.808,154.696],[166.187,154.731],[166.604,154.784],[166.966,154.843],[167.392,154.929],[167.735,155.011],[168.167,155.131],[168.49,155.233],[168.925,155.388],[169.227,155.509],[169.662,155.701],[169.943,155.837],[170.375,156.066],[170.634,156.215],[171.059,156.482],[171.295,156.641],[171.712,156.946],[181.495,164.299],[181.786,164.564],[184.863,167.869],[185.112,168.192],[185.315,168.546],[185.467,168.925],[185.568,169.32],[185.613,169.725],[185.603,170.133],[185.538,170.536],[185.419,170.926],[185.248,171.296],[185.028,171.64],[184.702,172.037],[184.336,172.398],[183.936,172.72],[183.504,172.999],[183.047,173.233],[182.567,173.418],[182.072,173.553],[181.564,173.636],[169.931,175.292],[169.516,175.333],[160.499,175.333],[160.084,175.292],[148.32,173.62],[147.823,173.525],[147.337,173.38],[146.869,173.187],[146.423,172.947],[146.003,172.664],[145.614,172.339],[145.26,171.977],[144.944,171.581],[144.731,171.237],[144.566,170.867],[144.453,170.479],[144.392,170.078],[144.387,169.674]]
M73 P0 R13
;TYPE:Custom
START_PRINT T_BED=110 T_EXTRUDER=260
G90
G21
M83 ; use relative distances for extrusion
; Filament gcode

    PRESSURE_ADVANCE_SELECT FILAMENT=ABS
M106 S0
;LAYER_CHANGE
;Z:0.2
;HEIGHT:0.2
SET_VELOCITY_LIMIT ACCEL_TO_DECEL=500
M204 S1000
G1 E-.5 F3000
G1 X146.203 Y162.464 F9000
G1 Z.2
G1 E.5 F1800
;TYPE:Skirt
;WIDTH:0.5
G1 F3000
G1 X146.759 Y161.963 E.02633
G1 X156.545 Y154.623 E.4305
G1 X158.334 Y153.46 E.0751
G1 X160.134 Y152.637 E.06966
G1 X162.08 Y152.067 E.07138
G1 X163.871 Y151.801 E.06372
G1 X165.889 Y151.783 E.07101
G1 X167.154 Y151.922 E.04481
G1 X168.922 Y152.317 E.06374
G1 X170.08 Y152.712 E.04307
G1 X171.901 Y153.583 E.07105
G1 X173.473 Y154.625 E.06637
G1 X183.246 Y161.97 E.43024
G1 X183.919 Y162.579 E.03195
G1 X187.427 Y166.423 E.18317
G1 X188.017 Y167.455 E.04183
G1 X188.393 Y168.605 E.04259
G1 X188.509 Y169.401 E.02828
G1 X188.516 Y170.204 E.02828
G1 X188.325 Y171.387 E.04218
G1 X188.064 Y172.148 E.02828
G1 X187.703 Y172.865 E.02828
G1 X186.751 Y174.109 E.05512
G1 X185.762 Y174.991 E.04666
G1 X185.088 Y175.446 E.02862
G1 X184.097 Y175.951 E.03914
G1 X182.837 Y176.365 E.04666
G1 X169.516 Y178.247 E.47348
G1 X160.208 Y178.232 E.32757
G1 X147.91 Y176.505 E.43706
G1 X146.504 Y176.173 E.05085
G1 X145.491 Y175.755 E.03858
G1 X144.372 Y175.079 E.046
G1 X143.531 Y174.377 E.03858
G1 X142.467 Y173.116 E.05805
G1 X142.07 Y172.424 E.02807
G1 X141.769 Y171.685 E.02807
G1 X141.57 Y170.908 E.02824
G1 X141.479 Y170.115 E.02808
G1 X141.494 Y169.323 E.02789
G1 X141.616 Y168.535 E.02807
G1 X141.997 Y167.396 E.04227
G1 X142.594 Y166.367 E.04186
G1 X146.091 Y162.565 E.1818
G1 X146.158 Y162.504 E.0032
G1 X146.492 Y162.817 F9000
G1 F3000
G1 X146.568 Y162.736 E.0039
G1 X156.819 Y154.989 E.4522
G1 X158.542 Y153.867 E.07236
G1 X160.281 Y153.069 E.06735
G1 X162.162 Y152.516 E.06901
G1 X163.921 Y152.256 E.06255
G1 X165.873 Y152.24 E.0687
G1 X167.071 Y152.371 E.04242
G1 X168.977 Y152.811 E.06885
G1 X170.799 Y153.522 E.06885
G1 X172.462 Y154.466 E.06727
G1 X182.971 Y162.335 E.46207
G1 X183.584 Y162.89 E.02911
G1 X186.662 Y166.195 E.15892
G1 X187.247 Y166.976 E.03436
G1 X187.746 Y168.004 E.04022
G1 X188.009 Y169.046 E.03782
G1 X188.059 Y170.193 E.0404
G1 X187.888 Y171.254 E.03782
G1 X187.478 Y172.326 E.0404
G1 X186.926 Y173.2 E.03639
G1 X186.064 Y174.145 E.04501
G1 X185.271 Y174.783 E.03583
G1 X184.163 Y175.422 E.04501
G1 X183.213 Y175.789 E.03583
G1 X181.911 Y176.069 E.04688
G1 X169.757 Y177.778 E.43194
G1 X160.499 Y177.79 E.32581
G1 X147.362 Y175.938 E.46692
G1 X146.4 Y175.651 E.03532
G1 X145.261 Y175.112 E.04437
G1 X144.429 Y174.551 E.03532
G1 X143.503 Y173.695 E.04437
G1 X142.643 Y172.531 E.05095
G1 X142.094 Y171.168 E.05169
G1 X141.93 Y169.709 E.05169
G1 X142.161 Y168.259 E.05169
G1 X142.567 Y167.273 E.03753
G1 X143.204 Y166.328 E.0401
G1 X146.451 Y162.86 E.1672
; printing object (Unsaved).stl id:0 copy 0
EXCLUDE_OBJECT_START NAME=(Unsaved).stl_id_0_copy_0
G1 E-.5
G1 X154.609 Y165.298 F9000
G1 E.5 F1800
;TYPE:Inner wall
;WIDTH:0.499999
G1 F3000
G1 X154.59 Y165.783 E.0171
G1 X154.658 Y166.438 E.02316
G1 X154.798 Y167.009 E.0207
G1 X155.036 Y167.604 E.02256
G1 X155.365 Y168.167 E.02295
G1 X155.736 Y168.626 E.02076
G1 X155.436 Y169.076 E.01902
G1 X155.15 Y169.669 E.02317
G1 X154.984 Y170.161 E.01828
G1 X154.863 Y170.794 E.02269
G1 X154.833 Y171.44 E.02275
G1 X154.879 Y171.96 E.01836
G1 X150.142 Y171.946 E.16674
;WIDTH:0.512588
G1 X149.618 Y171.939 E.01894
G1 X149.807 Y171.891 E.00704
;WIDTH:0.506367
G1 X150.401 Y171.679 E.02251
;WIDTH:0.499999
G1 X150.946 Y171.361 E.0222
G1 X151.42 Y170.945 E.0222
G1 X151.808 Y170.447 E.0222
G1 X152.067 Y169.959 E.01946
G1 X152.227 Y169.484 E.01762
G1 X152.32 Y168.894 E.02103
G1 X152.308 Y168.324 E.02007
G1 X152.209 Y167.808 E.01848
G1 X152.036 Y167.32 E.01823
G1 X151.79 Y166.86 E.01838
G1 X151.398 Y166.366 E.0222
G1 X150.919 Y165.955 E.0222
G1 X150.371 Y165.642 E.0222
G1 X149.91 Y165.473 E.01727
G1 X150.409 Y165.366 E.01793
G1 X151.632 Y165.345 E.04307
G1 X154.114 Y165.341 E.08735
G1 X154.549 Y165.303 E.01536
G1 X155.283 Y164.324 F9000
;WIDTH:0.506256
G1 F3000
G1 X155.227 Y164.477 E.0058
;WIDTH:0.503692
G1 X155.099 Y165.018 E.01975
;WIDTH:0.499999
G1 X155.043 Y165.643 E.02208
G1 X155.076 Y166.156 E.01808
G1 X155.182 Y166.697 E.01941
G1 X155.368 Y167.234 E.02
G1 X155.653 Y167.778 E.0216
G1 X155.985 Y168.224 E.01958
G1 X156.361 Y168.591 E.0185
G1 X155.98 Y169.058 E.02122
G1 X155.669 Y169.606 E.02218
G1 X155.472 Y170.114 E.01917
G1 X155.332 Y170.717 E.02177
G1 X155.289 Y171.243 E.01856
G1 X155.32 Y171.823 E.02045
G1 X155.441 Y172.415 E.02129
G1 X148.842 Y172.396 E.23226
G1 X148.102 Y172.289 E.02632
G1 X147.613 Y172.126 E.01813
G1 X147.059 Y171.851 E.02175
G1 X146.583 Y171.501 E.0208
G1 X146.195 Y171.122 E.01909
G1 X145.886 Y170.7 E.01842
G1 X145.698 Y170.233 E.01769
G1 X145.652 Y169.764 E.01659
G1 X145.735 Y169.299 E.01664
G1 X145.932 Y168.888 E.01603
G1 X146.15 Y168.619 E.01219
G1 X146.147 Y168.714 E.00334
G1 X146.217 Y169.312 E.02119
G1 X146.38 Y169.805 E.01827
G1 X146.64 Y170.277 E.01898
G1 X146.969 Y170.676 E.01818
G1 X147.386 Y171.025 E.01915
G1 X147.862 Y171.289 E.01915
G1 X148.379 Y171.459 E.01915
G1 X148.934 Y171.529 E.0197
G1 X149.461 Y171.493 E.01859
G1 X149.988 Y171.356 E.01915
G1 X150.479 Y171.122 E.01915
G1 X150.917 Y170.799 E.01915
G1 X151.286 Y170.399 E.01915
G1 X151.572 Y169.937 E.01915
G1 X151.786 Y169.364 E.02153
G1 X151.865 Y168.849 E.01831
G1 X151.851 Y168.349 E.01763
G1 X151.74 Y167.816 E.01915
G1 X151.529 Y167.315 E.01915
G1 X151.228 Y166.862 E.01915
G1 X150.846 Y166.474 E.01915
G1 X150.398 Y166.166 E.01915
G1 X149.899 Y165.948 E.01915
G1 X149.369 Y165.829 E.01914
G1 X148.855 Y165.811 E.01809
M73 P1 R13
G1 X148.958 Y165.649 E.00676
G1 X149.223 Y165.372 E.01351
G1 X149.636 Y165.092 E.01754
G1 X149.946 Y164.988 E.01152
G1 X150.386 Y164.909 E.01574
G1 X151.628 Y164.888 E.04371
G1 X154.113 Y164.884 E.08748
G1 X154.638 Y164.832 E.01855
;WIDTH:0.500915
G1 X155.076 Y164.577 E.01788
;WIDTH:0.506256
G1 X155.245 Y164.37 E.00953
G1 E-.5
G1 X155.926 Y162.217 F9000
G1 E.5 F1800
;WIDTH:0.52826
G1 F3000
G1 X156.342 Y162.743 E.02508
G1 X156.086 Y162.98 E.01302
G1 X155.714 Y163.44 E.02213
G1 X155.413 Y163.995 E.02359
;WIDTH:0.507693
G1 X155.43 Y163.928 E.00249
;WIDTH:0.52826
G1 X155.739 Y162.761 E.04509
G1 X155.907 Y162.273 E.01928
G1 X155.915 Y161.055 F9000
;WIDTH:0.499999
G1 F3000
G1 X156.093 Y161.551 E.01854
G1 X156.356 Y162.015 E.01876
G1 X156.708 Y162.446 E.01961
G1 X157.115 Y162.781 E.01854
G1 X156.826 Y162.957 E.01188
G1 X156.532 Y163.21 E.01367
G1 X156.213 Y163.563 E.01676
G1 X155.847 Y164.153 E.02444
G1 X155.714 Y164.486 E.0126
G1 X155.545 Y165.116 E.02293
G1 X155.502 Y165.618 E.01773
G1 X155.532 Y166.123 E.01782
G1 X155.628 Y166.6 E.01713
G1 X155.797 Y167.075 E.01774
G1 X156.034 Y167.524 E.01788
G1 X156.339 Y167.934 E.01798
G1 X156.703 Y168.285 E.01781
G1 X157.115 Y168.554 E.01729
G1 X157.013 Y168.624 E.00437
G1 X156.606 Y168.996 E.0194
G1 X156.291 Y169.417 E.01851
G1 X156.048 Y169.878 E.01836
G1 X155.877 Y170.355 E.01782
G1 X155.775 Y170.859 E.01811
G1 X155.745 Y171.374 E.01813
G1 X155.792 Y171.897 E.01847
G1 X155.934 Y172.442 E.01984
G1 X156.175 Y172.935 E.0193
G1 X155.554 Y172.876 E.02197
G1 X148.802 Y172.852 E.23762
G1 X148.231 Y172.781 E.02024
G1 X147.651 Y172.631 E.02109
G1 X147.175 Y172.435 E.01812
G1 X146.621 Y172.107 E.02265
G1 X146.197 Y171.775 E.01894
G1 X145.838 Y171.407 E.01812
G1 X145.478 Y170.909 E.0216
G1 X145.277 Y170.421 E.0186
G1 X145.197 Y169.909 E.01824
G1 X145.243 Y169.373 E.0189
G1 X145.439 Y168.826 E.02048
G1 X145.771 Y168.351 E.02037
G1 X146.203 Y167.99 E.01983
G1 X146.763 Y167.579 E.02443
G1 X146.966 Y167.378 E.01006
;WIDTH:0.462901
G1 X147.168 Y167.176 E.00924
;WIDTH:0.459396
G1 X147.06 Y167.3 E.00528
;WIDTH:0.492989
G1 X146.952 Y167.424 E.0057
;WIDTH:0.499999
G1 X146.751 Y167.834 E.01607
G1 X146.634 Y168.276 E.01609
G1 X146.603 Y168.733 E.01609
G1 X146.691 Y169.313 E.02065
G1 X146.913 Y169.839 E.0201
G1 X147.211 Y170.258 E.01808
G1 X147.576 Y170.594 E.01748
G1 X148.003 Y170.848 E.01748
G1 X148.473 Y171.01 E.01749
G1 X148.959 Y171.072 E.01724
G1 X149.415 Y171.038 E.01609
G1 X149.856 Y170.918 E.01609
G1 X150.267 Y170.717 E.01609
G1 X150.632 Y170.442 E.01609
G1 X150.938 Y170.102 E.01609
G1 X151.175 Y169.711 E.01609
G1 X151.333 Y169.282 E.01609
G1 X151.408 Y168.831 E.01609
G1 X151.398 Y168.43 E.01411
G1 X151.322 Y168.03 E.01433
G1 X151.115 Y167.507 E.01978
G1 X150.857 Y167.13 E.01609
G1 X150.533 Y166.807 E.01609
G1 X150.153 Y166.552 E.01609
G1 X149.884 Y166.433 E.01038
G1 X149.353 Y166.291 E.01934
G1 X148.837 Y166.268 E.01818
G1 X148.38 Y166.345 E.0163
G1 X147.949 Y166.507 E.01619
G1 X147.669 Y166.697 E.01193
;WIDTH:0.491126
G1 X147.8 Y166.532 E.00728
;WIDTH:0.499999
G1 X148.118 Y166.121 E.01831
G1 X148.571 Y165.405 E.02983
G1 X148.943 Y165.004 E.01922
G1 X149.401 Y164.7 E.01936
G1 X149.977 Y164.504 E.02141
G1 X150.364 Y164.452 E.01373
G1 X151.624 Y164.431 E.04435
G1 X154.298 Y164.427 E.09412
G1 X154.592 Y164.36 E.01061
G1 X154.832 Y164.169 E.0108
G1 X154.965 Y163.893 E.01079
G1 X155.158 Y163.047 E.03053
G1 X155.38 Y162.323 E.02664
G1 X155.643 Y161.643 E.02568
G1 X155.89 Y161.11 E.02069
G1 X156.407 Y159.228 F9000
;TYPE:Outer wall
G1 F3000
G1 X156.33 Y159.596 E.01322
G1 X156.282 Y160.411 E.02875
G1 X156.346 Y160.901 E.01737
G1 X156.532 Y161.401 E.01877
G1 X156.82 Y161.869 E.01934
G1 X157.158 Y162.232 E.01747
G1 X157.47 Y162.457 E.01354
G1 X158.201 Y162.83 E.02886
G1 X157.43 Y163.128 E.02908
G1 X157.064 Y163.347 E.01503
G1 X156.798 Y163.587 E.0126
G1 X156.435 Y164.031 E.02018
G1 X156.142 Y164.647 E.02402
G1 X155.992 Y165.213 E.02059
G1 X155.958 Y165.684 E.01662
G1 X156.021 Y166.253 E.02014
G1 X156.161 Y166.741 E.01789
G1 X156.369 Y167.184 E.01721
G1 X156.702 Y167.656 E.02033
G1 X157.014 Y167.95 E.01508
G1 X157.43 Y168.207 E.01722
G1 X158.2 Y168.505 E.02904
G1 X158.071 Y168.556 E.00488
G1 X157.372 Y168.931 E.02792
G1 X156.999 Y169.242 E.0171
G1 X156.693 Y169.636 E.01754
G1 X156.435 Y170.148 E.02019
G1 X156.286 Y170.628 E.01768
G1 X156.201 Y171.308 E.02411
G1 X156.231 Y171.757 E.01583
G1 X156.334 Y172.206 E.01622
G1 X156.516 Y172.62 E.01593
G1 X157.154 Y173.43 E.03628
G1 X156.138 Y173.39 E.03577
G1 X155.552 Y173.333 E.02072
G1 X148.762 Y173.307 E.23898
G1 X148.145 Y173.23 E.02187
G1 X147.558 Y173.081 E.02133
G1 X147.082 Y172.896 E.01795
G1 X146.604 Y172.647 E.01898
G1 X146.161 Y172.34 E.01898
G1 X145.679 Y171.905 E.02286
G1 X145.281 Y171.442 E.02149
G1 X145.004 Y170.99 E.01865
G1 X144.821 Y170.49 E.01873
G1 X144.741 Y169.959 E.0189
G1 X144.77 Y169.419 E.01903
G1 X144.9 Y168.919 E.01819
G1 X145.141 Y168.429 E.01921
G1 X145.451 Y168.025 E.01793
G1 X145.935 Y167.62 E.02218
G1 X146.545 Y167.163 E.02684
G1 X146.95 Y166.803 E.01908
G1 X147.354 Y166.37 E.02085
G1 X147.732 Y165.877 E.02185
G1 X148.241 Y165.071 E.03354
G1 X148.726 Y164.57 E.02454
G1 X149.319 Y164.216 E.02432
G1 X149.852 Y164.064 E.01947
G1 X150.341 Y163.996 E.01739
G1 X151.619 Y163.974 E.04499
G1 X154.297 Y163.97 E.09425
G1 X154.453 Y163.908 E.00588
G1 X154.52 Y163.792 E.00473
G1 X154.716 Y162.929 E.03113
G1 X154.948 Y162.174 E.02782
G1 X155.222 Y161.464 E.02677
G1 X155.874 Y160.001 E.05639
G1 X156.373 Y159.277 E.03092
G1 X156.385 Y159.3
G1 X156.653 Y158.778 F9000
;WIDTH:0.38292
G1 F3000
G1 X157.154 Y158.115 E.02176
G1 X157.769 Y157.551 E.02184
G1 E-.5
G1 X157.235 Y158.177 F9000
G1 X156.995 Y158.497
G1 X156.801 Y158.855
G1 X156.664 Y159.222
G1 X156.579 Y159.612
G1 X156.551 Y160.01
G1 X156.581 Y160.417
G1 X156.681 Y161.23
G1 X156.777 Y161.674
G1 X157.837 Y162.366
G1 X158.188 Y162.557
G1 X158.944 Y162.877
G1 E.5 F1800
G1 F3000
G1 X159.388 Y162.901 E.01163
G1 E-.5
G1 X158.636 Y162.994 F9000
G1 X158.255 Y163.075
G1 X157.874 Y163.218
G1 X155.283 Y164.324
G1 E.5 F1800
;TYPE:Inner wall
;WIDTH:0.506256
G1 F3000
G1 X155.413 Y163.995 E.01262
G1 E-.5
G1 X155.656 Y166.154 F9000
G1 X155.755 Y166.613
G1 X155.986 Y167.043
G1 X156.411 Y167.338
G1 X156.825 Y167.567
G1 X157.889 Y168.125
G1 X158.255 Y168.26
G1 X158.942 Y168.458
G1 E.5 F1800
;TYPE:Outer wall
;WIDTH:0.38292
G1 F3000
G1 X159.407 Y168.434 E.0122
G1 E-.5
G1 X166.76 Y169.056 F9000
G1 E.5 F1800
;TYPE:Inner wall
;WIDTH:0.499999
G1 F3000
G1 X166.577 Y169.395 E.0136
G1 X166.342 Y170 E.02283
G1 X166.209 Y170.568 E.02054
G1 X166.153 Y171.133 E.01998
G1 X165.405 Y170.968 E.02693
G1 X164.831 Y170.953 E.02023
G1 X164.439 Y170.996 E.01387
G1 X163.863 Y171.133 E.02084
G1 X163.834 Y170.744 E.01374
G1 X163.717 Y170.161 E.02091
G1 X163.507 Y169.551 E.0227
G1 X163.254 Y169.055 E.01961
G1 X163.354 Y169.109 E.004
G1 X163.943 Y169.334 E.02219
G1 X164.608 Y169.467 E.02387
G1 X165.185 Y169.481 E.0203
G1 X165.604 Y169.434 E.01487
G1 X166.233 Y169.279 E.02277
G1 X166.705 Y169.079 E.01806
G1 X167.951 Y168.251 F9000
;WIDTH:0.567406
G1 F3000
G1 X167.949 Y168.272 E.00086
;WIDTH:0.569468
G1 X167.585 Y168.621 E.02047
G1 X167.427 Y168.857 E.01151
;WIDTH:0.534734
G1 X167.268 Y169.093 E.01075
;WIDTH:0.499999
G1 X166.984 Y169.602 E.02051
G1 X166.776 Y170.143 E.02041
G1 X166.656 Y170.665 E.01886
G1 X166.603 Y171.243 E.0204
G1 X166.633 Y171.821 E.0204
G1 X166.242 Y171.648 E.01503
G1 X165.723 Y171.485 E.01915
G1 X165.185 Y171.41 E.01915
G1 X164.515 Y171.447 E.0236
G1 X163.94 Y171.59 E.02086
G1 X163.38 Y171.845 E.02166
G1 X163.412 Y171.243 E.02124
G1 X163.359 Y170.665 E.0204
G1 X163.225 Y170.102 E.0204
G1 X163.01 Y169.559 E.02053
G1 X162.716 Y169.049 E.02072
;WIDTH:0.534758
G1 X162.573 Y168.835 E.00974
;WIDTH:0.569517
G1 X162.43 Y168.621 E.01043
G1 X162.065 Y168.272 E.0205
;WIDTH:0.567528
G1 X162.062 Y168.224 E.00194
G1 X162.389 Y167.829 E.02071
;WIDTH:0.569517
G1 X162.787 Y168.237 E.02313
G1 X163.018 Y168.385 E.01111
;WIDTH:0.534758
G1 X163.249 Y168.532 E.01037
;WIDTH:0.499999
G1 X163.744 Y168.783 E.01954
G1 X164.226 Y168.939 E.01783
G1 X164.726 Y169.02 E.01783
G1 X165.289 Y169.02 E.01982
G1 X165.791 Y168.938 E.01789
G1 X166.302 Y168.772 E.01892
G1 X166.806 Y168.51 E.01998
;WIDTH:0.534327
G1 X167.021 Y168.37 E.00969
;WIDTH:0.568655
G1 X167.235 Y168.231 E.01037
