; HEADER_BLOCK_START
; generated by OrcaSlicer 1.6.6 on 2023-09-07 at 12:01:49
; total layer number: 163
; HEADER_BLOCK_END

; THUMBNAIL_BLOCK_START
; THUMBNAIL_BLOCK_END

; external perimeters extrusion width = 0.40mm
; perimeters extrusion width = 0.46mm
; infill extrusion width = 0.64mm
; solid infill extrusion width = 0.56mm
; top infill extrusion width = 0.40mm
; support material extrusion width = 0.46mm
; first layer extrusion width = 0.50mm

; EXECUTABLE_BLOCK_START
EXCLUDE_OBJECT_DEFINE NAME=(Unsaved).stl_id_0_copy_0 CENTER=165,165 POLYGON=[[99.3969,128.998],[99.431,128.739],[99.5309,128.498],[100.654,126.553],[100.813,126.346],[101.02,126.187],[163.377,90.1851],[163.618,90.0852],[163.877,90.0511],[166.123,90.0511],[166.382,90.0852],[166.511,90.1336],[166.623,90.1851],[228.98,126.187],[229.187,126.346],[229.346,126.553],[230.469,128.498],[230.569,128.739],[230.603,128.998],[230.603,201.002],[230.569,201.261],[230.469,201.502],[229.346,203.447],[229.187,203.654],[228.98,203.813],[166.623,239.815],[166.382,239.915],[166.123,239.949],[163.877,239.949],[163.618,239.915],[163.489,239.866],[163.377,239.815],[101.02,203.813],[100.813,203.654],[100.654,203.447],[99.531,201.502],[99.4311,201.261],[99.397,201.002],[99.3969,128.998]]
M73 P0 R31
M73 C12
;TYPE:Custom
START_PRINT T_BED=110 T_EXTRUDER=260
G90
G21
M83 ; use relative distances for extrusion
; Filament gcode

    PRESSURE_ADVANCE_SELECT FILAMENT=ABS
M106 S0
;LAYER_CHANGE
;Z:0.2
;HEIGHT:0.2
;BEFORE_LAYER_CHANGE
;0.2
G92 E0

SET_VELOCITY_LIMIT ACCEL=5000 ACCEL_TO_DECEL=2500
G1 E-.5 F2400
G1 X99.154 Y124.71 F12000
G1 Z.2
G1 E.5 F1800
;TYPE:Skirt
;WIDTH:0.5
G1 F3000
G1 X99.807 Y124.196 E.02924
G1 X162.289 Y88.124 E2.53913
G1 X162.956 Y87.842 E.02549
G1 X163.832 Y87.71 E.03117
G1 X166.134 Y87.719 E.081
G1 X166.871 Y87.81 E.02615
G1 X167.792 Y88.155 E.03463
G1 X230.193 Y124.196 E2.53612
G1 X230.846 Y124.71 E.02922
G1 X231.361 Y125.371 E.02952
G1 X232.701 Y127.786 E.09718
G1 X232.934 Y128.998 E.04343
G1 X232.934 Y201.002 E2.53411
G1 X232.811 Y201.858 E.03042
G1 X232.491 Y202.664 E.03052
G1 X231.362 Y204.629 E.07977
G1 X230.846 Y205.29 E.02952
G1 X230.193 Y205.804 E.02924
G1 X167.788 Y241.834 E2.53603
M73 C11
G1 X166.622 Y242.238 E.04343
G1 X163.877 Y242.281 E.09663
G1 X163.129 Y242.19 E.02653
G1 X162.208 Y241.845 E.03463
G1 X99.807 Y205.804 E2.53612
G1 X99.154 Y205.29 E.02922
G1 X98.639 Y204.629 E.02952
G1 X97.299 Y202.214 E.09718
G1 X97.066 Y201.002 E.04343
G1 X97.066 Y128.998 E2.53411
G1 X97.189 Y128.142 E.03042
G1 X97.509 Y127.336 E.03052
G1 X98.638 Y125.371 E.07977
G1 X99.13 Y124.741 E.02812
G1 X99.485 Y125.025 F12000
G1 F3000
G1 X100.036 Y124.592 E.02465
G1 X162.518 Y88.52 E2.53913
G1 X163.092 Y88.278 E.02193
G1 X163.83 Y88.168 E.02628
G1 X166.132 Y88.176 E.081
G1 X166.784 Y88.259 E.02312
G1 X167.564 Y88.551 E.02932
G1 X229.965 Y124.592 E2.53612
G1 X230.515 Y125.025 E.02464
G1 X230.965 Y125.599 E.02568
G1 X232.272 Y127.943 E.09445
G1 X232.477 Y128.998 E.03781
G1 X232.477 Y201.002 E2.53411
G1 X232.367 Y201.75 E.02662
G1 X232.095 Y202.436 E.02595
G1 X230.965 Y204.401 E.07977
G1 X230.515 Y204.975 E.02568
G1 X229.964 Y205.408 E.02465
G1 X167.56 Y241.438 E2.53603
M73 P0 R30
G1 X166.544 Y241.788 E.03781
G1 X163.877 Y241.824 E.09386
G1 X163.216 Y241.741 E.02344
G1 X162.436 Y241.449 E.02932
G1 X100.035 Y205.408 E2.53612
G1 X99.485 Y204.975 E.02464
G1 X99.035 Y204.401 E.02568
G1 X97.728 Y202.057 E.09445
G1 X97.523 Y201.002 E.03781
G1 X97.523 Y128.998 E2.53411
M73 P1 R30
G1 X97.633 Y128.25 E.02662
G1 X97.905 Y127.564 E.02595
G1 X99.035 Y125.599 E.07977
G1 X99.46 Y125.056 E.02428
; printing object (Unsaved).stl id:0 copy 0
G1 E-.5 F2400
EXCLUDE_OBJECT_START NAME=(Unsaved).stl_id_0_copy_0
G1 X165.55 Y160.823 F12000
G1 E.5 F1800
;TYPE:Support
G1 F3000
G3 X165 Y160.787 I-.55 J4.173 E.91126
G1 X165.482 Y160.818 E.01698
G1 X168.801 Y165.006 F12000
G1 F3000
G3 X168.768 Y164.503 I-3.797 J-.009 E.82182
G1 X168.801 Y165.006 E.01775
G1 X168.292 Y165.006 F12000
G1 F3000
G3 X168.264 Y164.569 I-3.288 J-.009 E.71174
G1 X168.292 Y165.006 E.0154
G1 X167.783 Y165.006 F12000
G1 F3000
G3 X167.759 Y164.635 I-2.78 J-.008 E.60166
G1 X167.783 Y165.006 E.01306
G1 X167.274 Y165.005 F12000
G1 F3000
G3 X167.254 Y164.701 I-2.272 J-.007 E.49158
G1 X167.274 Y165.005 E.01072
G1 X166.765 Y165.005 F12000
G1 F3000
G3 X166.75 Y164.767 I-1.763 J-.006 E.3815
G1 X166.765 Y165.005 E.00838
G1 X166.256 Y165.005 F12000
G1 F3000
G3 X166.245 Y164.833 I-1.255 J-.006 E.27142
G1 X166.256 Y165.005 E.00603
G1 X165.747 Y165.004 F12000
G1 F3000
G3 X165.74 Y164.9 I-.746 J-.005 E.16134
G1 X165.747 Y165.004 E.00369
G1 X165.24 Y165.032 F12000
G1 F3000
G3 X165.234 Y164.938 I-.237 J-.032 E.04954
G1 X165.24 Y165.032 E.00332
G1 E-.5 F2400
G1 X167.574 Y169.83 F12000
G1 X168.473 Y171.679
G1 E.5 F1800
;TYPE:Outer wall
G1 F3000
G1 X166.773 Y171.679 E.05983
G1 X166.773 Y182.514 E.38133
G1 X166.191 Y182.566 E.02057
G1 X166.191 Y238.914 E1.98312
G3 X166.088 Y239.017 I-.104 J-.002 E.00563
G1 X163.911 Y239.017 E.07663
G3 X163.809 Y238.94 I-.006 J-.098 E.00489
G1 X163.809 Y182.566 E1.984
G1 X163.227 Y182.514 E.02057
G1 X163.227 Y171.671 E.38161
G1 X161.527 Y171.671 E.05983
G1 X161.527 Y182.26 E.37266
G3 X151.789 Y176.637 I3.432 J-17.189 E.40287
G1 X160.965 Y171.34 E.37289
G1 X160.115 Y169.867 E.05983
G1 X150.719 Y175.292 E.38184
G1 X150.383 Y174.814 E.02057
G1 X101.588 Y202.986 E1.98295
G3 X101.454 Y202.972 I-.056 J-.113 E.005
G1 X100.355 Y201.066 E.07742
G3 X100.393 Y200.926 I.092 J-.051 E.00564
G1 X149.192 Y172.752 E1.98312
G1 X148.946 Y172.222 E.02057
G1 X158.346 Y166.79 E.38208
G1 X157.496 Y165.318 E.05983
G1 X148.316 Y170.622 E.37313
G3 X148.316 Y159.378 I16.602 J-5.622 E.40286
G1 X157.496 Y164.678 E.37306
G1 X158.346 Y163.205 E.05983
G1 X148.946 Y157.778 E.38201
G1 X149.192 Y157.248 E.02057
G1 X100.393 Y129.074 E1.98312
G3 X100.355 Y128.934 I.054 J-.089 E.00564
G1 X101.454 Y127.028 E.07742
G3 X101.588 Y127.014 I.078 J.099 E.005
G1 X150.383 Y155.186 E1.98295
G1 X150.719 Y154.708 E.02057
G1 X160.116 Y160.133 E.38187
G1 X160.966 Y158.661 E.05983
G1 X151.793 Y153.365 E.37277
G3 X161.527 Y147.744 I13.213 J11.644 E.40264
G1 X161.527 Y158.321 E.37223
G1 X163.227 Y158.321 E.05983
G1 X163.227 Y157.87 E.01588
G1 X163.801 Y157.731 E.02076
G3 X163.809 Y152.049 I480.33 J-2.12 E.19997
G1 X163.809 Y91.085 E2.14558
G3 X163.887 Y90.983 I.098 J-.006 E.00489
G1 X166.137 Y90.993 E.07921
G1 X166.191 Y91.06 E.00305
G1 X166.191 Y152.049 E2.14644
G3 X166.199 Y157.731 I-480.276 J3.562 E.19997
G1 X166.773 Y157.87 E.02076
G1 X166.773 Y158.329 E.01617
G1 X168.473 Y158.329 E.05983
G1 X168.473 Y147.744 E.37251
G3 X178.207 Y153.365 I-3.478 J17.265 E.40264
G1 X169.035 Y158.66 E.37275
G1 X169.885 Y160.133 E.05983
M73 P2 R30
G1 X179.281 Y154.708 E.38184
G1 X179.617 Y155.186 E.02057
G1 X228.412 Y127.014 E1.98295
G3 X228.546 Y127.028 I.056 J.113 E.005
G1 X229.645 Y128.934 E.07742
G3 X229.607 Y129.074 I-.092 J.051 E.00564
G1 X180.808 Y157.248 E1.98312
G1 X181.054 Y157.778 E.02057
G1 X171.653 Y163.208 E.38207
G1 X172.503 Y164.681 E.05983
G1 X181.68 Y159.38 E.37297
G3 X181.68 Y170.62 I-16.691 J5.62 E.40264
G1 X172.504 Y165.322 E.37291
G1 X171.654 Y166.794 E.05983
G1 X181.054 Y172.222 E.38201
G1 X180.808 Y172.752 E.02057
G1 X229.607 Y200.926 E1.98312
G3 X229.645 Y201.066 I-.054 J.089 E.00564
G1 X228.546 Y202.972 E.07742
G3 X228.412 Y202.986 I-.078 J-.1 E.005
G1 X179.617 Y174.814 E1.98295
G1 X179.281 Y175.292 E.02057
G1 X169.885 Y169.867 E.38186
G1 X169.035 Y171.339 E.05983
G1 X178.211 Y176.637 E.37292
G3 X168.473 Y182.26 I-13.17 J-11.566 E.40287
G1 X168.473 Y171.719 E.37097
G1 E-.5 F2400
G1 X156.66 Y168.152 F12000
G1 X157.914 Y167.427
G1 X158.649 Y166.871
G1 X157.136 Y164.998
G1 E.5 F1800
;TYPE:Inner wall
G1 F3000
G1 X148.578 Y169.943 E.34785
G3 X148.578 Y160.057 I16.343 J-4.943 E.35298
G1 X157.102 Y164.978 E.34637
G1 X156.222 Y164.998 F12000
G1 F3000
G1 X148.857 Y169.254 E.29938
G3 X148.857 Y160.746 I16.096 J-4.254 E.3028
G1 X156.188 Y164.978 E.2979
G1 X155.308 Y164.998 F12000
G1 F3000
G1 X149.154 Y168.554 E.25015
G3 X149.155 Y161.445 I15.957 J-3.554 E.25221
G1 X155.274 Y164.978 E.24868
G1 E-.5 F2400
G1 X157.409 Y165.642 F12000
G1 X158.051 Y166.16
G1 X158.649 Y166.871
G1 X160.197 Y169.561
G1 X161.07 Y171.807
G1 E.5 F1800
G1 F3000
G1 X161.07 Y181.693 E.34794
G3 X152.508 Y176.75 I3.891 J-16.625 E.35299
G1 X161.035 Y171.827 E.34653
G1 X160.613 Y172.598 F12000
G1 F3000
G1 X160.613 Y181.107 E.29946
G3 X153.244 Y176.853 I4.364 J-16.067 E.30282
G1 X160.578 Y172.618 E.29805
G1 X160.156 Y173.39 F12000
G1 F3000
G1 X160.156 Y180.5 E.25023
G3 X153.999 Y176.945 I4.9 J-15.597 E.25224
G1 X160.121 Y173.41 E.24882
G1 E-.5 F2400
G1 X161.758 Y171.902 F12000
G1 X162.534 Y171.606
G1 X163.455 Y171.443
G1 X169.39 Y171.293
G1 X168.93 Y171.807
G1 E.5 F1800
G1 F3000
G1 X177.492 Y176.75 E.34794
G3 X168.93 Y181.693 I-12.452 J-11.682 E.35299
G1 X168.93 Y171.847 E.34653
G1 X169.387 Y172.598 F12000
G1 F3000
G1 X176.756 Y176.853 E.29946
G3 X169.387 Y181.107 I-11.732 J-11.812 E.30282
G1 X169.387 Y172.638 E.29805
G1 X169.844 Y173.39 F12000
G1 F3000
G1 X176.001 Y176.945 E.25023
G3 X169.844 Y180.5 I-11.057 J-12.042 E.25224
G1 X169.844 Y173.43 E.24882
G1 E-.5 F2400
G1 X169.348 Y171.255 F12000
G1 X169.479 Y170.433
G1 X169.802 Y169.561
G1 X171.35 Y166.876
G1 X171.948 Y166.164
G1 X172.59 Y165.646
G1 X176.131 Y163.113
G1 E.5 F1800
G1 F3000
G1 X181.428 Y160.053 E.21528
G1 X181.732 Y161.224 E.04255
G3 X181.428 Y169.947 I-16.974 J3.776 E.31052
G1 X172.862 Y165.001 E.34811
G1 X176.097 Y163.133 E.13147
G1 X176.995 Y163.142 F12000
G1 F3000
G1 X181.137 Y160.75 E.16834
G1 X181.286 Y161.324 E.02089
G3 X181.136 Y169.251 I-16.203 J3.66 E.28173
G1 X173.776 Y165.001 E.29912
G1 X176.96 Y163.162 E.1294
G1 X177.929 Y163.13 F12000
G1 F3000
G1 X180.844 Y161.447 E.11846
G1 X181.034 Y162.436 E.03546
G3 X180.844 Y168.554 I-16.023 J2.563 E.21671
G1 X174.69 Y165.001 E.25007
G1 X177.894 Y163.15 E.13023
G1 E-.5 F2400
G1 X174.088 Y164.041 F12000
G1 X172.59 Y164.357
G1 X171.948 Y163.839
G1 X171.35 Y163.127
G1 X169.803 Y160.44
G1 X169.481 Y159.566
G1 X169.351 Y158.745
G1 X170.379 Y157.605
G1 X170.764 Y157.274
G1 X177.498 Y153.246
G1 E.5 F1800
G1 F3000
G1 X168.93 Y158.193 E.34821
G1 X168.93 Y148.299 E.34821
G1 X170.095 Y148.622 E.04256
G3 X177.471 Y153.217 I-5.24 J16.626 E.30909
G1 X176.749 Y153.151 F12000
G1 F3000
G1 X169.387 Y157.402 E.29918
G1 X169.387 Y148.9 E.2992
G1 X169.959 Y149.058 E.02091
G3 X176.721 Y153.123 I-4.93 J15.857 E.28032
G1 X176 Y153.056 F12000
G1 F3000
G1 X169.844 Y156.61 E.25015
G1 X169.844 Y149.502 E.25015
G1 X170.797 Y149.832 E.03548
G3 X175.97 Y153.029 I-5.792 J15.158 E.2153
G1 E-.5 F2400
G1 X170.764 Y157.274 F12000
G1 X170.379 Y157.605
G1 X169.351 Y158.745
G1 X169.481 Y159.566
G1 X171.906 Y170.647
G1 X170.652 Y169.923
G1 X169.802 Y169.561
G1 X168.663 Y171.068
G1 E.5 F1800
G1 F3000
G1 X168.575 Y171.222 E.00625
G1 X166.316 Y171.222 E.0795
G1 X166.316 Y182.096 E.3827
G1 X165.734 Y182.148 E.02057
G1 X165.734 Y238.56 E1.98535
M73 P3 R30
G1 X164.266 Y238.56 E.05164
G1 X164.266 Y182.148 E1.98535
G1 X163.684 Y182.096 E.02057
G1 X163.684 Y171.214 E.38298
G1 X161.42 Y171.214 E.07969
G1 X160.282 Y169.243 E.08009
G1 X150.852 Y174.687 E.38321
G1 X150.516 Y174.209 E.02057
G1 X101.661 Y202.416 E1.9854
G1 X100.928 Y201.145 E.05164
G1 X149.783 Y172.939 E1.98536
G1 X149.537 Y172.408 E.02058
G1 X158.97 Y166.957 E.38345
G1 X157.839 Y164.998 E.07961
G1 X158.971 Y163.038 E.07965
G1 X149.537 Y157.591 E.38338
G1 X149.783 Y157.061 E.02057
G1 X100.928 Y128.855 E1.98536
G1 X101.661 Y127.584 E.05164
G1 X150.516 Y155.791 E1.9854
G1 X150.852 Y155.313 E.02057
G1 X160.283 Y160.757 E.38324
G1 X161.426 Y158.778 E.08043
G1 X163.684 Y158.778 E.07949
G1 X163.684 Y158.23 E.0193
G1 X164.258 Y158.091 E.02079
G3 X164.266 Y152.05 I510.639 J-2.354 E.2126
G1 X164.266 Y91.44 E2.1331
G1 X165.734 Y91.44 E.05164
G1 X165.734 Y152.05 E2.1331
M73 C10
G3 X165.742 Y158.091 I-510.606 J3.687 E.2126
G1 X166.316 Y158.23 E.02079
G1 X166.316 Y158.786 E.01959
G1 X168.58 Y158.786 E.07969
G1 X169.718 Y160.757 E.08009
G1 X179.148 Y155.313 E.38321
G1 X179.484 Y155.791 E.02057
G1 X228.339 Y127.584 E1.9854
G1 X229.072 Y128.855 E.05164
G1 X180.217 Y157.061 E1.98536
G1 X180.463 Y157.592 E.02057
G1 X171.029 Y163.041 E.38344
G1 X172.161 Y165.002 E.07967
G1 X171.029 Y166.962 E.07965
G1 X180.463 Y172.409 E.38338
G1 X180.217 Y172.939 E.02057
G1 X229.072 Y201.145 E1.98536
G1 X228.339 Y202.416 E.05164
G1 X179.484 Y174.209 E1.9854
G1 X179.148 Y174.687 E.02057
G1 X169.717 Y169.243 E.38324
G1 X168.683 Y171.033 E.07277
G1 E-.5 F2400
G1 X171.948 Y163.839 F12000
G1 X171.35 Y163.127
G1 X172.085 Y162.571
G1 X176.032 Y159.623
G1 E.5 F1800
G1 F3000
G1 X170.647 Y162.734 E.21885
G1 X170.267 Y161.96 E.03034
G1 X169.789 Y161.244 E.03032
G1 X179.014 Y155.917 E.37491
G1 X179.35 Y156.396 E.02057
G1 X228.171 Y128.209 E1.98401
G1 X228.448 Y128.688 E.01947
G1 X179.627 Y156.875 E1.984
M73 P4 R30
G1 X179.873 Y157.405 E.02058
G1 X176.067 Y159.603 E.1547
G1 X176.594 Y158.771 F12000
G1 F3000
G1 X170.842 Y162.094 E.23378
G2 X170.44 Y161.396 I-2.821 J1.161 E.02843
G1 X178.881 Y156.522 E.34302
G1 X179.112 Y156.852 E.01419
G1 X179.282 Y157.218 E.0142
G1 X176.629 Y158.751 E.10786
G1 E-.5 F2400
G1 X171.35 Y163.127 F12000
G1 X171.35 Y166.876
G1 X171.937 Y168.014
G1 E.5 F1800
G1 F3000
G1 X179.873 Y172.595 E.3225
M73 P4 R29
G1 X179.627 Y173.125 E.02057
G1 X228.448 Y201.312 E1.984
G1 X228.171 Y201.791 E.01947
G1 X179.35 Y173.604 E1.98401
G1 X179.014 Y174.083 E.02057
G1 X169.789 Y168.756 E.37491
G1 X170.267 Y168.041 E.03028
G1 X170.647 Y167.269 E.03028
G1 X171.902 Y167.994 E.051
G1 X171.854 Y168.494 F12000
G1 F3000
G1 X179.282 Y172.782 E.30185
G3 X178.881 Y173.478 I-2.131 J-.767 E.02841
G1 X170.44 Y168.604 E.34302
G2 X170.841 Y167.909 I-2.441 J-1.873 E.02835
G1 X171.82 Y168.474 E.03976
G1 E-.5 F2400
G1 X170.059 Y162.913 F12000
G1 X169.765 Y162.25
G1 X169.345 Y161.666
G1 X168.301 Y160.699
G1 X167.751 Y160.235
G1 X167.083 Y159.991
G1 X165.715 Y159.567
G1 X165 Y159.498
G1 X164.292 Y159.561
G1 X162.923 Y159.985
G1 X162.249 Y160.235
G1 X160.211 Y161.244
G1 E.5 F1800
G1 F3000
G1 X159.733 Y161.959 E.03028
G1 X159.353 Y162.731 E.03028
G1 X150.127 Y157.405 E.37491
G1 X150.373 Y156.875 E.02057
G1 X101.552 Y128.688 E1.984
G1 X101.829 Y128.209 E.01947
G1 X150.65 Y156.396 E1.98401
G1 X150.986 Y155.917 E.02057
G1 X160.177 Y161.224 E.3735
G1 X159.56 Y161.396 F12000
G1 F3000
G2 X159.159 Y162.091 I2.441 J1.873 E.02835
G1 X150.718 Y157.218 E.34302
G3 X151.119 Y156.522 I2.131 J.767 E.02841
G1 X159.526 Y161.376 E.34162
G1 E-.5 F2400
G1 X165.859 Y158.709 F12000
G1 E.5 F1800
G1 F3000
G1 X165.859 Y158.975 E.00936
G1 X165 Y158.919 E.03028
G1 X164.141 Y158.975 E.03028
G1 X164.141 Y158.59 E.01356
G1 X164.716 Y158.451 E.02081
G3 X164.723 Y152.051 I540.943 J-2.587 E.22523
G1 X164.723 Y91.897 E2.11705
G1 X165.277 Y91.897 E.01947
G1 X165.277 Y152.051 E2.11705
G3 X165.284 Y158.451 I-540.935 J3.813 E.22523
G1 X165.859 Y158.59 E.02081
G1 X165.859 Y158.669 E.00279
G1 E-.5 F2400
G1 X168.551 Y160.074 F12000
G1 E.5 F1800
G1 F3000
G2 X167.477 Y159.455 I-2.889 J3.772 E.04378
G1 X167.526 Y159.243 E.00766
G1 X168.316 Y159.243 E.0278
G1 X168.71 Y159.926 E.02774
G1 X168.58 Y160.047 E.00625
G1 E-.5 F2400
G1 X171.042 Y165.602 F12000
G1 E.5 F1800
G1 F3000
G2 X171.042 Y164.401 I-4.613 J-.6 E.04237
G1 X171.25 Y164.338 E.00765
G1 X171.633 Y165.002 E.02696
G1 X171.25 Y165.665 E.02696
G1 X171.08 Y165.613 E.00625
G1 E-.5 F2400
G1 X168.55 Y169.926 F12000
G1 E.5 F1800
G1 F3000
G1 X168.709 Y170.075 E.00766
G1 X168.311 Y170.765 E.02803
G1 X167.51 Y170.765 E.02818
G1 X167.46 Y170.553 E.00766
G2 X168.518 Y169.95 I-1.834 J-4.451 E.04295
G1 E-.5 F2400
G1 X165.859 Y171.025 F12000
G1 E.5 F1800
G1 F3000
G1 X165.859 Y181.678 E.3749
G1 X165.277 Y181.73 E.02057
G1 X165.277 Y238.103 E1.98398
G1 X164.723 Y238.103 E.01947
G1 X164.723 Y181.73 E1.98398
G1 X164.141 Y181.678 E.02057
G1 X164.141 Y171.025 E.37491
G1 X164.992 Y171.081 E.03
G1 X165.819 Y171.028 E.02916
G1 X165.402 Y171.513 F12000
G1 F3000
G1 X165.402 Y181.26 E.34304
