; HEADER_BLOCK_START
; generated by OrcaSlicer 1.6.4-beta2 on 2023-08-16 at 22:38:56
; total layer number: 126
; HEADER_BLOCK_END

; THUMBNAIL_BLOCK_START
; THUMBNAIL_BLOCK_END

; external perimeters extrusion width = 0.40mm
; perimeters extrusion width = 0.46mm
; infill extrusion width = 0.64mm
; solid infill extrusion width = 0.56mm
; top infill extrusion width = 0.40mm
; first layer extrusion width = 0.50mm

; EXECUTABLE_BLOCK_START
EXCLUDE_OBJECT_DEFINE NAME=(Unsaved).stl_id_0_copy_0 CENTER=60,60 POLYGON=[[30.6168,54.2544],[31.02,53.8512],[88.98,53.8512],[89.3832,54.2544],[89.3832,62.1168],[89.3618,62.5314],[89.3611,62.5383],[89.2979,62.9417],[89.2951,62.9551],[89.1922,63.3432],[89.1859,63.3628],[89.0457,63.7317],[89.0346,63.7568],[88.86,64.103],[88.843,64.1328],[88.6372,64.4533],[88.6132,64.4868],[88.3795,64.7789],[88.3476,64.8147],[88.0896,65.0762],[88.0491,65.1132],[87.7708,65.3421],[87.7211,65.3788],[87.7069,65.3891],[87.6435,65.4338],[87.5209,65.5153],[87.4077,65.5849],[87.3672,65.6086],[87.3022,65.6453],[87.1995,65.7002],[87.1015,65.7491],[87.0105,65.7915],[86.9912,65.8002],[86.9289,65.8273],[86.5972,65.9515],[86.5486,65.9669],[86.1895,66.0607],[86.1562,66.0676],[85.7727,66.1267],[85.7558,66.1285],[85.3512,66.1488],[34.6488,66.1488],[34.2273,66.1267],[33.8105,66.0607],[33.4028,65.9515],[33.0088,65.8002],[32.6328,65.6086],[32.2789,65.3788],[31.9509,65.1132],[31.6524,64.8147],[31.3868,64.4868],[31.157,64.1328],[30.9654,63.7568],[30.8141,63.3628],[30.7049,62.9551],[30.6389,62.5383],[30.6168,62.1168],[30.6168,54.2544]]
M73 P0 R21
;TYPE:Custom
START_PRINT T_BED=105 T_EXTRUDER=260
G90
G21
M83 ; use relative distances for extrusion
; Filament gcode
M106 S0
;LAYER_CHANGE
;Z:0.2
;HEIGHT:0.2
;BEFORE_LAYER_CHANGE
;0.2
G92 E0
PRESSURE_ADVANCE_SELECT FILAMENT=ABS
;AFTER_LAYER_CHANGE
;0.2
SET_VELOCITY_LIMIT ACCEL=1000 ACCEL_TO_DECEL=500
G1 E-.8 F1800
G1 Z.2 F21000
G1 X28.656 Y52.094
G1 E.8 F1800
;TYPE:Skirt
;WIDTH:0.5
G1 F3000
G1 X30.717 Y51.24 E.07884
G1 X89.283 Y51.24 E2.07008
G1 X91.344 Y52.094 E.07884
G1 X91.444 Y52.194 E.005
G1 X92.297 Y54.254 E.07884
G1 X92.293 Y62.275 E.28349
G1 X92.173 Y63.411 E.04037
G1 X92.001 Y64.116 E.02568
G1 X91.75 Y64.813 E.02617
G1 X91.288 Y65.719 E.03596
G1 X90.613 Y66.647 E.04056
G1 X90.101 Y67.181 E.02615
G1 X89.309 Y67.823 E.03604
G1 X88.316 Y68.396 E.0405
G1 X87.64 Y68.673 E.02584
G1 X86.644 Y68.939 E.03644
G1 X85.351 Y69.063 E.04591
G1 X34.075 Y69.037 E1.81241
G1 X33.056 Y68.876 E.03645
G1 X31.686 Y68.397 E.05131
G1 X30.692 Y67.823 E.04058
G1 X29.89 Y67.174 E.03645
G1 X29.122 Y66.321 E.04058
G1 X28.56 Y65.456 E.03645
G1 X28.094 Y64.407 E.04058
G1 X27.827 Y63.411 E.03645
G1 X27.703 Y62.117 E.04595
G1 X27.703 Y54.254 E.2779
G1 X28.556 Y52.194 E.07884
G1 X28.628 Y52.122 E.00358
G1 X28.951 Y52.445 F21000
G1 F3000
G1 X28.979 Y52.417 E.00141
G1 X30.717 Y51.697 E.06647
G1 X89.283 Y51.697 E2.07008
G1 X91.021 Y52.417 E.06647
G1 X91.121 Y52.517 E.005
G1 X91.84 Y54.254 E.06647
G1 X91.837 Y62.25 E.28262
G1 X91.722 Y63.339 E.03871
G1 X91.559 Y63.998 E.02399
G1 X90.904 Y65.47 E.05695
G1 X90.258 Y66.36 E.03887
G1 X89.778 Y66.858 E.02443
G1 X89.06 Y67.439 E.03269
G1 X88.109 Y67.989 E.03881
G1 X86.573 Y68.488 E.05708
G1 X85.351 Y68.606 E.04338
G1 X34.099 Y68.58 E1.81156
G1 X33.175 Y68.434 E.03307
G1 X32.128 Y68.094 E.03888
G1 X31.295 Y67.669 E.03307
G1 X30.213 Y66.851 E.04793
G1 X29.477 Y66.033 E.03888
G1 X28.968 Y65.248 E.03307
G1 X28.52 Y64.243 E.03888
G1 X28.278 Y63.339 E.03307
G1 X28.16 Y62.117 E.04342
G1 X28.16 Y54.254 E.2779
G1 X28.879 Y52.517 E.06647
G1 X28.923 Y52.474 E.00217
; printing object (Unsaved).stl id:0 copy 0
EXCLUDE_OBJECT_START NAME=(Unsaved).stl_id_0_copy_0
G1 E-.8 F1800
G1 Z.4 F21000
G1 X73.49 Y63.037
G1 Z.2
G1 E.8 F1800
;TYPE:Outer wall
G1 F3000
G1 X71.132 Y59.67 E.1453
G1 X77.089 Y55.501 E.25701
G1 X77.951 Y54.951 E.03612
G1 X78.301 Y54.825 E.01314
G1 X78.753 Y55.329 E.02394
G1 X79.063 Y55.725 E.01777
G1 X80.669 Y58.01 E.09872
G1 X73.522 Y63.014 E.30837
G1 E-.8 F1800
G1 Z.4 F21000
G1 X71.829 Y63.928
G1 Z.2
G1 E.8 F1800
;TYPE:Inner wall
G1 F3000
G1 X37.381 Y63.928 E1.21758
G1 X37.319 Y63.74 E.00699
G1 X37.81 Y63.372 E.02168
G1 X38.273 Y62.909 E.02318
G1 X38.668 Y62.382 E.02326
G1 X38.983 Y61.801 E.02337
G1 X39.21 Y61.194 E.0229
G1 X39.349 Y60.553 E.02318
G1 X39.396 Y59.899 E.02318
G1 X39.349 Y59.245 E.02318
G1 X39.21 Y58.604 E.02318
G1 X38.98 Y57.99 E.02318
G1 X38.666 Y57.415 E.02318
G1 X38.273 Y56.89 E.02318
G1 X37.759 Y56.376 E.0257
G1 X72.241 Y56.375 E1.21879
G1 X72.302 Y56.567 E.00711
G1 X68.525 Y59.21 E.16291
G1 X71.806 Y63.895 E.20216
G1 E-.8 F1800
G1 Z.4 F21000
G1 X72.707 Y64.385
G1 Z.2
G1 E.8 F1800
G1 F3000
G1 X34.695 Y64.385 E1.34356
G1 X34.412 Y64.37 E.01002
G1 X34.178 Y64.333 E.00838
G1 X33.949 Y64.271 E.00838
G1 X33.548 Y64.095 E.01548
G1 X33.629 Y63.868 E.00852
G1 X34.211 Y63.995 E.02106
G1 X34.8 Y64.037 E.02087
G1 X35.389 Y63.995 E.02087
G1 X35.966 Y63.869 E.02087
G1 X36.521 Y63.662 E.02094
G1 X37.043 Y63.375 E.02105
G1 X37.509 Y63.026 E.0206
G1 X37.927 Y62.609 E.02087
G1 X38.282 Y62.134 E.02094
G1 X38.566 Y61.611 E.02106
G1 X38.77 Y61.065 E.0206
G1 X38.895 Y60.488 E.02087
G1 X38.937 Y59.899 E.02087
G1 X38.895 Y59.31 E.02087
G1 X38.77 Y58.734 E.02087
G1 X38.564 Y58.18 E.02087
G1 X38.281 Y57.662 E.02086
G1 X37.927 Y57.19 E.02087
G1 X37.509 Y56.772 E.02086
G1 X37.037 Y56.419 E.02087
G1 X36.499 Y56.125 E.02165
G1 X36.552 Y55.919 E.00753
G1 X73.692 Y55.918 E1.31274
G1 X73.752 Y56.11 E.00711
G1 X69.162 Y59.322 E.19802
G1 X72.684 Y64.352 E.21704
G1 E-.8 F1800
G1 Z.4 F21000
G1 X82.681 Y63.74
G1 Z.2
G1 E.8 F1800
G1 F3000
G1 X82.619 Y63.928 E.00699
G1 X75.815 Y63.928 E.2405
M73 P1 R21
G1 X75.754 Y63.736 E.00711
G1 X80.634 Y60.319 E.21057
G1 X80.651 Y60.553 E.00831
G1 X80.79 Y61.194 E.02318
G1 X81.02 Y61.811 E.02327
G1 X81.339 Y62.39 E.02337
G1 X81.727 Y62.909 E.0229
G1 X82.19 Y63.372 E.02318
G1 X82.649 Y63.716 E.02026
G1 E-.8 F1800
G1 Z.4 F21000
G1 X84.701 Y64.001
G1 Z.2
G1 E.8 F1800
G1 F3000
G1 X85.2 Y64.037 E.01769
G1 X85.789 Y63.995 E.02087
G1 X86.371 Y63.868 E.02104
G1 X86.452 Y64.095 E.00852
G1 X86.05 Y64.272 E.0155
G1 X85.822 Y64.333 E.00836
G1 X85.588 Y64.37 E.00837
G1 X85.305 Y64.385 E.01001
G1 X74.365 Y64.385 E.38669
G1 X74.304 Y64.193 E.00711
G1 X81.096 Y59.438 E.29303
G1 X81.063 Y59.899 E.01635
G1 X81.105 Y60.488 E.02087
G1 X81.23 Y61.065 E.02087
G1 X81.437 Y61.62 E.02094
G1 X81.724 Y62.142 E.02105
G1 X82.073 Y62.609 E.0206
G1 X82.491 Y63.026 E.02086
G1 X82.963 Y63.38 E.02087
G1 X83.481 Y63.663 E.02086
G1 X84.034 Y63.869 E.02087
G1 X84.611 Y63.995 E.02087
G1 X84.661 Y63.998 E.00176
G1 E-.8 F1800
G1 Z.4 F21000
G1 X73.407 Y63.505
G1 X33.101 Y56.125
G1 Z.2
G1 E.8 F1800
G1 F3000
G1 X32.381 Y56.52 E.02902
G1 X32.381 Y55.919 E.02125
G1 X33.048 Y55.919 E.02357
G1 X33.091 Y56.086 E.00611
G1 E-.8 F1800
G1 Z.4 F21000
G1 X73.254 Y64.37
G1 Z.2
G1 E.8 F1800
G1 F3000
G1 X81.586 Y58.537 E.35948
G1 X81.745 Y58.66 E.00714
G1 X81.67 Y58.863 E.00764
G1 X81.558 Y59.376 E.01855
G1 X81.521 Y59.899 E.01855
G1 X81.558 Y60.423 E.01855
G1 X81.67 Y60.936 E.01856
G1 X81.854 Y61.429 E.01861
G1 X82.109 Y61.894 E.01874
G1 X82.419 Y62.309 E.01831
G1 X82.791 Y62.68 E.01855
G1 X83.211 Y62.994 E.01856
G1 X83.672 Y63.246 E.01855
G1 X84.163 Y63.429 E.01856
G1 X84.676 Y63.541 E.01855
G1 X85.2 Y63.578 E.01855
G1 X85.724 Y63.541 E.01855
G1 X86.237 Y63.429 E.01855
G1 X86.73 Y63.245 E.01861
G1 X87.195 Y62.99 E.01874
G1 X87.609 Y62.68 E.01831
G1 X87.864 Y62.425 E.01272
G1 X88.041 Y62.516 E.00704
G1 X87.941 Y62.957 E.01598
G1 X87.836 Y63.23 E.01036
G1 X87.71 Y63.478 E.00982
G1 X87.555 Y63.717 E.01008
G1 X87.376 Y63.938 E.01003
G1 X87.169 Y64.144 E.01035
G1 X86.952 Y64.32 E.00987
G1 X86.715 Y64.474 E.00995
G1 X86.459 Y64.604 E.01018
G1 X86.192 Y64.707 E.01012
G1 X85.917 Y64.781 E.01006
G1 X85.636 Y64.825 E.01006
G1 X85.317 Y64.842 E.01128
G1 X34.683 Y64.842 E1.7897
G1 X34.364 Y64.825 E.01129
G1 X34.083 Y64.78 E.01008
G1 X33.807 Y64.707 E.01007
G1 X33.541 Y64.605 E.01008
G1 X33.287 Y64.475 E.01007
G1 X33.048 Y64.32 E.01008
G1 X32.827 Y64.14 E.01007
G1 X32.625 Y63.939 E.01007
G1 X32.446 Y63.717 E.01008
G1 X32.291 Y63.478 E.01008
G1 X32.161 Y63.224 E.01007
G1 X32.059 Y62.958 E.01007
G1 X31.985 Y62.683 E.01008
G1 X31.959 Y62.516 E.00598
G1 X32.136 Y62.425 E.00704
G1 X32.391 Y62.68 E.01272
G1 X32.811 Y62.994 E.01856
G1 X33.272 Y63.246 E.01855
G1 X33.763 Y63.429 E.01856
G1 X34.276 Y63.541 E.01855
G1 X34.8 Y63.578 E.01855
G1 X35.324 Y63.541 E.01855
G1 X35.837 Y63.429 E.01855
G1 X36.33 Y63.245 E.01861
G1 X36.795 Y62.99 E.01874
G1 X37.209 Y62.68 E.01831
G1 X37.581 Y62.309 E.01855
G1 X37.896 Y61.887 E.01861
G1 X38.149 Y61.421 E.01874
G1 X38.33 Y60.936 E.01831
G1 X38.442 Y60.423 E.01855
G1 X38.479 Y59.899 E.01855
G1 X38.442 Y59.376 E.01855
G1 X38.33 Y58.863 E.01855
G1 X38.147 Y58.371 E.01856
G1 X37.895 Y57.91 E.01855
G1 X37.581 Y57.49 E.01856
G1 X37.209 Y57.119 E.01855
G1 X36.789 Y56.804 E.01856
G1 X36.328 Y56.552 E.01855
G1 X35.837 Y56.369 E.01855
G1 X35.322 Y56.257 E.01861
G1 X34.793 Y56.22 E.01874
G1 X34.276 Y56.257 E.01831
G1 X33.763 Y56.369 E.01855
G1 X33.27 Y56.553 E.01861
G1 X32.805 Y56.808 E.01874
G1 X32.391 Y57.119 E.01831
G1 X31.924 Y57.585 E.02333
G1 X31.924 Y55.461 E.07507
G1 X75.142 Y55.461 E1.52759
G1 X75.203 Y55.653 E.00711
G1 X69.798 Y59.434 E.23313
G1 X73.232 Y64.337 E.21156
G1 E-.8 F1800
G1 Z.4 F21000
G1 X81.943 Y57.363
G1 Z.2
G1 E.8 F1800
G1 F3000
G1 X80.927 Y55.918 E.06244
G1 X83.448 Y55.918 E.08911
G1 X83.501 Y56.125 E.00752
G1 X82.957 Y56.423 E.02192
G1 X82.491 Y56.772 E.0206
G1 X82.073 Y57.19 E.02087
G1 X81.967 Y57.331 E.00626
G1 E-.8 F1800
G1 Z.4 F21000
G1 X87.619 Y56.518
G1 Z.2
G1 E.8 F1800
G1 F3000
G1 X86.899 Y56.125 E.02899
G1 X86.952 Y55.918 E.00753
G1 X87.619 Y55.919 E.02358
G1 X87.619 Y56.478 E.01978
G1 E-.8 F1800
G1 Z.4 F21000
G1 X81.958 Y58.18
G1 Z.2
G1 E.8 F1800
G1 F3000
G1 X80.047 Y55.461 E.11746
G1 X88.076 Y55.461 E.2838
G1 X88.076 Y57.585 E.07507
G1 X87.609 Y57.119 E.02333
G1 X87.189 Y56.804 E.01856
G1 X86.728 Y56.552 E.01855
G1 X86.237 Y56.369 E.01855
G1 X85.722 Y56.257 E.01861
G1 X85.193 Y56.22 E.01874
G1 X84.676 Y56.257 E.01831
G1 X84.163 Y56.369 E.01855
G1 X83.67 Y56.553 E.01861
G1 X83.205 Y56.808 E.01874
G1 X82.791 Y57.119 E.01831
G1 X82.419 Y57.49 E.01855
G1 X82.104 Y57.911 E.01861
G1 X81.977 Y58.145 E.00938
G1 E-.8 F1800
G1 Z.4 F21000
G1 X80.025 Y56.506
G1 X78.225 Y55.13
G1 X31.467 Y55.004
G1 Z.2
G1 E.8 F1800
G1 F3000
G1 X76.594 Y55 E1.59506
G1 X76.657 Y55.193 E.00718
G1 X70.435 Y59.547 E.26841
G1 X73.367 Y63.734 E.18066
G1 X81.366 Y58.132 E.34517
G1 X79.464 Y55.428 E.11687
G1 X79.118 Y54.984 E.0199
G1 X79.842 Y55.004 E.02561
G1 X88.533 Y55.004 E.30718
G1 X88.533 Y58.997 E.14112
G1 X88.308 Y59.038 E.0081
G1 X88.13 Y58.561 E.01798
G1 X87.91 Y58.158 E.01624
G1 X87.634 Y57.79 E.01624
G1 X87.309 Y57.465 E.01624
G1 X86.941 Y57.19 E.01624
G1 X86.538 Y56.969 E.01624
G1 X86.107 Y56.809 E.01624
G1 X85.657 Y56.711 E.01628
G1 X85.194 Y56.679 E.01643
G1 X84.742 Y56.711 E.01602
G1 X84.293 Y56.809 E.01624
G1 X83.861 Y56.97 E.01628
G1 X83.454 Y57.193 E.01643
G1 X83.091 Y57.465 E.01602
G1 X82.766 Y57.79 E.01624
G1 X82.49 Y58.159 E.01628
G1 X82.268 Y58.567 E.01643
G1 X82.11 Y58.992 E.01602
G1 X82.012 Y59.441 E.01624
G1 X81.979 Y59.899 E.01624
G1 X82.012 Y60.358 E.01624
G1 X82.11 Y60.807 E.01624
G1 X82.27 Y61.238 E.01628
G1 X82.494 Y61.646 E.01643
G1 X82.766 Y62.008 E.01602
G1 X83.091 Y62.333 E.01624
G1 X83.459 Y62.609 E.01624
G1 X83.862 Y62.829 E.01624
G1 X84.293 Y62.99 E.01624
G1 X84.742 Y63.087 E.01624
G1 X85.2 Y63.12 E.01624
G1 X85.658 Y63.087 E.01624
G1 X86.107 Y62.99 E.01624
G1 X86.539 Y62.829 E.01628
G1 X86.946 Y62.605 E.01643
G1 X87.309 Y62.333 E.01602
G1 X87.634 Y62.008 E.01624
G1 X87.91 Y61.64 E.01628
G1 X88.132 Y61.231 E.01643
G1 X88.308 Y60.761 E.01775
G1 X88.533 Y60.801 E.0081
G1 X88.533 Y62.094 E.04568
G1 X88.513 Y62.456 E.01284
G1 X88.463 Y62.778 E.0115
G1 X88.377 Y63.099 E.01174
G1 X88.254 Y63.417 E.01205
G1 X88.106 Y63.707 E.0115
G1 X87.925 Y63.986 E.01177
G1 X87.716 Y64.244 E.01174
G1 X87.475 Y64.485 E.01205
G1 X87.221 Y64.69 E.01155
G1 X86.944 Y64.87 E.01164
G1 X86.645 Y65.023 E.01187
G1 X86.333 Y65.142 E.01182
G1 X86.012 Y65.228 E.01175
G1 X85.683 Y65.28 E.01176
G1 X85.329 Y65.299 E.01254
G1 X34.671 Y65.299 E1.79055
G1 X34.316 Y65.28 E.01256
G1 X33.987 Y65.228 E.01177
G1 X33.666 Y65.142 E.01177
G1 X33.355 Y65.023 E.01177
G1 X33.058 Y64.871 E.01177
G1 X32.779 Y64.69 E.01177
G1 X32.52 Y64.481 E.01177
G1 X32.285 Y64.245 E.01177
G1 X32.075 Y63.986 E.01177
G1 X31.894 Y63.707 E.01177
G1 X31.743 Y63.411 E.01177
G1 X31.624 Y63.1 E.01177
G1 X31.537 Y62.778 E.01177
G1 X31.485 Y62.449 E.01177
G1 X31.467 Y62.095 E.01256
G1 X31.467 Y60.801 E.04571
G1 X31.692 Y60.761 E.0081
G1 X31.87 Y61.238 E.01801
G1 X32.094 Y61.646 E.01643
G1 X32.366 Y62.008 E.01602
G1 X32.691 Y62.333 E.01624
G1 X33.059 Y62.609 E.01624
G1 X33.462 Y62.829 E.01624
G1 X33.893 Y62.99 E.01624
G1 X34.342 Y63.087 E.01624
G1 X34.8 Y63.12 E.01624
G1 X35.258 Y63.087 E.01624
G1 X35.707 Y62.99 E.01624
G1 X36.139 Y62.829 E.01628
G1 X36.546 Y62.605 E.01643
G1 X36.909 Y62.333 E.01602
G1 X37.234 Y62.008 E.01624
G1 X37.51 Y61.64 E.01628
G1 X37.732 Y61.231 E.01643
G1 X37.89 Y60.807 E.01602
G1 X37.988 Y60.358 E.01624
G1 X38.021 Y59.899 E.01624
G1 X37.988 Y59.441 E.01624
G1 X37.89 Y58.992 E.01624
G1 X37.73 Y58.561 E.01624
G1 X37.51 Y58.158 E.01624
G1 X37.234 Y57.79 E.01624
G1 X36.909 Y57.465 E.01624
G1 X36.541 Y57.19 E.01624
G1 X36.138 Y56.969 E.01624
G1 X35.707 Y56.809 E.01624
G1 X35.257 Y56.711 E.01628
G1 X34.794 Y56.679 E.01643
G1 X34.342 Y56.711 E.01602
G1 X33.893 Y56.809 E.01624
G1 X33.461 Y56.97 E.01628
G1 X33.054 Y57.193 E.01643
G1 X32.691 Y57.465 E.01602
G1 X32.366 Y57.79 E.01624
G1 X32.09 Y58.159 E.01628
G1 X31.868 Y58.567 E.01643
G1 X31.692 Y59.038 E.01775
G1 X31.467 Y58.997 E.0081
G1 X31.467 Y55.044 E.13971
G1 E-.8 F1800
G1 Z.4 F21000
G1 X73.407 Y63.505
G1 X84.803 Y62.927
M73 P2 R21
G1 X84.827 Y62.592
G1 Z.2
G1 E.8 F1800
;TYPE:Outer wall
G1 F3000
G1 X84.813 Y62.591 E.00049
G1 X84.434 Y62.509 E.01372
G1 X84.07 Y62.373 E.01372
G1 X83.73 Y62.187 E.01372
G1 X83.419 Y61.955 E.01372
G1 X83.145 Y61.68 E.01372
G1 X82.916 Y61.374 E.01351
G1 X82.726 Y61.029 E.0139
G1 X82.59 Y60.665 E.01373
G1 X82.508 Y60.286 E.01372
G1 X82.48 Y59.899 E.01372
G1 X82.508 Y59.512 E.01372
G1 X82.59 Y59.133 E.01372
G1 X82.724 Y58.775 E.01351
G1 X82.912 Y58.429 E.0139
G1 X83.145 Y58.118 E.01373
G1 X83.419 Y57.844 E.01372
G1 X83.725 Y57.615 E.01351
G1 X84.07 Y57.425 E.0139
G1 X84.434 Y57.29 E.01373
G1 X84.813 Y57.207 E.01372
G1 X85.194 Y57.18 E.01351
G1 X85.587 Y57.207 E.01391
G1 X85.966 Y57.29 E.01373
G1 X86.33 Y57.425 E.01372
G1 X86.67 Y57.611 E.01372
G1 X86.981 Y57.844 E.01372
G1 X87.255 Y58.118 E.01372
G1 X87.488 Y58.429 E.01372
G1 X87.674 Y58.769 E.01372
G1 X87.81 Y59.133 E.01372
G1 X87.892 Y59.512 E.01372
G1 X87.92 Y59.899 E.01372
G1 X87.892 Y60.286 E.01372
G1 X87.81 Y60.665 E.01372
G1 X87.676 Y61.024 E.01351
G1 X87.488 Y61.369 E.0139
G1 X87.255 Y61.68 E.01373
G1 X86.981 Y61.955 E.01372
G1 X86.675 Y62.184 E.01351
G1 X86.33 Y62.373 E.0139
G1 X85.966 Y62.509 E.01373
G1 X85.587 Y62.591 E.01372
G1 X85.2 Y62.619 E.01372
G1 X84.867 Y62.595 E.01181
G1 E-.8 F1800
G1 Z.4 F21000
G1 X84.843 Y62.93
G1 X73.407 Y63.505
G1 X37.74 Y60.724
G1 X37.412 Y60.653
G1 Z.2
G1 E.8 F1800
G1 F3000
G1 X37.41 Y60.665 E.00046
G1 X37.276 Y61.024 E.01351
G1 X37.088 Y61.369 E.0139
G1 X36.855 Y61.68 E.01373
G1 X36.581 Y61.955 E.01372
G1 X36.275 Y62.184 E.01351
G1 X35.93 Y62.373 E.0139
G1 X35.566 Y62.509 E.01373
G1 X35.187 Y62.591 E.01372
G1 X34.8 Y62.619 E.01372
G1 X34.413 Y62.591 E.01372
G1 X34.034 Y62.509 E.01372
G1 X33.67 Y62.373 E.01372
G1 X33.33 Y62.187 E.01372
G1 X33.019 Y61.955 E.01372
G1 X32.745 Y61.68 E.01372
G1 X32.516 Y61.374 E.01351
G1 X32.326 Y61.029 E.0139
G1 X32.19 Y60.665 E.01373
G1 X32.108 Y60.286 E.01372
G1 X32.08 Y59.899 E.01372
G1 X32.108 Y59.512 E.01372
G1 X32.19 Y59.133 E.01372
G1 X32.324 Y58.775 E.01351
G1 X32.512 Y58.429 E.0139
G1 X32.745 Y58.118 E.01373
G1 X33.019 Y57.844 E.01372
G1 X33.325 Y57.615 E.01351
G1 X33.67 Y57.425 E.0139
