; HEADER_BLOCK_START
; generated by OrcaSlicer 1.6.4-beta2 on 2023-08-15 at 14:16:41
; total layer number: 32
; HEADER_BLOCK_END

; THUMBNAIL_BLOCK_START
; THUMBNAIL_BLOCK_END

; external perimeters extrusion width = 0.40mm
; perimeters extrusion width = 0.46mm
; infill extrusion width = 0.64mm
; solid infill extrusion width = 0.56mm
; top infill extrusion width = 0.40mm
; support material extrusion width = 0.46mm
; first layer extrusion width = 0.50mm

; external perimeters extrusion width = 0.40mm
; perimeters extrusion width = 0.46mm
; infill extrusion width = 0.64mm
; solid infill extrusion width = 0.56mm
; top infill extrusion width = 0.40mm
; support material extrusion width = 0.46mm
; first layer extrusion width = 0.50mm

; external perimeters extrusion width = 0.40mm
; perimeters extrusion width = 0.46mm
; infill extrusion width = 0.64mm
; solid infill extrusion width = 0.56mm
; top infill extrusion width = 0.40mm
; support material extrusion width = 0.46mm
; first layer extrusion width = 0.50mm

; external perimeters extrusion width = 0.40mm
; perimeters extrusion width = 0.46mm
; infill extrusion width = 0.64mm
; solid infill extrusion width = 0.56mm
; top infill extrusion width = 0.40mm
; support material extrusion width = 0.46mm
; first layer extrusion width = 0.50mm

; EXECUTABLE_BLOCK_START
EXCLUDE_OBJECT_DEFINE NAME=(Unsaved).stl_id_0_copy_0 CENTER=165,182.96 POLYGON=[[104,173.71],[104.068,173.192],[106.068,158.692],[106.268,158.21],[106.586,157.795],[107,157.478],[107.482,157.278],[108,157.21],[222,157.21],[222.518,157.278],[223,157.478],[223.414,157.795],[223.732,158.21],[223.932,158.692],[225.932,173.192],[226,173.71],[226,206.71],[225.932,207.227],[225.732,207.71],[225.414,208.124],[225,208.442],[224.518,208.642],[224,208.71],[106,208.71],[105.482,208.642],[105,208.442],[104.586,208.124],[104.268,207.71],[104.068,207.227],[104,206.71],[104,173.71]]
EXCLUDE_OBJECT_DEFINE NAME=2020_Wiring_Clip.stl_id_1_copy_0 CENTER=161.068,134.25 POLYGON=[[148.006,126.04],[148.007,125.943],[148.013,125.774],[148.019,125.68],[148.035,125.508],[148.046,125.419],[148.073,125.245],[148.088,125.159],[148.125,124.983],[148.144,124.902],[148.191,124.725],[148.214,124.649],[148.272,124.471],[148.298,124.4],[148.367,124.223],[148.396,124.155],[148.476,123.979],[148.507,123.917],[148.598,123.743],[148.631,123.685],[148.734,123.513],[148.767,123.46],[148.882,123.292],[148.916,123.244],[149.042,123.079],[149.077,123.036],[149.214,122.875],[149.249,122.837],[149.397,122.682],[149.431,122.647],[149.59,122.499],[149.624,122.469],[149.794,122.327],[149.827,122.301],[150.007,122.166],[150.038,122.144],[150.228,122.018],[150.258,122],[150.458,121.883],[150.485,121.868],[150.695,121.761],[150.72,121.749],[150.938,121.652],[150.96,121.643],[151.187,121.557],[151.206,121.55],[151.441,121.476],[151.457,121.471],[151.699,121.409],[151.712,121.406],[151.96,121.357],[151.97,121.356],[152.224,121.32],[152.231,121.319],[152.489,121.298],[152.493,121.298],[152.756,121.29],[169.381,121.29],[169.644,121.298],[169.648,121.298],[169.906,121.319],[169.913,121.32],[170.167,121.356],[170.177,121.357],[170.425,121.406],[170.438,121.409],[170.68,121.471],[170.696,121.476],[170.93,121.55],[170.95,121.557],[171.177,121.643],[171.199,121.652],[171.417,121.749],[171.442,121.761],[171.652,121.868],[171.679,121.883],[171.879,122],[171.908,122.018],[172.099,122.144],[172.13,122.166],[172.31,122.301],[172.343,122.327],[172.513,122.469],[172.546,122.499],[172.705,122.647],[172.74,122.682],[172.888,122.837],[172.923,122.875],[173.06,123.036],[173.095,123.079],[173.221,123.244],[173.255,123.292],[173.37,123.46],[173.403,123.513],[173.506,123.685],[173.539,123.743],[173.63,123.917],[173.661,123.979],[173.741,124.155],[173.77,124.223],[173.839,124.4],[173.865,124.471],[173.923,124.649],[173.946,124.725],[173.993,124.902],[174.012,124.983],[174.049,125.159],[174.064,125.245],[174.09,125.419],[174.101,125.508],[174.118,125.681],[174.124,125.774],[174.13,125.943],[174.131,126.04],[174.128,126.206],[173.546,142.884],[173.541,142.984],[173.53,143.14],[173.519,143.25],[173.5,143.395],[173.482,143.514],[173.457,143.648],[173.43,143.775],[173.4,143.898],[173.363,144.033],[173.33,144.145],[173.282,144.287],[173.246,144.387],[173.187,144.536],[173.149,144.625],[173.078,144.779],[173.04,144.857],[172.956,145.016],[172.918,145.083],[172.821,145.245],[172.785,145.302],[172.673,145.467],[172.639,145.513],[172.513,145.68],[172.483,145.717],[172.341,145.883],[172.315,145.911],[172.158,146.077],[172.138,146.096],[171.964,146.26],[171.95,146.272],[171.76,146.432],[171.754,146.437],[171.549,146.591],[171.336,146.734],[171.326,146.74],[171.115,146.865],[171.097,146.875],[170.888,146.984],[170.86,146.998],[170.654,147.091],[170.546,147.132],[170.516,147.141],[170.402,147.172],[170.374,147.178],[170.255,147.198],[170.228,147.201],[170.106,147.209],[170.081,147.21],[152.056,147.21],[151.956,147.206],[151.909,147.201],[151.808,147.187],[151.763,147.178],[151.662,147.154],[151.621,147.141],[151.52,147.106],[151.482,147.091],[151.277,146.998],[151.249,146.984],[151.04,146.875],[151.022,146.865],[150.811,146.74],[150.801,146.734],[150.588,146.591],[150.383,146.437],[150.376,146.432],[150.186,146.272],[150.173,146.26],[149.999,146.096],[149.979,146.077],[149.822,145.911],[149.796,145.883],[149.654,145.717],[149.624,145.68],[149.498,145.513],[149.464,145.467],[149.352,145.302],[149.316,145.245],[149.219,145.083],[149.181,145.016],[149.097,144.857],[149.058,144.779],[148.988,144.625],[148.95,144.536],[148.891,144.387],[148.855,144.287],[148.807,144.145],[148.774,144.033],[148.737,143.898],[148.707,143.775],[148.68,143.648],[148.655,143.514],[148.636,143.395],[148.618,143.25],[148.607,143.14],[148.595,142.984],[148.591,142.884],[148.009,126.206],[148.006,126.04]]
EXCLUDE_OBJECT_DEFINE NAME=2020_Wiring_Clip.stl_id_2_copy_0 CENTER=124.943,134.25 POLYGON=[[111.88,126.04],[111.881,125.943],[111.887,125.774],[111.893,125.68],[111.91,125.508],[111.921,125.419],[111.947,125.245],[111.962,125.159],[111.999,124.983],[112.018,124.902],[112.065,124.725],[112.088,124.649],[112.146,124.471],[112.172,124.4],[112.241,124.223],[112.27,124.155],[112.35,123.979],[112.381,123.917],[112.472,123.743],[112.505,123.685],[112.608,123.513],[112.641,123.46],[112.756,123.292],[112.79,123.244],[112.916,123.079],[112.951,123.036],[113.088,122.875],[113.123,122.837],[113.271,122.682],[113.306,122.647],[113.465,122.499],[113.498,122.469],[113.668,122.327],[113.701,122.301],[113.881,122.166],[113.912,122.144],[114.103,122.018],[114.132,122],[114.332,121.883],[114.36,121.868],[114.569,121.761],[114.594,121.749],[114.812,121.652],[114.835,121.643],[115.061,121.557],[115.081,121.55],[115.315,121.476],[115.332,121.471],[115.573,121.409],[115.586,121.406],[115.834,121.357],[115.844,121.356],[116.098,121.32],[116.105,121.319],[116.363,121.298],[116.367,121.298],[116.63,121.29],[133.255,121.29],[133.518,121.298],[133.522,121.298],[133.78,121.319],[133.787,121.32],[134.041,121.356],[134.051,121.357],[134.299,121.406],[134.312,121.409],[134.554,121.471],[134.57,121.476],[134.805,121.55],[134.824,121.557],[135.051,121.643],[135.073,121.652],[135.291,121.749],[135.316,121.761],[135.526,121.868],[135.553,121.883],[135.753,122],[135.783,122.018],[135.973,122.144],[136.004,122.166],[136.184,122.301],[136.217,122.327],[136.387,122.469],[136.421,122.499],[136.58,122.647],[136.614,122.682],[136.762,122.837],[136.797,122.875],[136.934,123.036],[136.969,123.079],[137.095,123.244],[137.129,123.292],[137.244,123.46],[137.277,123.513],[137.38,123.685],[137.413,123.743],[137.504,123.917],[137.535,123.979],[137.615,124.155],[137.644,124.223],[137.713,124.4],[137.739,124.471],[137.797,124.649],[137.82,124.725],[137.867,124.902],[137.886,124.983],[137.923,125.159],[137.938,125.245],[137.965,125.419],[137.976,125.508],[137.992,125.681],[137.998,125.774],[138.004,125.943],[138.005,126.04],[138.003,126.206],[137.42,142.884],[137.416,142.984],[137.404,143.14],[137.393,143.25],[137.375,143.395],[137.356,143.514],[137.331,143.648],[137.304,143.775],[137.274,143.898],[137.237,144.033],[137.204,144.145],[137.156,144.287],[137.12,144.387],[137.061,144.536],[137.023,144.625],[136.953,144.779],[136.914,144.857],[136.83,145.016],[136.792,145.083],[136.695,145.245],[136.659,145.302],[136.547,145.467],[136.513,145.513],[136.387,145.68],[136.357,145.717],[136.215,145.883],[136.19,145.911],[136.032,146.077],[136.012,146.096],[135.838,146.26],[135.825,146.272],[135.635,146.432],[135.628,146.437],[135.423,146.591],[135.21,146.734],[135.2,146.74],[134.989,146.865],[134.971,146.875],[134.762,146.984],[134.734,146.998],[134.529,147.091],[134.42,147.132],[134.39,147.141],[134.276,147.172],[134.248,147.178],[134.129,147.198],[134.103,147.201],[133.98,147.209],[133.956,147.21],[115.93,147.21],[115.831,147.206],[115.783,147.201],[115.682,147.187],[115.637,147.178],[115.536,147.154],[115.495,147.141],[115.395,147.106],[115.357,147.091],[115.151,146.998],[115.123,146.984],[114.915,146.875],[114.896,146.865],[114.685,146.74],[114.675,146.734],[114.462,146.591],[114.257,146.437],[114.251,146.432],[114.061,146.272],[114.047,146.26],[113.873,146.096],[113.853,146.077],[113.696,145.911],[113.67,145.883],[113.528,145.717],[113.498,145.68],[113.372,145.513],[113.338,145.467],[113.226,145.302],[113.19,145.245],[113.093,145.083],[113.055,145.016],[112.971,144.857],[112.933,144.779],[112.862,144.625],[112.824,144.536],[112.765,144.387],[112.729,144.287],[112.681,144.145],[112.648,144.033],[112.611,143.898],[112.581,143.775],[112.554,143.648],[112.529,143.514],[112.511,143.395],[112.492,143.25],[112.481,143.14],[112.47,142.984],[112.465,142.884],[111.883,126.206],[111.88,126.04]]
EXCLUDE_OBJECT_DEFINE NAME=2020_Wiring_Clip.stl_id_3_copy_0 CENTER=197.194,134.25 POLYGON=[[184.131,126.04],[184.132,125.943],[184.139,125.774],[184.145,125.68],[184.161,125.508],[184.172,125.419],[184.199,125.245],[184.214,125.159],[184.251,124.983],[184.27,124.902],[184.317,124.725],[184.34,124.649],[184.398,124.471],[184.424,124.4],[184.493,124.223],[184.521,124.155],[184.602,123.979],[184.632,123.917],[184.724,123.743],[184.756,123.685],[184.86,123.513],[184.893,123.46],[185.008,123.292],[185.042,123.244],[185.168,123.079],[185.203,123.036],[185.34,122.875],[185.375,122.837],[185.523,122.682],[185.557,122.647],[185.716,122.499],[185.75,122.469],[185.92,122.327],[185.953,122.301],[186.133,122.166],[186.164,122.144],[186.354,122.018],[186.384,122],[186.584,121.883],[186.611,121.868],[186.82,121.761],[186.846,121.749],[187.064,121.652],[187.086,121.643],[187.313,121.557],[187.332,121.55],[187.566,121.476],[187.583,121.471],[187.824,121.409],[187.838,121.406],[188.086,121.357],[188.096,121.356],[188.35,121.32],[188.357,121.319],[188.615,121.298],[188.619,121.298],[188.881,121.29],[205.507,121.29],[205.77,121.298],[205.773,121.298],[206.032,121.319],[206.039,121.32],[206.292,121.356],[206.303,121.357],[206.551,121.406],[206.564,121.409],[206.805,121.471],[206.822,121.476],[207.056,121.55],[207.076,121.557],[207.302,121.643],[207.325,121.652],[207.543,121.749],[207.568,121.761],[207.777,121.868],[207.805,121.883],[208.005,122],[208.034,122.018],[208.225,122.144],[208.256,122.166],[208.436,122.301],[208.469,122.327],[208.638,122.469],[208.672,122.499],[208.831,122.647],[208.866,122.682],[209.014,122.837],[209.049,122.875],[209.186,123.036],[209.221,123.079],[209.347,123.244],[209.381,123.292],[209.495,123.46],[209.529,123.513],[209.632,123.685],[209.664,123.743],[209.756,123.917],[209.787,123.979],[209.867,124.155],[209.896,124.223],[209.965,124.4],[209.991,124.471],[210.049,124.649],[210.071,124.725],[210.119,124.902],[210.138,124.983],[210.175,125.159],[210.19,125.245],[210.216,125.419],[210.227,125.508],[210.243,125.681],[210.25,125.774],[210.256,125.943],[210.257,126.04],[210.254,126.206],[209.672,142.884],[209.667,142.984],[209.656,143.14],[209.645,143.25],[209.626,143.395],[209.608,143.514],[209.583,143.648],[209.556,143.775],[209.526,143.898],[209.489,144.033],[209.455,144.145],[209.408,144.287],[209.372,144.387],[209.313,144.536],[209.275,144.625],[209.204,144.779],[209.166,144.857],[209.082,145.016],[209.044,145.083],[208.947,145.245],[208.91,145.302],[208.799,145.467],[208.765,145.513],[208.638,145.68],[208.608,145.717],[208.466,145.883],[208.441,145.911],[208.283,146.077],[208.264,146.096],[208.09,146.26],[208.076,146.272],[207.886,146.432],[207.88,146.437],[207.675,146.591],[207.462,146.734],[207.452,146.74],[207.241,146.865],[207.222,146.875],[207.014,146.984],[206.986,146.998],[206.78,147.091],[206.672,147.132],[206.642,147.141],[206.528,147.172],[206.5,147.178],[206.381,147.198],[206.354,147.201],[206.232,147.209],[206.207,147.21],[188.181,147.21],[188.082,147.206],[188.034,147.201],[187.934,147.187],[187.889,147.178],[187.788,147.154],[187.746,147.141],[187.646,147.106],[187.608,147.091],[187.403,146.998],[187.375,146.984],[187.166,146.875],[187.148,146.865],[186.937,146.74],[186.927,146.734],[186.714,146.591],[186.509,146.437],[186.502,146.432],[186.312,146.272],[186.299,146.26],[186.125,146.096],[186.105,146.077],[185.947,145.911],[185.922,145.883],[185.78,145.717],[185.75,145.68],[185.623,145.513],[185.59,145.467],[185.478,145.302],[185.442,145.245],[185.344,145.083],[185.307,145.016],[185.223,144.857],[185.184,144.779],[185.113,144.625],[185.075,144.536],[185.017,144.387],[184.98,144.287],[184.933,144.145],[184.899,144.033],[184.863,143.898],[184.833,143.775],[184.806,143.648],[184.781,143.514],[184.762,143.395],[184.744,143.25],[184.733,143.14],[184.721,142.984],[184.717,142.884],[184.134,126.206],[184.131,126.04]]
M73 P0 R38
;TYPE:Custom
START_PRINT T_BED=110 T_EXTRUDER=260
G90
G21
M83 ; use relative distances for extrusion
; Filament gcode
M106 S0
;LAYER_CHANGE
;Z:0.2
;HEIGHT:0.2
;BEFORE_LAYER_CHANGE
;0.2
G92 E0

SET_VELOCITY_LIMIT ACCEL=1000 ACCEL_TO_DECEL=500
G1 E-.5 F3000
G1 X111.516 Y120.333 F12000
G1 Z.2
G1 E.5 F1800
;TYPE:Skirt
;WIDTH:0.5
G1 F3000
G1 X112.539 Y119.56 E.04532
G1 X113.807 Y118.916 E.05028
G1 X115.025 Y118.547 E.04496
G1 X116.549 Y118.377 E.05422
G1 X205.511 Y118.376 E3.14445
G1 X206.424 Y118.432 E.03232
G1 X207.525 Y118.647 E.03965
G1 X208.469 Y118.973 E.03532
G1 X209.469 Y119.481 E.03963
G1 X210.289 Y120.052 E.03533
G1 X211.107 Y120.808 E.03936
G1 X211.75 Y121.596 E.03595
G1 X212.324 Y122.538 E.03899
G1 X226.631 Y157.593 E1.33826
G1 X226.819 Y158.294 E.02565
G1 X228.914 Y173.71 E.5499
G1 X228.914 Y206.71 E1.16641
G1 X228.821 Y207.608 E.03191
G1 X228.424 Y208.825 E.04525
G1 X228.044 Y209.484 E.02689
G1 X227.188 Y210.436 E.04525
G1 X226.774 Y210.754 E.01846
G1 X225.633 Y211.334 E.04525
G1 X224.898 Y211.531 E.02689
G1 X224 Y211.624 E.03191
G1 X106 Y211.624 E4.17081
G1 X105.102 Y211.531 E.03191
G1 X103.885 Y211.134 E.04525
G1 X102.812 Y210.436 E.04525
G1 X102.274 Y209.898 E.02689
G1 X101.576 Y208.825 E.04525
G1 X101.376 Y208.343 E.01845
G1 X101.179 Y207.608 E.02689
G1 X101.086 Y206.71 E.03191
G1 X101.111 Y173.329 E1.17986
G1 X103.198 Y158.188 E.54026
G1 X109.092 Y124.657 E1.20334
G1 X109.41 Y123.471 E.0434
G1 X109.939 Y122.305 E.04526
G1 X110.642 Y121.257 E.04461
G1 X111.489 Y120.362 E.04354
G1 X111.82 Y120.675 F12000
G1 F3000
G1 X111.827 Y120.668 E.00037
G1 X112.79 Y119.942 E.04262
G1 X113.968 Y119.343 E.04673
G1 X115.113 Y118.995 E.04228
G1 X116.562 Y118.834 E.05153
G1 X205.511 Y118.833 E3.144
G1 X206.361 Y118.885 E.0301
G1 X207.412 Y119.09 E.03784
G1 X208.286 Y119.391 E.03266
G1 X209.24 Y119.876 E.03782
G1 X209.998 Y120.404 E.03267
G1 X210.778 Y121.126 E.03756
G1 X211.373 Y121.855 E.03326
G1 X211.92 Y122.754 E.03721
G1 X226.207 Y157.765 E1.33658
G1 X226.366 Y158.356 E.02163
G1 X228.457 Y173.71 E.54769
G1 X228.457 Y206.71 E1.16641
G1 X228.368 Y207.548 E.0298
G1 X228.002 Y208.65 E.04104
G1 X227.681 Y209.205 E.02267
G1 X226.91 Y210.073 E.04104
G1 X226.496 Y210.391 E.01846
G1 X225.458 Y210.912 E.04104
G1 X224.838 Y211.078 E.02267
G1 X224 Y211.167 E.0298
G1 X106 Y211.167 E4.17081
G1 X105.162 Y211.078 E.0298
G1 X104.06 Y210.712 E.04104
