; HEADER_BLOCK_START
; generated by OrcaSlicer 1.6.4-beta2 on 2023-08-06 at 20:08:24
; total layer number: 54
; HEADER_BLOCK_END

; THUMBNAIL_BLOCK_START
; THUMBNAIL_BLOCK_END

; external perimeters extrusion width = 0.40mm
; perimeters extrusion width = 0.46mm
; infill extrusion width = 0.64mm
; solid infill extrusion width = 0.56mm
; top infill extrusion width = 0.40mm
; support material extrusion width = 0.46mm
; first layer extrusion width = 0.50mm

; external perimeters extrusion width = 0.40mm
; perimeters extrusion width = 0.46mm
; infill extrusion width = 0.64mm
; solid infill extrusion width = 0.56mm
; top infill extrusion width = 0.40mm
; support material extrusion width = 0.46mm
; first layer extrusion width = 0.50mm

; external perimeters extrusion width = 0.40mm
; perimeters extrusion width = 0.46mm
; infill extrusion width = 0.64mm
; solid infill extrusion width = 0.56mm
; top infill extrusion width = 0.40mm
; support material extrusion width = 0.46mm
; first layer extrusion width = 0.50mm

; external perimeters extrusion width = 0.40mm
; perimeters extrusion width = 0.46mm
; infill extrusion width = 0.64mm
; solid infill extrusion width = 0.56mm
; top infill extrusion width = 0.40mm
; support material extrusion width = 0.46mm
; first layer extrusion width = 0.50mm

; EXECUTABLE_BLOCK_START
EXCLUDE_OBJECT_DEFINE NAME=(Unsaved).stl_id_0_copy_0 CENTER=140.539,163.078 POLYGON=[[137.064,163.078],[137.073,162.828],[137.073,162.825],[137.1,162.578],[137.101,162.573],[137.145,162.332],[137.147,162.323],[137.208,162.089],[137.211,162.077],[137.288,161.851],[137.293,161.837],[137.385,161.62],[137.393,161.604],[137.499,161.396],[137.509,161.378],[137.628,161.181],[137.641,161.161],[137.773,160.976],[137.789,160.955],[137.932,160.782],[137.951,160.76],[138.104,160.6],[138.127,160.577],[138.289,160.43],[138.316,160.408],[138.486,160.275],[138.517,160.253],[138.694,160.134],[138.729,160.113],[138.911,160.009],[138.95,159.988],[139.137,159.899],[139.18,159.881],[139.37,159.806],[139.417,159.79],[139.609,159.731],[139.66,159.717],[139.853,159.672],[139.908,159.662],[140.101,159.632],[140.159,159.625],[140.351,159.609],[140.412,159.606],[140.601,159.605],[140.666,159.606],[140.852,159.618],[140.919,159.625],[141.101,159.65],[141.17,159.662],[141.347,159.699],[141.417,159.717],[141.588,159.766],[141.66,159.79],[141.825,159.851],[141.898,159.881],[142.054,159.952],[142.127,159.988],[142.276,160.069],[142.349,160.113],[142.488,160.203],[142.56,160.253],[142.691,160.351],[142.761,160.408],[142.882,160.513],[142.95,160.577],[143.061,160.689],[143.126,160.76],[143.227,160.877],[143.289,160.955],[143.379,161.077],[143.436,161.161],[143.516,161.287],[143.569,161.378],[143.637,161.507],[143.685,161.604],[143.743,161.734],[143.784,161.837],[143.831,161.969],[143.866,162.077],[143.903,162.21],[143.93,162.323],[143.957,162.455],[143.976,162.573],[143.993,162.703],[144.004,162.825],[144.011,162.953],[144.013,163.078],[144.011,163.204],[144.004,163.332],[143.993,163.454],[143.976,163.584],[143.957,163.702],[143.93,163.834],[143.903,163.947],[143.866,164.079],[143.831,164.188],[143.784,164.32],[143.743,164.423],[143.685,164.553],[143.637,164.65],[143.569,164.779],[143.516,164.87],[143.436,164.996],[143.379,165.08],[143.289,165.202],[143.227,165.28],[143.126,165.397],[143.061,165.468],[142.95,165.58],[142.882,165.644],[142.761,165.749],[142.691,165.806],[142.56,165.904],[142.488,165.954],[142.349,166.044],[142.276,166.087],[142.127,166.168],[142.054,166.205],[141.898,166.276],[141.825,166.306],[141.66,166.367],[141.588,166.391],[141.417,166.44],[141.347,166.458],[141.17,166.495],[141.101,166.507],[140.919,166.532],[140.852,166.539],[140.666,166.551],[140.601,166.552],[140.412,166.551],[140.351,166.548],[140.159,166.532],[140.101,166.525],[139.908,166.495],[139.853,166.485],[139.66,166.44],[139.609,166.426],[139.417,166.367],[139.37,166.351],[139.18,166.276],[139.137,166.258],[138.95,166.168],[138.911,166.148],[138.729,166.044],[138.694,166.023],[138.517,165.904],[138.486,165.882],[138.316,165.749],[138.289,165.727],[138.127,165.58],[138.104,165.557],[137.951,165.397],[137.932,165.375],[137.789,165.202],[137.773,165.181],[137.641,164.996],[137.628,164.976],[137.509,164.779],[137.499,164.761],[137.393,164.553],[137.385,164.537],[137.293,164.32],[137.288,164.306],[137.211,164.079],[137.208,164.068],[137.147,163.834],[137.145,163.825],[137.101,163.584],[137.1,163.579],[137.073,163.332],[137.073,163.329],[137.064,163.078]]
EXCLUDE_OBJECT_DEFINE NAME=(Unsaved).stl_id_1_copy_0 CENTER=140.541,146.13 POLYGON=[[137.066,146.13],[137.075,145.88],[137.076,145.877],[137.103,145.63],[137.103,145.624],[137.148,145.383],[137.149,145.375],[137.21,145.14],[137.214,145.129],[137.29,144.903],[137.296,144.889],[137.387,144.671],[137.395,144.655],[137.501,144.448],[137.511,144.43],[137.63,144.233],[137.643,144.213],[137.775,144.028],[137.791,144.007],[137.934,143.833],[137.953,143.812],[138.106,143.651],[138.129,143.629],[138.291,143.482],[138.318,143.46],[138.488,143.327],[138.519,143.304],[138.696,143.186],[138.731,143.164],[138.913,143.06],[138.952,143.04],[139.139,142.951],[139.182,142.932],[139.372,142.858],[139.419,142.842],[139.611,142.782],[139.662,142.769],[139.855,142.724],[139.91,142.714],[140.103,142.683],[140.161,142.677],[140.353,142.661],[140.414,142.658],[140.604,142.656],[140.668,142.658],[140.854,142.67],[140.921,142.677],[141.103,142.701],[141.172,142.714],[141.349,142.751],[141.42,142.769],[141.591,142.818],[141.663,142.842],[141.827,142.902],[141.9,142.932],[142.056,143.004],[142.13,143.04],[142.278,143.121],[142.351,143.164],[142.491,143.254],[142.563,143.304],[142.693,143.403],[142.763,143.46],[142.884,143.565],[142.952,143.629],[143.063,143.741],[143.129,143.812],[143.229,143.929],[143.291,144.007],[143.381,144.129],[143.439,144.213],[143.518,144.339],[143.571,144.43],[143.639,144.558],[143.687,144.655],[143.745,144.786],[143.786,144.889],[143.833,145.021],[143.868,145.129],[143.905,145.261],[143.932,145.375],[143.959,145.506],[143.978,145.624],[143.995,145.755],[144.006,145.877],[144.013,146.005],[144.015,146.13],[144.013,146.256],[144.006,146.384],[143.995,146.506],[143.978,146.636],[143.959,146.754],[143.932,146.886],[143.905,146.999],[143.868,147.131],[143.833,147.24],[143.786,147.371],[143.745,147.474],[143.687,147.605],[143.639,147.702],[143.571,147.831],[143.518,147.922],[143.439,148.047],[143.381,148.132],[143.291,148.254],[143.229,148.331],[143.129,148.449],[143.063,148.52],[142.952,148.632],[142.884,148.695],[142.763,148.801],[142.693,148.858],[142.563,148.956],[142.491,149.006],[142.351,149.096],[142.278,149.139],[142.13,149.22],[142.056,149.257],[141.9,149.328],[141.827,149.358],[141.663,149.419],[141.591,149.442],[141.42,149.492],[141.349,149.509],[141.172,149.547],[141.103,149.559],[140.921,149.584],[140.854,149.591],[140.668,149.602],[140.604,149.604],[140.414,149.602],[140.353,149.6],[140.161,149.584],[140.103,149.577],[139.91,149.547],[139.855,149.536],[139.662,149.492],[139.611,149.478],[139.419,149.419],[139.372,149.402],[139.182,149.328],[139.139,149.309],[138.952,149.22],[138.913,149.2],[138.731,149.096],[138.696,149.075],[138.519,148.956],[138.488,148.934],[138.318,148.801],[138.291,148.778],[138.129,148.632],[138.106,148.609],[137.953,148.449],[137.934,148.427],[137.791,148.254],[137.775,148.233],[137.643,148.047],[137.63,148.028],[137.511,147.831],[137.501,147.813],[137.395,147.605],[137.387,147.589],[137.296,147.371],[137.29,147.358],[137.214,147.131],[137.21,147.12],[137.149,146.886],[137.148,146.877],[137.103,146.636],[137.103,146.63],[137.076,146.384],[137.075,146.381],[137.066,146.13]]
EXCLUDE_OBJECT_DEFINE NAME=(Unsaved).stl_id_2_copy_0 CENTER=140.539,180.027 POLYGON=[[137.064,180.027],[137.073,179.776],[137.073,179.773],[137.1,179.527],[137.101,179.521],[137.145,179.28],[137.147,179.271],[137.208,179.037],[137.211,179.026],[137.288,178.799],[137.293,178.786],[137.385,178.568],[137.393,178.552],[137.499,178.344],[137.509,178.326],[137.628,178.129],[137.641,178.11],[137.773,177.924],[137.789,177.903],[137.932,177.73],[137.951,177.708],[138.104,177.548],[138.127,177.525],[138.289,177.379],[138.316,177.356],[138.486,177.223],[138.517,177.201],[138.694,177.082],[138.729,177.061],[138.911,176.957],[138.95,176.937],[139.137,176.848],[139.18,176.829],[139.37,176.755],[139.417,176.738],[139.609,176.679],[139.66,176.665],[139.853,176.621],[139.908,176.61],[140.101,176.58],[140.159,176.573],[140.351,176.557],[140.412,176.555],[140.601,176.553],[140.666,176.555],[140.852,176.566],[140.919,176.573],[141.101,176.598],[141.17,176.61],[141.347,176.648],[141.417,176.665],[141.588,176.715],[141.66,176.738],[141.825,176.799],[141.898,176.829],[142.054,176.9],[142.127,176.937],[142.276,177.018],[142.349,177.061],[142.488,177.151],[142.56,177.201],[142.691,177.299],[142.761,177.356],[142.882,177.462],[142.95,177.525],[143.061,177.637],[143.126,177.708],[143.227,177.826],[143.289,177.903],[143.379,178.025],[143.436,178.11],[143.516,178.235],[143.569,178.326],[143.637,178.455],[143.685,178.552],[143.743,178.683],[143.784,178.786],[143.831,178.917],[143.866,179.026],[143.903,179.158],[143.93,179.271],[143.957,179.403],[143.976,179.521],[143.993,179.651],[144.004,179.773],[144.011,179.901],[144.013,180.027],[144.011,180.152],[144.004,180.28],[143.993,180.402],[143.976,180.533],[143.957,180.651],[143.93,180.782],[143.903,180.896],[143.866,181.028],[143.831,181.136],[143.784,181.268],[143.743,181.371],[143.685,181.502],[143.637,181.599],[143.569,181.727],[143.516,181.818],[143.436,181.944],[143.379,182.028],[143.289,182.15],[143.227,182.228],[143.126,182.345],[143.061,182.416],[142.95,182.528],[142.882,182.592],[142.761,182.697],[142.691,182.754],[142.56,182.853],[142.488,182.903],[142.349,182.993],[142.276,183.036],[142.127,183.117],[142.054,183.153],[141.898,183.224],[141.825,183.254],[141.66,183.315],[141.588,183.339],[141.417,183.388],[141.347,183.406],[141.17,183.443],[141.101,183.455],[140.919,183.48],[140.852,183.487],[140.666,183.499],[140.601,183.501],[140.412,183.499],[140.351,183.496],[140.159,183.48],[140.101,183.474],[139.908,183.443],[139.853,183.433],[139.66,183.388],[139.609,183.375],[139.417,183.315],[139.37,183.299],[139.18,183.224],[139.137,183.206],[138.95,183.117],[138.911,183.097],[138.729,182.993],[138.694,182.971],[138.517,182.853],[138.486,182.83],[138.316,182.697],[138.289,182.675],[138.127,182.528],[138.104,182.506],[137.951,182.345],[137.932,182.324],[137.789,182.15],[137.773,182.129],[137.641,181.944],[137.628,181.924],[137.509,181.727],[137.499,181.709],[137.393,181.502],[137.385,181.486],[137.293,181.268],[137.288,181.254],[137.211,181.028],[137.208,181.017],[137.147,180.782],[137.145,180.774],[137.101,180.533],[137.1,180.527],[137.073,180.28],[137.073,180.277],[137.064,180.027]]
EXCLUDE_OBJECT_DEFINE NAME=(Unsaved).stl_id_3_copy_0 CENTER=125.861,154.602 POLYGON=[[122.387,154.602],[122.396,154.351],[122.396,154.348],[122.423,154.102],[122.424,154.096],[122.468,153.855],[122.47,153.847],[122.531,153.612],[122.534,153.601],[122.611,153.375],[122.616,153.361],[122.708,153.143],[122.715,153.127],[122.822,152.919],[122.831,152.902],[122.951,152.704],[122.964,152.685],[123.095,152.499],[123.111,152.479],[123.254,152.305],[123.274,152.283],[123.427,152.123],[123.45,152.101],[123.612,151.954],[123.639,151.931],[123.809,151.799],[123.84,151.776],[124.017,151.658],[124.051,151.636],[124.234,151.532],[124.273,151.512],[124.46,151.423],[124.502,151.404],[124.693,151.33],[124.74,151.314],[124.932,151.254],[124.983,151.241],[125.176,151.196],[125.23,151.185],[125.423,151.155],[125.481,151.148],[125.673,151.133],[125.734,151.13],[125.924,151.128],[125.988,151.13],[126.175,151.142],[126.241,151.148],[126.423,151.173],[126.492,151.185],[126.669,151.223],[126.74,151.241],[126.911,151.29],[126.983,151.314],[127.147,151.374],[127.22,151.404],[127.377,151.476],[127.45,151.512],[127.599,151.593],[127.671,151.636],[127.811,151.726],[127.883,151.776],[128.014,151.874],[128.084,151.931],[128.205,152.037],[128.273,152.101],[128.384,152.213],[128.449,152.283],[128.55,152.401],[128.611,152.479],[128.702,152.601],[128.759,152.685],[128.839,152.811],[128.891,152.902],[128.96,153.03],[129.007,153.127],[129.065,153.258],[129.107,153.361],[129.154,153.493],[129.189,153.601],[129.225,153.733],[129.253,153.847],[129.279,153.978],[129.299,154.096],[129.316,154.226],[129.327,154.348],[129.334,154.477],[129.336,154.602],[129.334,154.728],[129.327,154.856],[129.316,154.978],[129.299,155.108],[129.279,155.226],[129.253,155.358],[129.225,155.471],[129.189,155.603],[129.154,155.711],[129.107,155.843],[129.065,155.946],[129.007,156.077],[128.96,156.174],[128.891,156.303],[128.839,156.393],[128.759,156.519],[128.702,156.604],[128.611,156.726],[128.55,156.803],[128.449,156.921],[128.384,156.991],[128.273,157.103],[128.205,157.167],[128.084,157.273],[128.014,157.33],[127.883,157.428],[127.811,157.478],[127.671,157.568],[127.599,157.611],[127.45,157.692],[127.377,157.729],[127.22,157.8],[127.147,157.83],[126.983,157.89],[126.911,157.914],[126.74,157.964],[126.669,157.981],[126.492,158.019],[126.423,158.031],[126.241,158.056],[126.175,158.062],[125.988,158.074],[125.924,158.076],[125.734,158.074],[125.673,158.071],[125.481,158.056],[125.423,158.049],[125.23,158.019],[125.176,158.008],[124.983,157.964],[124.932,157.95],[124.74,157.89],[124.693,157.874],[124.502,157.8],[124.46,157.781],[124.273,157.692],[124.234,157.672],[124.051,157.568],[124.017,157.546],[123.84,157.428],[123.809,157.406],[123.639,157.273],[123.612,157.25],[123.45,157.103],[123.427,157.081],[123.274,156.921],[123.254,156.899],[123.111,156.726],[123.095,156.705],[122.964,156.519],[122.951,156.5],[122.831,156.303],[122.822,156.285],[122.715,156.077],[122.708,156.061],[122.616,155.843],[122.611,155.83],[122.534,155.603],[122.531,155.592],[122.47,155.358],[122.468,155.349],[122.424,155.108],[122.423,155.102],[122.396,154.856],[122.396,154.853],[122.387,154.602]]
M73 P0 R4
;TYPE:Custom
START_PRINT T_BED=110 T_EXTRUDER=260
G90
G21
M83 ; use relative distances for extrusion
; Filament gcode

    PRESSURE_ADVANCE_SELECT FILAMENT=ABS
M106 S0
;LAYER_CHANGE
;Z:0.2
;HEIGHT:0.2
;BEFORE_LAYER_CHANGE
;0.2
G92 E0

SET_VELOCITY_LIMIT ACCEL=1000 ACCEL_TO_DECEL=500
G1 E-.5 F2400
G1 X122.175 Y149.386 F12000
G1 Z.2
G1 E.5 F1800
;TYPE:Skirt
;WIDTH:0.5
G1 F3000
G1 X137.637 Y140.441 E.62866
G1 X138.295 Y140.15 E.02533
G1 X139.174 Y139.891 E.03226
G1 X140.763 Y139.746 E.05614
G1 X141.926 Y139.895 E.04129
G1 X142.998 Y140.234 E.03958
G1 X143.828 Y140.653 E.03271
G1 X144.771 Y141.344 E.04116
G1 X145.55 Y142.167 E.03987
G1 X146.069 Y142.931 E.03251
G1 X146.559 Y143.989 E.04103
G1 X146.843 Y145.091 E.04006
G1 X146.927 Y146.002 E.03222
G1 X146.925 Y180.155 E1.20195
G1 X146.75 Y181.518 E.04838
G1 X146.389 Y182.591 E.03983
G1 X145.818 Y183.623 E.0415
M73 P1 R4
G1 X144.926 Y184.669 E.04838
G1 X144.038 Y185.37 E.03983
G1 X142.996 Y185.923 E.04151
G1 X141.678 Y186.312 E.04836
G1 X140.551 Y186.414 E.03983
G1 X139.832 Y186.375 E.02533
G1 X138.933 Y186.209 E.03218
G1 X137.641 Y185.719 E.04865
G1 X136.321 Y184.824 E.05614
G1 X135.817 Y184.328 E.02487
G1 X135.246 Y183.603 E.03246
G1 X120.298 Y157.742 E1.05127
G1 X119.921 Y156.95 E.03087
G1 X119.647 Y156.078 E.03216
G1 X119.475 Y154.497 E.05598
G1 X119.526 Y153.787 E.02506
G1 X119.708 Y152.887 E.03232
G1 X120.221 Y151.605 E.04857
G1 X121 Y150.458 E.0488
G1 X122.145 Y149.413 E.05457
G1 X122.431 Y149.764 F12000
G1 F3000
G1 X137.836 Y140.852 E.62635
G1 X139.28 Y140.335 E.05398
G1 X140.738 Y140.203 E.05151
G1 X141.836 Y140.343 E.03896
G1 X142.814 Y140.653 E.03611
G1 X143.798 Y141.174 E.03917
G1 X144.608 Y141.814 E.03635
G1 X145.335 Y142.64 E.03872
G1 X145.791 Y143.372 E.03034
G1 X146.188 Y144.318 E.03612
G1 X146.427 Y145.405 E.03916
G1 X146.468 Y180.155 E1.22299
G1 X146.303 Y181.42 E.04491
G1 X145.974 Y182.399 E.03635
G1 X145.435 Y183.373 E.03916
G1 X144.606 Y184.343 E.04491
G1 X143.795 Y184.983 E.03635
G1 X142.812 Y185.504 E.03917
