; HEADER_BLOCK_START
; generated by OrcaSlicer 1.6.2 on 2023-05-15 at 16:12:40
; total layer number: 292
; HEADER_BLOCK_END

; THUMBNAIL_BLOCK_START
; THUMBNAIL_BLOCK_END

; external perimeters extrusion width = 0.40mm
; perimeters extrusion width = 0.45mm
; infill extrusion width = 0.45mm
; solid infill extrusion width = 0.40mm
; top infill extrusion width = 0.40mm
; support material extrusion width = 0.40mm
; first layer extrusion width = 0.50mm

; EXECUTABLE_BLOCK_START
EXCLUDE_OBJECT_DEFINE NAME=(Unsaved).stl_id_0_copy_0 CENTER=165,165 POLYGON=[[127,189.75],[144.5,140.75],[160.5,133.75],[180.5,133.75],[196.5,140.75],[203,188.25],[203,194.75],[133,196.25],[127,196.25],[127,189.75]]
M73 P0 R66
;TYPE:Custom
START_PRINT T_BED=70 T_EXTRUDER=240
G90
G21
M83 ; use relative distances for extrusion
; filament start gcode
PRESSURE_ADVANCE_SELECT FILAMENT=PETG
M106 S0
;LAYER_CHANGE
;Z:0.2
;HEIGHT:0.2
SET_VELOCITY_LIMIT ACCEL_TO_DECEL=250
M204 S500
G1 E-1 F3000
G1 X138.324 Y135.14 Z.2 F9000
G1 E1 F1800
;TYPE:Skirt
;WIDTH:0.5
G1 F3000
G1 X140.215 Y134.444 E.07276
G1 X201.213 Y134.444 E2.20241
G1 X202.675 Y134.837 E.05465
G1 X203.743 Y135.91 E.05465
G1 X204.105 Y136.996 E.04135
G1 X209.819 Y182.71 E1.66337
G1 X209.842 Y198.356 E.56494
G1 X209.449 Y199.818 E.05465
G1 X208.375 Y200.885 E.05465
G1 X206.928 Y201.27 E.05409
G1 X123.072 Y201.27 E3.02767
G1 X121.611 Y200.877 E.05465
G1 X120.543 Y199.804 E.05465
G1 X120.158 Y198.356 E.05409
G1 X120.158 Y185.928 E.44873
G1 X120.324 Y184.958 E.03553
G1 X137.467 Y136.388 E1.8597
G1 X138.29 Y135.19 E.05249
G1 X138.673 Y135.467 F9000
G1 F3000
G1 X138.71 Y135.415 E.00229
G1 X140.215 Y134.901 E.05741
G1 X201.213 Y134.901 E2.20241
G1 X202.545 Y135.293 E.0501
G1 X203.451 Y136.343 E.0501
G1 X203.652 Y137.053 E.02663
G1 X209.366 Y182.766 E1.66337
G1 X209.385 Y198.356 E.56289
G1 X208.993 Y199.688 E.0501
G1 X207.942 Y200.594 E.0501
G1 X206.928 Y200.813 E.03748
G1 X123.072 Y200.813 E3.02767
G1 X121.741 Y200.422 E.0501
G1 X120.835 Y199.371 E.0501
G1 X120.615 Y198.356 E.03748
G1 X120.615 Y185.928 E.44873
G1 X120.755 Y185.11 E.02996
G1 X137.898 Y136.54 E1.8597
G1 X138.638 Y135.515 E.04565
; printing object (Unsaved).stl id:0 copy 0
EXCLUDE_OBJECT_START NAME=(Unsaved).stl_id_0_copy_0
G1 E-1
G1 X201.213 Y180.214 F9000
G1 E1 F1800
;TYPE:Support
G1 F3000
G1 X204.07 Y180.214 E.10316
G1 X204.07 Y183.071 E.10316
G1 X206.928 Y183.071 E.10316
G1 X206.928 Y198.356 E.55189
G1 X194.499 Y198.356 E.44873
G1 X194.499 Y195.499 E.10316
G1 X141.215 Y195.499 E1.9239
G1 X141.215 Y198.356 E.10316
G1 X123.072 Y198.356 E.65505
G1 X123.072 Y185.928 E.44873
G1 X125.93 Y185.928 E.10316
G1 X125.93 Y183.071 E.10316
G1 X128.787 Y183.071 E.10316
G1 X128.787 Y180.214 E.10316
G1 X131.644 Y180.214 E.10316
G1 X131.644 Y177.357 E.10316
G1 X134.501 Y177.357 E.10316
G1 X134.501 Y174.5 E.10316
G1 X137.358 Y174.5 E.10316
G1 X137.358 Y171.643 E.10316
G1 X140.215 Y171.643 E.10316
G1 X140.215 Y137.358 E1.23789
G1 X201.213 Y137.358 E2.20241
G1 X201.213 Y180.145 E1.54489
G1 E-1
G1 X145.251 Y141.149 F9000
G1 E1 F1800
G1 F3000
G1 X144.9 Y141.5 E.01795
G1 X144.9 Y192 E1.82334
G1 X145.251 Y192.351 E.01795
G1 X195.749 Y192.351 E1.82325
G1 X196.1 Y192 E.01795
G1 X196.1 Y141.5 E1.82334
G1 X195.749 Y141.149 E.01795
G1 X145.32 Y141.149 E1.82077
G1 E-1
G1 X140.626 Y172.054 F9000
G1 E1 F1800
G1 F3000
G1 X140.626 Y137.769 E1.23789
G1 X200.802 Y137.769 E2.17271
G1 X200.802 Y180.625 E1.54737
G1 X203.659 Y180.625 E.10316
G1 X203.659 Y183.482 E.10316
G1 X206.516 Y183.482 E.10316
G1 X206.516 Y197.945 E.52218
G1 X194.911 Y197.945 E.41902
G1 X194.911 Y195.088 E.10316
G1 X140.803 Y195.088 E1.9536
G1 X140.803 Y197.945 E.10316
G1 X123.484 Y197.945 E.62534
G1 X123.484 Y186.34 E.41902
G1 X126.341 Y186.34 E.10316
G1 X126.341 Y183.482 E.10316
G1 X129.198 Y183.482 E.10316
G1 X129.198 Y180.625 E.10316
G1 X132.055 Y180.625 E.10316
G1 X132.055 Y177.768 E.10316
G1 X134.912 Y177.768 E.10316
G1 X134.912 Y174.911 E.10316
G1 X137.769 Y174.911 E.10316
G1 X137.769 Y172.054 E.10316
G1 X140.626 Y172.054 E.10316
G1 X141.134 Y172.562 F9000
G1 F3000
G1 X141.134 Y138.277 E1.23789
G1 X200.294 Y138.277 E2.13603
G1 X200.294 Y181.133 E1.54737
G1 X203.151 Y181.133 E.10316
G1 X203.151 Y183.99 E.10316
G1 X206.008 Y183.99 E.10316
G1 X206.008 Y197.437 E.48551
G1 X195.419 Y197.437 E.38235
G1 X195.419 Y194.58 E.10316
G1 X140.295 Y194.58 E1.99028
M73 P1 R66
G1 X140.295 Y197.437 E.10316
G1 X123.992 Y197.437 E.58867
G1 X123.992 Y186.847 E.38235
G1 X126.849 Y186.847 E.10316
G1 X126.849 Y183.99 E.10316
G1 X129.706 Y183.99 E.10316
G1 X129.706 Y181.133 E.10316
G1 X132.563 Y181.133 E.10316
G1 X132.563 Y178.276 E.10316
G1 X135.42 Y178.276 E.10316
G1 X135.42 Y175.419 E.10316
G1 X138.277 Y175.419 E.10316
G1 X138.277 Y172.562 E.10316
G1 X141.134 Y172.562 E.10316
G1 X141.642 Y173.07 F9000
G1 F3000
G1 X141.642 Y138.785 E1.23789
G1 X199.786 Y138.785 E2.09936
G1 X199.786 Y181.641 E1.54737
G1 X202.643 Y181.641 E.10316
G1 X202.643 Y184.498 E.10316
G1 X205.5 Y184.498 E.10316
G1 X205.5 Y196.929 E.44883
M73 P1 R65
G1 X195.927 Y196.929 E.34568
G1 X195.927 Y193.778 E.11376
G1 X196.34 Y193.778 E.01492
G1 X197.527 Y192.591 E.06063
G1 X197.527 Y140.909 E1.86603
G1 X196.34 Y139.722 E.06063
G1 X144.66 Y139.722 E1.86593
G1 X143.473 Y140.909 E.06063
G1 X143.473 Y192.591 E1.86603
G1 X144.954 Y194.072 E.07563
G1 X139.788 Y194.072 E.18654
G1 X139.788 Y196.929 E.10316
G1 X124.5 Y196.929 E.55199
G1 X124.5 Y187.355 E.34568
G1 X127.357 Y187.355 E.10316
G1 X127.357 Y184.498 E.10316
G1 X130.214 Y184.498 E.10316
G1 X130.214 Y181.641 E.10316
G1 X133.071 Y181.641 E.10316
G1 X133.071 Y178.784 E.10316
G1 X135.928 Y178.784 E.10316
G1 X135.928 Y175.927 E.10316
G1 X138.785 Y175.927 E.10316
G1 X138.785 Y173.07 E.10316
G1 X141.642 Y173.07 E.10316
G1 E-1
G1 X199.278 Y182.149 F9000
G1 E1 F1800
G1 F3000
G1 X202.136 Y182.149 E.10316
G1 X202.136 Y185.006 E.10316
G1 X204.993 Y185.006 E.10316
G1 X204.993 Y196.421 E.41216
G1 X196.434 Y196.421 E.309
G1 X196.434 Y194.402 E.07291
G1 X198.035 Y192.801 E.08173
G1 X198.035 Y140.699 E1.88122
G1 X196.629 Y139.293 E.07179
G1 X199.278 Y139.293 E.09566
G1 X199.278 Y182.149 E1.54737
G1 X198.543 Y182.657 F9000
G1 F3000
G1 X201.628 Y182.657 E.11138
G1 X201.628 Y185.514 E.10316
G1 X204.485 Y185.514 E.10316
G1 X204.485 Y195.913 E.37549
G1 X196.942 Y195.913 E.27233
G1 X196.942 Y194.612 E.04698
G1 X198.543 Y193.012 E.08173
G1 X198.543 Y182.657 E.37387
G1 X199.051 Y183.165 F9000
G1 F3000
G1 X201.12 Y183.165 E.07471
G1 X201.12 Y186.022 E.10316
G1 X203.977 Y186.022 E.10316
G1 X203.977 Y195.406 E.33881
G1 X197.45 Y195.406 E.23565
G1 X197.45 Y194.823 E.02105
G1 X199.051 Y193.222 E.08173
G1 X199.051 Y183.165 E.36313
G1 X199.559 Y183.673 F9000
G1 F3000
G1 X200.612 Y183.673 E.03803
G1 X200.612 Y186.53 E.10316
G1 X203.469 Y186.53 E.10316
G1 X203.469 Y194.898 E.30214
G1 X198.093 Y194.898 E.1941
G1 X199.559 Y193.432 E.07482
G1 X199.559 Y183.673 E.35239
G1 X200.066 Y187.038 F9000
G1 F3000
G1 X202.961 Y187.038 E.10452
G1 X202.961 Y194.39 E.26546
G1 X199.319 Y194.39 E.13149
G1 X200.066 Y193.643 E.03815
G1 X200.066 Y187.038 E.23849
G1 X200.574 Y187.545 F9000
G1 F3000
G1 X202.453 Y187.545 E.06784
G1 X202.453 Y193.882 E.22879
G1 X200.574 Y193.882 E.06784
G1 X200.574 Y187.545 E.22879
G1 X201.082 Y188.053 F9000
G1 F3000
G1 X201.945 Y188.053 E.03117
G1 X201.945 Y193.374 E.19212
G1 X201.082 Y193.374 E.03117
G1 X201.082 Y188.053 E.19212
G1 X198.771 Y140.716 F9000
G1 F3000
G1 X197.855 Y139.801 E.04674
G1 X198.771 Y139.801 E.03305
G1 X198.771 Y140.716 E.03305
G1 X144.371 Y139.293 F9000
G1 F3000
G1 X142.965 Y140.699 E.07179
G1 X142.965 Y192.801 E1.88122
G1 X143.728 Y193.564 E.03896
G1 X139.28 Y193.564 E.16061
G1 X139.28 Y196.421 E.10316
G1 X125.007 Y196.421 E.51532
G1 X125.007 Y187.863 E.309
G1 X127.864 Y187.863 E.10316
G1 X127.864 Y185.006 E.10316
G1 X130.722 Y185.006 E.10316
G1 X130.722 Y182.149 E.10316
G1 X133.579 Y182.149 E.10316
G1 X133.579 Y179.292 E.10316
G1 X136.436 Y179.292 E.10316
G1 X136.436 Y176.435 E.10316
G1 X139.293 Y176.435 E.10316
G1 X139.293 Y173.578 E.10316
G1 X142.15 Y173.578 E.10316
G1 X142.15 Y139.293 E1.23789
G1 X144.371 Y139.293 E.08019
G1 X142.457 Y174.086 F9000
G1 F3000
G1 X142.457 Y193.056 E.68496
G1 X138.772 Y193.056 E.13306
G1 X138.772 Y195.913 E.10316
G1 X125.515 Y195.913 E.47864
G1 X125.515 Y188.371 E.27233
G1 X128.372 Y188.371 E.10316
G1 X128.372 Y185.514 E.10316
G1 X131.229 Y185.514 E.10316
G1 X131.229 Y182.657 E.10316
G1 X134.087 Y182.657 E.10316
G1 X134.087 Y179.8 E.10316
G1 X136.944 Y179.8 E.10316
G1 X136.944 Y176.943 E.10316
G1 X139.801 Y176.943 E.10316
G1 X139.801 Y174.086 E.10316
G1 X142.457 Y174.086 E.09591
G1 X141.949 Y174.593 F9000
G1 F3000
G1 X141.949 Y192.549 E.64829
G1 X138.264 Y192.549 E.13306
G1 X138.264 Y195.406 E.10316
G1 X126.023 Y195.406 E.44197
G1 X126.023 Y188.879 E.23565
G1 X128.88 Y188.879 E.10316
G1 X128.88 Y186.022 E.10316
G1 X131.737 Y186.022 E.10316
G1 X131.737 Y183.165 E.10316
G1 X134.594 Y183.165 E.10316
G1 X134.594 Y180.308 E.10316
G1 X137.451 Y180.308 E.10316
G1 X137.451 Y177.451 E.10316
G1 X140.309 Y177.451 E.10316
G1 X140.309 Y174.593 E.10316
G1 X141.949 Y174.593 E.05924
G1 X141.441 Y175.101 F9000
G1 F3000
G1 X141.441 Y192.041 E.61161
G1 X137.756 Y192.041 E.13306
G1 X137.756 Y194.898 E.10316
G1 X126.531 Y194.898 E.4053
G1 X126.531 Y189.387 E.19898
G1 X129.388 Y189.387 E.10316
G1 X129.388 Y186.53 E.10316
G1 X132.245 Y186.53 E.10316
G1 X132.245 Y183.673 E.10316
G1 X135.102 Y183.673 E.10316
G1 X135.102 Y180.816 E.10316
G1 X137.959 Y180.816 E.10316
G1 X137.959 Y177.958 E.10316
G1 X140.816 Y177.958 E.10316
G1 X140.816 Y175.101 E.10316
G1 X141.441 Y175.101 E.02257
G1 X140.934 Y178.466 F9000
G1 F3000
G1 X140.934 Y191.533 E.47178
G1 X137.248 Y191.533 E.13306
G1 X137.248 Y194.39 E.10316
G1 X127.039 Y194.39 E.36862
G1 X127.039 Y189.895 E.16231
G1 X129.896 Y189.895 E.10316
G1 X129.896 Y187.038 E.10316
G1 X132.753 Y187.038 E.10316
G1 X132.753 Y184.18 E.10316
G1 X135.61 Y184.18 E.10316
G1 X135.61 Y181.323 E.10316
G1 X138.467 Y181.323 E.10316
G1 X138.467 Y178.466 E.10316
G1 X140.934 Y178.466 E.08905
G1 X140.426 Y178.974 F9000
G1 F3000
G1 X140.426 Y191.025 E.43511
G1 X136.74 Y191.025 E.13306
G1 X136.74 Y193.882 E.10316
G1 X127.547 Y193.882 E.33195
G1 X127.547 Y190.402 E.12563
G1 X130.404 Y190.402 E.10316
G1 X130.404 Y187.545 E.10316
M73 P2 R65
G1 X133.261 Y187.545 E.10316
G1 X133.261 Y184.688 E.10316
G1 X136.118 Y184.688 E.10316
G1 X136.118 Y181.831 E.10316
G1 X138.975 Y181.831 E.10316
G1 X138.975 Y178.974 E.10316
G1 X140.426 Y178.974 E.05238
G1 X139.918 Y182.339 F9000
G1 F3000
G1 X139.918 Y190.517 E.29527
G1 X136.233 Y190.517 E.13306
G1 X136.233 Y193.374 E.10316
G1 X128.055 Y193.374 E.29527
G1 X128.055 Y190.91 E.08896
G1 X130.912 Y190.91 E.10316
G1 X130.912 Y188.053 E.10316
G1 X133.769 Y188.053 E.10316
G1 X133.769 Y185.196 E.10316
G1 X136.626 Y185.196 E.10316
G1 X136.626 Y182.339 E.10316
G1 X139.918 Y182.339 E.11886
G1 X139.41 Y182.847 F9000
G1 F3000
G1 X139.41 Y190.009 E.2586
G1 X135.725 Y190.009 E.13306
G1 X135.725 Y192.866 E.10316
G1 X128.562 Y192.866 E.2586
G1 X128.562 Y191.418 E.05228
G1 X131.42 Y191.418 E.10316
G1 X131.42 Y188.561 E.10316
G1 X134.277 Y188.561 E.10316
G1 X134.277 Y185.704 E.10316
G1 X137.134 Y185.704 E.10316
G1 X137.134 Y182.847 E.10316
G1 X139.41 Y182.847 E.08219
G1 X138.902 Y183.355 F9000
G1 F3000
G1 X138.902 Y189.501 E.22193
G1 X135.217 Y189.501 E.13306
G1 X135.217 Y192.358 E.10316
G1 X131.927 Y192.358 E.11877
G1 X131.927 Y189.069 E.11877
G1 X134.784 Y189.069 E.10316
G1 X134.784 Y186.212 E.10316
G1 X137.642 Y186.212 E.10316
G1 X137.642 Y183.355 E.10316
G1 X138.902 Y183.355 E.04551
G1 X134.709 Y189.577 F9000
G1 F3000
G1 X134.709 Y191.851 E.08209
G1 X132.435 Y191.851 E.08209
G1 X132.435 Y189.577 E.08209
G1 X134.709 Y189.577 E.08209
G1 X134.201 Y190.085 F9000
G1 F3000
G1 X134.201 Y191.343 E.04542
G1 X132.943 Y191.343 E.04542
G1 X132.943 Y190.085 E.04542
G1 X134.201 Y190.085 E.04542
G1 X135.292 Y188.993 F9000
G1 F3000
G1 X135.292 Y186.72 E.08209
G1 X138.394 Y186.72 E.112
G1 X138.394 Y188.993 E.08209
G1 X135.292 Y188.993 E.112
G1 X135.8 Y188.486 F9000
G1 F3000
G1 X135.8 Y187.228 E.04542
G1 X137.886 Y187.228 E.07532
G1 X137.886 Y188.486 E.04542
G1 X135.8 Y188.486 E.07532
G1 X143.981 Y192.381 F9000
G1 F3000
G1 X143.981 Y141.119 E1.85084
G1 X144.871 Y140.229 E.04544
G1 X196.129 Y140.229 E1.85074
G1 X197.019 Y141.119 E.04544
G1 X197.019 Y192.381 E1.85084
G1 X196.129 Y193.271 E.04544
G1 X144.871 Y193.271 E1.85074
G1 X143.981 Y192.381 E.04544
G1 X144.489 Y192.17 F9000
G1 F3000
G1 X144.489 Y141.33 E1.83565
G1 X145.081 Y140.737 E.03025
G1 X195.919 Y140.737 E1.83555
G1 X196.511 Y141.33 E.03025
G1 X196.511 Y192.17 E1.83565
G1 X195.919 Y192.763 E.03025
G1 X145.081 Y192.763 E1.83555
G1 X144.489 Y192.17 E.03025
G1 E-1
G1 X146.207 Y191.044 F9000
G1 E1 F1800
;TYPE:Inner wall
;WIDTH:0.499999
G1 F3000
G1 X146.207 Y142.456 E1.75433
G1 X194.793 Y142.456 E1.75424
G1 X194.793 Y146.076 E.13071
G1 X194.793 Y191.044 E1.62362
G1 X146.267 Y191.044 E1.75207
G1 X145.75 Y191.501 F9000
;TYPE:Outer wall
G1 F3000
G1 X145.75 Y141.999 E1.78734
G1 X195.25 Y141.999 E1.78725
G1 X195.25 Y146.076 E.14721
G1 X195.25 Y191.501 E1.64013
G1 X145.81 Y191.501 E1.78508
G1 X145.772 Y191.424
G1 E-1
G1 X185.06 Y152.369 F9000
G1 E1 F1800
;WIDTH:0.548742
G1 F3000
G1 X184.691 Y152.008 E.02061
M73 P2 R64
G1 E-1
G1 X155.784 Y152.499 F9000
G1 E1 F1800
;WIDTH:0.58543
G1 F3000
G1 X156.435 Y151.866 E.0389
;WIDTH:0.563896
G1 X156.452 Y151.847 E.00106
G1 E-1
G1 X156.446 Y181.111 F9000
G1 E1 F1800
;WIDTH:0.582058
G1 F3000
G1 X155.798 Y180.476 E.03865
;WIDTH:0.584162
G1 X155.788 Y180.467 E.00061
G1 E-1
G1 X186.58 Y153.278 F9000
G1 E1 F1800
;TYPE:Inner wall
;WIDTH:0.499999
G1 F3000
G1 X191.006 Y157.704 E.22601
G1 X191.181 Y158.003 E.01251
G1 X191.207 Y158.189 E.00677
G1 X191.207 Y174.775 E.59887
G1 X191.181 Y174.961 E.00677
G1 X191.006 Y175.26 E.01251
G1 X186.58 Y179.686 E.22602
G1 X186.988 Y179.72 E.01479
G1 X187.534 Y179.875 E.02049
G1 X188.038 Y180.136 E.02049
G1 X188.478 Y180.494 E.02049
G1 X188.825 Y180.911 E.01958
G1 X189.102 Y181.435 E.02141
G1 X189.259 Y181.98 E.02049
G1 X189.304 Y182.546 E.02049
G1 X189.233 Y183.109 E.02049
G1 X189.051 Y183.646 E.02049
G1 X188.765 Y184.136 E.02049
G1 X188.434 Y184.517 E.0182
G1 X187.929 Y184.895 E.02279
G1 X187.414 Y185.133 E.02049
G1 X186.861 Y185.263 E.02049
G1 X186.294 Y185.279 E.02049
G1 X185.735 Y185.18 E.02049
G1 X185.208 Y184.971 E.02049
G1 X184.733 Y184.66 E.02049
G1 X184.331 Y184.259 E.02049
G1 X184.017 Y183.786 E.02049
G1 X183.806 Y183.26 E.02049
G1 X183.704 Y182.702 E.02049
G1 X183.704 Y182.562 E.00504
G1 X179.278 Y186.988 E.226
G1 X178.979 Y187.163 E.01251
G1 X178.793 Y187.189 E.00677
G1 X162.207 Y187.189 E.59887
G1 X161.855 Y187.092 E.01318
G1 X161.722 Y186.988 E.00609
G1 X157.302 Y182.569 E.22567
G1 X157.228 Y183.129 E.02043
G1 X157.042 Y183.665 E.02048
G1 X156.831 Y184.039 E.0155
G1 X156.47 Y184.477 E.02048
G1 X156.028 Y184.833 E.02048
G1 X155.524 Y185.092 E.02048
G1 X154.977 Y185.245 E.02048
G1 X154.411 Y185.284 E.02048
G1 X153.849 Y185.209 E.02048
G1 X153.313 Y185.022 E.02048
G1 X152.826 Y184.731 E.02049
G1 X152.408 Y184.348 E.02048
G1 X152.075 Y183.889 E.02048
G1 X151.841 Y183.372 E.02048
G1 X151.716 Y182.819 E.02048
G1 X151.706 Y182.251 E.02049
G1 X151.809 Y181.694 E.02048
G1 X152.023 Y181.168 E.02048
G1 X152.338 Y180.696 E.02048
G1 X152.742 Y180.298 E.02048
G1 X153.193 Y180.001 E.01949
G1 X153.715 Y179.79 E.02034
G1 X154.273 Y179.687 E.02049
G1 X154.413 Y179.68 E.00508
G1 X149.994 Y175.26 E.22568
G1 X149.819 Y174.961 E.01251
G1 X149.793 Y174.775 E.00677
G1 X149.793 Y158.189 E.59887
G1 X149.89 Y157.837 E.01318
G1 X149.994 Y157.704 E.00609
G1 X154.413 Y153.285 E.22565
G1 X153.859 Y153.212 E.02016
G1 X153.323 Y153.027 E.02049
G1 X152.835 Y152.738 E.02049
G1 X152.414 Y152.357 E.02049
G1 X152.08 Y151.899 E.02049
G1 X151.844 Y151.382 E.02049
G1 X151.717 Y150.829 E.02049
G1 X151.704 Y150.262 E.02049
G1 X151.806 Y149.704 E.02049
G1 X152.017 Y149.177 E.02049
G1 X152.331 Y148.704 E.02049
G1 X152.733 Y148.304 E.02049
G1 X153.208 Y147.993 E.02049
