; generated by SuperSlicer 2.5.59 on 2023-02-28 at 18:51:12 UTC


;
;

;
;
; 

; external perimeters extrusion width = 0.40mm
; perimeters extrusion width = 0.46mm
; infill extrusion width = 0.64mm
; solid infill extrusion width = 0.56mm
; top infill extrusion width = 0.40mm
; first layer extrusion width = 0.50mm

; object:{"name":"(Unsaved)","id":"(Unsaved).stl id:0 copy 0","object_center":[165.000000,165.000000,0.000000],"boundingbox_center":[165.000000,165.000000,3.999983],"boundingbox_size":[27.500628,25.058632,7.999966]}
; plater:{"center":[165.000000,165.000000,0.000000],"boundingbox_center":[165.000000,165.000000,3.999983],"boundingbox_size":[27.500628,25.058632,7.999966]}

M73 P0 R8


; Pre-Processed for Cancel-Object support by preprocess_cancellation v0.2.0
; 1 known objects
EXCLUDE_OBJECT_DEFINE NAME=Unsaved_stl_id_0_copy_0 CENTER=164.122,166.252 POLYGON=[[151.45,152.671],[151.45,177.329],[178.55,177.329],[178.55,152.671]]
;TYPE:Custom
; custom gcode: start_gcode
START_PRINT T_BED=70 T_EXTRUDER=240
; custom gcode end: start_gcode
M107
G21 ; set units to millimeters
G90 ; use absolute coordinates
M82 ; use absolute distances for extrusion
G92 E0
; custom gcode: start_filament_gcode
; Filament gcode
PRESSURE_ADVANCE_SELECT FILAMENT=PETG
; custom gcode end: start_filament_gcode
;_TOOLCHANGE 0
M104 S240 ; set temperature
M109 S240 ; set temperature and wait for it to be reached
M190 S70 ; set bed temperature and wait for it to be reached
;LAYER_CHANGE
;Z:0.2
;HEIGHT:0.2
G1 Z0.2 F9000
M73 P0 R8
G1 E-1 F3000
M204 S1000
G1 X164.458 Y160.569 F9000
G1 E0 F1800
;TYPE:Skirt
;WIDTH:0.52
G1 X163.305 Y162.814 E0.0981
G1 X162.907 Y165.306 E0.1962
G1 X162.908 Y173.596 E0.5185
G1 X163.391 Y176.336 E0.62663
G1 X164.617 Y178.541 E0.72473
G1 X166.468 Y180.256 E0.82283
G1 X168.761 Y181.31 E0.92093
G1 X171.5 Y181.587 E1.02796
G1 X173.77 Y181.154 E1.11781
G1 X175.995 Y179.963 E1.21591
G1 X177.738 Y178.139 E1.31401
G1 X178.828 Y175.863 E1.41211
G1 X179.155 Y173.361 E1.51021
G1 X178.923 Y165.081 E1.83224
G1 X178.582 Y162.983 E1.91488
G1 X177.479 Y160.713 E2.01298
G1 X175.724 Y158.9 E2.11108
G1 X173.493 Y157.722 E2.20918
G1 X171.005 Y157.297 E2.30727
G1 X168.509 Y157.667 E2.40537
G1 X166.252 Y158.795 E2.50347
G1 X164.458 Y160.569 E2.60157
G1 X164.895 Y160.802 F9000
G1 F1800
G1 X163.782 Y162.892 E2.69361
G1 X163.385 Y165.306 E2.78873
G1 X163.385 Y173.596 E3.11102
G1 X163.743 Y175.89 E3.2013
G1 X164.857 Y178.069 E3.29641
G1 X166.61 Y179.775 E3.39152
G1 X168.817 Y180.83 E3.48664
M73 P1 R8
G1 X171.479 Y181.111 E3.59068
G1 X173.331 Y180.795 E3.6637
G1 X175.526 Y179.716 E3.75882
G1 X177.26 Y177.99 E3.85393
G1 X178.349 Y175.799 E3.94904
G1 X178.678 Y173.374 E4.04416
G1 X178.446 Y165.094 E4.36619
G1 X178.291 Y163.77 E4.41801
G1 X177.41 Y161.488 E4.51312
G1 X175.844 Y159.608 E4.60823
G1 X173.758 Y158.33 E4.70335
G1 X171.372 Y157.787 E4.79846
G1 X168.938 Y158.038 E4.89358
G1 X166.713 Y159.055 E4.98869
G1 X164.932 Y160.732 E5.0838
G1 X164.895 Y160.802 E5.08687
G1 X165.328 Y161.042 F9000
G1 F1800
G1 X164.259 Y162.972 E5.17266
G1 X163.862 Y165.306 E5.26469
G1 X163.862 Y173.596 E5.58698
G1 X164.11 Y175.451 E5.65973
G1 X165.107 Y177.598 E5.75176
G1 X166.758 Y179.295 E5.84379
G1 X168.877 Y180.35 E5.93582
G1 X171.458 Y180.634 E6.03678
G1 X172.897 Y180.421 E6.09332
G1 X175.059 Y179.458 E6.18535
G1 X176.782 Y177.834 E6.27738
G1 X177.87 Y175.732 E6.36941
G1 X178.202 Y173.388 E6.46145
G1 X177.969 Y165.108 E6.78348
G1 X177.286 Y162.272 E6.89688
G1 X175.924 Y160.336 E6.98891
G1 X173.998 Y158.959 E7.08094
G1 X171.725 Y158.297 E7.17297
G1 X169.361 Y158.424 E7.265
G1 X167.173 Y159.326 E7.35703
G1 X165.405 Y160.901 E7.44906
G1 X165.328 Y161.042 E7.45532
G1 X165.756 Y161.289 F9000
G1 F1800
G1 X164.736 Y163.055 E7.53461
G1 X164.339 Y165.306 E7.62345
G1 X164.339 Y173.596 E7.94575
G1 X164.494 Y175.018 E8.00135
G1 X165.368 Y177.129 E8.09019
G1 X166.912 Y178.814 E8.17904
G1 X168.939 Y179.87 E8.26788
G1 X171.205 Y180.168 E8.35672
G1 X171.437 Y180.158 E8.36576
G1 X174.595 Y179.189 E8.49416
G1 X176.304 Y177.672 E8.583
G1 X177.391 Y175.662 E8.67185
G1 X177.725 Y173.401 E8.76069
G1 X177.492 Y165.121 E9.08272
G1 X177.1 Y163.061 E9.16423
M73 P2 R8
G1 X175.959 Y161.081 E9.25308
G1 X174.209 Y159.611 E9.34192
G1 X172.063 Y158.828 E9.43076
G1 X169.777 Y158.827 E9.5196
G1 X167.629 Y159.608 E9.60844
G1 X165.878 Y161.076 E9.69729
G1 X165.756 Y161.289 E9.70683
G1 X166.178 Y161.544 F9000
G1 F1800
G1 X165.212 Y163.142 E9.77939
G1 X164.816 Y165.306 E9.86493
G1 X164.816 Y173.596 E10.18723
G1 X165.643 Y176.663 E10.31072
G1 X167.074 Y178.334 E10.39625
G1 X169.005 Y179.39 E10.48179
G1 X171.184 Y179.691 E10.56732
G1 X174.133 Y178.907 E10.68595
G1 X175.827 Y177.503 E10.77148
G1 X176.912 Y175.589 E10.85702
G1 X177.248 Y173.415 E10.94255
G1 X177.015 Y165.134 E11.26458
G1 X176.842 Y163.851 E11.31493
G1 X175.941 Y161.844 E11.40046
G1 X174.386 Y160.287 E11.486
G1 X172.38 Y159.383 E11.57153
G1 X170.184 Y159.249 E11.65707
G1 X168.083 Y159.902 E11.7426
G1 X166.351 Y161.259 E11.82813
G1 X166.178 Y161.544 E11.84111
G1 X166.594 Y161.809 F9000
G1 F1800
G1 X165.689 Y163.232 E11.90665
G1 X165.293 Y165.306 E11.98875
G1 X165.293 Y173.596 E12.31104
G1 X165.932 Y176.2 E12.41528
G1 X167.244 Y177.855 E12.49737
G1 X169.074 Y178.909 E12.57947
G1 X171.163 Y179.215 E12.66156
G1 X173.675 Y178.611 E12.76198
G1 X175.35 Y177.325 E12.84407
G1 X176.433 Y175.512 E12.92616
G1 X176.771 Y173.428 E13.00826
G1 X176.538 Y165.148 E13.33029
G1 X175.859 Y162.621 E13.432
G1 X174.52 Y160.988 E13.51409
G1 X172.674 Y159.963 E13.59618
G1 X170.58 Y159.692 E13.67828
G1 X168.533 Y160.212 E13.76037
G1 X166.823 Y161.45 E13.84246
G1 X166.594 Y161.809 E13.85901
G1 X167.002 Y162.083 F9000
G1 F1800
G1 X166.166 Y163.326 E13.91722
G1 X165.77 Y165.306 E13.99572
G1 X165.77 Y173.596 E14.31802
G1 X166.238 Y175.741 E14.40337
G1 X167.424 Y177.376 E14.48188
G1 X169.147 Y178.429 E14.56038
G1 X171.142 Y178.738 E14.63888
G1 X173.22 Y178.298 E14.72147
G1 X174.874 Y177.138 E14.79997
M73 P3 R8
G1 X175.954 Y175.432 E14.87847
G1 X176.294 Y173.441 E14.95697
G1 X176.062 Y165.161 E15.279
G1 X175.701 Y163.409 E15.34854
G1 X174.604 Y161.714 E15.42704
G1 X172.938 Y160.572 E15.50554
G1 X170.962 Y160.159 E15.58404
G1 X168.978 Y160.538 E15.66254
G1 X167.293 Y161.65 E15.74104
G1 X167.002 Y162.083 E15.76133
G1 X167.4 Y162.368 F9000
G1 F1800
G1 X166.643 Y163.424 E15.81184
G1 X166.247 Y165.306 E15.88658
G1 X166.247 Y173.596 E16.20888
G1 X166.564 Y175.287 E16.27578
G1 X167.615 Y176.898 E16.35051
G1 X169.225 Y177.948 E16.42525
G1 X171.121 Y178.261 E16.49999
G1 X172.772 Y177.965 E16.56519
G1 X174.399 Y176.94 E16.63993
G1 X175.474 Y175.346 E16.71466
G1 X175.817 Y173.455 E16.7894
G1 X175.585 Y165.175 E17.11143
G1 X175.454 Y164.2 E17.14967
G1 X174.624 Y162.466 E17.22441
G1 X173.165 Y161.213 E17.29915
G1 X171.326 Y160.654 E17.37389
G1 X169.417 Y160.883 E17.44862
G1 X167.763 Y161.862 E17.52336
G1 X167.4 Y162.368 E17.54759
G1 X167.785 Y162.665 F9000
G1 F1800
G1 X167.119 Y163.529 E17.58997
G1 X166.724 Y165.306 E17.66074
G1 X166.724 Y173.596 E17.98304
G1 X166.913 Y174.841 E18.03199
G1 X167.819 Y176.421 E18.10277
G1 X169.308 Y177.468 E18.17354
G1 X171.1 Y177.785 E18.24431
G1 X172.331 Y177.608 E18.29265
G1 X173.925 Y176.728 E18.36342
G1 X174.995 Y175.256 E18.43419
G1 X175.34 Y173.468 E18.50497
G1 X175.108 Y165.188 E18.827
G1 X174.565 Y163.239 E18.90566
G1 X173.345 Y161.887 E18.97643
G1 X171.667 Y161.181 E19.0472
G1 X169.848 Y161.251 E19.11798
G1 X168.23 Y162.087 E19.18875
G1 X167.785 Y162.665 E19.21714
G1 X168.153 Y162.974 F9000
G1 F1800
G1 X167.596 Y163.639 E19.25089
G1 X167.201 Y165.306 E19.31746
G1 X167.201 Y173.596 E19.63976
G1 X168.038 Y175.945 E19.73671
G1 X169.398 Y176.987 E19.80328
G1 X171.08 Y177.308 E19.86985
G1 X171.312 Y177.298 E19.87889
G1 X173.453 Y176.501 E19.9677
G1 X174.516 Y175.158 E20.03427
G1 X174.863 Y173.482 E20.10085
G1 X174.631 Y165.201 E20.42288
M73 P4 R8
G1 X174.405 Y164.027 E20.46936
G1 X173.462 Y162.598 E20.53593
G1 X171.977 Y161.744 E20.60251
G1 X170.267 Y161.647 E20.66908
G1 X168.696 Y162.327 E20.73565
G1 X168.153 Y162.974 E20.76848
G1 X168.5 Y163.296 F9000
G1 F1800
G1 X168.072 Y163.758 E20.79298
G1 X167.678 Y165.306 E20.85507
G1 X167.678 Y173.596 E21.17737
G1 X168.277 Y175.472 E21.25393
G1 X169.495 Y176.506 E21.31602
G1 X171.059 Y176.831 E21.37811
G1 X171.291 Y176.821 E21.38715
G1 X172.984 Y176.255 E21.45655
G1 X174.036 Y175.053 E21.51864
G1 X174.386 Y173.495 E21.58073
G1 X174.154 Y165.215 E21.90276
G1 X173.495 Y163.345 E21.97982
G1 X172.244 Y162.352 E22.04191
G1 X170.671 Y162.076 E22.104
G1 X169.158 Y162.586 E22.16609
G1 X168.5 Y163.296 E22.20369
G92 E0
G1 E-1 F3000
; printing object (Unsaved).stl id:0 copy 0
EXCLUDE_OBJECT_START NAME=Unsaved_stl_id_0_copy_0
; acceleration to travel
M204 S3000
G1 X170.399 Y170.931 F9000
; decel to extrusion
M204 S1000
G1 X171.031 Y173.476
; end travel
G1 E0 F1800
;TYPE:External perimeter
;WIDTH:0.34
G1 X170.988 Y170.41 E0.07424
;LAYER_CHANGE
;Z:0.4
;HEIGHT:0.2
; stop printing object (Unsaved).stl id:0 copy 0
EXCLUDE_OBJECT_END NAME=Unsaved_stl_id_0_copy_0
M204 S4000
G1 Z0.4 F9000
; printing object (Unsaved).stl id:0 copy 0
EXCLUDE_OBJECT_START NAME=Unsaved_stl_id_0_copy_0
; acceleration to travel
M204 S3000
G1 X171.131 Y171.133
; decel to extrusion
M204 S2500
G1 X171.291 Y171.941
; end travel
;TYPE:Internal perimeter
;WIDTH:0.417079
G1 F4800
G1 X171.321 Y171.246 E0.09545
G1 X171.321 Y153.542 E0.63526
G1 X177.679 Y153.542 E0.82913
G1 X177.679 Y171.9 E1.38888
G1 X171.978 Y171.903 E1.5627
G1 X171.84 Y171.906 E1.56691
G1 X171.291 Y171.941 E1.5837
; acceleration to travel
M204 S3000
G1 X171.052 Y172.189 F9000
; decel to extrusion
M204 S2500
G1 X170.853 Y172.395
; end travel
G1 F4800
G1 X170.899 Y171.373 E1.6149
G1 X170.904 Y171.246 E1.61875
G1 X170.904 Y153.233 E2.16794
G1 X170.936 Y153.124 E2.17141
G1 X178.097 Y153.124 E2.38973
G1 X178.097 Y172.317 E2.9749
G1 X171.979 Y172.32 E3.16144
G1 X171.867 Y172.322 E3.16483
G1 X170.868 Y172.387 E3.19537
G1 X170.853 Y172.395 E3.19588
M204 S1500
G1 X170.832 Y172.811 F9000
;TYPE:External perimeter
;WIDTH:0.335487
G1 F2400
G1 X170.771 Y172.849 E3.19759
G1 X170.76 Y172.898 E3.19878
;WIDTH:0.312184
G1 X170.748 Y172.947 E3.19988
G1 X170.745 Y173.229 E3.20606
G1 X170.741 Y173.51 E3.21224
G1 X170.452 Y173.513 E3.21857
G1 X170.444 Y173.231 E3.22476
G1 X170.436 Y172.949 E3.23094
G1 X170.452 Y172.653 E3.23746
;WIDTH:0.357079
G1 X170.467 Y172.356 E3.24506
G1 X170.512 Y171.355 E3.2707
G1 X170.517 Y171.246 E3.2735
G1 X170.516 Y153.048 E3.73938
G1 X170.598 Y152.961 E3.74243
G1 X170.627 Y152.737 E3.7482
G1 X178.484 Y152.737 E3.94932
G1 X178.484 Y156.721 E4.0513
G1 X178.484 Y172.704 E4.46047
G1 X171.979 Y172.708 E4.627
M73 P5 R8
G1 X171.893 Y172.708 E4.62921
G1 X170.893 Y172.773 E4.65485
G1 X170.832 Y172.811 E4.65669
;WIPE_START
M204 S4000
G1 X170.478 Y172.624 F9000
;WIPE_END
; acceleration to travel
M204 S3000
G1 X171.542 Y172.111
; decel to extrusion
M204 S2000
G1 X172.228 Y171.781
; end travel
;TYPE:Bridge infill
;WIDTH:0.368782
;HEIGHT:0.368782
G1 F1800
G1 X172.228 Y153.823 E5.43821
G1 X172.965 Y153.823 E5.47031
G1 X172.965 Y171.622 E6.24492
G1 X173.703 Y171.621 E6.27702
G1 X173.703 Y153.823 E7.05161
G1 X174.441 Y153.823 E7.08371
G1 X174.441 Y171.621 E7.85828
G1 X175.178 Y171.62 E7.89038
G1 X175.178 Y153.823 E8.66493
G1 X175.916 Y153.823 E8.69703
G1 X175.916 Y171.62 E9.47157
G1 X176.653 Y171.62 E9.50367
G1 X176.653 Y153.823 E10.27819
G1 X177.391 Y153.823 E10.31029
G1 X177.391 Y171.778 E11.09169
;LAYER_CHANGE
;Z:0.6
;HEIGHT:0.2
; stop printing object (Unsaved).stl id:0 copy 0
EXCLUDE_OBJECT_END NAME=Unsaved_stl_id_0_copy_0
M204 S4000
M73 P6 R8
G1 Z0.6 F9000
; printing object (Unsaved).stl id:0 copy 0
EXCLUDE_OBJECT_START NAME=Unsaved_stl_id_0_copy_0
; acceleration to travel
M204 S3000
G1 X177.543 Y171.851
; decel to extrusion
M204 S2500
G1 X177.713 Y171.933
; end travel
;TYPE:Internal perimeter
;WIDTH:0.417079
G1 F2807
G1 X170.665 Y171.933 E11.30658
G1 X170.621 Y171.977 E11.30847
G1 X170.621 Y153.758 E11.86394
G1 X170.826 Y153.629 E11.87134
G1 X170.884 Y153.508 E11.87544
G1 X177.713 Y153.508 E12.08364
G1 X177.713 Y171.933 E12.6454
; acceleration to travel
M204 S3000
G1 X177.94 Y172.161 F9000
; decel to extrusion
M204 S2500
G1 X178.13 Y172.35
; end travel
G1 F2807
G1 X170.665 Y172.35 E12.873
G1 X170.536 Y172.492 E12.87883
;WIDTH:0.382159
G1 X170.408 Y172.633 E12.8841
;WIDTH:0.34724
G1 X170.28 Y172.774 E12.88884
;WIDTH:0.31232
G1 X170.152 Y172.916 E12.89303
G1 X170.165 Y172.659 E12.89867
;WIDTH:0.34724
G1 X170.178 Y172.403 E12.90504
;WIDTH:0.382159
G1 X170.191 Y172.146 E12.91215
;WIDTH:0.417079
G1 X170.204 Y171.889 E12.91998
G1 X170.204 Y153.508 E13.48041
G1 X170.565 Y153.304 E13.49306
G1 X170.667 Y153.091 E13.50027
G1 X178.13 Y153.091 E13.72781
G1 X178.13 Y157.054 E13.84864
G1 X178.13 Y172.35 E14.315
M204 S1500
G1 X178.517 Y172.737 F9000
;TYPE:External perimeter
;WIDTH:0.357079
G1 F2400
G1 X170.665 Y172.737 E14.51602
G1 X170.486 Y172.921 E14.52257
G1 X170.506 Y173.629 E14.54071
G1 X169.817 Y173.629 E14.55836
G1 X169.816 Y153.276 E15.07941
G1 X170.295 Y153.021 E15.09328
G1 X170.389 Y152.863 E15.09798
G1 X170.389 Y152.704 E15.10206
G1 X178.517 Y152.704 E15.31013
G1 X178.517 Y172.737 E15.82299
;WIPE_START
M204 S4000
G1 X178.171 Y172.537 F9000
;WIPE_END
G92 E0
G1 E-1 F3000
G1 Z0.8 F9000
; acceleration to travel
M204 S3000
G1 X174.321 Y172.899
; decel to extrusion
M204 S2500
G1 X170.157 Y173.289
; end travel
G1 Z0.6
G1 E0 F1800
;TYPE:Internal perimeter
;WIDTH:0.32259
G1 F2807
G1 X170.152 Y172.916 E0.00851
M204 S3000
G1 X177.583 Y154.684 F9000
;TYPE:Solid infill
;WIDTH:0.566905
G1 F2807
G1 X176.537 Y153.638 E0.07157
M73 P7 R8
G1 X175.806 Y153.638 F9000
G1 F2807
G1 X177.583 Y155.415 E0.17873
G1 X177.583 Y156.146 F9000
G1 F2807
G1 X175.075 Y153.638 E0.33001
G1 X174.344 Y153.638 F9000
G1 F2807
G1 X177.583 Y156.877 E0.5254
G1 X177.583 Y157.609 F9000
G1 F2807
G1 X173.612 Y153.638 E0.7649
G1 X172.881 Y153.638 F9000
G1 F2807
G1 X177.583 Y158.34 E1.04851
G1 X177.583 Y159.071 F9000
G1 F2807
G1 X172.15 Y153.638 E1.37624
G1 X171.419 Y153.638 F9000
G1 F2807
G1 X177.583 Y159.802 E1.74808
G1 X177.583 Y160.534 F9000
G1 F2807
G1 X170.83 Y153.781 E2.1554
G1 X170.751 Y154.433 F9000
G1 F2807
G1 X177.583 Y161.265 E2.56752
G1 X177.583 Y161.996 F9000
G1 F2807
G1 X170.751 Y155.164 E2.97965
G1 X170.751 Y155.895 F9000
G1 F2807
G1 X177.583 Y162.727 E3.39178
G1 X177.583 Y163.459 F9000
G1 F2807
G1 X170.751 Y156.627 E3.8039
G1 X170.751 Y157.358 F9000
G1 F2807
G1 X177.583 Y164.19 E4.21602
G1 X177.583 Y164.921 F9000
G1 F2807
G1 X170.751 Y158.089 E4.62815
G1 X170.751 Y158.821 F9000
G1 F2807
G1 X177.583 Y165.652 E5.04027
G1 X177.583 Y166.384 F9000
G1 F2807
G1 X170.751 Y159.552 E5.45239
G1 X170.751 Y160.283 F9000
G1 F2807
G1 X177.583 Y167.115 E5.86451
G1 X177.583 Y167.846 F9000
G1 F2807
G1 X170.751 Y161.014 E6.27663
G1 X170.751 Y161.746 F9000
G1 F2807
G1 X177.583 Y168.577 E6.68875
G1 X177.583 Y169.309 F9000
G1 F2807
G1 X170.751 Y162.477 E7.10087
G1 X170.751 Y163.208 F9000
G1 F2807
G1 X177.583 Y170.04 E7.51298
G1 X177.583 Y170.771 F9000
G1 F2807
G1 X170.751 Y163.939 E7.9251
G1 X170.751 Y164.671 F9000
G1 F2807
G1 X177.583 Y171.503 E8.33721
G1 X177.152 Y171.803 F9000
M73 P8 R7
G1 F2807
G1 X170.751 Y165.402 E8.72335
G1 X170.751 Y166.133 F9000
G1 F2807
G1 X176.421 Y171.803 E9.06537
G1 X175.69 Y171.803 F9000
G1 F2807
G1 X170.751 Y166.865 E9.36327
G1 X170.751 Y167.596 F9000
G1 F2807
G1 X174.958 Y171.803 E9.61707
G1 X174.227 Y171.803 F9000
G1 F2807
G1 X170.751 Y168.327 E9.82675
G1 X170.751 Y169.058 F9000
G1 F2807
G1 X173.496 Y171.803 E9.99232
G1 X172.764 Y171.803 F9000
G1 F2807
G1 X170.751 Y169.79 E10.11377
G1 X170.751 Y170.521 F9000
G1 F2807
G1 X172.033 Y171.803 E10.19112
G1 X171.302 Y171.803 F9000
G1 F2807
G1 X170.751 Y171.252 E10.22435
;LAYER_CHANGE
;Z:0.8
;HEIGHT:0.2
; stop printing object (Unsaved).stl id:0 copy 0
EXCLUDE_OBJECT_END NAME=Unsaved_stl_id_0_copy_0
M204 S4000
G1 Z0.8 F9000
; printing object (Unsaved).stl id:0 copy 0
EXCLUDE_OBJECT_START NAME=Unsaved_stl_id_0_copy_0
; acceleration to travel
M204 S3000
