; HEADER_BLOCK_START
; generated by OrcaSlicer 1.6.4-beta2 on 2023-08-14 at 19:57:38
; total layer number: 94
; HEADER_BLOCK_END

; THUMBNAIL_BLOCK_START
; THUMBNAIL_BLOCK_END

; external perimeters extrusion width = 0.40mm
; perimeters extrusion width = 0.46mm
; infill extrusion width = 0.64mm
; solid infill extrusion width = 0.56mm
; top infill extrusion width = 0.40mm
; support material extrusion width = 0.46mm
; first layer extrusion width = 0.50mm

; external perimeters extrusion width = 0.40mm
; perimeters extrusion width = 0.46mm
; infill extrusion width = 0.64mm
; solid infill extrusion width = 0.56mm
; top infill extrusion width = 0.40mm
; support material extrusion width = 0.46mm
; first layer extrusion width = 0.50mm

; EXECUTABLE_BLOCK_START
EXCLUDE_OBJECT_DEFINE NAME=(Unsaved).stl_id_0_copy_0 CENTER=165,165 POLYGON=[[104,155.75],[104.068,155.232],[106.068,140.732],[106.268,140.25],[106.586,139.836],[107,139.518],[107.482,139.318],[108,139.25],[222,139.25],[222.518,139.318],[223,139.518],[223.414,139.836],[223.732,140.25],[223.932,140.732],[225.932,155.232],[226,155.75],[226,188.75],[225.932,189.268],[225.732,189.75],[225.414,190.164],[225,190.482],[224.518,190.682],[224,190.75],[106,190.75],[105.482,190.682],[105,190.482],[104.586,190.164],[104.268,189.75],[104.068,189.268],[104,188.75],[104,155.75]]
EXCLUDE_OBJECT_DEFINE NAME=Pico_Pi_40mm_Fan_Mount_V2.stl_id_1_copy_0 CENTER=170,130 POLYGON=[[138,129.56],[138.003,129.476],[138.019,129.281],[138.029,129.196],[138.063,129.004],[138.082,128.919],[138.133,128.732],[138.16,128.649],[138.228,128.468],[138.263,128.388],[138.347,128.215],[138.39,128.137],[138.49,127.973],[138.54,127.899],[138.654,127.746],[138.712,127.676],[138.839,127.535],[138.903,127.47],[139.043,127.343],[139.114,127.283],[139.264,127.17],[139.34,127.117],[139.5,127.018],[139.582,126.973],[139.749,126.89],[139.835,126.851],[140.009,126.785],[140.099,126.755],[140.277,126.705],[140.371,126.683],[140.552,126.65],[140.649,126.637],[151.61,125.408],[151.836,125.384],[188.164,125.384],[188.389,125.408],[199.447,126.65],[199.49,126.657],[199.722,126.705],[199.765,126.716],[199.991,126.785],[200.033,126.8],[200.251,126.89],[200.292,126.909],[200.5,127.018],[200.54,127.042],[200.736,127.17],[200.774,127.198],[200.957,127.343],[200.993,127.374],[201.16,127.535],[201.194,127.571],[201.345,127.746],[201.376,127.785],[201.51,127.973],[201.537,128.016],[201.652,128.215],[201.676,128.261],[201.771,128.468],[201.791,128.517],[201.867,128.732],[201.882,128.783],[201.937,129.004],[201.947,129.057],[201.981,129.281],[201.987,129.335],[201.999,129.56],[202,129.616],[201.991,129.841],[201.987,129.897],[201.957,130.119],[201.947,130.176],[201.897,130.393],[201.882,130.449],[201.812,130.66],[201.791,130.715],[201.703,130.918],[201.676,130.972],[201.569,131.165],[201.537,131.217],[201.413,131.398],[201.376,131.447],[201.237,131.615],[201.194,131.662],[201.04,131.815],[200.993,131.858],[200.826,131.996],[200.774,132.035],[200.596,132.156],[200.54,132.191],[200.352,132.294],[200.292,132.324],[200.096,132.409],[200.033,132.433],[199.83,132.499],[199.765,132.517],[199.557,132.564],[199.49,132.576],[186.74,134.571],[186.403,134.605],[186.065,134.616],[153.934,134.616],[153.596,134.605],[153.26,134.571],[140.442,132.564],[140.371,132.55],[140.169,132.499],[140.099,132.478],[139.904,132.409],[139.835,132.381],[139.648,132.294],[139.582,132.26],[139.404,132.156],[139.34,132.116],[139.174,131.996],[139.114,131.949],[138.959,131.815],[138.903,131.762],[138.763,131.615],[138.712,131.557],[138.586,131.398],[138.54,131.334],[138.43,131.165],[138.39,131.096],[138.297,130.918],[138.263,130.845],[138.187,130.66],[138.16,130.583],[138.102,130.393],[138.082,130.313],[138.042,130.119],[138.029,130.037],[138.008,129.841],[138.003,129.757],[138,129.56]]
M73 P0 R33
;TYPE:Custom
START_PRINT T_BED=110 T_EXTRUDER=260
G90
G21
M83 ; use relative distances for extrusion
; Filament gcode
M106 S0
;LAYER_CHANGE
;Z:0.2
;HEIGHT:0.2
;BEFORE_LAYER_CHANGE
;0.2
G92 E0

SET_VELOCITY_LIMIT ACCEL=1000 ACCEL_TO_DECEL=500
G1 E-.5 F3000
G1 X104.812 Y137.524 F12000
G1 Z.2
G1 E.5 F1800
;TYPE:Skirt
;WIDTH:0.5
G1 F3000
G1 X105.885 Y136.826 E.04525
G1 X106.438 Y136.597 E.02116
G1 X138.936 Y124.128 E1.23031
G1 X139.907 Y123.857 E.03562
G1 X151.838 Y122.519 E.42438
G1 X188.467 Y122.536 E1.29469
G1 X199.821 Y123.812 E.40383
G1 X200.631 Y123.986 E.0293
G1 X201.412 Y124.274 E.02941
G1 X224.41 Y136.968 E.92849
G1 X225.188 Y137.524 E.0338
G1 X225.726 Y138.062 E.02689
G1 X226.424 Y139.135 E.04525
G1 X226.819 Y140.334 E.04463
G1 X228.914 Y155.75 E.5499
G1 X228.914 Y188.75 E1.16641
G1 X228.821 Y189.648 E.03191
G1 X228.424 Y190.865 E.04525
G1 X228.044 Y191.524 E.02689
G1 X227.188 Y192.476 E.04525
G1 X226.774 Y192.794 E.01846
G1 X225.633 Y193.374 E.04525
G1 X224.898 Y193.571 E.02689
G1 X224 Y193.664 E.03191
G1 X106 Y193.664 E4.17081
M73 P0 R32
G1 X105.102 Y193.571 E.03191
G1 X103.885 Y193.174 E.04525
G1 X102.812 Y192.476 E.04525
G1 X102.274 Y191.938 E.02689
G1 X101.576 Y190.865 E.04525
G1 X101.376 Y190.383 E.01845
G1 X101.179 Y189.648 E.02689
G1 X101.086 Y188.75 E.03191
G1 X101.086 Y155.75 E1.16641
G1 X103.181 Y140.334 E.5499
G1 X103.576 Y139.135 E.04462
G1 X103.956 Y138.476 E.02689
G1 X104.785 Y137.554 E.04384
G1 X105.09 Y137.886 F12000
G1 F3000
G1 X106.06 Y137.248 E.04104
G1 X106.602 Y137.024 E.02074
G1 X139.1 Y124.555 E1.23031
G1 X140.003 Y124.304 E.03312
G1 X151.838 Y122.977 E.42097
G1 X188.419 Y122.99 E1.29299
G1 X199.768 Y124.266 E.40364
G1 X200.494 Y124.422 E.02625
G1 X201.234 Y124.695 E.02788
G1 X224.189 Y137.368 E.9268
G1 X224.91 Y137.886 E.0314
G1 X225.364 Y138.34 E.02267
G1 X226.002 Y139.31 E.04104
G1 X226.366 Y140.397 E.04051
G1 X228.457 Y155.75 E.54769
G1 X228.457 Y188.75 E1.16641
G1 X228.368 Y189.588 E.0298
G1 X228.002 Y190.69 E.04104
G1 X227.681 Y191.246 E.02267
G1 X226.91 Y192.114 E.04104
G1 X226.496 Y192.431 E.01846
G1 X225.458 Y192.952 E.04104
G1 X224.838 Y193.118 E.02267
G1 X224 Y193.207 E.0298
G1 X106 Y193.207 E4.17081
G1 X105.162 Y193.118 E.0298
G1 X104.06 Y192.752 E.04104
G1 X103.09 Y192.114 E.04104
G1 X102.636 Y191.66 E.02267
G1 X102.319 Y191.246 E.01845
G1 X101.798 Y190.208 E.04104
G1 X101.632 Y189.588 E.02267
G1 X101.543 Y188.75 E.0298
G1 X101.543 Y155.75 E1.16641
G1 X103.634 Y140.397 E.54769
G1 X103.998 Y139.31 E.04051
G1 X104.319 Y138.754 E.02267
G1 X105.063 Y137.916 E.03962
; printing object (Unsaved).stl id:0 copy 0
EXCLUDE_OBJECT_START NAME=(Unsaved).stl_id_0_copy_0
G1 E-.5
G1 X184.85 Y154.1 F12000
G1 E.5 F1800
;TYPE:Outer wall
G1 F3000
G1 X184.85 Y141.273 E.45338
G1 X184.909 Y140.824 E.01601
G1 X185.074 Y140.427 E.0152
G1 X185.335 Y140.085 E.0152
G1 X185.677 Y139.824 E.0152
G1 X186.074 Y139.659 E.0152
G1 X186.523 Y139.6 E.01601
G1 X192.477 Y139.6 E.21045
G1 X192.926 Y139.659 E.01601
G1 X193.323 Y139.824 E.0152
G1 X193.665 Y140.085 E.0152
G1 X193.926 Y140.427 E.0152
G1 X194.091 Y140.824 E.0152
G1 X194.15 Y141.273 E.01601
G1 X194.15 Y154.1 E.45338
G1 X214.35 Y154.1 E.71399
G1 X214.35 Y141.273 E.45338
G1 X214.409 Y140.824 E.01601
G1 X214.574 Y140.427 E.0152
G1 X214.835 Y140.085 E.0152
G1 X215.177 Y139.824 E.0152
G1 X215.574 Y139.659 E.0152
G1 X216.023 Y139.6 E.01601
G1 X221.977 Y139.6 E.21045
G1 X222.426 Y139.659 E.01601
G1 X222.823 Y139.824 E.0152
G1 X223.165 Y140.085 E.0152
G1 X223.426 Y140.427 E.0152
G1 X223.591 Y140.824 E.0152
G1 X223.65 Y141.273 E.01602
G1 X223.65 Y154.057 E.45186
G1 X224.426 Y154.159 E.02767
G1 X224.823 Y154.324 E.0152
G1 X225.165 Y154.585 E.0152
G1 X225.426 Y154.927 E.0152
G1 X225.591 Y155.324 E.0152
G1 X225.65 Y155.773 E.01601
G1 X225.65 Y170.477 E.51973
G1 X225.591 Y170.926 E.01601
G1 X225.426 Y171.323 E.0152
G1 X225.165 Y171.665 E.0152
G1 X224.823 Y171.926 E.0152
G1 X224.426 Y172.091 E.0152
G1 X223.977 Y172.15 E.01601
G1 X222.977 Y172.15 E.03535
G1 X222.456 Y172.219 E.01859
G1 X221.948 Y172.429 E.0194
G1 X221.513 Y172.763 E.0194
G1 X221.179 Y173.198 E.0194
G1 X220.969 Y173.706 E.01941
G1 X220.897 Y174.25 E.0194
G1 X220.969 Y174.794 E.0194
G1 X221.179 Y175.302 E.0194
G1 X221.513 Y175.737 E.0194
G1 X221.948 Y176.071 E.0194
G1 X222.456 Y176.281 E.0194
G1 X222.977 Y176.35 E.01859
G1 X223.977 Y176.35 E.03535
G1 X224.426 Y176.409 E.01601
G1 X224.823 Y176.574 E.0152
G1 X225.165 Y176.835 E.0152
G1 X225.426 Y177.177 E.0152
G1 X225.591 Y177.574 E.0152
G1 X225.65 Y178.023 E.01601
G1 X225.65 Y188.727 E.37835
G1 X225.591 Y189.176 E.01601
G1 X225.426 Y189.573 E.0152
G1 X225.165 Y189.915 E.0152
G1 X224.823 Y190.176 E.0152
G1 X224.426 Y190.341 E.0152
G1 X223.977 Y190.4 E.01601
G1 X221.023 Y190.4 E.10442
G1 X220.574 Y190.341 E.01601
G1 X220.177 Y190.176 E.0152
G1 X219.835 Y189.915 E.0152
G1 X219.574 Y189.573 E.0152
G1 X219.409 Y189.176 E.0152
G1 X219.35 Y188.727 E.01601
G1 X219.35 Y187.727 E.03535
G1 X219.273 Y187.141 E.02089
G1 X219.038 Y186.573 E.02171
G1 X218.664 Y186.086 E.02171
G1 X218.177 Y185.712 E.02171
G1 X217.609 Y185.477 E.02171
G1 X217.023 Y185.4 E.02089
G1 X213.977 Y185.4 E.10766
G1 X213.391 Y185.477 E.02089
G1 X212.823 Y185.712 E.02171
G1 X212.336 Y186.086 E.02171
G1 X211.962 Y186.573 E.02171
G1 X211.727 Y187.141 E.02171
G1 X211.65 Y187.727 E.02089
G1 X211.65 Y188.727 E.03535
G1 X211.591 Y189.176 E.01601
G1 X211.426 Y189.573 E.0152
G1 X211.165 Y189.915 E.0152
G1 X210.823 Y190.176 E.0152
G1 X210.426 Y190.341 E.0152
M73 P1 R32
G1 X209.977 Y190.4 E.01601
G1 X169.523 Y190.4 E1.42989
G1 X169.074 Y190.341 E.01601
G1 X168.677 Y190.176 E.0152
G1 X168.335 Y189.915 E.0152
G1 X168.074 Y189.573 E.0152
G1 X167.909 Y189.176 E.0152
G1 X167.85 Y188.727 E.01601
G1 X167.85 Y185.227 E.12371
G1 X167.773 Y184.641 E.02089
G1 X167.538 Y184.073 E.02171
G1 X167.164 Y183.586 E.02171
G1 X166.677 Y183.212 E.02171
G1 X166.109 Y182.977 E.02171
G1 X165.523 Y182.9 E.02089
G1 X164.477 Y182.9 E.03697
G1 X163.891 Y182.977 E.02089
G1 X163.323 Y183.212 E.02171
G1 X162.836 Y183.586 E.02171
G1 X162.462 Y184.073 E.02171
G1 X162.227 Y184.641 E.02171
G1 X162.15 Y185.227 E.02089
G1 X162.15 Y188.727 E.12371
G1 X162.091 Y189.176 E.01601
G1 X161.926 Y189.573 E.0152
G1 X161.665 Y189.915 E.0152
G1 X161.323 Y190.176 E.0152
G1 X160.926 Y190.341 E.0152
G1 X160.477 Y190.4 E.01601
G1 X106.023 Y190.4 E1.92473
G1 X105.574 Y190.341 E.01601
G1 X105.177 Y190.176 E.0152
G1 X104.835 Y189.915 E.0152
G1 X104.574 Y189.573 E.0152
G1 X104.409 Y189.176 E.0152
G1 X104.35 Y188.727 E.01602
G1 X104.35 Y178.023 E.37835
G1 X104.409 Y177.574 E.01601
G1 X104.574 Y177.177 E.0152
G1 X104.835 Y176.835 E.0152
G1 X105.177 Y176.574 E.0152
G1 X105.574 Y176.409 E.0152
G1 X106.023 Y176.35 E.01601
G1 X107.023 Y176.35 E.03535
G1 X107.544 Y176.281 E.01859
G1 X108.052 Y176.071 E.01941
G1 X108.487 Y175.737 E.0194
G1 X108.821 Y175.302 E.0194
G1 X109.031 Y174.794 E.0194
G1 X109.103 Y174.25 E.0194
G1 X109.031 Y173.706 E.0194
G1 X108.821 Y173.198 E.0194
G1 X108.487 Y172.763 E.0194
G1 X108.052 Y172.429 E.0194
G1 X107.544 Y172.219 E.0194
G1 X107.023 Y172.15 E.01859
G1 X106.023 Y172.15 E.03535
G1 X105.574 Y172.091 E.01601
G1 X105.177 Y171.926 E.0152
G1 X104.835 Y171.665 E.0152
G1 X104.574 Y171.323 E.0152
G1 X104.409 Y170.926 E.0152
G1 X104.35 Y170.477 E.01601
G1 X104.35 Y155.773 E.51973
G1 X104.409 Y155.324 E.01601
G1 X104.574 Y154.927 E.0152
G1 X104.835 Y154.585 E.0152
G1 X105.177 Y154.324 E.0152
G1 X105.574 Y154.159 E.0152
G1 X106.35 Y154.057 E.02767
G1 X106.35 Y141.273 E.45186
G1 X106.409 Y140.824 E.01601
G1 X106.574 Y140.427 E.0152
G1 X106.835 Y140.085 E.0152
G1 X107.177 Y139.824 E.0152
G1 X107.574 Y139.659 E.0152
G1 X108.023 Y139.6 E.01601
G1 X113.977 Y139.6 E.21045
G1 X114.422 Y139.659 E.01587
G1 X114.824 Y139.824 E.01534
G1 X115.165 Y140.085 E.01519
G1 X115.426 Y140.427 E.0152
G1 X115.591 Y140.824 E.0152
G1 X115.65 Y141.273 E.01602
G1 X115.65 Y154.1 E.45338
G1 X135.85 Y154.1 E.71399
G1 X135.85 Y141.273 E.45338
G1 X135.909 Y140.824 E.01601
G1 X136.074 Y140.427 E.0152
G1 X136.335 Y140.085 E.0152
G1 X136.677 Y139.824 E.0152
G1 X137.074 Y139.659 E.0152
G1 X137.523 Y139.6 E.01601
G1 X143.477 Y139.6 E.21045
G1 X143.926 Y139.659 E.01601
G1 X144.323 Y139.824 E.0152
G1 X144.665 Y140.085 E.0152
G1 X144.926 Y140.427 E.0152
G1 X145.091 Y140.824 E.0152
G1 X145.15 Y141.273 E.01601
G1 X145.15 Y154.1 E.45338
G1 X162.477 Y154.1 E.61244
G3 X162.65 Y154.273 I.003 J.169 E.00966
G1 X162.65 Y162.273 E.28277
G1 X162.727 Y162.859 E.02089
G1 X162.962 Y163.427 E.02171
G1 X163.336 Y163.914 E.02171
G1 X163.823 Y164.288 E.02171
G1 X164.391 Y164.523 E.02171
G1 X165 Y164.603 E.02171
G1 X165.609 Y164.523 E.02171
G1 X165.893 Y164.405 E.01086
G1 X166.177 Y164.288 E.01086
G1 X166.664 Y163.914 E.02171
G1 X167.038 Y163.427 E.02171
G1 X167.273 Y162.859 E.02171
G1 X167.35 Y162.273 E.02089
G1 X167.35 Y154.273 E.28277
G3 X167.523 Y154.1 I.169 J-.003 E.00966
G1 X184.81 Y154.1 E.61103
G1 X185.307 Y154.557 F12000
;TYPE:Inner wall
G1 F3000
G1 X185.307 Y141.303 E.46848
G1 X185.354 Y140.943 E.01283
G3 X186.553 Y140.057 I1.191 J.357 E.05649
G1 X192.447 Y140.057 E.20834
G1 X192.807 Y140.104 E.01283
G3 X193.693 Y141.303 I-.357 J1.191 E.05649
G1 X193.693 Y154.557 E.46848
G1 X214.807 Y154.557 E.7463
G1 X214.807 Y141.303 E.46848
G1 X214.854 Y140.943 E.01283
G3 X216.053 Y140.057 I1.191 J.357 E.05649
G1 X221.947 Y140.057 E.20834
G1 X222.307 Y140.104 E.01283
G3 X223.193 Y141.303 I-.357 J1.191 E.05649
G1 X223.193 Y154.458 E.46497
G1 X224.307 Y154.604 E.03972
G3 X225.193 Y155.803 I-.357 J1.191 E.05649
G1 X225.193 Y170.447 E.51761
G1 X225.146 Y170.807 E.01283
G3 X223.947 Y171.693 I-1.191 J-.357 E.05649
G1 X222.947 Y171.693 E.03535
G1 X222.336 Y171.773 E.02177
G1 X221.718 Y172.029 E.02366
G1 X221.187 Y172.437 E.02366
G1 X220.779 Y172.968 E.02366
G1 X220.523 Y173.586 E.02366
G1 X220.436 Y174.25 E.02366
G1 X220.523 Y174.914 E.02366
G1 X220.779 Y175.532 E.02366
G1 X221.187 Y176.063 E.02366
G1 X221.718 Y176.471 E.02366
G1 X222.336 Y176.727 E.02366
G1 X222.947 Y176.807 E.02177
G1 X223.947 Y176.807 E.03535
G1 X224.307 Y176.854 E.01283
G3 X225.193 Y178.053 I-.357 J1.191 E.05649
G1 X225.193 Y188.697 E.37623
G1 X225.146 Y189.057 E.01283
G3 X223.947 Y189.943 I-1.191 J-.357 E.05649
G1 X221.053 Y189.943 E.1023
G1 X220.693 Y189.896 E.01283
G3 X219.807 Y188.697 I.357 J-1.191 E.05649
G1 X219.807 Y187.697 E.03535
G1 X219.718 Y187.022 E.02408
G1 X219.437 Y186.343 E.02597
G1 X218.99 Y185.76 E.02597
G1 X218.407 Y185.313 E.02597
G1 X217.728 Y185.032 E.02597
G1 X217.053 Y184.943 E.02408
G1 X213.947 Y184.943 E.10978
G1 X213.272 Y185.032 E.02408
G1 X212.593 Y185.313 E.02597
G1 X212.01 Y185.76 E.02597
G1 X211.563 Y186.343 E.02597
G1 X211.282 Y187.022 E.02597
G1 X211.193 Y187.697 E.02408
G1 X211.193 Y188.697 E.03535
G1 X211.146 Y189.057 E.01283
G3 X209.947 Y189.943 I-1.191 J-.357 E.05649
G1 X169.553 Y189.943 E1.42777
G1 X169.193 Y189.896 E.01283
G3 X168.307 Y188.697 I.357 J-1.191 E.05649
G1 X168.307 Y185.197 E.12371
G1 X168.218 Y184.522 E.02408
G1 X167.937 Y183.843 E.02597
G1 X167.49 Y183.26 E.02597
G1 X166.907 Y182.813 E.02597
G1 X166.228 Y182.532 E.02597
G1 X165.553 Y182.443 E.02408
G1 X164.447 Y182.443 E.03909
G1 X163.772 Y182.532 E.02408
G1 X163.093 Y182.813 E.02597
G1 X162.51 Y183.26 E.02597
G1 X162.063 Y183.843 E.02597
G1 X161.782 Y184.522 E.02597
G1 X161.693 Y185.197 E.02408
G1 X161.693 Y188.697 E.12371
G1 X161.646 Y189.057 E.01283
G3 X160.447 Y189.943 I-1.191 J-.357 E.05649
G1 X106.053 Y189.943 E1.92261
G1 X105.693 Y189.896 E.01283
G3 X104.807 Y188.697 I.357 J-1.191 E.05649
G1 X104.807 Y178.053 E.37623
G1 X104.854 Y177.693 E.01283
G3 X106.053 Y176.807 I1.191 J.357 E.05649
G1 X107.053 Y176.807 E.03535
G1 X107.664 Y176.727 E.02177
G1 X108.282 Y176.471 E.02366
G1 X108.813 Y176.063 E.02366
G1 X109.221 Y175.532 E.02366
G1 X109.477 Y174.914 E.02366
G1 X109.564 Y174.25 E.02366
G1 X109.477 Y173.586 E.02366
G1 X109.221 Y172.968 E.02366
G1 X108.813 Y172.437 E.02366
G1 X108.282 Y172.029 E.02366
G1 X107.664 Y171.773 E.02366
G1 X107.053 Y171.693 E.02177
G1 X106.053 Y171.693 E.03535
G1 X105.693 Y171.646 E.01283
G3 X104.807 Y170.447 I.357 J-1.191 E.05649
G1 X104.807 Y155.803 E.51761
G1 X104.854 Y155.443 E.01283
G3 X105.693 Y154.604 I1.146 J.307 E.0439
