; HEADER_BLOCK_START
; generated by OrcaSlicer 1.6.4-beta2 on 2023-08-15 at 14:14:47
; total layer number: 15
; HEADER_BLOCK_END

; THUMBNAIL_BLOCK_START
; THUMBNAIL_BLOCK_END

; external perimeters extrusion width = 0.40mm
; perimeters extrusion width = 0.46mm
; infill extrusion width = 0.64mm
; solid infill extrusion width = 0.56mm
; top infill extrusion width = 0.40mm
; support material extrusion width = 0.46mm
; first layer extrusion width = 0.50mm

; EXECUTABLE_BLOCK_START
EXCLUDE_OBJECT_DEFINE NAME=(Unsaved).stl_id_0_copy_0 CENTER=165,165 POLYGON=[[104,155.75],[104.068,155.232],[106.068,140.732],[106.268,140.25],[106.586,139.836],[107,139.518],[107.482,139.318],[108,139.25],[222,139.25],[222.518,139.318],[223,139.518],[223.414,139.836],[223.732,140.25],[223.932,140.732],[225.932,155.232],[226,155.75],[226,188.75],[225.932,189.268],[225.732,189.75],[225.414,190.164],[225,190.482],[224.518,190.682],[224,190.75],[106,190.75],[105.482,190.682],[105,190.482],[104.586,190.164],[104.268,189.75],[104.068,189.268],[104,188.75],[104,155.75]]
M73 P0 R23
;TYPE:Custom
START_PRINT T_BED=110 T_EXTRUDER=260
G90
G21
M83 ; use relative distances for extrusion
; Filament gcode
M106 S0
;LAYER_CHANGE
;Z:0.2
;HEIGHT:0.2
;BEFORE_LAYER_CHANGE
;0.2
G92 E0

SET_VELOCITY_LIMIT ACCEL=1000 ACCEL_TO_DECEL=500
G1 E-.5 F3000
G1 X105.226 Y137.206 F12000
G1 Z.2
G1 E.5 F1800
;TYPE:Skirt
;WIDTH:0.5
G1 F3000
G1 X105.885 Y136.826 E.02689
G1 X107.102 Y136.429 E.04525
G1 X108 Y136.336 E.03191
G1 X222.38 Y136.361 E4.04288
G1 X222.898 Y136.429 E.01845
G1 X224.115 Y136.826 E.04525
G1 X225.188 Y137.524 E.04525
G1 X226.044 Y138.476 E.04525
G1 X226.624 Y139.617 E.04525
G1 X226.819 Y140.334 E.02626
G1 X228.889 Y155.37 E.53646
G1 X228.889 Y189.13 E1.1933
G1 X228.624 Y190.383 E.04525
G1 X228.044 Y191.524 E.04525
G1 X227.188 Y192.476 E.04525
G1 X226.115 Y193.174 E.04525
G1 X224.898 Y193.571 E.04525
G1 X224 Y193.664 E.03191
G1 X106 Y193.664 E4.17081
G1 X105.102 Y193.571 E.03191
G1 X104.367 Y193.374 E.02689
G1 X103.226 Y192.794 E.04525
G1 X102.274 Y191.938 E.04525
G1 X101.576 Y190.865 E.04525
G1 X101.179 Y189.648 E.04525
G1 X101.086 Y188.75 E.03191
G1 X101.111 Y155.37 E1.17986
G1 X103.181 Y140.334 E.53646
G1 X103.576 Y139.135 E.04462
G1 X104.274 Y138.062 E.04525
G1 X105.196 Y137.233 E.04384
G1 X105.499 Y137.573 F12000
G1 F3000
G1 X105.504 Y137.569 E.00025
G1 X106.06 Y137.248 E.02267
G1 X107.162 Y136.882 E.04104
G1 X108 Y136.793 E.0298
G1 X222.321 Y136.814 E4.04077
G1 X223.458 Y137.048 E.04104
G1 X223.94 Y137.248 E.01845
G1 X224.91 Y137.886 E.04104
G1 X225.681 Y138.754 E.04104
G1 X226.202 Y139.792 E.04104
G1 X226.366 Y140.397 E.02214
G1 X228.457 Y155.75 E.54769
G1 X228.436 Y189.071 E1.17775
G1 X228.202 Y190.208 E.04104
G1 X227.681 Y191.246 E.04104
G1 X226.91 Y192.114 E.04104
G1 X225.94 Y192.752 E.04104
G1 X224.838 Y193.118 E.04104
G1 X224 Y193.207 E.0298
G1 X106 Y193.207 E4.17081
M73 P1 R23
G1 X105.162 Y193.118 E.0298
G1 X104.542 Y192.952 E.02267
G1 X103.504 Y192.431 E.04104
G1 X102.636 Y191.66 E.04104
G1 X101.998 Y190.69 E.04104
G1 X101.632 Y189.588 E.04104
G1 X101.543 Y188.75 E.0298
G1 X101.564 Y155.429 E1.17775
G1 X103.634 Y140.397 E.53636
G1 X103.998 Y139.31 E.04051
G1 X104.636 Y138.34 E.04104
G1 X105.469 Y137.6 E.03938
; printing object (Unsaved).stl id:0 copy 0
EXCLUDE_OBJECT_START NAME=(Unsaved).stl_id_0_copy_0
G1 E-.5
G1 X184.85 Y154.1 F12000
G1 E.5 F1800
;TYPE:Outer wall
G1 F3000
G1 X184.85 Y141.273 E.45338
G1 X184.909 Y140.824 E.01601
G1 X185.074 Y140.427 E.0152
G1 X185.335 Y140.085 E.0152
G1 X185.677 Y139.824 E.0152
G1 X186.074 Y139.659 E.0152
G1 X186.523 Y139.6 E.01601
G1 X192.477 Y139.6 E.21045
G1 X192.926 Y139.659 E.01601
G1 X193.323 Y139.824 E.0152
G1 X193.665 Y140.085 E.0152
G1 X193.926 Y140.427 E.0152
G1 X194.091 Y140.824 E.0152
G1 X194.15 Y141.273 E.01601
G1 X194.15 Y154.1 E.45338
G1 X214.35 Y154.1 E.71399
G1 X214.35 Y141.273 E.45338
G1 X214.409 Y140.824 E.01601
G1 X214.574 Y140.427 E.0152
G1 X214.835 Y140.085 E.0152
G1 X215.177 Y139.824 E.0152
G1 X215.574 Y139.659 E.0152
G1 X216.023 Y139.6 E.01601
G1 X221.977 Y139.6 E.21045
G1 X222.426 Y139.659 E.01601
G1 X222.823 Y139.824 E.0152
G1 X223.165 Y140.085 E.0152
G1 X223.426 Y140.427 E.0152
G1 X223.591 Y140.824 E.0152
G1 X223.65 Y141.273 E.01602
G1 X223.65 Y154.057 E.45186
G1 X224.426 Y154.159 E.02767
G1 X224.823 Y154.324 E.0152
G1 X225.165 Y154.585 E.0152
G1 X225.426 Y154.927 E.0152
G1 X225.591 Y155.324 E.0152
G1 X225.65 Y155.773 E.01601
G1 X225.65 Y170.477 E.51973
G1 X225.591 Y170.926 E.01601
G1 X225.426 Y171.323 E.0152
G1 X225.165 Y171.665 E.0152
G1 X224.823 Y171.926 E.0152
G1 X224.426 Y172.091 E.0152
G1 X223.977 Y172.15 E.01601
G1 X222.977 Y172.15 E.03535
G1 X222.456 Y172.219 E.01859
G1 X221.948 Y172.429 E.0194
G1 X221.513 Y172.763 E.0194
G1 X221.179 Y173.198 E.0194
G1 X220.969 Y173.706 E.01941
G1 X220.897 Y174.25 E.0194
G1 X220.969 Y174.794 E.0194
G1 X221.179 Y175.302 E.0194
G1 X221.513 Y175.737 E.0194
G1 X221.948 Y176.071 E.0194
G1 X222.456 Y176.281 E.0194
G1 X222.977 Y176.35 E.01859
G1 X223.977 Y176.35 E.03535
G1 X224.426 Y176.409 E.01601
G1 X224.823 Y176.574 E.0152
G1 X225.165 Y176.835 E.0152
G1 X225.426 Y177.177 E.0152
G1 X225.591 Y177.574 E.0152
G1 X225.65 Y178.023 E.01601
G1 X225.65 Y188.727 E.37835
G1 X225.591 Y189.176 E.01601
G1 X225.426 Y189.573 E.0152
G1 X225.165 Y189.915 E.0152
G1 X224.823 Y190.176 E.0152
G1 X224.426 Y190.341 E.0152
G1 X223.977 Y190.4 E.01601
G1 X221.023 Y190.4 E.10442
G1 X220.574 Y190.341 E.01601
G1 X220.177 Y190.176 E.0152
G1 X219.835 Y189.915 E.0152
G1 X219.574 Y189.573 E.0152
G1 X219.409 Y189.176 E.0152
G1 X219.35 Y188.727 E.01601
G1 X219.35 Y187.727 E.03535
G1 X219.273 Y187.141 E.02089
G1 X219.038 Y186.573 E.02171
G1 X218.664 Y186.086 E.02171
G1 X218.177 Y185.712 E.02171
G1 X217.609 Y185.477 E.02171
G1 X217.023 Y185.4 E.02089
G1 X213.977 Y185.4 E.10766
G1 X213.391 Y185.477 E.02089
G1 X212.823 Y185.712 E.02171
G1 X212.336 Y186.086 E.02171
G1 X211.962 Y186.573 E.02171
G1 X211.727 Y187.141 E.02171
G1 X211.65 Y187.727 E.02089
G1 X211.65 Y188.727 E.03535
G1 X211.591 Y189.176 E.01601
G1 X211.426 Y189.573 E.0152
G1 X211.165 Y189.915 E.0152
G1 X210.823 Y190.176 E.0152
G1 X210.426 Y190.341 E.0152
G1 X209.977 Y190.4 E.01601
G1 X169.523 Y190.4 E1.42989
G1 X169.074 Y190.341 E.01601
G1 X168.677 Y190.176 E.0152
G1 X168.335 Y189.915 E.0152
G1 X168.074 Y189.573 E.0152
G1 X167.909 Y189.176 E.0152
G1 X167.85 Y188.727 E.01601
G1 X167.85 Y185.227 E.12371
G1 X167.773 Y184.641 E.02089
G1 X167.538 Y184.073 E.02171
G1 X167.164 Y183.586 E.02171
G1 X166.677 Y183.212 E.02171
G1 X166.109 Y182.977 E.02171
G1 X165.523 Y182.9 E.02089
G1 X164.477 Y182.9 E.03697
G1 X163.891 Y182.977 E.02089
G1 X163.323 Y183.212 E.02171
G1 X162.836 Y183.586 E.02171
G1 X162.462 Y184.073 E.02171
G1 X162.227 Y184.641 E.02171
G1 X162.15 Y185.227 E.02089
G1 X162.15 Y188.727 E.12371
G1 X162.091 Y189.176 E.01601
G1 X161.926 Y189.573 E.0152
G1 X161.665 Y189.915 E.0152
G1 X161.323 Y190.176 E.0152
G1 X160.926 Y190.341 E.0152
G1 X160.477 Y190.4 E.01601
G1 X106.023 Y190.4 E1.92473
G1 X105.574 Y190.341 E.01601
G1 X105.177 Y190.176 E.0152
G1 X104.835 Y189.915 E.0152
G1 X104.574 Y189.573 E.0152
G1 X104.409 Y189.176 E.0152
G1 X104.35 Y188.727 E.01602
G1 X104.35 Y178.023 E.37835
G1 X104.409 Y177.574 E.01601
G1 X104.574 Y177.177 E.0152
G1 X104.835 Y176.835 E.0152
G1 X105.177 Y176.574 E.0152
G1 X105.574 Y176.409 E.0152
G1 X106.023 Y176.35 E.01601
G1 X107.023 Y176.35 E.03535
G1 X107.544 Y176.281 E.01859
G1 X108.052 Y176.071 E.01941
G1 X108.487 Y175.737 E.0194
G1 X108.821 Y175.302 E.0194
G1 X109.031 Y174.794 E.0194
G1 X109.103 Y174.25 E.0194
G1 X109.031 Y173.706 E.0194
G1 X108.821 Y173.198 E.0194
G1 X108.487 Y172.763 E.0194
G1 X108.052 Y172.429 E.0194
G1 X107.544 Y172.219 E.0194
G1 X107.023 Y172.15 E.01859
G1 X106.023 Y172.15 E.03535
G1 X105.574 Y172.091 E.01601
G1 X105.177 Y171.926 E.0152
G1 X104.835 Y171.665 E.0152
G1 X104.574 Y171.323 E.0152
G1 X104.409 Y170.926 E.0152
G1 X104.35 Y170.477 E.01601
G1 X104.35 Y155.773 E.51973
G1 X104.409 Y155.324 E.01601
G1 X104.574 Y154.927 E.0152
G1 X104.835 Y154.585 E.0152
G1 X105.177 Y154.324 E.0152
G1 X105.574 Y154.159 E.0152
G1 X106.35 Y154.057 E.02767
G1 X106.35 Y141.273 E.45186
G1 X106.409 Y140.824 E.01601
G1 X106.574 Y140.427 E.0152
G1 X106.835 Y140.085 E.0152
G1 X107.177 Y139.824 E.0152
G1 X107.574 Y139.659 E.0152
G1 X108.023 Y139.6 E.01601
G1 X113.977 Y139.6 E.21045
G1 X114.422 Y139.659 E.01587
G1 X114.824 Y139.824 E.01534
G1 X115.165 Y140.085 E.01519
G1 X115.426 Y140.427 E.0152
G1 X115.591 Y140.824 E.0152
G1 X115.65 Y141.273 E.01602
G1 X115.65 Y154.1 E.45338
G1 X135.85 Y154.1 E.71399
G1 X135.85 Y141.273 E.45338
G1 X135.909 Y140.824 E.01601
G1 X136.074 Y140.427 E.0152
G1 X136.335 Y140.085 E.0152
G1 X136.677 Y139.824 E.0152
G1 X137.074 Y139.659 E.0152
G1 X137.523 Y139.6 E.01601
G1 X143.477 Y139.6 E.21045
G1 X143.926 Y139.659 E.01601
G1 X144.323 Y139.824 E.0152
G1 X144.665 Y140.085 E.0152
G1 X144.926 Y140.427 E.0152
G1 X145.091 Y140.824 E.0152
G1 X145.15 Y141.273 E.01601
G1 X145.15 Y154.1 E.45338
G1 X162.477 Y154.1 E.61244
G3 X162.65 Y154.273 I.003 J.169 E.00966
G1 X162.65 Y162.273 E.28277
G1 X162.727 Y162.859 E.02089
G1 X162.962 Y163.427 E.02171
G1 X163.336 Y163.914 E.02171
G1 X163.823 Y164.288 E.02171
G1 X164.391 Y164.523 E.02171
G1 X165 Y164.603 E.02171
G1 X165.609 Y164.523 E.02171
G1 X165.893 Y164.405 E.01086
G1 X166.177 Y164.288 E.01086
G1 X166.664 Y163.914 E.02171
G1 X167.038 Y163.427 E.02171
G1 X167.273 Y162.859 E.02171
G1 X167.35 Y162.273 E.02089
G1 X167.35 Y154.273 E.28277
G3 X167.523 Y154.1 I.169 J-.003 E.00966
G1 X184.81 Y154.1 E.61103
G1 X185.307 Y154.557 F12000
;TYPE:Inner wall
G1 F3000
G1 X185.307 Y141.303 E.46848
G1 X185.354 Y140.943 E.01283
G3 X186.553 Y140.057 I1.191 J.357 E.05649
G1 X192.447 Y140.057 E.20834
G1 X192.807 Y140.104 E.01283
G3 X193.693 Y141.303 I-.357 J1.191 E.05649
G1 X193.693 Y154.557 E.46848
M73 P1 R22
G1 X214.807 Y154.557 E.7463
G1 X214.807 Y141.303 E.46848
G1 X214.854 Y140.943 E.01283
G3 X216.053 Y140.057 I1.191 J.357 E.05649
G1 X221.947 Y140.057 E.20834
G1 X222.307 Y140.104 E.01283
G3 X223.193 Y141.303 I-.357 J1.191 E.05649
G1 X223.193 Y154.458 E.46497
M73 P2 R22
G1 X224.307 Y154.604 E.03972
G3 X225.193 Y155.803 I-.357 J1.191 E.05649
G1 X225.193 Y170.447 E.51761
G1 X225.146 Y170.807 E.01283
G3 X223.947 Y171.693 I-1.191 J-.357 E.05649
G1 X222.947 Y171.693 E.03535
G1 X222.336 Y171.773 E.02177
G1 X221.718 Y172.029 E.02366
G1 X221.187 Y172.437 E.02366
G1 X220.779 Y172.968 E.02366
G1 X220.523 Y173.586 E.02366
G1 X220.436 Y174.25 E.02366
G1 X220.523 Y174.914 E.02366
G1 X220.779 Y175.532 E.02366
G1 X221.187 Y176.063 E.02366
G1 X221.718 Y176.471 E.02366
G1 X222.336 Y176.727 E.02366
G1 X222.947 Y176.807 E.02177
G1 X223.947 Y176.807 E.03535
G1 X224.307 Y176.854 E.01283
G3 X225.193 Y178.053 I-.357 J1.191 E.05649
G1 X225.193 Y188.697 E.37623
G1 X225.146 Y189.057 E.01283
G3 X223.947 Y189.943 I-1.191 J-.357 E.05649
G1 X221.053 Y189.943 E.1023
G1 X220.693 Y189.896 E.01283
G3 X219.807 Y188.697 I.357 J-1.191 E.05649
G1 X219.807 Y187.697 E.03535
G1 X219.718 Y187.022 E.02408
G1 X219.437 Y186.343 E.02597
G1 X218.99 Y185.76 E.02597
G1 X218.407 Y185.313 E.02597
G1 X217.728 Y185.032 E.02597
G1 X217.053 Y184.943 E.02408
G1 X213.947 Y184.943 E.10978
G1 X213.272 Y185.032 E.02408
G1 X212.593 Y185.313 E.02597
G1 X212.01 Y185.76 E.02597
G1 X211.563 Y186.343 E.02597
G1 X211.282 Y187.022 E.02597
G1 X211.193 Y187.697 E.02408
G1 X211.193 Y188.697 E.03535
G1 X211.146 Y189.057 E.01283
G3 X209.947 Y189.943 I-1.191 J-.357 E.05649
G1 X169.553 Y189.943 E1.42777
G1 X169.193 Y189.896 E.01283
G3 X168.307 Y188.697 I.357 J-1.191 E.05649
G1 X168.307 Y185.197 E.12371
G1 X168.218 Y184.522 E.02408
G1 X167.937 Y183.843 E.02597
G1 X167.49 Y183.26 E.02597
G1 X166.907 Y182.813 E.02597
G1 X166.228 Y182.532 E.02597
G1 X165.553 Y182.443 E.02408
G1 X164.447 Y182.443 E.03909
G1 X163.772 Y182.532 E.02408
G1 X163.093 Y182.813 E.02597
G1 X162.51 Y183.26 E.02597
G1 X162.063 Y183.843 E.02597
G1 X161.782 Y184.522 E.02597
G1 X161.693 Y185.197 E.02408
G1 X161.693 Y188.697 E.12371
G1 X161.646 Y189.057 E.01283
G3 X160.447 Y189.943 I-1.191 J-.357 E.05649
G1 X106.053 Y189.943 E1.92261
G1 X105.693 Y189.896 E.01283
G3 X104.807 Y188.697 I.357 J-1.191 E.05649
G1 X104.807 Y178.053 E.37623
G1 X104.854 Y177.693 E.01283
G3 X106.053 Y176.807 I1.191 J.357 E.05649
G1 X107.053 Y176.807 E.03535
G1 X107.664 Y176.727 E.02177
G1 X108.282 Y176.471 E.02366
G1 X108.813 Y176.063 E.02366
G1 X109.221 Y175.532 E.02366
G1 X109.477 Y174.914 E.02366
G1 X109.564 Y174.25 E.02366
G1 X109.477 Y173.586 E.02366
G1 X109.221 Y172.968 E.02366
G1 X108.813 Y172.437 E.02366
G1 X108.282 Y172.029 E.02366
G1 X107.664 Y171.773 E.02366
G1 X107.053 Y171.693 E.02177
G1 X106.053 Y171.693 E.03535
G1 X105.693 Y171.646 E.01283
G3 X104.807 Y170.447 I.357 J-1.191 E.05649
G1 X104.807 Y155.803 E.51761
G1 X104.854 Y155.443 E.01283
G3 X105.693 Y154.604 I1.146 J.307 E.0439
G1 X106.807 Y154.458 E.03972
G1 X106.807 Y141.303 E.46497
G1 X106.854 Y140.943 E.01283
G3 X108.053 Y140.057 I1.191 J.357 E.05649
G1 X113.947 Y140.057 E.20834
G1 X114.304 Y140.104 E.01271
G3 X115.193 Y141.303 I-.352 J1.191 E.05661
G1 X115.193 Y154.557 E.46848
G1 X136.307 Y154.557 E.7463
G1 X136.307 Y141.303 E.46848
G1 X136.354 Y140.943 E.01283
G3 X137.553 Y140.057 I1.191 J.357 E.05649
G1 X143.447 Y140.057 E.20834
G1 X143.807 Y140.104 E.01283
G3 X144.693 Y141.303 I-.357 J1.191 E.05649
G1 X144.693 Y154.557 E.46848
G1 X162.193 Y154.557 E.61855
G1 X162.193 Y157.196 E.09328
G1 X162.007 Y157.259 E.00695
G1 X161.783 Y156.967 E.01301
G1 X161.407 Y156.679 E.01674
G1 X160.966 Y156.496 E.01686
G1 X160.488 Y156.438 E.01704
G1 X160.03 Y156.498 E.01631
G1 X159.593 Y156.679 E.01674
G1 X159.217 Y156.967 E.01674
G1 X158.929 Y157.343 E.01674
G1 X158.748 Y157.78 E.01674
G1 X158.693 Y158.197 E.01485
G1 X158.693 Y160.303 E.07443
G1 X158.748 Y160.72 E.01485
G1 X158.929 Y161.157 E.01674
G1 X159.217 Y161.533 E.01674
G1 X159.593 Y161.821 E.01674
G1 X160.03 Y162.002 E.01674
G1 X160.5 Y162.064 E.01674
G1 X160.97 Y162.002 E.01674
G1 X161.407 Y161.821 E.01674
G1 X161.783 Y161.533 E.01674
G1 X162.007 Y161.241 E.01301
G1 X162.193 Y161.304 E.00695
G1 X162.193 Y162.303 E.03531
G1 X162.282 Y162.978 E.02408
G1 X162.563 Y163.657 E.02597
G1 X163.01 Y164.24 E.02597
G1 X163.593 Y164.687 E.02597
G1 X164.272 Y164.968 E.02597
G1 X165 Y165.064 E.02597
G1 X165.728 Y164.968 E.02597
G1 X166.407 Y164.687 E.02597
G1 X166.99 Y164.24 E.02597
G1 X167.437 Y163.657 E.02597
G1 X167.718 Y162.978 E.02597
G1 X167.807 Y162.303 E.02408
G1 X167.807 Y161.304 E.03531
G1 X167.993 Y161.241 E.00695
G1 X168.217 Y161.533 E.01301
G1 X168.593 Y161.821 E.01674
G1 X169.03 Y162.002 E.01674
G1 X169.5 Y162.064 E.01674
G1 X169.97 Y162.002 E.01674
G1 X170.407 Y161.821 E.01674
G1 X170.783 Y161.533 E.01674
G1 X171.071 Y161.157 E.01674
G1 X171.252 Y160.719 E.01674
G1 X171.307 Y160.303 E.01485
G1 X171.307 Y158.197 E.07443
G1 X171.252 Y157.78 E.01485
G1 X171.071 Y157.343 E.01674
G1 X170.783 Y156.967 E.01674
G1 X170.407 Y156.679 E.01674
G1 X169.966 Y156.496 E.01686
G1 X169.488 Y156.438 E.01704
G1 X169.03 Y156.498 E.01631
G1 X168.593 Y156.679 E.01674
G1 X168.217 Y156.967 E.01674
G1 X167.993 Y157.259 E.01301
G1 X167.807 Y157.196 E.00695
G1 X167.807 Y154.557 E.09328
G1 X185.267 Y154.557 E.61714
G1 X185.764 Y155.014 F12000
G1 F3000
G1 X222.764 Y155.014 E1.3078
G1 X222.764 Y154.862 E.00537
G1 X224.188 Y155.05 E.05075
G3 X224.736 Y155.833 I-.236 J.749 E.03633
G1 X224.736 Y170.417 E.51549
G3 X223.917 Y171.236 I-.784 J.034 E.04602
G1 X222.917 Y171.236 E.03535
G1 X222.217 Y171.328 E.02496
G1 X221.487 Y171.63 E.02791
G1 X220.861 Y172.111 E.02791
G1 X220.38 Y172.737 E.02791
G1 X220.078 Y173.467 E.02791
G1 X219.975 Y174.25 E.02791
G1 X220.078 Y175.033 E.02791
G1 X220.38 Y175.763 E.02791
G1 X220.861 Y176.389 E.02791
G1 X221.487 Y176.87 E.02791
G1 X222.217 Y177.172 E.02791
G1 X222.917 Y177.264 E.02496
G1 X223.917 Y177.264 E.03535
G3 X224.736 Y178.083 I.034 J.784 E.04602
G1 X224.736 Y188.667 E.37411
G3 X223.917 Y189.486 I-.784 J.034 E.04602
G1 X221.083 Y189.486 E.10018
