; HEADER_BLOCK_START
; generated by OrcaSlicer 1.6.4-beta2 on 2023-08-15 at 14:15:39
; total layer number: 15
; HEADER_BLOCK_END

; THUMBNAIL_BLOCK_START
; THUMBNAIL_BLOCK_END

; external perimeters extrusion width = 0.40mm
; perimeters extrusion width = 0.46mm
; infill extrusion width = 0.64mm
; solid infill extrusion width = 0.56mm
; top infill extrusion width = 0.40mm
; support material extrusion width = 0.46mm
; first layer extrusion width = 0.50mm

; EXECUTABLE_BLOCK_START
EXCLUDE_OBJECT_DEFINE NAME=(Unsaved).stl_id_0_copy_0 CENTER=165,165 POLYGON=[[104,155.75],[104.068,155.232],[106.068,140.732],[106.268,140.25],[106.586,139.836],[107,139.518],[107.482,139.318],[108,139.25],[222,139.25],[222.518,139.318],[223,139.518],[223.414,139.836],[223.732,140.25],[223.932,140.732],[225.932,155.232],[226,155.75],[226,188.75],[225.932,189.268],[225.732,189.75],[225.414,190.164],[225,190.482],[224.518,190.682],[224,190.75],[106,190.75],[105.482,190.682],[105,190.482],[104.586,190.164],[104.268,189.75],[104.068,189.268],[104,188.75],[104,155.75]]
M73 P0 R23
;TYPE:Custom
START_PRINT T_BED=110 T_EXTRUDER=260
G90
G21
M83 ; use relative distances for extrusion
; Filament gcode
M106 S0
;LAYER_CHANGE
;Z:0.2
;HEIGHT:0.2
;BEFORE_LAYER_CHANGE
;0.2
G92 E0

SET_VELOCITY_LIMIT ACCEL=1000 ACCEL_TO_DECEL=500
G1 E-.5 F3000
G1 X105.226 Y137.206 F12000
G1 Z.2
G1 E.5 F1800
;TYPE:Skirt
;WIDTH:0.5
G1 F3000
G1 X105.885 Y136.826 E.02689
G1 X107.102 Y136.429 E.04525
G1 X108 Y136.336 E.03191
G1 X222.38 Y136.361 E4.04288
G1 X222.898 Y136.429 E.01845
G1 X224.115 Y136.826 E.04525
G1 X225.188 Y137.524 E.04525
G1 X226.044 Y138.476 E.04525
G1 X226.624 Y139.617 E.04525
G1 X226.819 Y140.334 E.02626
G1 X228.889 Y155.37 E.53646
G1 X228.889 Y189.13 E1.1933
G1 X228.624 Y190.383 E.04525
G1 X228.044 Y191.524 E.04525
G1 X227.188 Y192.476 E.04525
G1 X226.115 Y193.174 E.04525
G1 X224.898 Y193.571 E.04525
G1 X224 Y193.664 E.03191
G1 X106 Y193.664 E4.17081
M73 P0 R22
G1 X105.102 Y193.571 E.03191
G1 X104.367 Y193.374 E.02689
G1 X103.226 Y192.794 E.04525
G1 X102.274 Y191.938 E.04525
G1 X101.576 Y190.865 E.04525
G1 X101.179 Y189.648 E.04525
G1 X101.086 Y188.75 E.03191
G1 X101.111 Y155.37 E1.17986
G1 X103.181 Y140.334 E.53646
G1 X103.576 Y139.135 E.04462
G1 X104.274 Y138.062 E.04525
G1 X105.196 Y137.233 E.04384
G1 X105.499 Y137.573 F12000
G1 F3000
G1 X105.504 Y137.569 E.00025
G1 X106.06 Y137.248 E.02267
G1 X107.162 Y136.882 E.04104
G1 X108 Y136.793 E.0298
G1 X222.321 Y136.814 E4.04077
G1 X223.458 Y137.048 E.04104
G1 X223.94 Y137.248 E.01845
G1 X224.91 Y137.886 E.04104
G1 X225.681 Y138.754 E.04104
G1 X226.202 Y139.792 E.04104
G1 X226.366 Y140.397 E.02214
G1 X228.457 Y155.75 E.54769
G1 X228.436 Y189.071 E1.17775
G1 X228.202 Y190.208 E.04104
G1 X227.681 Y191.246 E.04104
G1 X226.91 Y192.114 E.04104
G1 X225.94 Y192.752 E.04104
G1 X224.838 Y193.118 E.04104
G1 X224 Y193.207 E.0298
G1 X106 Y193.207 E4.17081
M73 P1 R22
G1 X105.162 Y193.118 E.0298
G1 X104.542 Y192.952 E.02267
G1 X103.504 Y192.431 E.04104
G1 X102.636 Y191.66 E.04104
G1 X101.998 Y190.69 E.04104
G1 X101.632 Y189.588 E.04104
G1 X101.543 Y188.75 E.0298
G1 X101.564 Y155.429 E1.17775
G1 X103.634 Y140.397 E.53636
G1 X103.998 Y139.31 E.04051
G1 X104.636 Y138.34 E.04104
G1 X105.469 Y137.6 E.03938
; printing object (Unsaved).stl id:0 copy 0
EXCLUDE_OBJECT_START NAME=(Unsaved).stl_id_0_copy_0
G1 E-.5
G1 X184.85 Y153.871 F12000
G1 E.5 F1800
;TYPE:Outer wall
;WIDTH:0.499999
G1 F3000
G1 X184.85 Y141.333 E.44318
G1 X184.909 Y140.824 E.01813
G1 X185.074 Y140.427 E.0152
G1 X185.335 Y140.085 E.0152
G1 X185.677 Y139.824 E.0152
G1 X186.074 Y139.659 E.0152
G1 X186.523 Y139.6 E.01601
G1 X192.417 Y139.6 E.20832
G1 X192.926 Y139.659 E.01813
G1 X193.323 Y139.824 E.0152
G1 X193.665 Y140.085 E.0152
G1 X193.926 Y140.427 E.0152
G1 X194.091 Y140.824 E.0152
G1 X194.15 Y141.273 E.01601
G1 X194.15 Y153.871 E.4453
G1 X194.242 Y154.054 E.00723
G1 X194.379 Y154.1 E.0051
G1 X214.152 Y154.098 E.69892
G1 X214.311 Y153.999 E.00663
G1 X214.35 Y153.871 E.00469
G1 X214.35 Y141.333 E.44318
G1 X214.409 Y140.824 E.01813
G1 X214.574 Y140.427 E.0152
G1 X214.835 Y140.085 E.0152
G1 X215.177 Y139.824 E.0152
G1 X215.574 Y139.659 E.0152
G1 X216.023 Y139.6 E.01601
G1 X221.917 Y139.6 E.20832
G1 X222.426 Y139.659 E.01813
G1 X222.823 Y139.824 E.0152
G1 X223.165 Y140.085 E.0152
G1 X223.426 Y140.427 E.0152
G1 X223.591 Y140.824 E.0152
G1 X223.65 Y141.273 E.01601
G1 X223.65 Y153.86 E.44488
G1 X223.74 Y154.038 E.00705
G1 X223.849 Y154.083 E.00418
G1 X224.426 Y154.159 E.02059
G1 X224.823 Y154.324 E.0152
G1 X225.165 Y154.585 E.0152
G1 X225.426 Y154.927 E.0152
G1 X225.591 Y155.324 E.0152
G1 X225.65 Y155.773 E.01601
G1 X225.65 Y170.36 E.51558
G1 X225.591 Y170.926 E.02013
G1 X225.426 Y171.323 E.0152
G1 X225.165 Y171.665 E.0152
G1 X224.823 Y171.926 E.0152
G1 X224.426 Y172.091 E.0152
G1 X223.86 Y172.15 E.02013
G1 X222.962 Y172.152 E.03172
G1 X222.428 Y172.23 E.01909
G1 X221.925 Y172.447 E.01937
G1 X221.495 Y172.787 E.01937
G1 X221.167 Y173.226 E.01937
G1 X220.965 Y173.736 E.01937
G1 X220.901 Y174.28 E.01937
G1 X220.98 Y174.822 E.01937
G1 X221.197 Y175.325 E.01937
G1 X221.537 Y175.755 E.01937
G1 X221.976 Y176.083 E.01937
G1 X222.486 Y176.285 E.01937
G1 X222.992 Y176.35 E.01805
G1 X223.86 Y176.35 E.03067
G1 X224.426 Y176.409 E.02013
G1 X224.823 Y176.574 E.0152
G1 X225.165 Y176.835 E.0152
G1 X225.426 Y177.177 E.0152
G1 X225.591 Y177.574 E.0152
G1 X225.65 Y178.14 E.02013
G1 X225.65 Y188.61 E.37005
G1 X225.591 Y189.176 E.02013
G1 X225.426 Y189.573 E.0152
G1 X225.165 Y189.915 E.0152
G1 X224.823 Y190.176 E.0152
G1 X224.426 Y190.341 E.0152
G1 X223.977 Y190.4 E.01601
G1 X221.14 Y190.4 E.10027
G1 X220.574 Y190.341 E.02013
G1 X220.176 Y190.176 E.0152
G1 X219.835 Y189.915 E.0152
G1 X219.574 Y189.573 E.0152
G1 X219.409 Y189.176 E.0152
G1 X219.35 Y188.61 E.02013
G1 X219.339 Y187.645 E.03411
G1 X219.261 Y187.113 E.01898
G1 X219.019 Y186.55 E.02168
G1 X218.64 Y186.068 E.02168
G1 X218.2 Y185.731 E.01958
G2 X217.515 Y185.465 I-1.913 J3.918 E.02601
G1 X217.008 Y185.4 E.01807
G2 X213.962 Y185.402 I-.847 J1053.716 E.10765
G1 X213.363 Y185.489 E.02139
G1 X212.8 Y185.731 E.02168
G1 X212.318 Y186.11 E.02168
G1 X211.951 Y186.601 E.02168
G1 X211.723 Y187.171 E.02168
G1 X211.65 Y187.742 E.02036
G1 X211.65 Y188.61 E.03067
G1 X211.591 Y189.176 E.02013
G1 X211.426 Y189.573 E.0152
G1 X211.165 Y189.915 E.0152
G1 X210.823 Y190.176 E.0152
G1 X210.426 Y190.341 E.0152
G1 X209.977 Y190.4 E.01601
G1 X169.64 Y190.4 E1.42574
G1 X169.074 Y190.341 E.02013
G1 X168.677 Y190.176 E.0152
G1 X168.335 Y189.915 E.0152
G1 X168.074 Y189.573 E.0152
G1 X167.909 Y189.176 E.0152
G1 X167.85 Y188.727 E.01601
G1 X167.85 Y185.242 E.12318
G2 X167.761 Y184.613 I-4.051 J.25 E.02247
G1 X167.519 Y184.05 E.02168
G1 X167.14 Y183.568 E.02168
G1 X166.649 Y183.201 E.02168
G1 X166.079 Y182.973 E.02168
G1 X165.508 Y182.9 E.02036
G1 X164.492 Y182.9 E.03591
G2 X163.863 Y182.989 I.25 J4.051 E.02247
G1 X163.3 Y183.231 E.02168
G1 X162.818 Y183.61 E.02168
G1 X162.451 Y184.101 E.02168
G1 X162.223 Y184.671 E.02168
G1 X162.15 Y185.242 E.02036
G1 X162.15 Y188.61 E.11903
G1 X162.091 Y189.176 E.02013
G1 X161.926 Y189.573 E.0152
G1 X161.665 Y189.915 E.0152
G1 X161.323 Y190.176 E.0152
G1 X160.926 Y190.341 E.0152
G1 X160.477 Y190.4 E.01601
G1 X106.14 Y190.4 E1.92058
G1 X105.574 Y190.341 E.02013
G1 X105.177 Y190.176 E.0152
G1 X104.835 Y189.915 E.0152
G1 X104.574 Y189.573 E.0152
G1 X104.409 Y189.176 E.0152
G1 X104.35 Y188.727 E.01601
G1 X104.35 Y178.14 E.3742
G1 X104.409 Y177.574 E.02013
G1 X104.574 Y177.177 E.0152
G1 X104.835 Y176.835 E.0152
G1 X105.177 Y176.574 E.0152
G1 X105.574 Y176.409 E.0152
G1 X106.14 Y176.35 E.02013
G1 X107.038 Y176.348 E.03172
G1 X107.572 Y176.27 E.01909
G1 X108.075 Y176.053 E.01937
G1 X108.505 Y175.713 E.01937
G1 X108.833 Y175.274 E.01937
G1 X109.035 Y174.764 E.01937
G1 X109.099 Y174.22 E.01937
G1 X109.02 Y173.678 E.01937
G1 X108.803 Y173.175 E.01937
G1 X108.463 Y172.745 E.01937
G1 X108.024 Y172.417 E.01937
G1 X107.514 Y172.215 E.01937
G1 X107.008 Y172.15 E.01805
G1 X106.14 Y172.15 E.03067
G1 X105.574 Y172.091 E.02013
G1 X105.177 Y171.926 E.0152
G1 X104.835 Y171.665 E.0152
G1 X104.574 Y171.323 E.0152
G1 X104.409 Y170.926 E.0152
G1 X104.35 Y170.477 E.01601
G1 X104.35 Y155.89 E.51558
G1 X104.409 Y155.324 E.02013
G1 X104.574 Y154.927 E.0152
G1 X104.835 Y154.585 E.0152
G1 X105.177 Y154.324 E.0152
G1 X105.574 Y154.159 E.0152
G2 X106.26 Y154.038 I-.373 J-4.117 E.02468
G1 X106.35 Y153.86 E.00705
G1 X106.35 Y141.333 E.44275
G1 X106.409 Y140.824 E.01813
G1 X106.574 Y140.427 E.0152
G1 X106.835 Y140.085 E.0152
G1 X107.177 Y139.824 E.0152
G1 X107.574 Y139.659 E.0152
G1 X108.023 Y139.6 E.01601
G1 X113.621 Y139.6 E.19788
G1 X114.299 Y139.642 E.024
G1 X114.824 Y139.824 E.01962
G1 X115.165 Y140.085 E.01519
G1 X115.426 Y140.427 E.0152
G1 X115.591 Y140.824 E.0152
G1 X115.65 Y141.273 E.01601
G1 X115.65 Y153.871 E.44531
G1 X115.742 Y154.055 E.00724
G1 X115.879 Y154.1 E.0051
G1 X135.621 Y154.1 E.69783
G1 X135.652 Y154.098 E.00109
G1 X135.811 Y153.998 E.00663
G1 X135.85 Y153.871 E.00469
G1 X135.85 Y141.333 E.44318
G1 X135.909 Y140.824 E.01813
G1 X136.074 Y140.427 E.0152
G1 X136.335 Y140.085 E.0152
G1 X136.677 Y139.824 E.0152
G1 X137.074 Y139.659 E.0152
G1 X137.523 Y139.6 E.01601
G1 X143.417 Y139.6 E.20832
G1 X143.926 Y139.659 E.01813
G1 X144.323 Y139.824 E.0152
G1 X144.665 Y140.085 E.0152
G1 X144.926 Y140.427 E.0152
G1 X145.091 Y140.824 E.0152
G1 X145.15 Y141.273 E.01601
G1 X145.15 Y153.871 E.44531
G1 X145.242 Y154.055 E.00726
G1 X145.378 Y154.1 E.00504
G1 X162.435 Y154.1 E.6029
G1 X162.571 Y154.128 E.00492
G1 X162.65 Y154.287 E.00628
G2 X162.654 Y162.302 I747.693 J3.647 E.28329
G1 X162.739 Y162.887 E.02088
G1 X162.981 Y163.45 E.02168
G1 X163.36 Y163.932 E.02168
G1 X163.851 Y164.299 E.02168
G1 X164.421 Y164.527 E.02168
G1 X165.03 Y164.599 E.02168
G1 X165.637 Y164.511 E.02168
G1 X166.2 Y164.269 E.02168
G1 X166.682 Y163.89 E.02168
G1 X167.049 Y163.399 E.02168
G1 X167.277 Y162.829 E.02168
G1 X167.35 Y162.258 E.02036
G1 X167.35 Y154.315 E.28074
G1 X167.378 Y154.179 E.00492
G1 X167.537 Y154.1 E.00628
G1 X184.652 Y154.098 E.60493
G1 X184.811 Y153.999 E.00661
G1 X184.838 Y153.91 E.00331
G1 E-.5
G1 X185.064 Y153.91 F12000
G1 X186.577 Y139.834
G1 X193.916 Y141.327
G1 X193.936 Y154.314
G1 X194.843 Y154.436
G1 X213.657 Y154.436
G1 X214.564 Y154.314
G1 X215.936 Y141.186
G1 X221.621 Y141.186
G1 X221.621 Y141.4
G1 E.5 F1800
G1 F3000
G1 X221.783 Y141.467 E.00618
G1 X221.85 Y141.629 E.00618
G1 X221.85 Y153.871 E.43274
M73 P2 R22
G1 X221.814 Y153.994 E.00452
G1 X221.661 Y154.097 E.00651
G1 X221.621 Y154.1 E.00141
G1 X216.379 Y154.1 E.18532
G1 X216.242 Y154.055 E.0051
G1 X216.151 Y153.891 E.0066
G1 X216.15 Y141.629 E.43344
G1 X216.217 Y141.467 E.00618
G1 X216.379 Y141.4 E.00618
G1 X221.581 Y141.4 E.1839
G1 X221.721 Y140.968 F12000
;TYPE:Inner wall
G1 F3000
G1 X221.944 Y141.024 E.00814
G1 X222.172 Y141.219 E.01059
G1 X222.284 Y141.452 E.00914
G1 X222.307 Y141.629 E.00629
G1 X222.307 Y153.871 E.43274
G1 X222.2 Y154.24 E.01357
G1 X221.941 Y154.478 E.01241
G1 X221.621 Y154.557 E.01165
G1 X216.379 Y154.557 E.18532
G1 X216.073 Y154.485 E.0111
G1 X215.809 Y154.253 E.01244
G1 X215.693 Y153.871 E.01408
G1 X215.693 Y141.629 E.43274
G1 X215.774 Y141.306 E.01177
G1 X215.969 Y141.078 E.01059
G1 X216.26 Y140.953 E.01119
G1 X216.379 Y140.943 E.0042
G1 X221.621 Y140.943 E.18532
G1 X221.682 Y140.958 E.00221
G1 E-.5
G1 X215.936 Y141.186 F12000
G1 X214.564 Y154.314
G1 X213.657 Y154.436
G1 X194.843 Y154.436
G1 X193.936 Y154.314
G1 X192.564 Y153.831
G1 X192.35 Y153.831
G1 E.5 F1800
;TYPE:Outer wall
G1 F3000
G1 X192.35 Y153.871 E.00144
G1 X192.311 Y153.998 E.00469
G1 X192.129 Y154.1 E.00739
G1 X186.879 Y154.1 E.18557
G1 X186.742 Y154.055 E.00507
G1 X186.651 Y153.891 E.00663
G1 X186.65 Y141.629 E.43344
G1 X186.717 Y141.467 E.00618
G1 X186.879 Y141.4 E.00618
G1 X192.121 Y141.4 E.18532
G1 X192.283 Y141.467 E.00618
G1 X192.35 Y141.629 E.00618
G1 X192.35 Y153.791 E.42988
G1 X192.773 Y153.982 F12000
;TYPE:Inner wall
G1 F3000
G1 X192.691 Y154.252 E.00997
G1 X192.427 Y154.485 E.01244
G1 X192.143 Y154.557 E.01038
G1 X186.879 Y154.557 E.18607
G1 X186.575 Y154.486 E.01103
G1 X186.31 Y154.255 E.01242
G1 X186.193 Y153.871 E.01416
G1 X186.193 Y141.629 E.43274
G1 X186.274 Y141.306 E.01177
G1 X186.469 Y141.078 E.01059
G1 X186.76 Y140.953 E.01119
G1 X192.121 Y140.943 E.1895
G1 X192.444 Y141.024 E.01177
G1 X192.672 Y141.219 E.01059
G1 X192.784 Y141.452 E.00914
G1 X192.807 Y141.629 E.00629
G1 X192.807 Y153.871 E.43274
G1 X192.785 Y153.944 E.00269
G1 E-.5
G1 X169.485 Y161.597 F12000
G1 E.5 F1800
;TYPE:Outer wall
G1 F3000
G1 X169.47 Y161.597 E.00052
G3 X168.15 Y160.258 I.03 J-1.35 E.07354
G1 X168.15 Y158.242 E.07125
G1 X168.205 Y157.872 E.01322
G3 X170.85 Y158.242 I1.295 J.381 E.13591
G1 X170.85 Y160.259 E.07129
G1 X170.811 Y160.57 E.01109
G1 X170.653 Y160.95 E.01454
G3 X169.82 Y161.559 I-1.153 J-.703 E.03744
G1 X169.525 Y161.593 E.01051
G1 X167.774 Y160.653 F12000
;TYPE:Inner wall
;WIDTH:0.432856
G1 F3000
G1 X167.75 Y160.258 E.01194
;WIDTH:0.385846
G1 X167.75 Y158.242 E.05346
;WIDTH:0.428608
G1 X167.771 Y157.875 E.01098
G1 E-.5
G1 X167.529 Y162.928 F12000
G1 X167.331 Y163.596
G1 X166.903 Y164.153
G1 X166.346 Y164.581
G1 X165.674 Y164.765
G1 X165 Y164.819
G1 X164.326 Y164.765
G1 X163.654 Y164.581
G1 X163.097 Y164.153
G1 X160.574 Y161.784
G1 X160.484 Y161.598
G1 E.5 F1800
;TYPE:Outer wall
;WIDTH:0.499999
G1 F3000
G1 X160.47 Y161.588 E.00059
G3 X159.317 Y160.899 I.028 J-1.356 E.04969
G1 X159.178 Y160.486 E.01537
G1 X159.15 Y160.258 E.00814
G1 X159.15 Y158.242 E.07125
G1 X159.205 Y157.872 E.01322
G3 X160.491 Y156.9 I1.333 J.427 E.06072
G1 X160.878 Y156.954 E.0138
G3 X161.85 Y158.242 I-.427 J1.334 E.06078
G1 X161.85 Y160.258 E.07125
G1 X161.795 Y160.628 E.01322
G3 X160.818 Y161.55 I-1.297 J-.397 E.04969
G1 X160.524 Y161.592 E.0105
G1 E-.5
G1 X161.545 Y157.97 F12000
G1 X162.229 Y157.875
G1 E.5 F1800
;TYPE:Inner wall
;WIDTH:0.428598
G1 F3000
G1 X162.25 Y158.242 E.01098
;WIDTH:0.385838
G1 X162.25 Y160.258 E.05346
;WIDTH:0.432846
G1 X162.226 Y160.653 E.01194
G1 E-.5
G1 X162.471 Y162.928 F12000
G1 X162.669 Y163.596
G1 X163.097 Y164.153
G1 X163.654 Y164.581
G1 X164.326 Y164.765
G1 X176.045 Y166.064
G1 X176.697 Y166.15
G1 X177.294 Y166.397
G1 X177.163 Y166.712
G1 E.5 F1800
;TYPE:Outer wall
;WIDTH:0.499999
G1 F3000
G1 X177.64 Y167.068 E.02103
G1 X178.001 Y167.525 E.0206
G1 X178.261 Y168.113 E.02273
G1 X178.348 Y168.712 E.02139
G1 X178.35 Y175.758 E.24904
G1 X178.277 Y176.329 E.02036
G1 X178.049 Y176.899 E.02168
G1 X177.682 Y177.39 E.02168
G1 X177.2 Y177.769 E.02168
G1 X176.637 Y178.011 E.02168
G3 X176.008 Y178.1 I-.879 J-3.962 E.02247
G1 X153.992 Y178.1 E.77817
G1 X153.421 Y178.027 E.02036
G1 X152.851 Y177.799 E.02168
G1 X152.36 Y177.432 E.02168
G1 X151.981 Y176.95 E.02168
G1 X151.739 Y176.387 E.02168
G3 X151.65 Y175.758 I3.962 J-.879 E.02247
G1 X151.65 Y168.742 E.24798
G1 X151.723 Y168.171 E.02036
G1 X151.951 Y167.601 E.02168
G1 X152.318 Y167.11 E.02168
G1 X152.8 Y166.731 E.02168
G1 X153.363 Y166.489 E.02168
G1 X153.962 Y166.402 E.02139
G3 X156.952 Y166.4 I1.87 J573.668 E.10568
G1 X176.008 Y166.4 E.67354
G1 X176.579 Y166.473 E.02036
G1 X177.129 Y166.693 E.02091
G1 X177.399 Y166.332 F12000
;TYPE:Inner wall
G1 F3000
G1 X177.918 Y166.705 E.0226
G1 X178.363 Y167.247 E.02479
G1 X178.472 Y167.426 E.0074
G1 X178.684 Y167.938 E.01958
G1 X178.801 Y168.653 E.02559
G1 X178.807 Y175.758 E.25115
G1 X178.73 Y176.389 E.02247
G1 X178.472 Y177.074 E.02587
G1 X178.045 Y177.668 E.02587
G1 X177.479 Y178.132 E.02587
G1 X176.812 Y178.434 E.02587
G1 X176.008 Y178.557 E.02874
G1 X153.992 Y178.557 E.77817
G1 X153.361 Y178.48 E.02247
G1 X152.676 Y178.222 E.02587
G1 X152.082 Y177.795 E.02587
G1 X151.618 Y177.229 E.02587
G1 X151.316 Y176.562 E.02587
G1 X151.199 Y175.847 E.02559
G1 X151.193 Y168.742 E.25115
G1 X151.27 Y168.111 E.02247
G1 X151.528 Y167.426 E.02587
G1 X151.955 Y166.832 E.02587
G1 X152.521 Y166.368 E.02587
G1 X153.188 Y166.066 E.02587
G1 X153.708 Y165.974 E.01866
G1 X154.712 Y165.943 E.03551
G1 X156.952 Y165.943 E.07917
