; generated by SuperSlicer 2.5.59 on 2023-02-08 at 19:53:12 UTC


;
;

;
;
; 

; external perimeters extrusion width = 0.40mm
; perimeters extrusion width = 0.46mm
; infill extrusion width = 0.64mm
; solid infill extrusion width = 0.56mm
; top infill extrusion width = 0.40mm
; support material extrusion width = 0.46mm
; first layer extrusion width = 0.50mm

; object:{"name":"(Unsaved)","id":"(Unsaved).stl id:0 copy 0","object_center":[165.000000,165.000000,0.000000],"boundingbox_center":[165.000000,165.000000,5.000000],"boundingbox_size":[20.000000,60.000000,10.000000]}
; plater:{"center":[165.000000,165.000000,0.000000],"boundingbox_center":[165.000000,165.000000,5.000000],"boundingbox_size":[20.000000,60.000000,10.000000]}

M73 P0 R17


; Pre-Processed for Cancel-Object support by preprocess_cancellation v0.2.0
; 1 known objects
EXCLUDE_OBJECT_DEFINE NAME=Unsaved_stl_id_0_copy_0 CENTER=165.733,166.958 POLYGON=[[155.2,135.2],[155.2,194.8],[174.8,194.8],[174.8,135.2]]
;TYPE:Custom
; custom gcode: start_gcode
START_PRINT T_BED=110 T_EXTRUDER=240
; custom gcode end: start_gcode
M107
G21 ; set units to millimeters
G90 ; use absolute coordinates
M82 ; use absolute distances for extrusion
G92 E0
; custom gcode: start_filament_gcode
; Filament gcode

    PRESSURE_ADVANCE_SELECT FILAMENT=ABS
; custom gcode end: start_filament_gcode
;_TOOLCHANGE 0
M104 S240 ; set temperature
M109 S240 ; set temperature and wait for it to be reached
M190 S110 ; set bed temperature and wait for it to be reached
;LAYER_CHANGE
;Z:0.2
;HEIGHT:0.2
G1 Z0.2 F9000
M73 P0 R17
G1 E-0.5 F3000
M204 S1000
G1 X156.94 Y133.447 F9000
M73 P0 R17
G1 E0 F1800
;TYPE:Skirt
;WIDTH:0.52
G1 X156.355 Y135.278 E0.07626
G1 X150.455 Y192.805 E2.3703
G1 X150.43 Y194.245 E2.42744
G1 X150.677 Y195.745 E2.48772
G1 X151.656 Y197.399 E2.56398
G1 X153.219 Y198.52 E2.64024
G1 X155.1 Y198.915 E2.71651
G1 X164.281 Y198.915 E3.08072
G1 X165.821 Y198.747 E3.14215
G1 X167.272 Y198.275 E3.20269
G1 X168.291 Y197.702 E3.24907
G1 X169.059 Y197.084 E3.28817
G1 X170.046 Y195.897 E3.34941
G1 X170.688 Y194.51 E3.41005
G1 X170.903 Y193.586 E3.44769
G1 X178.606 Y137.562 E5.69102
G1 X178.667 Y135.782 E5.76166
G1 X178.42 Y134.255 E5.82303
G1 X177.441 Y132.601 E5.89929
G1 X175.879 Y131.48 E5.97555
G1 X173.998 Y131.085 E6.05182
G1 X161 Y131.085 E6.56742
G1 X159.96 Y131.202 E6.60895
G1 X158.214 Y132.007 E6.68522
G1 X156.94 Y133.447 E6.76148
G1 X157.403 Y133.601 F9000
G1 F1800
G1 X156.829 Y135.327 E6.83363
G1 X150.929 Y192.854 E9.12767
G1 X150.907 Y194.245 E9.18287
G1 X151.046 Y195.314 E9.22562
G1 X151.881 Y196.932 E9.29783
G1 X153.323 Y198.043 E9.37005
G1 X155.1 Y198.438 E9.44227
G1 X164.281 Y198.438 E9.80648
G1 X165.706 Y198.284 E9.86333
G1 X167.087 Y197.835 E9.92092
G1 X168.033 Y197.301 E9.96404
G1 X168.722 Y196.746 E9.99914
G1 X169.636 Y195.653 E10.05567
G1 X170.229 Y194.38 E10.11136
G1 X170.43 Y193.521 E10.14637
G1 X178.133 Y137.497 E12.3897
M73 P1 R17
G1 X178.19 Y135.78 E12.45787
G1 X178.052 Y134.686 E12.5016
G1 X177.217 Y133.068 E12.57382
G1 X175.775 Y131.957 E12.64604
G1 X173.998 Y131.562 E12.71825
G1 X161 Y131.562 E13.23386
G1 X158.656 Y132.278 E13.33108
G1 X157.403 Y133.601 E13.40336
G1 X157.865 Y133.762 F9000
G1 F1800
G1 X157.304 Y135.375 E13.47115
G1 X151.404 Y192.903 E15.76518
G1 X151.384 Y194.245 E15.81845
G1 X152.121 Y196.466 E15.91128
G1 X153.434 Y197.566 E15.97921
G1 X155.1 Y197.961 E16.04715
G1 X164.281 Y197.961 E16.41136
G1 X165.592 Y197.821 E16.46363
G1 X166.901 Y197.396 E16.51826
G1 X167.775 Y196.899 E16.55811
G1 X168.386 Y196.408 E16.58922
G1 X169.227 Y195.408 E16.64104
G1 X169.77 Y194.25 E16.69179
G1 X169.957 Y193.456 E16.72417
G1 X177.661 Y137.432 E18.9675
G1 X177.713 Y135.777 E19.0332
G1 X176.976 Y133.534 E19.12686
G1 X175.664 Y132.434 E19.19479
G1 X173.998 Y132.039 E19.26272
G1 X161 Y132.039 E19.77833
G1 X159.095 Y132.565 E19.85674
G1 X157.865 Y133.762 E19.92481
G1 X158.326 Y133.931 F9000
G1 F1800
G1 X157.778 Y135.424 E19.98791
G1 X151.878 Y192.951 E22.28195
G1 X151.861 Y194.245 E22.33329
G1 X152.381 Y196.004 E22.40605
G1 X153.552 Y197.09 E22.46941
G1 X155.1 Y197.484 E22.53276
G1 X164.281 Y197.484 E22.89698
G1 X165.477 Y197.358 E22.94468
G1 X166.716 Y196.956 E22.99634
G1 X167.517 Y196.498 E23.03293
G1 X168.049 Y196.07 E23.06004
M73 P2 R17
G1 X168.817 Y195.164 E23.10715
G1 X169.311 Y194.12 E23.15297
G1 X169.485 Y193.391 E23.18271
G1 X177.188 Y137.367 E25.42604
G1 X177.236 Y135.774 E25.48927
G1 X176.717 Y133.996 E25.56276
G1 X175.545 Y132.91 E25.62612
G1 X173.998 Y132.516 E25.68948
G1 X161 Y132.516 E26.20508
G1 X159.528 Y132.87 E26.26516
G1 X158.328 Y133.925 E26.32851
G1 X158.326 Y133.931 E26.32877
G92 E0
G1 E-0.5 F3000
; printing object (Unsaved).stl id:0 copy 0
EXCLUDE_OBJECT_START NAME=Unsaved_stl_id_0_copy_0
; acceleration to travel
M204 S3000
G1 X161.547 Y175.082 F9000
; decel to extrusion
M204 S1000
G1 X162.621 Y188.799
; end travel
G1 E0 F1800
;TYPE:Internal perimeter
;WIDTH:0.5
G1 X163.434 Y189.044 E0.03227
G1 X164.152 Y189.09 E0.05962
G1 X164.684 Y189.042 E0.07992
G1 X165.197 Y188.898 E0.10015
G1 X164.696 Y192.545 E0.24004
G1 X164.442 Y192.607 E0.24997
G1 X164.22 Y192.624 E0.25843
G1 X162.621 Y192.624 E0.3192
G1 X162.621 Y188.799 E0.46457
G1 X162.164 Y187.823 F9000
G1 F1800
G1 X162.538 Y188.177 E0.48417
G1 X163.004 Y188.437 E0.50443
G1 X163.516 Y188.591 E0.52475
G1 X164.146 Y188.631 E0.54877
G1 X164.602 Y188.591 E0.56614
G1 X165.064 Y188.461 E0.58439
G1 X165.768 Y188.101 E0.61444
G1 X165.134 Y192.711 E0.79129
G1 X165.115 Y192.779 E0.79397
G1 X165.031 Y192.863 E0.7985
G1 X164.913 Y192.939 E0.80384
G1 X164.778 Y192.995 E0.80938
G1 X164.515 Y193.06 E0.81969
G1 X164.237 Y193.081 E0.83027
G1 X162.164 Y193.081 E0.90906
G1 X162.164 Y187.823 E1.10893
G92 E0
G1 E-0.5 F3000
; acceleration to travel
M204 S3000
G1 X162.239 Y150.037 F9000
; decel to extrusion
M204 S1000
G1 X162.264 Y137.441
; end travel
G1 E0 F1800
G1 X162.193 Y137.837 E0.01527
G1 X162.193 Y186.709 E1.87272
G1 X162.264 Y187.104 E1.88799
G1 X162.492 Y187.503 E1.90545
G1 X162.811 Y187.806 E1.92217
G1 X163.183 Y188.014 E1.93837
G1 X163.597 Y188.138 E1.9548
G1 X164.14 Y188.173 E1.97549
G1 X164.519 Y188.139 E1.98993
G1 X164.897 Y188.033 E2.00484
G1 X165.25 Y187.852 E2.01994
G1 X165.563 Y187.589 E2.03546
G1 X165.805 Y187.24 E2.05161
G1 X165.916 Y186.885 E2.06576
G1 X172.634 Y138.026 E3.94018
G1 X172.624 Y137.656 E3.95425
G1 X172.478 Y137.254 E3.9705
G1 X172.232 Y136.924 E3.98614
G1 X171.96 Y136.706 E3.99937
G1 X172.046 Y136.462 E4.00921
G1 X173.28 Y136.462 E4.0561
G1 X173.273 Y136.872 E4.07169
G1 X165.583 Y192.804 E6.21748
M73 P3 R17
G1 X165.54 Y192.955 E6.22345
G1 X165.474 Y193.066 E6.22835
G1 X165.319 Y193.221 E6.23668
G1 X165.127 Y193.344 E6.24535
G1 X164.923 Y193.43 E6.25377
G1 X164.587 Y193.513 E6.26689
G1 X164.255 Y193.538 E6.27958
G1 X161.707 Y193.538 E6.3764
G1 X161.707 Y136.462 E8.54568
G1 X163.104 Y136.462 E8.59878
G1 X162.492 Y137.042 E8.63085
G1 X162.264 Y137.441 E8.64831
G1 X162.7 Y137.6 F9000
;TYPE:External perimeter
G1 F1800
G1 X162.65 Y137.878 E8.65905
G1 X162.65 Y186.668 E10.51338
G1 X162.7 Y186.946 E10.52412
G1 X162.856 Y187.218 E10.53604
G1 X163.084 Y187.435 E10.548
G1 X163.363 Y187.59 E10.56013
G1 X163.679 Y187.686 E10.57268
G1 X164.135 Y187.715 E10.59004
G1 X164.436 Y187.688 E10.60155
G1 X164.729 Y187.605 E10.61311
G1 X164.996 Y187.469 E10.6245
G1 X165.222 Y187.279 E10.63573
G1 X165.389 Y187.038 E10.64689
G1 X165.468 Y186.785 E10.65694
G1 X172.176 Y138.001 E12.5285
G1 X172.169 Y137.742 E12.53833
G1 X172.071 Y137.473 E12.54921
G1 X171.9 Y137.244 E12.56008
G1 X171.676 Y137.064 E12.57101
G1 X171.414 Y136.934 E12.58211
G1 X171.128 Y136.856 E12.59337
G1 X170.845 Y136.832 E12.60416
G1 X163.983 Y136.832 E12.86496
G1 X163.673 Y136.861 E12.87679
G1 X163.363 Y136.955 E12.88913
G1 X163.084 Y137.111 E12.90125
G1 X162.856 Y137.327 E12.91322
G1 X162.7 Y137.6 E12.92514
;WIPE_START
M204 S4000
G1 X162.311 Y137.691 F9000
;WIPE_END
; acceleration to travel
M204 S3000
G1 X161.515 Y136.426
; decel to extrusion
M204 S1000
G1 X161.25 Y136.005
; end travel
G1 F1800
G1 X173.744 Y136.005 E13.4
G1 X173.73 Y136.907 E13.43429
G1 X166.031 Y192.898 E15.58235
G1 X165.963 Y193.138 E15.59181
G1 X165.837 Y193.35 E15.60118
G1 X165.607 Y193.579 E15.61353
G1 X165.341 Y193.75 E15.62556
G1 X165.067 Y193.865 E15.63684
G1 X164.66 Y193.966 E15.65278
G1 X164.272 Y193.995 E15.66757
G1 X155.35 Y193.995 E16.00666
G1 X155.35 Y193.532 E16.02428
G1 X161.25 Y193.532 E16.24852
G1 X161.25 Y136.005 E18.43492
;WIPE_START
M204 S4000
M73 P4 R17
G1 X161.596 Y136.205 F9000
;WIPE_END
; acceleration to travel
M204 S3000
G1 X162.726 Y136.659
; decel to extrusion
M204 S1000
G1 X163.103 Y136.811
; end travel
;TYPE:Gap fill
;WIDTH:0.13892
G1 F1800
G1 X163.142 Y136.782 E18.4353
G1 X163.195 Y136.743 E18.43583
;WIDTH:0.176676
G1 X163.249 Y136.704 E18.43657
G1 X163.326 Y136.658 E18.43757
;WIDTH:0.220754
G1 X163.392 Y136.62 E18.43869
;WIDTH:0.264444
G1 X163.457 Y136.582 E18.44008
;WIDTH:0.308134
G1 X163.523 Y136.544 E18.44175
;WIDTH:0.370018
G1 X163.588 Y136.506 E18.44381
G1 X163.617 Y136.491 E18.4447
G1 X163.686 Y136.46 E18.44676
;WIDTH:0.449882
G1 X163.755 Y136.428 E18.44934
G1 X163.954 Y136.419 E18.45606
G1 X163.973 Y136.418 E18.45672
G1 X170.854 Y136.418 E18.68957
G1 X170.872 Y136.419 E18.69017
G1 X171.028 Y136.425 E18.69545
;WIDTH:0.483939
G1 X171.184 Y136.432 E18.70117
G1 X171.223 Y136.436 E18.70261
G1 X171.381 Y136.457 E18.70845
;WIDTH:0.568339
G1 X171.539 Y136.478 E18.71542
;WIDTH:0.53758
G1 X171.6 Y136.49 E18.71796
G1 X171.698 Y136.512 E18.72213
;WIDTH:0.62088
G1 X171.797 Y136.535 E18.727
G1 X172.717 Y136.672 F9000
;WIDTH:0.680634
G1 F1800
G1 X172.741 Y136.729 E18.73026
;WIDTH:0.61005
G1 X172.77 Y136.816 E18.73457
;WIDTH:0.540754
G1 X172.779 Y136.845 E18.73583
G1 X172.803 Y136.921 E18.73915
G1 X172.817 Y136.975 E18.74146
;WIDTH:0.45638
G1 X172.831 Y137.029 E18.74337
G1 X172.842 Y137.089 E18.74545
;WIDTH:0.41867
G1 X172.85 Y137.173 E18.74809
;WIDTH:0.369893
G1 X172.859 Y137.257 E18.7504
;WIDTH:0.321116
G1 X172.868 Y137.341 E18.75235
;WIDTH:0.272339
G1 X172.877 Y137.425 E18.75397
;WIDTH:0.223562
G1 X172.886 Y137.509 E18.75524
;WIDTH:0.174785
G1 X172.895 Y137.593 E18.75617
G1 X172.896 Y137.614 E18.75639
G1 X172.891 Y137.703 E18.75737
;WIDTH:0.13892
G1 X172.886 Y137.792 E18.75808
G1 X172.883 Y137.84 E18.75846
G92 E0
G1 E-0.5 F3000
; acceleration to travel
M204 S3000
G1 X166.582 Y175.05 F9000
; decel to extrusion
M204 S1000
G1 X164.182 Y189.225
; end travel
G1 E0 F1800
;TYPE:Solid infill
;WIDTH:0.528105
G1 F3600
G1 X164.913 Y189.956 E0.04152
G1 X164.835 Y190.524 F9000
G1 F3600
G1 X163.496 Y189.185 E0.11754
G1 X162.758 Y189.094 F9000
G1 F3600
G1 X164.757 Y191.093 E0.231
G1 X164.679 Y191.661 F9000
G1 F3600
G1 X162.758 Y189.741 E0.34003
G1 X162.758 Y190.387 F9000
G1 F3600
G1 X164.601 Y192.229 E0.44462
G1 X164.212 Y192.487 F9000
G1 F3600
G1 X162.758 Y191.033 E0.52712
G1 X162.758 Y191.68 F9000
G1 F3600
G1 X163.566 Y192.487 E0.57295
M106 S255
;LAYER_CHANGE
;Z:0.4
;HEIGHT:0.2
; stop printing object (Unsaved).stl id:0 copy 0
EXCLUDE_OBJECT_END NAME=Unsaved_stl_id_0_copy_0
M204 S4000
G1 Z0.4 F9000
; printing object (Unsaved).stl id:0 copy 0
EXCLUDE_OBJECT_START NAME=Unsaved_stl_id_0_copy_0
; acceleration to travel
M204 S3000
G1 X162.826 Y192.764
; decel to extrusion
M204 S2500
G1 X162.188 Y193.003
; end travel
;TYPE:Internal perimeter
;WIDTH:0.46
G1 F3913.6703
G1 X162.188 Y188.238 E0.73821
G1 X162.916 Y188.644 E0.76713
G1 X163.476 Y188.813 E0.7874
G1 X164.149 Y188.856 E0.81081
G1 X164.642 Y188.812 E0.82797
G1 X165.146 Y188.67 E0.84611
G1 X165.704 Y188.385 E0.86786
G1 X165.11 Y192.708 E1.0192
G1 X165.019 Y192.797 E1.0236
G1 X164.902 Y192.87 E1.02839
G1 X164.826 Y192.902 E1.03126
G1 X164.511 Y192.982 E1.04254
G1 X164.23 Y193.003 E1.05228
G1 X162.188 Y193.003 E1.12312
; acceleration to travel
M204 S3000
G1 X161.973 Y190.055 F9000
; decel to extrusion
M204 S2500
G1 X161.771 Y187.272
; end travel
G1 F4800
G1 X162.019 Y187.206 E1.13202
G1 X162.282 Y187.668 E1.15045
G1 X162.654 Y188.02 E1.16821
G1 X163.08 Y188.258 E1.18513
G1 X163.55 Y188.4 E1.20217
G1 X164.144 Y188.438 E1.2228
G1 X164.567 Y188.4 E1.23752
G1 X164.993 Y188.28 E1.25288
G1 X165.397 Y188.073 E1.26862
G1 X165.759 Y187.769 E1.28504
G1 X165.999 Y187.423 E1.29961
G1 X166.244 Y187.519 E1.30874
G1 X165.523 Y192.767 E1.49245
G1 X165.488 Y192.89 E1.4969
G1 X165.447 Y192.961 E1.49973
G1 X165.279 Y193.127 E1.50795
G1 X165.093 Y193.242 E1.51549
G1 X164.959 Y193.298 E1.52055
G1 X164.578 Y193.396 E1.53419
G1 X164.246 Y193.42 E1.54574
G1 X161.771 Y193.42 E1.63157
G1 X161.771 Y187.272 E1.84479
; acceleration to travel
M204 S3000
G1 X161.924 Y156.471 F9000
; decel to extrusion
M204 S2500
G1 X162.000 Y141.187
M106 S221.85
G1 X162.019 Y137.339
; end travel
G1 F1800
G1 X161.771 Y137.274 E1.8537
G1 X161.771 Y136.58 E1.87776
G1 X162.596 Y136.58 E1.90638
G1 X162.282 Y136.878 E1.92138
G1 X162.019 Y137.339 E1.93981
; acceleration to travel
M204 S3000
G1 X162.204 Y160.81 F9000
; decel to extrusion
M204 S2500
G1 X162.411 Y187.051
; end travel
G1 F4800
G1 X162.614 Y187.408 E1.95405
G1 X162.903 Y187.682 E1.96785
G1 X163.243 Y187.872 E1.98138
G1 X163.625 Y187.986 E1.99518
G1 X164.138 Y188.019 E2.01304
G1 X164.491 Y187.988 E2.02532
G1 X164.84 Y187.89 E2.0379
G1 X165.165 Y187.724 E2.05055
G1 X165.448 Y187.485 E2.06339
G1 X165.666 Y187.172 E2.0766
G1 X165.765 Y186.851 E2.08826
G1 X172.48 Y138.017 E3.79777
G1 X172.471 Y137.685 E3.80931
G1 X172.341 Y137.327 E3.8225
G1 X172.12 Y137.031 E3.83531
G1 X171.84 Y136.806 E3.84778
G1 X171.522 Y136.649 E3.86008
G1 X171.182 Y136.556 E3.87232
G1 X170.858 Y136.528 E3.88357
G1 X163.969 Y136.528 E4.1225
G1 X163.615 Y136.562 E4.13485
G1 X163.243 Y136.674 E4.14829
G1 X162.903 Y136.864 E4.16182
G1 X162.614 Y137.138 E4.17562
G1 X162.411 Y137.494 E4.18986
G1 X162.346 Y137.85 E4.2024
G1 X162.346 Y186.695 E5.89635
G1 X162.411 Y187.051 E5.9089
M204 S1500
G1 X162.78 Y186.917 F9000
;TYPE:External perimeter
;WIDTH:0.4
G1 F2400
G1 X162.922 Y187.166 E5.91742
G1 X163.134 Y187.367 E5.92609
G1 X163.395 Y187.513 E5.93498
G1 X163.694 Y187.603 E5.94423
G1 X164.133 Y187.631 E5.95732
G1 X164.421 Y187.605 E5.96589
G1 X164.699 Y187.528 E5.97445
G1 X164.95 Y187.399 E5.98282
G1 X165.16 Y187.222 E5.99098
G1 X165.314 Y187.001 E5.99899
G1 X165.386 Y186.767 E6.00625
G1 X172.092 Y137.996 E7.46795
G1 X172.086 Y137.758 E7.47502
G1 X171.997 Y137.513 E7.48276
G1 X171.84 Y137.302 E7.49057
G1 X171.631 Y137.134 E7.49853
G1 X171.384 Y137.013 E7.50668
G1 X171.113 Y136.939 E7.51502
G1 X170.842 Y136.915 E7.52312
G1 X163.987 Y136.915 E7.72663
G1 X163.69 Y136.944 E7.73552
G1 X163.395 Y137.032 E7.74464
G1 X163.134 Y137.178 E7.75353
G1 X162.922 Y137.379 E7.7622
G1 X162.78 Y137.628 E7.77072
G1 X162.733 Y137.885 E7.77847
G1 X162.733 Y186.66 E9.22666
M73 P5 R17
G1 X162.78 Y186.917 E9.23441
;WIPE_START
M204 S4000
G1 X162.54 Y187.237 F9000
;WIPE_END
G92 E0
G1 E-0.5 F3000
G1 Z0.6 F9000
; acceleration to travel
M204 S3000
G1 X168.254 Y159.722
; decel to extrusion
M204 S2500
G1 X172.861 Y137.536
; end travel
G1 Z0.4
G1 E0 F1800
;TYPE:Internal perimeter
;WIDTH:0.46
G1 X172.712 Y137.127 E0.0151
G1 X172.304 Y136.58 E0.03878
G1 X173.214 Y136.58 E0.07034
G1 X173.209 Y136.865 E0.08024
G1 X173.121 Y137.509 E0.10277
G1 X172.861 Y137.536 E0.11183
G92 E0
G1 E-0.5 F3000
M204 S4000
G1 Z0.6 F9000
; acceleration to travel
M204 S3000
G1 X167.428 Y164.118
; decel to extrusion
M204 S2500
G1 X161.354 Y193.837
; end travel
G1 Z0.4
G1 E0 F1800
G1 F4800
G1 X161.354 Y136.163 E2.00016
M73 P5 R17
G1 X173.639 Y136.163 E2.42622
G1 X173.626 Y136.897 E2.4517
G1 X165.932 Y192.852 E4.41047
G1 X165.876 Y193.054 E4.41774
G1 X165.78 Y193.219 E4.42435
G1 X165.538 Y193.458 E4.43615
G1 X165.285 Y193.614 E4.44645
G1 X165.092 Y193.695 E4.4537
G1 X164.998 Y193.729 E4.45719
G1 X164.645 Y193.809 E4.46972
G1 X164.261 Y193.837 E4.48309
G1 X161.354 Y193.837 E4.58392
M204 S1500
G1 X160.967 Y193.448 F9000
;TYPE:External perimeter
;WIDTH:0.4
G1 F2400
G1 X160.967 Y135.776 E6.29629
G1 X174.03 Y135.776 E6.68417
G1 X174.029 Y135.994 E6.69066
G1 X174.012 Y136.927 E6.71837
