; generated by SuperSlicer 2.5.59 on 2023-02-25 at 06:52:11 UTC


;
;

;
;
; 

; external perimeters extrusion width = 0.40mm
; perimeters extrusion width = 0.46mm
; infill extrusion width = 0.64mm
; solid infill extrusion width = 0.56mm
; top infill extrusion width = 0.40mm
; support material extrusion width = 0.46mm
; first layer extrusion width = 0.50mm

; object:{"name":"support_test_piece","id":"support_test_piece.stl id:0 copy 0","object_center":[165.000000,165.000000,0.000000],"boundingbox_center":[165.000000,165.000000,6.000000],"boundingbox_size":[35.000000,30.000000,12.000000]}
; plater:{"center":[165.000000,165.000000,0.000000],"boundingbox_center":[165.000000,165.000000,6.000000],"boundingbox_size":[35.000000,30.000000,12.000000]}

M73 P0 R28


; Pre-Processed for Cancel-Object support by preprocess_cancellation v0.2.0
; 1 known objects
EXCLUDE_OBJECT_DEFINE NAME=support_test_piece_stl_id_0_copy_0 CENTER=168.921,163.228 POLYGON=[[144.979,147.479],[144.979,182.521],[185.021,182.521],[185.021,147.479]]
;TYPE:Custom
; custom gcode: start_gcode
START_PRINT T_BED=70 T_EXTRUDER=255
; custom gcode end: start_gcode
M107
G21 ; set units to millimeters
G90 ; use absolute coordinates
M82 ; use absolute distances for extrusion
G92 E0
; custom gcode: start_filament_gcode
; Filament gcode
PRESSURE_ADVANCE_SELECT FILAMENT=PETG
; custom gcode end: start_filament_gcode
;_TOOLCHANGE 0
M104 S255 ; set temperature
M109 S255 ; set temperature and wait for it to be reached
M190 S70 ; set bed temperature and wait for it to be reached
;LAYER_CHANGE
;Z:0.2
;HEIGHT:0.2
G1 Z0.2 F9000
M73 P0 R28
G1 E-1 F3000
M204 S1000
G1 X141.825 Y144.035 F9000
G1 E0 F1800
;TYPE:Skirt
;WIDTH:0.52
G1 X140.704 Y145.597 E0.07321
G1 X140.309 Y147.479 E0.14642
G1 X140.309 Y182.402 E1.47641
G1 X140.547 Y183.876 E1.53325
G1 X141.516 Y185.536 E1.60646
G1 X143.072 Y186.665 E1.67967
G1 X144.951 Y187.072 E1.75288
G1 X165.218 Y187.191 E2.5247
G1 X185.021 Y187.191 E3.27888
G1 X186.521 Y186.944 E3.33675
G1 X188.175 Y185.965 E3.40996
G1 X189.296 Y184.403 E3.48317
G1 X189.691 Y182.521 E3.55638
G1 X189.647 Y168.367 E4.09542
G1 X187.026 Y149.459 E4.82239
G1 X186.27 Y147.486 E4.90282
G1 X184.889 Y146.149 E4.97604
G1 X183.086 Y145.481 E5.04925
G1 X165.441 Y142.859 E5.7286
G1 X144.979 Y142.809 E6.50786
M73 P0 R28
G1 X143.479 Y143.056 E6.56573
G1 X141.825 Y144.035 E6.63895
G1 X142.227 Y144.345 F9000
G1 F1800
G1 X141.181 Y145.702 E6.70418
G1 X140.786 Y147.479 E6.77351
G1 X140.786 Y182.402 E8.10349
G1 X140.918 Y183.447 E8.1436
G1 X141.744 Y185.07 E8.21293
G1 X143.179 Y186.189 E8.28226
G1 X144.954 Y186.595 E8.35158
G1 X165.221 Y186.714 E9.12341
G1 X185.021 Y186.714 E9.87747
G1 X186.09 Y186.576 E9.91851
G1 X187.708 Y185.741 E9.98784
G1 X188.819 Y184.299 E10.05717
G1 X189.214 Y182.521 E10.1265
G1 X189.174 Y168.433 E10.66303
G1 X186.553 Y149.524 E11.39
G1 X185.979 Y147.916 E11.45504
G1 X184.716 Y146.605 E11.52437
M73 P1 R28
G1 X183.016 Y145.953 E11.5937
G1 X165.371 Y143.331 E12.27305
G1 X144.979 Y143.286 E13.04964
G1 X143.91 Y143.424 E13.09068
G1 X142.292 Y144.259 E13.16001
G1 X142.227 Y144.345 E13.1641
G1 X142.615 Y144.67 F9000
G1 F1800
G1 X141.658 Y145.812 E13.22086
G1 X141.263 Y147.479 E13.28607
G1 X141.263 Y182.402 E14.61606
G1 X141.987 Y184.606 E14.70438
G1 X143.293 Y185.713 E14.76959
G1 X144.957 Y186.118 E14.83481
G1 X165.223 Y186.237 E15.60663
G1 X185.021 Y186.237 E16.36059
G1 X187.242 Y185.5 E16.4497
G1 X188.342 Y184.188 E16.51492
G1 X188.737 Y182.521 E16.58013
G1 X188.702 Y168.498 E17.11417
G1 X186.08 Y149.59 E17.84114
G1 X185.673 Y148.341 E17.89117
G1 X184.536 Y147.06 E17.95639
G1 X182.946 Y146.425 E18.0216
G1 X165.301 Y143.803 E18.70096
G1 X144.979 Y143.763 E19.47488
G1 X142.758 Y144.5 E19.56399
G1 X142.615 Y144.67 E19.57245
G1 X142.985 Y145.013 F9000
G1 F1800
G1 X142.134 Y145.931 E19.62012
G1 X141.74 Y147.479 E19.68094
G1 X141.74 Y182.402 E21.01092
G1 X142.249 Y184.145 E21.08007
G1 X143.414 Y185.238 E21.1409
G1 X144.96 Y185.641 E21.20172
G1 X165.226 Y185.76 E21.97354
G1 X185.021 Y185.76 E22.7274
G1 X186.78 Y185.241 E22.79724
G1 X187.866 Y184.069 E22.85806
G1 X188.26 Y182.521 E22.91889
G1 X188.229 Y168.564 E23.45043
G1 X185.608 Y149.655 E24.17741
G1 X185.348 Y148.76 E24.21292
G1 X184.349 Y147.514 E24.27374
G1 X182.876 Y146.897 E24.33456
G1 X165.231 Y144.275 E25.01392
G1 X144.979 Y144.24 E25.78517
G1 X143.22 Y144.759 E25.85501
G1 X142.985 Y145.013 E25.86817
G92 E0
G1 E-1 F3000
; printing object support_test_piece.stl id:0 copy 0
EXCLUDE_OBJECT_START NAME=support_test_piece_stl_id_0_copy_0
; acceleration to travel
M204 S3000
G1 X144.48 Y146.862 F9000
; decel to extrusion
M204 S1000
G1 X144.979 Y147.479
; end travel
G1 E0 F1800
;TYPE:Support material
;WIDTH:0.5
G1 X164.755 Y147.479 E0.72155
G1 X164.755 Y149.321 E0.78879
G1 X162.278 Y149.321 E0.87918
G1 X161.821 Y149.778 E0.90271
G1 X161.821 Y164.321 E1.43336
G1 X147.278 Y164.321 E1.96401
G1 X146.821 Y164.778 E1.98754
G1 X146.821 Y167.232 E2.07711
G1 X147.021 Y167.432 E2.08742
G1 X147.021 Y169.008 E2.14493
G1 X147.021 Y169.038 E2.14599
G1 X161.821 Y169.038 E2.686
G1 X161.821 Y180.222 E3.09409
G1 X162.278 Y180.679 E3.11762
M73 P2 R28
G1 X167.722 Y180.679 E3.31629
G1 X168.179 Y180.222 E3.33982
G1 X168.179 Y169.009 E3.74894
G1 X185.021 Y169.008 E4.36347
G1 X185.021 Y182.521 E4.85651
G1 X165.245 Y182.521 E5.57806
G1 X165.245 Y182.402 E5.58241
G1 X144.979 Y182.402 E6.32186
G1 X144.979 Y179.643 E6.42255
G1 X144.979 Y164.778 E6.96492
G1 X144.979 Y147.479 E7.59609
G92 E0
G1 E-1 F3000
; acceleration to travel
M204 S3000
G1 X174.469 Y173.675 F9000
; decel to extrusion
M204 S1000
G1 X184.299 Y182.407
; end travel
G1 E0 F1800
G1 X184.299 Y169.319 E0.47752
G1 X183.791 Y169.319 E0.49605
G1 X183.791 Y182.211 E0.96641
G1 X183.283 Y182.211 E0.98494
G1 X183.283 Y169.319 E1.45529
G1 X182.775 Y169.319 E1.47382
G1 X182.775 Y182.211 E1.94417
G1 X182.267 Y182.211 E1.9627
G1 X182.267 Y169.319 E2.43304
G1 X181.76 Y169.319 E2.45157
G1 X181.76 Y182.211 E2.92192
G1 X181.252 Y182.211 E2.94045
G1 X181.252 Y169.32 E3.4108
G1 X180.744 Y169.32 E3.42933
G1 X180.744 Y182.211 E3.89967
G1 X180.236 Y182.211 E3.9182
G1 X180.236 Y169.32 E4.38855
G1 X179.728 Y169.32 E4.40708
G1 X179.728 Y182.211 E4.87742
G1 X179.22 Y182.211 E4.89595
G1 X179.22 Y169.32 E5.3663
G1 X178.712 Y169.32 E5.38483
G1 X178.712 Y182.211 E5.85517
G1 X178.205 Y182.211 E5.8737
G1 X178.205 Y169.32 E6.34404
G1 X177.697 Y169.32 E6.36257
G1 X177.697 Y182.211 E6.83291
G1 X177.189 Y182.211 E6.85144
G1 X177.189 Y169.32 E7.32178
G1 X176.681 Y169.32 E7.34031
G1 X176.681 Y182.211 E7.81064
G1 X176.173 Y182.211 E7.82917
G1 X176.173 Y169.32 E8.29951
G1 X175.665 Y169.32 E8.31804
G1 X175.665 Y182.211 E8.78838
G1 X175.157 Y182.211 E8.80691
G1 X175.157 Y169.32 E9.27724
G1 X174.649 Y169.32 E9.29577
G1 X174.649 Y182.211 E9.7661
G1 X174.142 Y182.211 E9.78463
G1 X174.142 Y169.32 E10.25497
G1 X173.634 Y169.32 E10.2735
G1 X173.634 Y182.211 E10.74383
G1 X173.126 Y182.211 E10.76236
G1 X173.126 Y169.32 E11.23269
G1 X172.618 Y169.32 E11.25122
G1 X172.618 Y182.211 E11.72155
M73 P3 R28
G1 X172.11 Y182.211 E11.74008
G1 X172.11 Y169.32 E12.21041
G1 X171.602 Y169.32 E12.22894
G1 X171.602 Y182.211 E12.69926
G1 X171.094 Y182.211 E12.71779
G1 X171.094 Y169.32 E13.18812
G1 X170.587 Y169.32 E13.20665
G1 X170.587 Y182.211 E13.67698
G1 X170.079 Y182.211 E13.69551
G1 X170.079 Y169.32 E14.16583
G1 X169.571 Y169.32 E14.18436
G1 X169.571 Y182.211 E14.65468
G1 X169.063 Y182.211 E14.67321
G1 X169.063 Y169.32 E15.14354
G1 X168.555 Y169.32 E15.16207
G1 X168.555 Y182.211 E15.63239
G1 X168.047 Y182.211 E15.65092
G1 X168.047 Y180.793 E15.70263
G1 X167.851 Y180.989 E15.71274
G1 X167.539 Y180.989 E15.72412
G1 X167.539 Y182.211 E15.76868
G1 X167.031 Y182.211 E15.78721
G1 X167.031 Y180.989 E15.83177
G1 X166.524 Y180.989 E15.8503
G1 X166.524 Y182.211 E15.89486
G1 X166.016 Y182.211 E15.91339
G1 X166.016 Y180.989 E15.95795
G1 X165.508 Y180.989 E15.97648
G1 X165.508 Y182.091 E16.01669
G1 X165 Y182.091 E16.03522
G1 X165 Y180.989 E16.07543
G1 X164.492 Y180.989 E16.09396
G1 X164.492 Y182.091 E16.13417
G1 X163.984 Y182.091 E16.1527
G1 X163.984 Y180.989 E16.19292
G1 X163.476 Y180.989 E16.21145
G1 X163.476 Y182.091 E16.25166
G1 X162.969 Y182.091 E16.27019
G1 X162.969 Y180.989 E16.3104
G1 X162.461 Y180.989 E16.32893
G1 X162.461 Y182.091 E16.36914
G1 X161.953 Y182.091 E16.38767
G1 X161.953 Y180.793 E16.43503
G1 X161.511 Y180.351 E16.45785
G1 X161.511 Y169.348 E16.8593
G1 X161.445 Y169.348 E16.8617
G1 X161.445 Y182.091 E17.32664
G1 X160.937 Y182.091 E17.34517
G1 X160.937 Y169.348 E17.81012
G1 X160.429 Y169.348 E17.82865
G1 X160.429 Y182.091 E18.29359
G1 X159.921 Y182.091 E18.31212
G1 X159.921 Y169.348 E18.77707
G1 X159.413 Y169.348 E18.7956
G1 X159.413 Y182.091 E19.26055
G1 X158.906 Y182.091 E19.27908
G1 X158.906 Y169.348 E19.74402
G1 X158.398 Y169.348 E19.76255
G1 X158.398 Y182.091 E20.2275
G1 X157.89 Y182.091 E20.24603
G1 X157.89 Y169.348 E20.71097
G1 X157.382 Y169.348 E20.7295
G1 X157.382 Y182.091 E21.19445
G1 X156.874 Y182.091 E21.21298
G1 X156.874 Y169.348 E21.67793
G1 X156.366 Y169.348 E21.69646
G1 X156.366 Y182.091 E22.1614
G1 X155.858 Y182.091 E22.17993
G1 X155.858 Y169.348 E22.64488
G1 X155.351 Y169.348 E22.66341
G1 X155.351 Y182.091 E23.12835
G1 X154.843 Y182.091 E23.14688
G1 X154.843 Y169.348 E23.61183
G1 X154.335 Y169.348 E23.63036
G1 X154.335 Y182.091 E24.09531
G1 X153.827 Y182.091 E24.11384
G1 X153.827 Y169.348 E24.57878
G1 X153.319 Y169.348 E24.59731
G1 X153.319 Y182.091 E25.06226
G1 X152.811 Y182.091 E25.08079
G1 X152.811 Y169.348 E25.54573
G1 X152.303 Y169.348 E25.56426
G1 X152.303 Y182.091 E26.02921
G1 X151.795 Y182.091 E26.04774
G1 X151.795 Y169.348 E26.51269
G1 X151.288 Y169.348 E26.53122
G1 X151.288 Y182.091 E26.99616
G1 X150.78 Y182.091 E27.01469
G1 X150.78 Y169.348 E27.47964
G1 X150.272 Y169.348 E27.49817
G1 X150.272 Y182.091 E27.96311
M73 P4 R27
G1 X149.764 Y182.091 E27.98164
G1 X149.764 Y169.348 E28.44659
G1 X149.256 Y169.348 E28.46512
G1 X149.256 Y182.091 E28.93006
G1 X148.748 Y182.091 E28.94859
G1 X148.748 Y169.348 E29.41354
G1 X148.24 Y169.348 E29.43207
G1 X148.24 Y182.091 E29.89702
G1 X147.733 Y182.091 E29.91555
G1 X147.733 Y169.348 E30.38049
G1 X147.225 Y169.348 E30.39902
G1 X147.225 Y182.091 E30.86397
G1 X146.717 Y182.091 E30.8825
G1 X146.717 Y169.348 E31.34744
G1 X146.71 Y169.348 E31.34768
G1 X146.71 Y169.008 E31.36008
G1 X146.71 Y167.561 E31.41289
G1 X146.511 Y167.361 E31.4232
G1 X146.511 Y164.649 E31.52217
G1 X146.717 Y164.443 E31.53281
G1 X146.717 Y147.789 E32.14042
G1 X147.225 Y147.789 E32.15895
G1 X147.225 Y164.011 E32.75079
G1 X147.733 Y164.011 E32.76932
G1 X147.733 Y147.789 E33.36117
G1 X148.24 Y147.789 E33.3797
G1 X148.24 Y164.011 E33.97155
G1 X148.748 Y164.011 E33.99008
G1 X148.748 Y147.789 E34.58193
G1 X149.256 Y147.789 E34.60046
G1 X149.256 Y164.011 E35.19231
G1 X149.764 Y164.011 E35.21084
G1 X149.764 Y147.789 E35.80269
G1 X150.272 Y147.789 E35.82122
G1 X150.272 Y164.011 E36.41307
M73 P4 R27
G1 X150.78 Y164.011 E36.4316
G1 X150.78 Y147.789 E37.02345
G1 X151.288 Y147.789 E37.04198
G1 X151.288 Y164.011 E37.63383
G1 X151.795 Y164.011 E37.65236
G1 X151.795 Y147.789 E38.24421
G1 X152.303 Y147.789 E38.26274
G1 X152.303 Y164.011 E38.85459
G1 X152.811 Y164.011 E38.87312
G1 X152.811 Y147.789 E39.46497
G1 X153.319 Y147.789 E39.4835
G1 X153.319 Y164.011 E40.07535
G1 X153.827 Y164.011 E40.09388
G1 X153.827 Y147.789 E40.68573
G1 X154.335 Y147.789 E40.70426
G1 X154.335 Y164.011 E41.29611
G1 X154.843 Y164.011 E41.31464
G1 X154.843 Y147.789 E41.90649
G1 X155.351 Y147.789 E41.92502
G1 X155.351 Y164.011 E42.51687
G1 X155.858 Y164.011 E42.5354
G1 X155.858 Y147.789 E43.12725
G1 X156.366 Y147.789 E43.14578
G1 X156.366 Y164.011 E43.73763
G1 X156.874 Y164.011 E43.75616
G1 X156.874 Y147.789 E44.34801
M73 P5 R27
G1 X157.382 Y147.789 E44.36654
G1 X157.382 Y164.011 E44.95839
G1 X157.89 Y164.011 E44.97692
G1 X157.89 Y147.789 E45.56877
G1 X158.398 Y147.789 E45.5873
G1 X158.398 Y164.011 E46.17915
G1 X158.906 Y164.011 E46.19768
G1 X158.906 Y147.789 E46.78953
G1 X159.413 Y147.789 E46.80806
G1 X159.413 Y164.011 E47.39991
G1 X159.921 Y164.011 E47.41844
G1 X159.921 Y147.789 E48.01029
G1 X160.429 Y147.789 E48.02882
G1 X160.429 Y164.011 E48.62067
G1 X160.937 Y164.011 E48.6392
G1 X160.937 Y147.789 E49.23105
G1 X161.445 Y147.789 E49.24958
G1 X161.445 Y164.011 E49.84143
G1 X161.511 Y164.011 E49.84383
G1 X161.511 Y149.649 E50.36784
G1 X161.953 Y149.207 E50.39065
G1 X161.953 Y147.789 E50.44236
G1 X162.461 Y147.789 E50.46089
G1 X162.461 Y149.011 E50.50545
G1 X162.969 Y149.011 E50.52398
G1 X162.969 Y147.789 E50.56854
G1 X163.476 Y147.789 E50.58707
G1 X163.476 Y149.011 E50.63163
G1 X163.984 Y149.011 E50.65016
G1 X163.984 Y147.593 E50.70189
G92 E0
G1 E-1 F3000
; acceleration to travel
M204 S3000
G1 X150.653 Y173.614 F9000
; decel to extrusion
M204 S1000
G1 X146.209 Y182.288
; end travel
G1 E0 F1800
G1 X146.209 Y147.789 E1.25872
G1 X145.701 Y147.789 E1.27725
G1 X145.701 Y182.288 E2.53597
G92 E0
G1 E-1 F3000
; acceleration to travel
M204 S3000
G1 X163.241 Y167.605 F9000
; decel to extrusion
M204 S1000
G1 X169.088 Y162.711
; end travel
G1 E0 F1800
G1 X168.874 Y162.428 E0.01295
G1 X168.638 Y162.06 E0.02891
G1 X168.449 Y161.696 E0.04386
G1 X168.329 Y161.422 E0.05477
G1 X168.237 Y161.144 E0.06546
G1 X168.147 Y160.871 E0.07594
G1 X168.095 Y160.629 E0.08499
G1 X168.059 Y160.46 E0.09129
G1 X168.045 Y160.393 E0.09379
G1 X168.012 Y159.991 E0.10849
G1 X167.98 Y159.592 E0.12312
G1 X167.995 Y159.329 E0.13271
G1 X167.998 Y159.267 E0.13497
G1 X168.01 Y159.062 E0.14246
G1 X168.069 Y158.732 E0.1547
G1 X168.127 Y158.408 E0.16673
G1 X168.236 Y158.074 E0.17954
G1 X168.249 Y158.034 E0.18108
G1 X168.345 Y157.741 E0.19234
G1 X168.361 Y157.708 E0.19365
G1 X168.492 Y157.441 E0.20452
G1 X168.565 Y157.291 E0.21061
G1 X168.642 Y157.135 E0.21695
G1 X168.649 Y157.124 E0.21744
G1 X168.771 Y156.935 E0.22565
G1 X168.907 Y156.725 E0.23475
G1 X169.124 Y156.445 E0.24768
G1 X169.418 Y156.124 E0.26357
G1 X169.549 Y156.007 E0.26997
G1 X169.633 Y155.932 E0.2741
G1 X169.852 Y155.737 E0.28477
G1 X170.098 Y155.556 E0.29592
G1 X170.433 Y155.342 E0.31043
G1 X170.729 Y155.197 E0.32245
G1 X171.018 Y155.054 E0.3342
G1 X171.322 Y154.951 E0.34593
G1 X171.627 Y154.848 E0.35767
G1 X171.942 Y154.785 E0.3694
G1 X172.257 Y154.722 E0.38113
G1 X172.579 Y154.701 E0.39288
G1 X172.9 Y154.68 E0.40463
G1 X173.221 Y154.701 E0.41637
G1 X173.543 Y154.722 E0.42812
G1 X173.858 Y154.785 E0.43985
G1 X174.173 Y154.848 E0.45159
G1 X174.478 Y154.951 E0.46333
G1 X174.792 Y155.058 E0.47543
G1 X174.975 Y155.141 E0.48275
G1 X175.362 Y155.34 E0.49864
G1 X175.702 Y155.556 E0.51334
G1 X175.948 Y155.737 E0.52449
G1 X176.167 Y155.932 E0.53516
G1 X176.382 Y156.124 E0.54569
G1 X176.676 Y156.445 E0.56159
G1 X176.893 Y156.725 E0.57452
G1 X176.955 Y156.821 E0.57866
G1 X177.029 Y156.935 E0.58362
G1 X177.158 Y157.135 E0.59231
G1 X177.308 Y157.441 E0.60474
G1 X177.445 Y157.72 E0.6161
G1 X177.456 Y157.743 E0.61703
G1 X177.554 Y158.034 E0.62823
G1 X177.651 Y158.322 E0.63932
G1 X177.721 Y158.692 E0.65306
G1 X177.791 Y159.065 E0.6669
G1 X177.805 Y159.329 E0.67656
G1 X177.821 Y159.607 E0.68669
G1 X177.814 Y159.793 E0.69351
G1 X177.784 Y160.1 E0.70473
G1 X177.757 Y160.388 E0.71529
G1 X177.705 Y160.629 E0.72429
G1 X177.653 Y160.871 E0.73334
G1 X177.563 Y161.144 E0.74382
G1 X177.472 Y161.419 E0.75439
G1 X177.347 Y161.696 E0.76547
G1 X177.31 Y161.779 E0.7688
G1 X177.163 Y162.058 E0.7803
G1 X176.926 Y162.428 E0.79633
G1 X176.712 Y162.711 E0.80928
G1 X176.544 Y162.897 E0.81842
G1 X176.453 Y162.997 E0.82335
G1 X176.38 Y163.078 E0.82734
G1 X176.183 Y163.255 E0.83699
G1 X175.986 Y163.432 E0.84667
G1 X175.811 Y163.56 E0.85458
G1 X175.627 Y163.694 E0.86289
G1 X175.551 Y163.742 E0.86617
G1 X175.368 Y163.857 E0.87402
G1 X175.071 Y164.003 E0.88611
G1 X174.782 Y164.146 E0.89786
G1 X174.478 Y164.249 E0.90959
G1 X174.403 Y164.274 E0.91248
G1 X174.173 Y164.352 E0.92132
G1 X173.858 Y164.415 E0.93306
G1 X173.543 Y164.478 E0.94479
G1 X173.221 Y164.499 E0.95654
G1 X172.9 Y164.52 E0.96829
G1 X172.579 Y164.499 E0.98003
G1 X172.257 Y164.478 E0.99178
