; generated by SuperSlicer 2.5.59 on 2023-05-07 at 15:58:23 UTC


;
;

;
;
; 

; external perimeters extrusion width = 0.40mm
; perimeters extrusion width = 0.46mm
; infill extrusion width = 0.64mm
; solid infill extrusion width = 0.56mm
; top infill extrusion width = 0.40mm
; support material extrusion width = 0.46mm
; first layer extrusion width = 0.50mm

; object:{"name":"1","id":"1.HDD_4x3.5.stl id:0 copy 0","object_center":[165.000000,165.000000,0.000000],"boundingbox_center":[165.000000,165.000000,9.599998],"boundingbox_size":[197.119995,191.919991,19.199997]}
EXCLUDE_OBJECT_DEFINE NAME=1_HDD_4x3_5_stl_id_0_copy_0 CENTER=165.000000,165.000000 POLYGON=[[66.440004,95.140000],[68.390000,83.740000],[75.699992,69.040000],[254.293984,69.040000],[261.609984,83.740000],[263.560000,95.140000],[263.560000,211.340000],[261.609984,222.740000],[254.293984,260.960000],[75.699992,260.960000],[68.390000,222.740000],[66.440004,211.340000],[66.440004,95.140000]]
; plater:{"center":[165.000000,165.000000,0.000000],"boundingbox_center":[165.000000,165.000000,9.599998],"boundingbox_size":[197.119995,191.919991,19.199997]}

M73 P0 R230
;TYPE:Custom
; custom gcode: start_gcode
START_PRINT T_BED=70 T_EXTRUDER=235
; custom gcode end: start_gcode
M107
G21 ; set units to millimeters
G90 ; use absolute coordinates
M82 ; use absolute distances for extrusion
G92 E0
; custom gcode: start_filament_gcode
; Filament gcode
PRESSURE_ADVANCE_SELECT FILAMENT=PETG
; custom gcode end: start_filament_gcode
;_TOOLCHANGE 0
M104 S235 ; set temperature
M109 S235 ; set temperature and wait for it to be reached
M190 S70 ; set bed temperature and wait for it to be reached
;LAYER_CHANGE
;Z:0.2
;HEIGHT:0.2
G1 Z0.2 F9000
G1 E-1 F3000
M204 S1000
G1 X73.571 Y66.167 F9000
G1 E0 F1800
;TYPE:Skirt
;WIDTH:0.52
G1 X72.474 Y67.483 E0.06589
G1 X65.149 Y82.183 E0.69789
G1 X64.812 Y83.214 E0.73961
G1 X62.824 Y95.148 E1.20519
G1 X62.824 Y211.332 E5.67582
G1 X64.825 Y223.339 E6.14425
G1 X72.151 Y261.559 E7.6417
G1 X72.821 Y263.081 E7.70568
G1 X74.134 Y264.181 E7.77157
G1 X75.8 Y264.576 E7.83746
G1 X254.194 Y264.576 E14.70193
G1 X255.814 Y264.204 E14.76589
G1 X257.142 Y263.122 E14.83178
G1 X257.843 Y261.56 E14.89768
G1 X265.175 Y223.34 E16.39517
G1 X267.176 Y211.332 E16.86362
G1 X267.176 Y95.148 E21.33425
G1 X265.188 Y83.214 E21.79982
G1 X264.851 Y82.182 E21.8416
G1 X257.519 Y67.482 E22.47369
G1 X255.86 Y65.819 E22.56406
G1 X254.194 Y65.424 E22.62996
G1 X75.8 Y65.424 E29.49442
M73 P0 R230
G1 X73.571 Y66.167 E29.58484
G1 X73.943 Y66.488 F9000
G1 F1800
G1 X72.901 Y67.696 E29.6462
G1 X65.576 Y82.396 E30.27819
G1 X65.282 Y83.294 E30.31456
G1 X63.301 Y95.148 E30.77704
G1 X63.301 Y211.332 E35.24767
G1 X65.294 Y223.25 E35.71264
G1 X72.619 Y261.47 E37.21008
G1 X73.081 Y262.619 E37.25774
G1 X74.252 Y263.705 E37.3192
G1 X75.8 Y264.099 E37.38065
G1 X254.194 Y264.099 E44.24512
G1 X255.409 Y263.862 E44.29276
G1 X256.696 Y262.916 E44.35422
G1 X257.375 Y261.47 E44.41568
G1 X264.706 Y223.25 E45.91317
G1 X266.699 Y211.332 E46.37815
G1 X266.699 Y95.148 E50.84879
G1 X264.718 Y83.294 E51.31126
G1 X264.424 Y82.395 E51.34767
G1 X257.092 Y67.695 E51.97977
G1 X255.742 Y66.295 E52.05459
G1 X254.194 Y65.901 E52.11605
G1 X75.8 Y65.901 E58.98052
G1 X73.943 Y66.488 E59.05546
G92 E0
G1 E-1 F3000
; printing object 1.HDD_4x3.5.stl id:0 copy 0
EXCLUDE_OBJECT_START NAME=1_HDD_4x3_5_stl_id_0_copy_0
; acceleration to travel
M204 S3000
G1 X192.755 Y159.006 F9000
; decel to extrusion
M204 S1000
G1 X232.359 Y189.846
; end travel
G1 E0 F1800
;TYPE:Internal perimeter
;WIDTH:0.5
G1 X232.359 Y179.594 E0.37794
G1 X180.639 Y149.736 E2.57959
G1 X166.778 Y149.736 E3.0906
G1 X166.256 Y151.682 E3.16489
G1 X232.359 Y189.846 E5.97883
G1 X231.902 Y189.054 F9000
G1 F1800
G1 X231.902 Y179.858 E6.31786
G1 X180.517 Y150.193 E8.50526
G1 X167.129 Y150.193 E8.99883
G1 X166.789 Y151.462 E9.04726
G1 X231.902 Y189.054 E11.81909
G1 X231.445 Y188.262 F9000
;TYPE:External perimeter
G1 F1800
G1 X231.445 Y180.122 E12.1192
G1 X180.394 Y150.65 E14.29235
G1 X167.479 Y150.65 E14.76848
G1 X167.321 Y151.241 E14.79105
G1 X231.445 Y188.262 E17.52076
;WIPE_START
M204 S4000
G1 X231.839 Y188.332 F9000
;WIPE_END
G92 E0
G1 E-1 F3000
; acceleration to travel
M204 S3000
G1 X232.229 Y192.893 F9000
; decel to extrusion
M204 S1000
G1 X232.359 Y194.413
; end travel
G1 E0 F1800
;TYPE:Internal perimeter
G1 X232.359 Y194.258 E0.0057
G1 X155.244 Y149.736 E3.28846
G1 X150.236 Y149.736 E3.47308
G1 X150.236 Y157.096 E3.74443
G1 X210.131 Y191.675 E6.29408
G1 X210.191 Y191.675 E6.29631
G1 X231.095 Y203.746 E7.18622
G1 X232.359 Y203.016 E7.24003
G1 X232.359 Y194.413 E7.55719
G1 X231.902 Y194.6 F9000
G1 F1800
G1 X231.902 Y194.522 E7.56004
G1 X155.121 Y150.193 E10.82855
G1 X150.693 Y150.193 E10.99181
G1 X150.693 Y156.832 E11.23658
G1 X210.253 Y191.218 E13.77199
G1 X210.313 Y191.218 E13.77421
G1 X231.095 Y203.218 E14.65891
G1 X231.902 Y202.752 E14.69327
G1 X231.902 Y194.6 E14.99381
G1 X231.445 Y194.786 F9000
;TYPE:External perimeter
G1 F1800
G1 X154.999 Y150.65 E18.24808
M73 P1 R229
G1 X151.15 Y150.65 E18.38997
G1 X151.15 Y156.568 E18.60816
G1 X210.375 Y190.761 E21.12933
G1 X210.436 Y190.761 E21.13155
G1 X231.095 Y202.69 E22.01104
G1 X231.445 Y202.488 E22.02593
G1 X231.445 Y194.786 E22.30987
;WIPE_START
M204 S4000
G1 X231.582 Y194.41 F9000
;WIPE_END
G92 E0
G1 E-1 F3000
; acceleration to travel
M204 S3000
G1 X227.017 Y204.051 F9000
; decel to extrusion
M204 S1000
G1 X225.496 Y207.264
; end travel
G1 E0 F1800
;TYPE:Internal perimeter
G1 X225.593 Y207.264 E0.0036
G1 X226.115 Y205.318 E0.07789
G1 X150.236 Y161.509 E3.30801
G1 X150.236 Y171.755 E3.68573
G1 X184.734 Y191.675 E5.15435
G1 X184.794 Y191.675 E5.15654
G1 X211.791 Y207.264 E6.30585
G1 X225.496 Y207.264 E6.81108
G1 X225.194 Y206.807 F9000
G1 F1800
G1 X225.243 Y206.807 E6.81288
G1 X225.583 Y205.538 E6.86132
G1 X150.693 Y162.301 E10.04932
G1 X150.693 Y171.491 E10.38812
G1 X184.857 Y191.218 E11.8425
G1 X184.916 Y191.218 E11.84469
G1 X211.914 Y206.807 E12.994
G1 X225.194 Y206.807 E13.48358
G1 X224.892 Y206.35 F9000
;TYPE:External perimeter
G1 F1800
G1 X225.051 Y205.759 E13.50616
G1 X151.15 Y163.093 E16.65204
G1 X151.15 Y171.227 E16.95194
G1 X184.979 Y190.761 E18.39207
G1 X185.039 Y190.761 E18.39426
G1 X212.036 Y206.35 E19.54357
G1 X224.892 Y206.35 E20.01751
;WIPE_START
M204 S4000
G1 X225.286 Y206.419 F9000
;WIPE_END
G92 E0
G1 E-1 F3000
; acceleration to travel
M204 S3000
G1 X168.998 Y185.598 F9000
; decel to extrusion
M204 S1000
G1 X150.236 Y178.657
; end travel
G1 E0 F1800
;TYPE:Internal perimeter
G1 X150.236 Y186.42 E0.28617
G1 X159.337 Y191.675 E0.67363
G1 X159.398 Y191.675 E0.67585
G1 X186.395 Y207.264 E1.82515
G1 X200.196 Y207.264 E2.33395
G1 X200.718 Y205.318 E2.40824
G1 X151.5 Y176.898 E4.50348
G1 X150.915 Y177.236 E4.52839
G1 X150.236 Y177.628 E4.5573
G1 X150.236 Y178.657 E4.59525
G1 X150.693 Y178.342 F9000
G1 F1800
G1 X150.693 Y186.156 E4.8833
M73 P1 R228
G1 X159.46 Y191.218 E5.25652
G1 X159.52 Y191.218 E5.25874
G1 X186.517 Y206.807 E6.40804
G1 X199.846 Y206.807 E6.89939
G1 X200.186 Y205.538 E6.94782
G1 X151.5 Y177.426 E9.02041
G1 X151.143 Y177.632 E9.03559
G1 X150.693 Y177.892 E9.05476
G1 X150.693 Y178.342 E9.07138
G1 X151.372 Y178.027 F9000
;TYPE:External perimeter
G1 F1800
G1 X151.15 Y178.156 E9.08083
G1 X151.15 Y185.892 E9.36603
G1 X159.582 Y190.761 E9.72501
G1 X159.643 Y190.761 E9.72723
G1 X186.64 Y206.35 E10.87653
G1 X199.495 Y206.35 E11.35043
G1 X199.653 Y205.759 E11.37301
G1 X151.5 Y177.953 E13.42293
G1 X151.372 Y178.027 E13.42838
;WIPE_START
M204 S4000
G1 X151.025 Y177.827 F9000
;WIPE_END
G92 E0
G1 E-1 F3000
; acceleration to travel
M204 S3000
G1 X150.433 Y189.447 F9000
; decel to extrusion
M204 S1000
G1 X150.236 Y193.321
; end travel
G1 E0 F1800
;TYPE:Internal perimeter
G1 X150.236 Y201.05 E0.28493
G1 X160.998 Y207.264 E0.7431
G1 X174.799 Y207.264 E1.25189
G1 X175.321 Y205.318 E1.32618
G1 X151.5 Y191.563 E2.34025
G1 X150.915 Y191.901 E2.36517
G1 X150.236 Y192.293 E2.39407
G1 X150.236 Y193.321 E2.43197
G1 X150.693 Y193.007 F9000
G1 F1800
G1 X150.693 Y200.786 E2.71876
G1 X161.121 Y206.807 E3.16269
G1 X174.449 Y206.807 E3.65403
G1 X174.789 Y205.538 E3.70246
G1 X151.5 Y192.091 E4.69388
G1 X151.143 Y192.296 E4.70906
G1 X150.693 Y192.557 E4.72823
G1 X150.693 Y193.007 E4.74482
G1 X151.372 Y192.692 F9000
;TYPE:External perimeter
G1 F1800
G1 X151.15 Y192.82 E4.75427
G1 X151.15 Y200.522 E5.03819
G1 X161.243 Y206.35 E5.46787
G1 X174.098 Y206.35 E5.94177
G1 X174.256 Y205.759 E5.96434
G1 X151.5 Y192.618 E6.9331
G1 X151.372 Y192.692 E6.93855
;WIPE_START
M204 S4000
G1 X151.025 Y192.492 F9000
;WIPE_END
G92 E0
G1 E-1 F3000
; acceleration to travel
M204 S3000
G1 X150.433 Y217.349 F9000
; decel to extrusion
M204 S1000
G1 X150.236 Y225.634
; end travel
G1 E0 F1800
;TYPE:Internal perimeter
G1 X150.236 Y230.379 E0.17491
G1 X153.573 Y232.306 E0.31699
G1 X167.435 Y232.306 E0.82801
G1 X167.956 Y230.36 E0.9023
G1 X166.332 Y229.422 E0.97144
G1 X166.272 Y229.422 E0.97367
G1 X158.13 Y224.72 E1.32028
G1 X150.236 Y224.72 E1.6113
G1 X150.236 Y225.634 E1.645
G1 X150.693 Y225.634 F9000
G1 F1800
G1 X150.693 Y230.115 E1.81019
G1 X153.696 Y231.849 E1.93802
G1 X167.084 Y231.849 E2.43159
G1 X167.424 Y230.58 E2.48002
G1 X166.21 Y229.879 E2.53172
G1 X166.149 Y229.879 E2.53394
G1 X158.007 Y225.177 E2.88056
G1 X150.693 Y225.177 E3.15021
G1 X150.693 Y225.634 E3.16706
G1 X151.15 Y225.634 F9000
;TYPE:External perimeter
G1 F1800
G1 X151.15 Y229.851 E3.32252
G1 X153.818 Y231.392 E3.43611
G1 X166.733 Y231.392 E3.91224
G1 X166.892 Y230.801 E3.93481
G1 X166.087 Y230.336 E3.96906
G1 X166.027 Y230.336 E3.97128
G1 X157.885 Y225.634 E4.3179
G1 X151.15 Y225.634 E4.56619
;WIPE_START
M204 S4000
G1 X150.75 Y225.634 F9000
;WIPE_END
G92 E0
G1 E-1 F3000
; acceleration to travel
M204 S3000
G1 X153.457 Y231.455 F9000
; decel to extrusion
M204 S1000
G1 X154.359 Y233.395
; end travel
G1 E0 F1800
;TYPE:Internal perimeter
G1 X150.236 Y237.518 E0.21496
G1 X150.236 Y247.566 E0.58536
G1 X154.976 Y252.306 E0.83251
G1 X227.619 Y252.306 E3.51056
G1 X232.359 Y247.566 E3.75772
G1 X232.359 Y238.218 E4.10234
G1 X222.938 Y232.778 E4.5034
G1 X154.976 Y232.778 E7.00889
G1 X154.359 Y233.395 E7.04109
G1 X154.857 Y233.544 F9000
G1 F1800
G1 X150.693 Y237.708 E7.25819
G1 X150.693 Y247.376 E7.61463
G1 X155.166 Y251.849 E7.84783
G1 X227.43 Y251.849 E10.51192
G1 X231.902 Y247.376 E10.74511
G1 X231.902 Y238.482 E11.07302
G1 X222.816 Y233.235 E11.45984
G1 X155.166 Y233.235 E13.95384
M73 P1 R228
G1 X154.857 Y233.544 E13.96994
G1 X155.355 Y233.692 F9000
;TYPE:External perimeter
G1 F1800
G1 X151.15 Y237.897 E14.18917
G1 X151.15 Y247.187 E14.53166
G1 X155.355 Y251.392 E14.75089
G1 X227.24 Y251.392 E17.40102
G1 X231.445 Y247.187 E17.62026
G1 X231.445 Y238.746 E17.93146
G1 X222.693 Y233.692 E18.30404
G1 X155.355 Y233.692 E20.78654
;WIPE_START
M204 S4000
G1 X155.009 Y233.492 F9000
;WIPE_END
G92 E0
G1 E-1 F3000
; acceleration to travel
M204 S3000
G1 X165.718 Y228.41 F9000
; decel to extrusion
M204 S1000
G1 X169.288 Y226.716
; end travel
G1 E0 F1800
;TYPE:Internal perimeter
G1 X178.97 Y232.306 E0.41217
G1 X192.832 Y232.306 E0.92319
G1 X193.353 Y230.36 E0.99748
G1 X191.729 Y229.422 E1.06662
G1 X191.669 Y229.422 E1.06884
G1 X183.527 Y224.72 E1.41546
G1 X169.725 Y224.72 E1.92426
G1 X169.204 Y226.667 E1.99855
G1 X169.288 Y226.716 E2.00215
G1 X169.778 Y226.471 F9000
G1 F1800
G1 X179.093 Y231.849 E2.39867
G1 X192.481 Y231.849 E2.89224
G1 X192.821 Y230.58 E2.94068
G1 X191.607 Y229.879 E2.99237
G1 X191.546 Y229.879 E2.99459
G1 X183.404 Y225.177 E3.34121
G1 X170.076 Y225.177 E3.83257
G1 X169.736 Y226.446 E3.881
G1 X169.778 Y226.471 E3.8828
G1 X170.268 Y226.226 F9000
;TYPE:External perimeter
G1 F1800
G1 X179.215 Y231.392 E4.26367
G1 X192.13 Y231.392 E4.7398
G1 X192.289 Y230.801 E4.76238
G1 X191.484 Y230.336 E4.79663
G1 X191.424 Y230.336 E4.79885
G1 X183.282 Y225.634 E5.14547
G1 X170.427 Y225.634 E5.61938
G1 X170.268 Y226.226 E5.64195
;WIPE_START
M204 S4000
G1 X170.099 Y226.588 F9000
;WIPE_END
G92 E0
G1 E-1 F3000
; acceleration to travel
M204 S3000
G1 X206.123 Y230.877 F9000
; decel to extrusion
M204 S1000
G1 X218.131 Y232.306
; end travel
G1 E0 F1800
;TYPE:Internal perimeter
G1 X218.229 Y232.306 E0.0036
G1 X218.75 Y230.36 E0.07789
G1 X217.126 Y229.422 E0.14703
G1 X217.065 Y229.422 E0.1493
G1 X208.923 Y224.72 E0.49592
G1 X195.122 Y224.72 E1.00469
G1 X194.601 Y226.667 E1.07898
G1 X204.367 Y232.306 E1.49474
G1 X218.131 Y232.306 E2.00217
G1 X217.829 Y231.849 F9000
G1 F1800
G1 X217.878 Y231.849 E2.00397
G1 X218.218 Y230.58 E2.05241
G1 X217.004 Y229.879 E2.1041
G1 X216.942 Y229.879 E2.10637
G1 X208.8 Y225.177 E2.45299
G1 X195.473 Y225.177 E2.94431
G1 X195.133 Y226.446 E2.99274
G1 X204.49 Y231.849 E3.39107
G1 X217.829 Y231.849 E3.88285
G1 X217.527 Y231.392 F9000
;TYPE:External perimeter
G1 F1800
G1 X217.686 Y230.801 E3.90542
G1 X216.881 Y230.336 E3.93967
G1 X216.82 Y230.336 E3.94194
G1 X208.678 Y225.634 E4.28856
G1 X195.824 Y225.634 E4.76244
G1 X195.665 Y226.226 E4.78501
G1 X204.612 Y231.392 E5.16589
G1 X217.527 Y231.392 E5.64202
;WIPE_START
M204 S4000
G1 X217.921 Y231.461 F9000
;WIPE_END
G92 E0
G1 E-1 F3000
; acceleration to travel
M204 S3000
G1 X219.497 Y227.795 F9000
; decel to extrusion
M204 S1000
G1 X220.022 Y226.573
; end travel
G1 E0 F1800
;TYPE:Internal perimeter
G1 X219.997 Y226.667 E0.0036
G1 X231.095 Y233.075 E0.47607
G1 X232.359 Y232.345 E0.52988
G1 X232.359 Y224.72 E0.811
G1 X220.518 Y224.72 E1.24753
G1 X220.022 Y226.573 E1.31822
G1 X220.542 Y226.399 F9000
G1 F1800
G1 X220.529 Y226.446 E1.32002
G1 X231.095 Y232.548 E1.76983
G1 X231.902 Y232.082 E1.80419
G1 X231.902 Y225.177 E2.05872
G1 X220.869 Y225.177 E2.46548
G1 X220.542 Y226.399 E2.51211
G1 X221.061 Y226.226 F9000
;TYPE:External perimeter
G1 F1800
G1 X231.095 Y232.02 E2.93926
G1 X231.445 Y231.818 E2.95416
G1 X231.445 Y225.634 E3.18212
G1 X221.22 Y225.634 E3.55909
G1 X221.061 Y226.226 E3.58166
;WIPE_START
M204 S4000
G1 X220.892 Y226.588 F9000
;WIPE_END
G92 E0
G1 E-1 F3000
; acceleration to travel
M204 S3000
G1 X250.473 Y217.42 F9000
; decel to extrusion
M204 S1000
G1 X260.333 Y214.363
; end travel
G1 E0 F1800
;TYPE:Internal perimeter
G1 X260.153 Y213.931 E0.01726
G1 X259.851 Y213.481 E0.03725
G1 X259.469 Y213.099 E0.05715
G1 X259.019 Y212.797 E0.07714
G1 X258.514 Y212.587 E0.09728
G1 X257.98 Y212.482 E0.11735
G1 X257.44 Y212.482 E0.13729
G1 X256.906 Y212.587 E0.15735
G1 X256.401 Y212.797 E0.17749
G1 X255.951 Y213.099 E0.19749
G1 X255.569 Y213.481 E0.21739
G1 X255.267 Y213.931 E0.23738
G1 X255.057 Y214.436 E0.25752
G1 X254.952 Y214.97 E0.27758
G1 X254.952 Y215.51 E0.29753
G1 X255.057 Y216.044 E0.31759
G1 X255.267 Y216.549 E0.33773
G1 X255.569 Y216.999 E0.35773
G1 X255.951 Y217.381 E0.37762
G1 X256.401 Y217.683 E0.39762
G1 X256.906 Y217.893 E0.41776
G1 X257.44 Y217.998 E0.43782
G1 X257.98 Y217.998 E0.45777
G1 X258.514 Y217.893 E0.47783
G1 X259.019 Y217.683 E0.49797
G1 X259.469 Y217.381 E0.51797
G1 X259.851 Y216.999 E0.53786
G1 X260.153 Y216.549 E0.55785
G1 X260.363 Y216.044 E0.578
G1 X260.468 Y215.51 E0.59806
G1 X260.468 Y214.97 E0.618
G1 X260.363 Y214.436 E0.63807
G1 X260.333 Y214.363 E0.64095
G1 X259.908 Y214.533 F9000
G1 F1800
G1 X259.749 Y214.148 E0.6563
G1 X259.496 Y213.773 E0.67298
G1 X259.177 Y213.454 E0.6896
G1 X258.802 Y213.201 E0.70629
G1 X258.381 Y213.027 E0.72307
G1 X257.936 Y212.939 E0.73981
G1 X257.484 Y212.939 E0.75646
G1 X257.039 Y213.027 E0.77319
G1 X256.618 Y213.201 E0.78998
G1 X256.243 Y213.454 E0.80666
G1 X255.924 Y213.773 E0.82329
G1 X255.671 Y214.148 E0.83997
G1 X255.497 Y214.569 E0.85676
G1 X255.409 Y215.014 E0.87349
G1 X255.409 Y215.466 E0.89014
G1 X255.497 Y215.911 E0.90688
G1 X255.671 Y216.332 E0.92366
G1 X255.924 Y216.707 E0.94035
G1 X256.243 Y217.026 E0.95697
G1 X256.618 Y217.279 E0.97366
G1 X257.039 Y217.453 E0.99044
G1 X257.484 Y217.541 E1.00718
G1 X257.936 Y217.541 E1.02383
G1 X258.381 Y217.453 E1.04056
G1 X258.802 Y217.279 E1.05735
G1 X259.177 Y217.026 E1.07403
G1 X259.496 Y216.707 E1.09065
G1 X259.749 Y216.332 E1.10734
G1 X259.923 Y215.911 E1.12412
G1 X260.011 Y215.466 E1.14086
