; HEADER_BLOCK_START
; generated by OrcaSlicer 1.6.4-beta3 on 2023-08-20 at 14:17:51
; total layer number: 50
; HEADER_BLOCK_END

; THUMBNAIL_BLOCK_START
; THUMBNAIL_BLOCK_END

; external perimeters extrusion width = 0.40mm
; perimeters extrusion width = 0.46mm
; infill extrusion width = 0.64mm
; solid infill extrusion width = 0.56mm
; top infill extrusion width = 0.40mm
; first layer extrusion width = 0.50mm

; external perimeters extrusion width = 0.40mm
; perimeters extrusion width = 0.46mm
; infill extrusion width = 0.64mm
; solid infill extrusion width = 0.56mm
; top infill extrusion width = 0.40mm
; first layer extrusion width = 0.50mm

; EXECUTABLE_BLOCK_START
EXCLUDE_OBJECT_DEFINE NAME=110_mm_Bag_Clip(1).stl_id_0_copy_0 CENTER=165,178.659 POLYGON=[[103,163.582],[222,163.582],[222.49,163.606],[222.975,163.678],[223.451,163.797],[223.913,163.962],[224.357,164.172],[224.778,164.424],[225.172,164.717],[225.536,165.046],[225.536,165.046],[225.865,165.41],[226.157,165.804],[226.41,166.225],[226.619,166.668],[226.785,167.13],[226.904,167.606],[226.976,168.092],[227,168.582],[226.976,169.072],[226.904,169.557],[226.785,170.033],[226.619,170.495],[226.41,170.939],[226.157,171.36],[225.865,171.754],[225.536,172.117],[225.172,172.447],[224.778,172.739],[224.357,172.991],[223.913,173.201],[223.451,173.366],[222.975,173.486],[222.868,173.506],[108.138,193.736],[103,177.582],[103,163.582]]
EXCLUDE_OBJECT_DEFINE NAME=65_mm_Bag_Clip(1).stl_id_1_copy_0 CENTER=162.613,147.309 POLYGON=[[123.113,136.139],[197.113,136.139],[197.603,136.163],[198.088,136.235],[198.564,136.354],[199.026,136.52],[199.47,136.729],[199.891,136.982],[200.285,137.274],[200.648,137.603],[200.978,137.967],[201.27,138.361],[201.522,138.782],[201.732,139.226],[201.897,139.688],[202.017,140.164],[202.089,140.649],[202.113,141.139],[202.089,141.629],[202.017,142.114],[201.897,142.59],[201.732,143.052],[201.522,143.496],[201.27,143.917],[200.978,144.311],[200.648,144.675],[200.285,145.004],[199.891,145.296],[199.47,145.549],[199.026,145.758],[198.564,145.924],[198.088,146.043],[197.981,146.063],[127.567,158.479],[123.113,150.139],[123.113,136.139]]
M73 P0 R39
;TYPE:Custom
START_PRINT T_BED=60 T_EXTRUDER=220
G90
G21
M83 ; use relative distances for extrusion
; filament start gcode

    PRESSURE_ADVANCE_SELECT FILAMENT=PLA
M106 S0
;LAYER_CHANGE
;Z:0.2
;HEIGHT:0.2
;BEFORE_LAYER_CHANGE
;0.2
G92 E0

SET_VELOCITY_LIMIT ACCEL=1000 ACCEL_TO_DECEL=500
G1 E-.8 F3000
G1 X120.762 Y134.416 F12000
G1 Z.2
G1 E.8 F1800
;TYPE:Skirt
;WIDTH:0.5
G1 F3000
G1 X121.943 Y133.47 E.05638
G1 X123.113 Y133.225 E.0445
G1 X197.145 Y133.226 E2.75744
G1 X198.516 Y133.352 E.05125
G1 X200.008 Y133.776 E.05777
G1 X201.389 Y134.482 E.05777
G1 X202.605 Y135.444 E.05777
G1 X228.024 Y163.453 E1.40877
G1 X228.498 Y164.068 E.02892
G1 X229.254 Y165.422 E.05777
G1 X229.731 Y166.898 E.05777
G1 X229.911 Y168.439 E.05777
G1 X229.787 Y169.985 E.05777
G1 X229.363 Y171.477 E.05777
G1 X228.657 Y172.858 E.05777
G1 X227.695 Y174.074 E.05777
G1 X226.514 Y175.08 E.05777
G1 X225.159 Y175.836 E.05777
G1 X223.482 Y176.355 E.06541
G1 X108.644 Y196.606 E4.34327
G1 X107.136 Y196.472 E.05638
G1 X105.899 Y195.601 E.05638
G1 X105.361 Y194.619 E.04169
G1 X100.223 Y178.465 E.63138
G1 X100.086 Y177.582 E.03329
G1 X100.086 Y163.582 E.52145
G1 X100.65 Y161.859 E.06751
G1 X120.739 Y134.449 E1.26577
G1 X121.107 Y134.719 F12000
G1 F3000
G1 X121.131 Y134.687 E.00149
G1 X122.234 Y133.844 E.05169
G1 X123.113 Y133.682 E.03329
G1 X197.145 Y133.684 E2.75744
G1 X198.449 Y133.805 E.04875
G1 X199.854 Y134.206 E.05443
G1 X201.154 Y134.874 E.05443
G1 X202.298 Y135.783 E.05443
G1 X227.686 Y163.76 E1.4071
G1 X228.131 Y164.34 E.02725
G1 X228.841 Y165.618 E.05443
G1 X229.287 Y167.009 E.05443
G1 X229.454 Y168.461 E.05443
G1 X229.334 Y169.918 E.05443
G1 X228.933 Y171.323 E.05443
G1 X228.265 Y172.623 E.05444
G1 X227.356 Y173.767 E.05443
G1 X226.242 Y174.713 E.05443
G1 X224.964 Y175.422 E.05443
G1 X223.403 Y175.905 E.06087
G1 X108.565 Y196.156 E4.34327
M73 P0 R38
G1 X107.186 Y196.001 E.05169
G1 X106.11 Y195.124 E.05169
G1 X105.797 Y194.481 E.02665
G1 X100.659 Y178.327 E.63138
G1 X100.543 Y177.582 E.02807
G1 X100.543 Y163.582 E.52145
G1 X101.018 Y162.129 E.05692
G1 X121.084 Y134.751 E1.26428
; printing object 110_mm_Bag_Clip(1).stl id:0 copy 0
G1 E-.8
EXCLUDE_OBJECT_START NAME=110_mm_Bag_Clip(1).stl_id_0_copy_0
G1 X215.807 Y170.029 F12000
G1 E.8 F1800
;TYPE:Outer wall
G1 F3000
G1 X215.997 Y171.103 E.0406
G1 X216.554 Y174.264 E.11956
G1 X108.422 Y193.33 E4.08964
G1 X107.675 Y189.096 E.16016
G1 X215.768 Y170.036 E4.08814
G1 X215.436 Y170.559 F12000
;TYPE:Inner wall
G1 F3000
G1 X215.546 Y171.182 E.02357
G1 X216.024 Y173.893 E.10254
G1 X108.793 Y192.801 E4.05559
G1 X108.205 Y189.466 E.12611
G1 X215.397 Y170.566 E4.05409
M73 P1 R38
G1 X215.066 Y171.088 F12000
G1 F3000
G1 X215.096 Y171.261 E.00655
G1 X215.495 Y173.522 E.08551
G1 X109.163 Y192.271 E4.02154
G1 X108.734 Y189.837 E.09206
G1 X215.026 Y171.095 E4.02004
G1 X214.695 Y171.618 F12000
G1 F3000
G1 X214.965 Y173.152 E.05801
G1 X109.534 Y191.742 E3.98749
G1 X109.264 Y190.208 E.05801
G1 X214.656 Y171.625 E3.986
G1 X214.782 Y172.9 F12000
;TYPE:Internal solid infill
;WIDTH:0.500285
G1 F3000
G1 X213.975 Y172.093 E.04254
G1 X213.425 Y172.19 E.02081
G1 X214.178 Y172.942 E.03967
G1 X213.628 Y173.039 E.02081
G1 X212.875 Y172.287 E.03967
G1 X212.325 Y172.384 E.02081
G1 X213.078 Y173.136 E.03967
G1 X212.528 Y173.233 E.02081
G1 X211.775 Y172.481 E.03967
G1 X211.225 Y172.577 E.02081
G1 X211.978 Y173.33 E.03967
G1 X211.428 Y173.427 E.02081
G1 X210.676 Y172.674 E.03967
G1 X210.126 Y172.771 E.02081
G1 X210.878 Y173.524 E.03967
G1 X210.329 Y173.621 E.02081
G1 X209.576 Y172.868 E.03967
G1 X209.026 Y172.965 E.02081
G1 X209.779 Y173.718 E.03967
G1 X209.229 Y173.815 E.02081
G1 X208.476 Y173.062 E.03967
G1 X207.926 Y173.159 E.02081
G1 X208.679 Y173.912 E.03967
G1 X208.129 Y174.009 E.02081
G1 X207.376 Y173.256 E.03967
G1 X206.827 Y173.353 E.02081
G1 X207.579 Y174.106 E.03967
G1 X207.029 Y174.203 E.02081
G1 X206.277 Y173.45 E.03967
G1 X205.727 Y173.547 E.02081
G1 X206.48 Y174.3 E.03967
G1 X205.93 Y174.397 E.02081
G1 X205.177 Y173.644 E.03967
G1 X204.627 Y173.741 E.02081
G1 X205.38 Y174.494 E.03967
G1 X204.83 Y174.591 E.02081
G1 X204.077 Y173.838 E.03967
G1 X203.527 Y173.935 E.02081
G1 X204.28 Y174.688 E.03967
G1 X203.73 Y174.784 E.02081
G1 X202.978 Y174.032 E.03967
G1 X202.428 Y174.129 E.02081
G1 X203.18 Y174.881 E.03967
G1 X202.631 Y174.978 E.02081
G1 X201.878 Y174.226 E.03967
G1 X201.328 Y174.323 E.02081
G1 X202.081 Y175.075 E.03967
G1 X201.531 Y175.172 E.02081
G1 X200.778 Y174.42 E.03967
G1 X200.228 Y174.517 E.02081
G1 X200.981 Y175.269 E.03967
G1 X200.431 Y175.366 E.02081
G1 X199.678 Y174.614 E.03967
G1 X199.129 Y174.71 E.02081
G1 X199.881 Y175.463 E.03967
G1 X199.331 Y175.56 E.02081
G1 X198.579 Y174.807 E.03967
G1 X198.029 Y174.904 E.02081
G1 X198.782 Y175.657 E.03967
G1 X198.232 Y175.754 E.02081
G1 X197.479 Y175.001 E.03967
G1 X196.929 Y175.098 E.02081
G1 X197.682 Y175.851 E.03967
G1 X197.132 Y175.948 E.02081
G1 X196.379 Y175.195 E.03967
G1 X195.829 Y175.292 E.02081
G1 X196.582 Y176.045 E.03967
G1 X196.032 Y176.142 E.02081
G1 X195.28 Y175.389 E.03967
G1 X194.73 Y175.486 E.02081
G1 X195.482 Y176.239 E.03967
G1 X194.933 Y176.336 E.02081
G1 X194.18 Y175.583 E.03967
G1 X193.63 Y175.68 E.02081
G1 X194.383 Y176.433 E.03967
G1 X193.833 Y176.53 E.02081
G1 X193.08 Y175.777 E.03967
G1 X192.53 Y175.874 E.02081
G1 X193.283 Y176.627 E.03967
G1 X192.733 Y176.724 E.02081
G1 X191.98 Y175.971 E.03967
G1 X191.431 Y176.068 E.02081
G1 X192.183 Y176.821 E.03967
G1 X191.633 Y176.917 E.02081
G1 X190.881 Y176.165 E.03967
G1 X190.331 Y176.262 E.02081
G1 X191.084 Y177.014 E.03967
G1 X190.534 Y177.111 E.02081
G1 X189.781 Y176.359 E.03967
G1 X189.231 Y176.456 E.02081
G1 X189.984 Y177.208 E.03967
G1 X189.434 Y177.305 E.02081
G1 X188.681 Y176.553 E.03967
G1 X188.131 Y176.65 E.02081
G1 X188.884 Y177.402 E.03967
G1 X188.334 Y177.499 E.02081
G1 X187.582 Y176.747 E.03967
G1 X187.032 Y176.843 E.02081
G1 X187.784 Y177.596 E.03967
G1 X187.235 Y177.693 E.02081
G1 X186.482 Y176.94 E.03967
G1 X185.932 Y177.037 E.02081
G1 X186.685 Y177.79 E.03967
G1 X186.135 Y177.887 E.02081
G1 X185.382 Y177.134 E.03967
G1 X184.832 Y177.231 E.02081
G1 X185.585 Y177.984 E.03967
G1 X185.035 Y178.081 E.02081
G1 X184.282 Y177.328 E.03967
G1 X183.733 Y177.425 E.02081
G1 X184.485 Y178.178 E.03967
G1 X183.935 Y178.275 E.02081
G1 X183.183 Y177.522 E.03967
G1 X182.633 Y177.619 E.02081
G1 X183.386 Y178.372 E.03967
G1 X182.836 Y178.469 E.02081
G1 X182.083 Y177.716 E.03967
G1 X181.533 Y177.813 E.02081
G1 X182.286 Y178.566 E.03967
G1 X181.736 Y178.663 E.02081
G1 X180.983 Y177.91 E.03967
G1 X180.433 Y178.007 E.02081
G1 X181.186 Y178.76 E.03967
G1 X180.636 Y178.857 E.02081
G1 X179.884 Y178.104 E.03967
G1 X179.334 Y178.201 E.02081
G1 X180.086 Y178.954 E.03967
G1 X179.537 Y179.051 E.02081
G1 X178.784 Y178.298 E.03967
G1 X178.234 Y178.395 E.02081
G1 X178.987 Y179.147 E.03967
G1 X178.437 Y179.244 E.02081
G1 X177.684 Y178.492 E.03967
G1 X177.134 Y178.589 E.02081
G1 X177.887 Y179.341 E.03967
G1 X177.337 Y179.438 E.02081
G1 X176.584 Y178.686 E.03967
G1 X176.035 Y178.783 E.02081
G1 X176.787 Y179.535 E.03967
G1 X176.237 Y179.632 E.02081
G1 X175.485 Y178.88 E.03967
G1 X174.935 Y178.976 E.02081
G1 X175.688 Y179.729 E.03967
G1 X175.138 Y179.826 E.02081
G1 X174.385 Y179.073 E.03967
G1 X173.835 Y179.17 E.02081
G1 X174.588 Y179.923 E.03967
G1 X174.038 Y180.02 E.02081
G1 X173.285 Y179.267 E.03967
G1 X172.735 Y179.364 E.02081
G1 X173.488 Y180.117 E.03967
G1 X172.938 Y180.214 E.02081
G1 X172.186 Y179.461 E.03967
G1 X171.636 Y179.558 E.02081
G1 X172.388 Y180.311 E.03967
G1 X171.839 Y180.408 E.02081
G1 X171.086 Y179.655 E.03967
G1 X170.536 Y179.752 E.02081
G1 X171.289 Y180.505 E.03967
G1 X170.739 Y180.602 E.02081
G1 X169.986 Y179.849 E.03967
G1 X169.436 Y179.946 E.02081
G1 X170.189 Y180.699 E.03967
G1 X169.639 Y180.796 E.02081
G1 X168.886 Y180.043 E.03967
G1 X168.337 Y180.14 E.02081
G1 X169.089 Y180.893 E.03967
G1 X168.539 Y180.99 E.02081
G1 X167.787 Y180.237 E.03967
G1 X167.237 Y180.334 E.02081
G1 X167.99 Y181.087 E.03967
G1 X167.44 Y181.184 E.02081
G1 X166.687 Y180.431 E.03967
G1 X166.137 Y180.528 E.02081
G1 X166.89 Y181.28 E.03967
G1 X166.34 Y181.377 E.02081
G1 X165.587 Y180.625 E.03967
G1 X165.037 Y180.722 E.02081
G1 X165.79 Y181.474 E.03967
G1 X165.24 Y181.571 E.02081
G1 X164.488 Y180.819 E.03967
G1 X163.938 Y180.916 E.02081
G1 X164.69 Y181.668 E.03967
G1 X164.141 Y181.765 E.02081
G1 X163.388 Y181.013 E.03967
G1 X162.838 Y181.109 E.02081
G1 X163.591 Y181.862 E.03967
G1 X163.041 Y181.959 E.02081
G1 X162.288 Y181.206 E.03967
G1 X161.738 Y181.303 E.02081
G1 X162.491 Y182.056 E.03967
G1 X161.941 Y182.153 E.02081
G1 X161.188 Y181.4 E.03967
G1 X160.639 Y181.497 E.02081
G1 X161.391 Y182.25 E.03967
G1 X160.841 Y182.347 E.02081
G1 X160.089 Y181.594 E.03967
G1 X159.539 Y181.691 E.02081
G1 X160.292 Y182.444 E.03967
G1 X159.742 Y182.541 E.02081
G1 X158.989 Y181.788 E.03967
G1 X158.439 Y181.885 E.02081
G1 X159.192 Y182.638 E.03967
G1 X158.642 Y182.735 E.02081
G1 X157.889 Y181.982 E.03967
G1 X157.339 Y182.079 E.02081
G1 X158.092 Y182.832 E.03967
G1 X157.542 Y182.929 E.02081
G1 X156.79 Y182.176 E.03967
G1 X156.24 Y182.273 E.02081
G1 X156.992 Y183.026 E.03967
G1 X156.443 Y183.123 E.02081
G1 X155.69 Y182.37 E.03967
G1 X155.14 Y182.467 E.02081
G1 X155.893 Y183.22 E.03967
G1 X155.343 Y183.317 E.02081
G1 X154.59 Y182.564 E.03967
G1 X154.04 Y182.661 E.02081
G1 X154.793 Y183.413 E.03967
G1 X154.243 Y183.51 E.02081
G1 X153.49 Y182.758 E.03967
G1 X152.941 Y182.855 E.02081
G1 X153.693 Y183.607 E.03967
G1 X153.143 Y183.704 E.02081
G1 X152.391 Y182.952 E.03967
G1 X151.841 Y183.049 E.02081
G1 X152.594 Y183.801 E.03967
G1 X152.044 Y183.898 E.02081
G1 X151.291 Y183.146 E.03967
G1 X150.741 Y183.243 E.02081
G1 X151.494 Y183.995 E.03967
G1 X150.944 Y184.092 E.02081
G1 X150.191 Y183.339 E.03967
G1 X149.641 Y183.436 E.02081
G1 X150.394 Y184.189 E.03967
G1 X149.844 Y184.286 E.02081
G1 X149.092 Y183.533 E.03967
G1 X148.542 Y183.63 E.02081
G1 X149.294 Y184.383 E.03967
G1 X148.745 Y184.48 E.02081
G1 X147.992 Y183.727 E.03967
G1 X147.442 Y183.824 E.02081
G1 X148.195 Y184.577 E.03967
G1 X147.645 Y184.674 E.02081
G1 X146.892 Y183.921 E.03967
G1 X146.342 Y184.018 E.02081
G1 X147.095 Y184.771 E.03967
G1 X146.545 Y184.868 E.02081
G1 X145.792 Y184.115 E.03967
G1 X145.243 Y184.212 E.02081
G1 X145.995 Y184.965 E.03967
G1 X145.445 Y185.062 E.02081
G1 X144.693 Y184.309 E.03967
G1 X144.143 Y184.406 E.02081
G1 X144.896 Y185.159 E.03967
G1 X144.346 Y185.256 E.02081
G1 X143.593 Y184.503 E.03967
G1 X143.043 Y184.6 E.02081
G1 X143.796 Y185.353 E.03967
G1 X143.246 Y185.45 E.02081
G1 X142.493 Y184.697 E.03967
G1 X141.943 Y184.794 E.02081
G1 X142.696 Y185.546 E.03967
G1 X142.146 Y185.643 E.02081
G1 X141.394 Y184.891 E.03967
G1 X140.844 Y184.988 E.02081
G1 X141.596 Y185.74 E.03967
G1 X141.047 Y185.837 E.02081
G1 X140.294 Y185.085 E.03967
G1 X139.744 Y185.182 E.02081
G1 X140.497 Y185.934 E.03967
G1 X139.947 Y186.031 E.02081
G1 X139.194 Y185.279 E.03967
G1 X138.644 Y185.376 E.02081
G1 X139.397 Y186.128 E.03967
G1 X138.847 Y186.225 E.02081
G1 X138.094 Y185.472 E.03967
G1 X137.545 Y185.569 E.02081
G1 X138.297 Y186.322 E.03967
G1 X137.747 Y186.419 E.02081
G1 X136.995 Y185.666 E.03967
G1 X136.445 Y185.763 E.02081
G1 X137.198 Y186.516 E.03967
G1 X136.648 Y186.613 E.02081
G1 X135.895 Y185.86 E.03967
G1 X135.345 Y185.957 E.02081
G1 X136.098 Y186.71 E.03967
G1 X135.548 Y186.807 E.02081
G1 X134.795 Y186.054 E.03967
G1 X134.245 Y186.151 E.02081
G1 X134.998 Y186.904 E.03967
G1 X134.448 Y187.001 E.02081
G1 X133.696 Y186.248 E.03967
G1 X133.146 Y186.345 E.02081
G1 X133.898 Y187.098 E.03967
G1 X133.349 Y187.195 E.02081
G1 X132.596 Y186.442 E.03967
G1 X132.046 Y186.539 E.02081
G1 X132.799 Y187.292 E.03967
G1 X132.249 Y187.389 E.02081
G1 X131.496 Y186.636 E.03967
G1 X130.946 Y186.733 E.02081
G1 X131.699 Y187.486 E.03967
G1 X131.149 Y187.583 E.02081
G1 X130.396 Y186.83 E.03967
G1 X129.847 Y186.927 E.02081
G1 X130.599 Y187.679 E.03967
G1 X130.049 Y187.776 E.02081
G1 X129.297 Y187.024 E.03967
G1 X128.747 Y187.121 E.02081
G1 X129.5 Y187.873 E.03967
G1 X128.95 Y187.97 E.02081
G1 X128.197 Y187.218 E.03967
G1 X127.647 Y187.315 E.02081
G1 X128.4 Y188.067 E.03967
G1 X127.85 Y188.164 E.02081
G1 X127.097 Y187.412 E.03967
G1 X126.547 Y187.509 E.02081
G1 X127.3 Y188.261 E.03967
G1 X126.75 Y188.358 E.02081
G1 X125.998 Y187.605 E.03967
G1 X125.448 Y187.702 E.02081
G1 X126.2 Y188.455 E.03967
G1 X125.651 Y188.552 E.02081
G1 X124.898 Y187.799 E.03967
G1 X124.348 Y187.896 E.02081
G1 X125.101 Y188.649 E.03967
G1 X124.551 Y188.746 E.02081
G1 X123.798 Y187.993 E.03967
G1 X123.248 Y188.09 E.02081
G1 X124.001 Y188.843 E.03967
G1 X123.451 Y188.94 E.02081
G1 X122.698 Y188.187 E.03967
G1 X122.149 Y188.284 E.02081
G1 X122.901 Y189.037 E.03967
G1 X122.351 Y189.134 E.02081
G1 X121.599 Y188.381 E.03967
G1 X121.049 Y188.478 E.02081
G1 X121.802 Y189.231 E.03967
G1 X121.252 Y189.328 E.02081
G1 X120.499 Y188.575 E.03967
G1 X119.949 Y188.672 E.02081
G1 X120.702 Y189.425 E.03967
G1 X120.152 Y189.522 E.02081
G1 X119.399 Y188.769 E.03967
M73 P2 R38
G1 X118.849 Y188.866 E.02081
G1 X119.602 Y189.619 E.03967
G1 X119.052 Y189.716 E.02081
G1 X118.3 Y188.963 E.03967
G1 X117.75 Y189.06 E.02081
G1 X118.502 Y189.812 E.03967
G1 X117.953 Y189.909 E.02081
G1 X117.2 Y189.157 E.03967
G1 X116.65 Y189.254 E.02081
G1 X117.403 Y190.006 E.03967
G1 X116.853 Y190.103 E.02081
G1 X116.1 Y189.351 E.03967
G1 X115.55 Y189.448 E.02081
G1 X116.303 Y190.2 E.03967
G1 X115.753 Y190.297 E.02081
G1 X115 Y189.545 E.03967
G1 X114.451 Y189.642 E.02081
G1 X115.203 Y190.394 E.03967
G1 X114.653 Y190.491 E.02081
G1 X113.901 Y189.738 E.03967
G1 X113.351 Y189.835 E.02081
G1 X114.104 Y190.588 E.03967
G1 X113.554 Y190.685 E.02081
G1 X112.801 Y189.932 E.03967
G1 X112.251 Y190.029 E.02081
G1 X113.004 Y190.782 E.03967
G1 X112.454 Y190.879 E.02081
G1 X111.701 Y190.126 E.03967
G1 X111.151 Y190.223 E.02081
G1 X111.904 Y190.976 E.03967
