; HEADER_BLOCK_START
; generated by OrcaSlicer 1.6.6 on 2023-08-29 at 21:26:50
; total layer number: 60
; HEADER_BLOCK_END

; THUMBNAIL_BLOCK_START
; THUMBNAIL_BLOCK_END

; external perimeters extrusion width = 0.40mm
; perimeters extrusion width = 0.46mm
; infill extrusion width = 0.64mm
; solid infill extrusion width = 0.56mm
; top infill extrusion width = 0.40mm
; first layer extrusion width = 0.50mm

; EXECUTABLE_BLOCK_START
EXCLUDE_OBJECT_DEFINE NAME=123.stl_id_0_copy_0 CENTER=165,165 POLYGON=[[138.51,146],[138.535,145.777],[138.609,145.566],[138.729,145.377],[138.887,145.218],[139.077,145.099],[139.288,145.025],[139.51,145],[148.96,145],[149.439,145.023],[186.98,149.008],[187.465,149.08],[187.941,149.199],[188.403,149.364],[188.847,149.574],[189.267,149.827],[189.662,150.119],[190.025,150.448],[190.355,150.812],[190.647,151.206],[190.899,151.627],[191.109,152.07],[191.274,152.532],[191.394,153.008],[191.466,153.494],[191.49,153.984],[191.49,159.984],[171.046,179.536],[170.682,179.865],[170.288,180.157],[169.867,180.41],[169.424,180.619],[168.962,180.785],[168.486,180.904],[149.914,184.908],[149.439,184.977],[148.96,185],[139.51,185],[139.288,184.975],[139.077,184.901],[138.887,184.782],[138.729,184.623],[138.609,184.434],[138.535,184.223],[138.51,184],[138.51,146]]
M73 P0 R14
;TYPE:Custom
START_PRINT T_BED=110 T_EXTRUDER=260
G90
G21
M83 ; use relative distances for extrusion
; Filament gcode
PRESSURE_ADVANCE_SELECT FILAMENT=ASA
M106 S0
;LAYER_CHANGE
;Z:0.2
;HEIGHT:0.2
;BEFORE_LAYER_CHANGE
;0.2
G92 E0

SET_VELOCITY_LIMIT ACCEL=5000 ACCEL_TO_DECEL=2500
G1 E-.5 F2400
G1 X136.826 Y143.158 F12000
G1 Z.2
G1 E.5 F1800
;TYPE:Skirt
;WIDTH:0.5
G1 F3000
G1 X137.526 Y142.632 E.03094
G1 X138.325 Y142.274 E.03094
G1 X138.962 Y142.129 E.02307
G1 X148.971 Y142.086 E.35378
G1 X187.287 Y146.11 E1.36178
G1 X188.649 Y146.372 E.04902
G1 X189.649 Y146.73 E.03754
G1 X191.003 Y147.486 E.05482
G1 X191.978 Y148.285 E.04453
G1 X192.514 Y148.855 E.02766
G1 X192.988 Y149.47 E.02745
G1 X193.525 Y150.366 E.03693
G1 X194.101 Y151.824 E.05542
G1 X194.276 Y152.581 E.02744
G1 X194.4 Y153.835 E.04454
G1 X194.404 Y159.984 E.21735
G1 X194.011 Y161.446 E.0535
G1 X193.504 Y162.09 E.02898
G1 X173.06 Y181.642 E.99986
G1 X172.024 Y182.498 E.04751
G1 X170.67 Y183.254 E.05482
G1 X169.1 Y183.753 E.05822
G1 X149.857 Y187.861 E.69548
G1 X139.51 Y187.914 E.36572
G1 X138.962 Y187.871 E.01946
G1 X138.114 Y187.652 E.03094
G1 X137.336 Y187.249 E.03094
G1 X136.668 Y186.684 E.03094
G1 X136.261 Y186.174 E.02307
G1 X135.785 Y185.185 E.0388
G1 X135.596 Y184 E.04241
G1 X135.596 Y146 E1.34314
G1 X135.785 Y144.815 E.04241
G1 X136.142 Y144.016 E.03094
G1 X136.801 Y143.189 E.03738
G1 X137.15 Y143.481 F12000
G1 F3000
G1 X137.58 Y143.138 E.01945
G1 X138.265 Y142.78 E.02733
G1 X139.013 Y142.583 E.02733
G1 X148.971 Y142.543 E.35197
G1 X187.239 Y146.565 E1.36008
G1 X188.062 Y146.697 E.02946
G1 X189.231 Y147.051 E.04317
G1 X190.531 Y147.719 E.05166
G1 X191.846 Y148.798 E.06013
G1 X192.754 Y149.943 E.05166
G1 X193.422 Y151.243 E.05166
G1 X193.777 Y152.411 E.04317
G1 X193.918 Y153.357 E.0338
G1 X193.947 Y159.984 E.23423
G1 X193.188 Y161.76 E.06826
G1 X172.744 Y181.311 E.99986
G1 X171.752 Y182.131 E.04549
G1 X170.918 Y182.631 E.03437
G1 X169.79 Y183.098 E.04317
G1 X169.004 Y183.306 E.02873
G1 X149.792 Y187.409 E.69438
G1 X139.51 Y187.457 E.3634
G1 X139.013 Y187.417 E.01765
G1 X138.265 Y187.22 E.02733
G1 X137.58 Y186.862 E.02733
G1 X136.991 Y186.361 E.02733
G1 X136.648 Y185.931 E.01945
G1 X136.216 Y185.034 E.03518
G1 X136.053 Y184 E.037
G1 X136.053 Y146 E1.34314
G1 X136.216 Y144.966 E.037
G1 X136.529 Y144.259 E.02733
G1 X137.125 Y143.512 E.03376
; printing object 123.stl id:0 copy 0
G1 E-.5 F2400
EXCLUDE_OBJECT_START NAME=123.stl_id_0_copy_0
G1 X161.085 Y159.576 F12000
G1 E.5 F1800
;TYPE:Outer wall
G1 F3000
G1 X161.085 Y170.425 E.38348
M73 P1 R14
G1 X172.16 Y170.425 E.39146
G1 X172.16 Y175.991 E.19675
G3 X167.502 Y180.65 I-4.655 J.004 E.25871
G1 X158.073 Y180.65 E.33327
G2 X155.175 Y181.509 I.005 J5.34 E.10833
G1 X151.499 Y183.895 E.15489
G3 X148.951 Y184.65 I-2.545 J-3.912 E.09525
G1 X139.53 Y184.65 E.33301
G3 X138.86 Y183.98 I-.004 J-.665 E.03725
G1 X138.86 Y146.02 E1.34175
G3 X139.53 Y145.35 I.665 J-.004 E.03725
G1 X141.004 Y145.35 E.0521
G1 X148.962 Y145.351 E.28128
G3 X151.499 Y146.105 I-.005 J4.663 E.09487
G1 X155.175 Y148.491 E.15489
G2 X158.073 Y149.35 I2.904 J-4.481 E.10833
G1 X186.481 Y149.334 E1.0041
G3 X191.14 Y153.993 I-.001 J4.66 E.25865
G1 X191.14 Y159.634 E.19939
G1 X172.935 Y159.634 E.64344
G1 X172.935 Y159.558 E.00267
G1 X161.125 Y159.576 E.41744
G1 X160.628 Y159.119 F12000
;TYPE:Inner wall
G1 F3000
G1 X160.628 Y170.882 E.41577
G1 X166.21 Y170.882 E.19728
G1 X166.231 Y171.133 E.00892
G1 X165.582 Y171.243 E.02324
G2 X167.119 Y171.185 I.91 J3.757 E.80386
G1 X166.681 Y171.143 E.01558
G1 X166.693 Y170.882 E.00924
G1 X171.703 Y170.882 E.17709
G1 X171.703 Y175.98 E.1802
G3 X167.491 Y180.193 I-4.203 J.009 E.23404
G1 X158.062 Y180.193 E.33326
G2 X154.935 Y181.119 I.012 J5.783 E.11686
G1 X151.26 Y183.506 E.15489
G3 X148.94 Y184.193 I-2.311 J-3.545 E.08671
G1 X139.556 Y184.193 E.33171
G3 X139.318 Y183.955 I-.026 J-.212 E.01372
G1 X139.318 Y146.045 E1.33994
G3 X139.556 Y145.807 I.212 J-.026 E.01372
G1 X141.004 Y145.807 E.05119
G1 X148.951 Y145.808 E.28089
G3 X151.26 Y146.494 I-.001 J4.228 E.08633
G1 X154.935 Y148.881 E.15489
G2 X158.062 Y149.807 I3.139 J-4.857 E.11686
G1 X186.47 Y149.791 E1.00409
G3 X190.682 Y154.005 I.009 J4.203 E.23407
G1 X190.682 Y159.177 E.18282
G1 X173.392 Y159.177 E.61113
G1 X173.392 Y159.101 E.0027
G1 X160.668 Y159.119 E.44975
G1 X160.171 Y158.663 F12000
G1 F3000
G1 X160.171 Y171.339 E.44806
G1 X164.138 Y171.339 E.1402
G1 X163.496 Y171.882 E.02972
G2 X169.275 Y171.69 I2.997 J3.118 E.73651
M73 P2 R14
G1 X169.054 Y171.528 E.00967
G1 X169.116 Y171.339 E.00703
G1 X171.246 Y171.339 E.0753
G1 X171.246 Y175.969 E.16364
G3 X167.479 Y179.736 I-3.745 J.022 E.20948
G1 X158.051 Y179.736 E.33325
G2 X154.695 Y180.73 I.019 J6.227 E.1254
G1 X151.02 Y183.117 E.15489
G3 X148.929 Y183.736 I-2.078 J-3.178 E.07816
G1 X139.775 Y183.736 E.32359
G1 X139.775 Y146.264 E1.32447
G1 X141.004 Y146.264 E.04346
G1 X148.94 Y146.265 E.28051
G3 X151.02 Y146.883 I.004 J3.793 E.07779
G1 X154.695 Y149.27 E.15489
G2 X158.051 Y150.264 I3.375 J-5.233 E.1254
G1 X186.458 Y150.248 E1.00408
G3 X190.225 Y154.016 I.022 J3.745 E.20953
G1 X190.225 Y158.72 E.16625
G1 X188.046 Y158.72 E.07705
G1 X187.986 Y158.527 E.00714
G1 X188.173 Y158.398 E.00805
G2 X182.811 Y158.398 I-2.681 J-3.39 E.75546
G1 X182.998 Y158.527 E.00805
G1 X182.938 Y158.72 E.00714
G1 X173.85 Y158.72 E.32125
G1 X173.85 Y158.643 E.00272
G1 X168.746 Y158.65 E.18037
G1 X168.687 Y158.456 E.00718
G2 X163.371 Y157.624 I-2.182 J-3.456 E.70022
G2 X164.327 Y158.454 I3.524 J-3.097 E.04488
G1 X164.273 Y158.657 E.00743
G1 X160.211 Y158.663 E.14356
G1 X159.714 Y158.206 F12000
G1 F3000
G1 X159.714 Y171.796 E.48035
G1 X162.955 Y171.796 E.11455
G1 X162.747 Y172.025 E.01094
G2 X164.009 Y179.081 I3.762 J2.968 E.28624
G1 X163.951 Y179.279 E.00727
G1 X158.04 Y179.279 E.20893
G2 X154.455 Y180.341 I.026 J6.671 E.13394
G1 X150.78 Y182.727 E.15489
G3 X148.919 Y183.279 I-1.845 J-2.811 E.06962
G1 X140.232 Y183.279 E.30704
G1 X140.232 Y146.721 E1.29216
G1 X141.004 Y146.721 E.0273
G1 X148.929 Y146.722 E.28012
G3 X150.78 Y147.273 I.008 J3.358 E.06924
G1 X154.455 Y149.659 E.15489
G2 X158.04 Y150.721 I3.611 J-5.609 E.13394
G1 X164.436 Y150.721 E.22606
G1 X164.49 Y150.924 E.00744
G2 X163.292 Y158.201 I2.009 J4.068 E.30432
G1 X159.754 Y158.206 E.12503
G1 E-.5 F2400
G1 X156.717 Y155.892 F12000
G1 E.5 F1800
;TYPE:Outer wall
G1 F3000
G1 X156.527 Y156.188 E.01245
G3 X154.553 Y153.128 I-1.516 J-1.189 E.25932
G1 X154.915 Y153.076 E.01295
G3 X156.736 Y155.857 I.095 J1.924 E.14173
G1 X157.114 Y156.12 F12000
;TYPE:Inner wall
G1 F3000
G1 X156.888 Y156.472 E.01478
G3 X154.444 Y152.682 I-1.878 J-1.472 E.32109
G1 X154.892 Y152.617 E.01603
G3 X157.135 Y156.086 I.118 J2.383 E.17649
G1 X157.502 Y156.361 F12000
G1 F3000
G1 X157.249 Y156.756 E.01655
G1 X156.871 Y157.153 E.0194
G1 X156.428 Y157.467 E.01916
G1 X155.936 Y157.69 E.01912
G1 X155.41 Y157.817 E.01912
G1 X154.87 Y157.842 E.01912
G1 X154.335 Y157.764 E.01912
G1 X153.824 Y157.586 E.01912
G1 X153.356 Y157.315 E.01912
G1 X152.948 Y156.96 E.01912
G1 X152.614 Y156.534 E.01912
G1 X152.367 Y156.053 E.01912
G1 X152.216 Y155.533 E.01912
G1 X152.165 Y154.996 E.01907
G1 X152.216 Y154.466 E.01883
G1 X152.367 Y153.947 E.01907
G1 X152.614 Y153.466 E.01912
G1 X152.948 Y153.04 E.01912
G1 X153.356 Y152.685 E.01912
G1 X153.824 Y152.414 E.01912
G1 X154.335 Y152.236 E.01912
G1 X154.87 Y152.158 E.01912
G1 X155.41 Y152.183 E.01912
G1 X155.936 Y152.31 E.01912
G1 X156.428 Y152.533 E.01912
G1 X156.87 Y152.846 E.01912
G1 X157.244 Y153.237 E.01912
G1 X157.537 Y153.692 E.01912
G1 X157.739 Y154.193 E.01912
G1 X157.842 Y154.724 E.01912
G1 X157.843 Y155.265 E.01912
G1 X157.742 Y155.797 E.01912
G1 X157.542 Y156.299 E.01912
G1 X157.523 Y156.328 E.0012
G1 X157.89 Y156.603 F12000
G1 F3000
G1 X157.611 Y157.039 E.01832
G1 X157.171 Y157.5 E.02252
G1 X156.657 Y157.865 E.02226
G1 X156.085 Y158.125 E.0222
G1 X155.475 Y158.272 E.0222
G1 X154.847 Y158.3 E.0222
G1 X154.225 Y158.21 E.0222
G1 X153.632 Y158.003 E.0222
G1 X153.089 Y157.688 E.0222
G1 X152.615 Y157.276 E.0222
G1 X152.227 Y156.781 E.0222
G1 X151.941 Y156.222 E.0222
G1 X151.765 Y155.619 E.0222
G1 X151.706 Y154.996 E.02214
G1 X151.765 Y154.379 E.02189
G1 X151.941 Y153.778 E.02214
G1 X152.227 Y153.219 E.0222
G1 X152.615 Y152.724 E.0222
G1 X153.089 Y152.312 E.0222
G1 X153.632 Y151.997 E.0222
G1 X154.225 Y151.79 E.0222
G1 X154.847 Y151.7 E.0222
G1 X155.475 Y151.728 E.0222
G1 X156.085 Y151.875 E.0222
G1 X156.657 Y152.135 E.0222
G1 X157.17 Y152.499 E.0222
G1 X157.604 Y152.953 E.0222
G1 X157.945 Y153.48 E.0222
G1 X158.179 Y154.063 E.0222
G1 X158.299 Y154.68 E.0222
G1 X158.3 Y155.308 E.0222
G1 X158.183 Y155.925 E.0222
G1 X157.95 Y156.509 E.0222
G1 X157.912 Y156.569 E.00253
G1 E-.5 F2400
G1 X155.952 Y173.321 F12000
G1 E.5 F1800
;TYPE:Outer wall
G1 F3000
G1 X155.971 Y173.33 E.00073
G3 X154.553 Y173.128 I-.96 J1.67 E.37602
G1 X154.915 Y173.076 E.01295
G3 X155.637 Y173.178 I.095 J1.924 E.02593
G1 X155.916 Y173.305 E.01081
G1 X156.229 Y172.952 F12000
;TYPE:Inner wall
G1 F3000
G1 X156.57 Y173.194 E.01475
G3 X154.444 Y172.682 I-1.559 J1.806 E.44957
M73 P3 R14
G1 X154.892 Y172.617 E.01603
G3 X156.196 Y172.93 I.118 J2.383 E.04804
G1 X156.489 Y172.576 F12000
G1 F3000
G1 X156.87 Y172.846 E.01651
G1 X157.244 Y173.237 E.01912
G1 X157.537 Y173.692 E.01912
G1 X157.739 Y174.193 E.01912
G1 X157.842 Y174.724 E.01912
G1 X157.843 Y175.265 E.01912
G1 X157.742 Y175.797 E.01912
G1 X157.542 Y176.299 E.01912
G1 X157.249 Y176.756 E.01916
G1 X156.871 Y177.153 E.0194
G1 X156.428 Y177.467 E.01916
G1 X155.936 Y177.69 E.01912
G1 X155.41 Y177.817 E.01912
G1 X154.87 Y177.842 E.01912
G1 X154.335 Y177.764 E.01912
G1 X153.824 Y177.586 E.01912
G1 X153.356 Y177.315 E.01912
G1 X152.948 Y176.96 E.01912
G1 X152.614 Y176.534 E.01912
G1 X152.367 Y176.053 E.01912
G1 X152.216 Y175.533 E.01912
G1 X152.165 Y174.996 E.01907
G1 X152.216 Y174.466 E.01883
G1 X152.367 Y173.947 E.01907
G1 X152.614 Y173.466 E.01912
G1 X152.948 Y173.04 E.01912
G1 X153.356 Y172.685 E.01912
G1 X153.824 Y172.414 E.01912
G1 X154.335 Y172.236 E.01912
G1 X154.87 Y172.158 E.01912
G1 X155.41 Y172.183 E.01912
G1 X155.936 Y172.31 E.01912
G1 X156.428 Y172.533 E.01912
G1 X156.456 Y172.553 E.0012
G1 X156.748 Y172.2 F12000
G1 F3000
G1 X157.17 Y172.499 E.01826
G1 X157.604 Y172.953 E.0222
G1 X157.945 Y173.48 E.0222
G1 X158.179 Y174.063 E.0222
G1 X158.299 Y174.68 E.0222
G1 X158.3 Y175.308 E.0222
G1 X158.183 Y175.925 E.0222
G1 X157.95 Y176.509 E.0222
G1 X157.611 Y177.039 E.02226
G1 X157.171 Y177.5 E.02252
G1 X156.657 Y177.865 E.02226
G1 X156.085 Y178.125 E.0222
G1 X155.475 Y178.272 E.0222
G1 X154.847 Y178.3 E.0222
G1 X154.225 Y178.21 E.0222
G1 X153.632 Y178.003 E.0222
G1 X153.089 Y177.688 E.0222
G1 X152.615 Y177.276 E.0222
G1 X152.227 Y176.781 E.0222
G1 X151.941 Y176.222 E.0222
G1 X151.765 Y175.619 E.0222
G1 X151.706 Y174.996 E.02214
G1 X151.765 Y174.379 E.02189
G1 X151.941 Y173.778 E.02214
G1 X152.227 Y173.219 E.0222
G1 X152.615 Y172.724 E.0222
G1 X153.089 Y172.312 E.0222
G1 X153.632 Y171.997 E.0222
G1 X154.225 Y171.79 E.0222
G1 X154.847 Y171.7 E.0222
G1 X155.475 Y171.728 E.0222
G1 X156.085 Y171.875 E.0222
G1 X156.657 Y172.135 E.0222
G1 X156.716 Y172.177 E.00253
G1 E-.5 F2400
G1 X160.75 Y159.24 F12000
G1 X172.747 Y159.223
G1 X183.038 Y150.907
G1 E.5 F1800
G1 F3000
G1 X182.784 Y151.058 E.01045
G2 X181.997 Y158.263 I2.732 J3.944 E.29039
G1 X174.307 Y158.263 E.27181
G1 X174.307 Y158.185 E.00274
G1 X169.758 Y158.192 E.16076
G1 X170.19 Y157.677 E.02376
G2 X168.526 Y150.932 I-3.673 J-2.671 E.27954
G1 X168.575 Y150.72 E.00771
G1 X182.983 Y150.705 E.50926
G1 X183.028 Y150.868 E.00598
G1 E-.5 F2400
G1 X186.238 Y151.331 F12000
G1 X186.721 Y151.463
G1 X187.182 Y151.658
G1 X187.612 Y151.913
G1 X187.997 Y152.217
G1 X188.353 Y152.582
G1 X188.65 Y152.986
G1 X188.891 Y153.425
G1 X189.067 Y153.883
G1 X189.187 Y154.378
G1 X189.571 Y157.485
G1 E.5 F1800
G1 F3000
G1 X189.768 Y157.543 E.00727
G1 X189.768 Y158.263 E.02545
G1 X188.987 Y158.263 E.02761
G2 X189.551 Y157.52 I-2.599 J-2.559 E.03306
G1 E-.5 F2400
G1 X182.776 Y159.36 F12000
G1 X182.284 Y159.298
G1 X173.271 Y159.222
G1 X160.75 Y159.24
G1 X160.75 Y170.761
G1 X171.825 Y171.57
G1 X170.588 Y172.55
G1 E.5 F1800
G1 F3000
G1 X170.428 Y172.283 E.01102
G1 X170.044 Y171.796 E.02191
G1 X170.789 Y171.796 E.02635
G1 X170.789 Y172.495 E.02469
G1 X170.626 Y172.54 E.00597
G1 E-.5 F2400
G1 X163.757 Y170.678 F12000
G1 X163.262 Y170.761
G1 X160.75 Y170.761
G1 X160.75 Y159.24
G1 X181.847 Y155.871
G1 X181.764 Y155.377
G1 X181.747 Y154.877
G1 X181.797 Y154.379
G1 X181.913 Y153.892
G1 X182.093 Y153.425
G1 X182.334 Y152.986
G1 X182.631 Y152.583
G1 X182.979 Y152.223
G1 X183.371 Y151.913
G1 X183.802 Y151.658
G1 X184.263 Y151.463
G1 X184.736 Y151.333
G1 X185.241 Y151.264
G1 X185.742 Y151.264
G1 X186.194 Y151.325
G1 X186.149 Y151.657
G1 E.5 F1800
;TYPE:Outer wall
G1 F3000
G1 X186.171 Y151.66 E.00078
G3 X185.264 Y151.6 I-.68 J3.34 E.72465
G1 X185.72 Y151.6 E.01612
G1 X186.11 Y151.652 E.01391
G1 X186.288 Y151.218 F12000
;TYPE:Inner wall
G1 F3000
G1 X186.761 Y151.348 E.01731
G3 X185.232 Y151.142 I-1.27 J3.651 E.80357
G1 X185.75 Y151.142 E.01831
G3 X186.25 Y151.209 I-.259 J3.857 E.01782
G1 E-.5 F2400
G1 X185.241 Y151.264 F12000
G1 X184.736 Y151.333
G1 X184.263 Y151.463
G1 X168.656 Y157.747
G1 X168.195 Y157.924
G1 X167.743 Y158.049
G1 X167.296 Y158.132
G1 X166.845 Y158.177
G1 X166.396 Y158.186
G1 X165.959 Y158.16
G1 X165.502 Y158.097
G1 X165.051 Y157.994
G1 X164.597 Y157.845
G1 X164.162 Y157.612
G1 X163.925 Y157.366
G1 X164.167 Y157.133
G1 E.5 F1800
;TYPE:Outer wall
G1 F3000
G1 X164.075 Y157.034 E.00476
G3 X165.955 Y151.873 I2.435 J-2.036 E.2346
G1 X166.395 Y151.826 E.01566
G3 X164.389 Y157.359 I.115 J3.172 E.43867
G1 X164.195 Y157.161 E.0098
G1 X163.706 Y157.307 F12000
;TYPE:Inner wall
G1 F3000
G1 X163.432 Y156.926 E.01658
G3 X165.875 Y151.422 I3.078 J-1.928 E.25091
G1 X166.378 Y151.368 E.0179
G3 X163.732 Y157.337 I.132 J3.63 E.51982
G1 E-.5 F2400
G1 X160.75 Y159.24 F12000
G1 X160.75 Y170.761
G1 X163.262 Y170.761
G1 X168.475 Y170.519
G1 X169.831 Y173.302
G1 X169.843 Y173.33
G1 X169.533 Y173.461
G1 E.5 F1800
;TYPE:Outer wall
G1 F3000
G1 X169.715 Y173.9 E.01681
G3 X166.164 Y171.608 I-3.223 J1.097 E.59503
G1 X166.592 Y171.594 E.01513
G3 X169.513 Y173.427 I-.1 J3.404 E.12781
G1 X170.49 Y172.814 F12000
;TYPE:Gap infill
;WIDTH:0.280206
G1 F3000
G1 X171.018 Y173.048 E.01058
G1 X170.779 Y172.735 F12000
;WIDTH:0.257861
G1 F3000
G3 X170.927 Y173.64 I-13.561 J2.675 E.01525
;WIDTH:0.186308
G1 X170.946 Y173.784 E.00162
;WIDTH:0.147442
G1 X170.965 Y173.929 E.00118
;WIDTH:0.108575
G1 X170.985 Y174.073 E.00074
;WIDTH:0.103215
G1 X170.99 Y174.142 E.00032
G1 X170.992 Y175.874 F12000
;WIDTH:0.10292
G1 F3000
G1 X170.98 Y175.962 E.00041
;WIDTH:0.118424
G1 X170.95 Y176.149 E.0011
;WIDTH:0.159001
