; generated by SuperSlicer 2.5.59 on 2023-02-17 at 23:53:38 UTC


;
;

;
;
; 

; external perimeters extrusion width = 0.40mm
; perimeters extrusion width = 0.46mm
; infill extrusion width = 0.64mm
; solid infill extrusion width = 0.56mm
; top infill extrusion width = 0.40mm
; first layer extrusion width = 0.50mm

; object:{"name":"150_mm_Bag_Clip","id":"150_mm_Bag_Clip.stl id:0 copy 0","object_center":[165.000001,164.920145,0.000000],"boundingbox_center":[165.000001,164.920145,5.000000],"boundingbox_size":[164.000000,37.099998,10.000000]}
; plater:{"center":[165.000001,164.920145,0.000000],"boundingbox_center":[165.000001,164.920145,5.000000],"boundingbox_size":[164.000000,37.099998,10.000000]}

M73 P0 R100


; Pre-Processed for Cancel-Object support by preprocess_cancellation v0.2.0
; 1 known objects
EXCLUDE_OBJECT_DEFINE NAME=150_mm_Bag_Clip_stl_id_0_copy_0 CENTER=197.876,154.186 POLYGON=[[83.2,146.57],[83.2,183.238],[246.8,183.238],[246.8,146.57]]
;TYPE:Custom
; custom gcode: start_gcode
START_PRINT T_BED=60 T_EXTRUDER=200
; custom gcode end: start_gcode
M107
G21 ; set units to millimeters
G90 ; use absolute coordinates
M82 ; use absolute distances for extrusion
G92 E0
; custom gcode: start_filament_gcode
; Filament gcode

    PRESSURE_ADVANCE_SELECT FILAMENT=PLA
; custom gcode end: start_filament_gcode
;_TOOLCHANGE 0
M109 S200 ; set temperature and wait for it to be reached
M190 S60 ; set bed temperature and wait for it to be reached
;LAYER_CHANGE
;Z:0.1
;HEIGHT:0.1
G1 Z0.1 F9000
G1 E-0.8 F3000
M204 S1000
G1 X80.361 Y143.225 F9000
G1 E0 F1800
;TYPE:Skirt
;WIDTH:0.52
G1 X79.249 Y144.681 E0.03646
G1 X78.854 Y146.47 E0.07291
M73 P0 R100
G1 X78.854 Y160.27 E0.3475
G1 X78.979 Y161.293 E0.368
G1 X84.706 Y184.377 E0.84125
G1 X86.107 Y186.615 E0.89379
G1 X87.734 Y187.458 E0.93025
G1 X89.564 Y187.536 E0.96671
G1 X244.454 Y160.178 E4.09638
G1 X245.691 Y159.736 E4.12251
G1 X247.252 Y158.855 E4.15817
G1 X248.316 Y157.981 E4.18558
G1 X249.485 Y156.622 E4.22124
G1 X250.366 Y155.061 E4.25691
G1 X250.925 Y153.358 E4.29257
G1 X251.141 Y151.579 E4.32824
G1 X251.077 Y150.267 E4.35437
G1 X250.808 Y148.916 E4.38178
G1 X250.16 Y147.245 E4.41744
G1 X249.198 Y145.732 E4.45311
G1 X247.96 Y144.436 E4.48877
G1 X246.905 Y143.654 E4.5149
G1 X245.306 Y142.845 E4.55057
G1 X243.579 Y142.364 E4.58624
G1 X242.206 Y142.229 E4.61369
G1 X83.1 Y142.224 E7.77955
G1 X81.983 Y142.373 E7.80196
G1 X80.361 Y143.225 E7.83842
G1 X80.771 Y143.567 F9000
G1 F1800
G1 X79.747 Y144.796 E7.87026
G1 X79.352 Y146.47 E7.90449
G1 X79.352 Y160.27 E8.17907
G1 X79.462 Y161.173 E8.19717
G1 X85.19 Y184.257 E8.67041
G1 X86.268 Y186.093 E8.71278
G1 X87.761 Y186.947 E8.747
G1 X89.478 Y187.045 E8.78123
G1 X244.333 Y159.695 E11.91019
G1 X245.912 Y159.079 E11.94392
G1 X247.341 Y158.168 E11.97764
G1 X248.565 Y156.996 E12.01136
G1 X249.289 Y156.019 E12.03555
G1 X249.915 Y154.848 E12.06198
G1 X250.441 Y153.237 E12.0957
G1 X250.643 Y151.554 E12.12942
G1 X250.584 Y150.34 E12.15361
G1 X250.324 Y149.037 E12.18004
G1 X249.709 Y147.458 E12.21376
G1 X248.798 Y146.029 E12.24748
G1 X247.625 Y144.806 E12.2812
G1 X246.649 Y144.081 E12.30539
G1 X245.138 Y143.315 E12.33911
G1 X243.506 Y142.857 E12.37283
G1 X242.181 Y142.727 E12.39931
G1 X83.1 Y142.722 E15.56468
G1 X80.848 Y143.475 E15.61193
G1 X80.771 Y143.567 E15.61431
G1 X81.162 Y143.928 F9000
G1 F1800
G1 X80.245 Y144.92 E15.64119
G1 X79.851 Y146.47 E15.67303
G1 X79.851 Y160.27 E15.94762
G1 X79.946 Y161.053 E15.9633
G1 X85.673 Y184.137 E16.43655
G1 X86.451 Y185.57 E16.46899
G1 X87.796 Y186.436 E16.50082
G1 X89.391 Y186.554 E16.53266
G1 X244.212 Y159.211 E19.66092
G1 X245.264 Y158.834 E19.68316
G1 X246.658 Y158.054 E19.71494
G1 X247.647 Y157.242 E19.7404
G1 X248.684 Y156.028 E19.77218
G1 X249.464 Y154.635 E19.80395
G1 X249.958 Y153.116 E19.83573
G1 X250.145 Y151.53 E19.86751
G1 X250.09 Y150.413 E19.88975
G1 X249.841 Y149.158 E19.91521
G1 X249.259 Y147.671 E19.94699
G1 X248.397 Y146.326 E19.97876
G1 X247.291 Y145.175 E20.01054
G1 X246.393 Y144.509 E20.03278
G1 X244.97 Y143.784 E20.06456
G1 X243.433 Y143.35 E20.09634
G1 X242.157 Y143.225 E20.12185
G1 X83.1 Y143.221 E23.28673
M73 P1 R100
G1 X81.331 Y143.745 E23.32345
G1 X81.162 Y143.928 E23.3284
G92 E0
G1 E-0.8 F3000
; printing object 150_mm_Bag_Clip.stl id:0 copy 0
EXCLUDE_OBJECT_START NAME=150_mm_Bag_Clip_stl_id_0_copy_0
; acceleration to travel
M204 S3000
G1 X87.335 Y170.687 F9000
; decel to extrusion
M204 S1000
G1 X89.392 Y179.606
; end travel
G1 E0 F1800
;TYPE:Internal perimeter
;WIDTH:0.5
G1 X235.031 Y153.926 E2.82455
G1 X235.445 Y156.276 E2.87012
G1 X89.806 Y181.956 E5.69467
G1 X89.392 Y179.606 E5.74024
G1 X88.838 Y179.218 F9000
G1 F1800
G1 X235.419 Y153.372 E8.58306
G1 X236 Y156.664 E8.64691
G1 X89.418 Y182.51 E11.48974
G1 X88.838 Y179.218 E11.55359
G1 X88.283 Y178.83 F9000
;TYPE:External perimeter
G1 F1800
G1 X235.807 Y152.817 E14.4147
M73 P1 R99
G1 X235.833 Y152.965 E14.41756
G1 X236.554 Y157.052 E14.49682
G1 X89.03 Y183.065 E17.35793
G1 X88.283 Y178.83 E17.44006
;WIPE_START
M204 S4000
G1 X88.659 Y178.967 F9000
;WIPE_END
G92 E0
G1 E-0.8 F3000
; acceleration to travel
M204 S3000
G1 X194.718 Y161.805 F9000
; decel to extrusion
M204 S1000
G1 X235.122 Y155.268
; end travel
G1 E0 F1800
;TYPE:Solid infill
;WIDTH:0.505782
G1 F3600
G1 X234.092 Y154.238 E0.02815
G1 X233.516 Y154.339 F9000
G1 F3600
G1 X235.267 Y156.089 E0.07598
G1 X234.753 Y156.252 F9000
G1 F3600
G1 X232.941 Y154.441 E0.12548
G1 X232.366 Y154.542 F9000
G1 F3600
G1 X234.177 Y156.354 E0.17498
G1 X233.602 Y156.455 F9000
G1 F3600
G1 X231.79 Y154.643 E0.22448
G1 X231.215 Y154.745 F9000
G1 F3600
G1 X233.027 Y156.557 E0.27398
G1 X232.451 Y156.658 F9000
G1 F3600
G1 X230.64 Y154.846 E0.32348
G1 X230.064 Y154.948 F9000
G1 F3600
G1 X231.876 Y156.759 E0.37299
G1 X231.301 Y156.861 F9000
G1 F3600
G1 X229.489 Y155.049 E0.42249
G1 X228.914 Y155.151 F9000
G1 F3600
G1 X230.725 Y156.962 E0.47199
G1 X230.15 Y157.064 F9000
G1 F3600
G1 X228.338 Y155.252 E0.52149
G1 X227.763 Y155.353 F9000
G1 F3600
G1 X229.575 Y157.165 E0.57099
G1 X228.999 Y157.267 F9000
G1 F3600
G1 X227.188 Y155.455 E0.62049
G1 X226.612 Y155.556 F9000
G1 F3600
G1 X228.424 Y157.368 E0.67
G1 X227.849 Y157.47 F9000
G1 F3600
G1 X226.037 Y155.658 E0.7195
G1 X225.462 Y155.759 F9000
G1 F3600
G1 X227.274 Y157.571 E0.769
G1 X226.698 Y157.672 F9000
G1 F3600
G1 X224.886 Y155.861 E0.8185
G1 X224.311 Y155.962 F9000
G1 F3600
G1 X226.123 Y157.774 E0.868
G1 X225.548 Y157.875 F9000
G1 F3600
G1 X223.736 Y156.064 E0.9175
G1 X223.161 Y156.165 F9000
G1 F3600
G1 X224.972 Y157.977 E0.96701
G1 X224.397 Y158.078 F9000
G1 F3600
G1 X222.585 Y156.266 E1.01651
G1 X222.01 Y156.368 F9000
G1 F3600
G1 X223.822 Y158.18 E1.06601
G1 X223.246 Y158.281 F9000
G1 F3600
G1 X221.435 Y156.469 E1.11551
G1 X220.859 Y156.571 F9000
G1 F3600
G1 X222.671 Y158.383 E1.16501
G1 X222.096 Y158.484 F9000
G1 F3600
G1 X220.284 Y156.672 E1.21451
G1 X219.709 Y156.774 F9000
G1 F3600
G1 X221.52 Y158.585 E1.26402
G1 X220.945 Y158.687 F9000
G1 F3600
G1 X219.133 Y156.875 E1.31352
G1 X218.558 Y156.977 F9000
G1 F3600
G1 X220.37 Y158.788 E1.36302
G1 X219.794 Y158.89 F9000
G1 F3600
G1 X217.983 Y157.078 E1.41252
G1 X217.407 Y157.179 F9000
G1 F3600
G1 X219.219 Y158.991 E1.46202
G1 X218.644 Y159.093 F9000
G1 F3600
G1 X216.832 Y157.281 E1.51153
G1 X216.257 Y157.382 F9000
G1 F3600
G1 X218.069 Y159.194 E1.56103
G1 X217.493 Y159.296 F9000
G1 F3600
G1 X215.681 Y157.484 E1.61053
G1 X215.106 Y157.585 F9000
G1 F3600
G1 X216.918 Y159.397 E1.66003
G1 X216.343 Y159.498 F9000
G1 F3600
G1 X214.531 Y157.687 E1.70953
G1 X213.956 Y157.788 F9000
G1 F3600
G1 X215.767 Y159.6 E1.75903
G1 X215.192 Y159.701 F9000
G1 F3600
G1 X213.38 Y157.89 E1.80854
G1 X212.805 Y157.991 F9000
G1 F3600
G1 X214.617 Y159.803 E1.85804
G1 X214.041 Y159.904 F9000
G1 F3600
G1 X212.23 Y158.092 E1.90754
G1 X211.654 Y158.194 F9000
G1 F3600
G1 X213.466 Y160.006 E1.95704
G1 X212.891 Y160.107 F9000
G1 F3600
G1 X211.079 Y158.295 E2.00654
G1 X210.504 Y158.397 F9000
G1 F3600
G1 X212.315 Y160.209 E2.05604
G1 X211.74 Y160.31 F9000
G1 F3600
G1 X209.928 Y158.498 E2.10555
G1 X209.353 Y158.6 F9000
G1 F3600
G1 X211.165 Y160.411 E2.15505
G1 X210.589 Y160.513 F9000
G1 F3600
G1 X208.778 Y158.701 E2.20455
G1 X208.202 Y158.803 F9000
G1 F3600
G1 X210.014 Y160.614 E2.25405
G1 X209.439 Y160.716 F9000
G1 F3600
G1 X207.627 Y158.904 E2.30355
G1 X207.052 Y159.005 F9000
G1 F3600
G1 X208.864 Y160.817 E2.35306
G1 X208.288 Y160.919 F9000
G1 F3600
G1 X206.476 Y159.107 E2.40256
G1 X205.901 Y159.208 F9000
G1 F3600
G1 X207.713 Y161.02 E2.45206
G1 X207.138 Y161.121 F9000
G1 F3600
G1 X205.326 Y159.31 E2.50156
G1 X204.751 Y159.411 F9000
G1 F3600
G1 X206.562 Y161.223 E2.55106
G1 X205.987 Y161.324 F9000
G1 F3600
G1 X204.175 Y159.513 E2.60056
G1 X203.6 Y159.614 F9000
G1 F3600
G1 X205.412 Y161.426 E2.65007
G1 X204.836 Y161.527 F9000
G1 F3600
G1 X203.025 Y159.716 E2.69957
G1 X202.449 Y159.817 F9000
G1 F3600
G1 X204.261 Y161.629 E2.74907
G1 X203.686 Y161.73 F9000
G1 F3600
G1 X201.874 Y159.918 E2.79857
G1 X201.299 Y160.02 F9000
G1 F3600
G1 X203.11 Y161.832 E2.84807
G1 X202.535 Y161.933 F9000
G1 F3600
G1 X200.723 Y160.121 E2.89757
G1 X200.148 Y160.223 F9000
G1 F3600
G1 X201.96 Y162.034 E2.94708
G1 X201.384 Y162.136 F9000
G1 F3600
G1 X199.573 Y160.324 E2.99658
G1 X198.997 Y160.426 F9000
G1 F3600
G1 X200.809 Y162.237 E3.04608
G1 X200.234 Y162.339 F9000
G1 F3600
G1 X198.422 Y160.527 E3.09558
G1 X197.847 Y160.629 F9000
G1 F3600
G1 X199.659 Y162.44 E3.14508
G1 X199.083 Y162.542 F9000
G1 F3600
G1 X197.271 Y160.73 E3.19459
G1 X196.696 Y160.831 F9000
G1 F3600
G1 X198.508 Y162.643 E3.24409
G1 X197.933 Y162.745 F9000
G1 F3600
G1 X196.121 Y160.933 E3.29359
G1 X195.546 Y161.034 F9000
G1 F3600
G1 X197.357 Y162.846 E3.34309
G1 X196.782 Y162.947 F9000
G1 F3600
G1 X194.97 Y161.136 E3.39259
G1 X194.395 Y161.237 F9000
G1 F3600
G1 X196.207 Y163.049 E3.44209
G1 X195.631 Y163.15 F9000
G1 F3600
G1 X193.82 Y161.339 E3.4916
G1 X193.244 Y161.44 F9000
G1 F3600
G1 X195.056 Y163.252 E3.5411
G1 X194.481 Y163.353 F9000
G1 F3600
G1 X192.669 Y161.542 E3.5906
G1 X192.094 Y161.643 F9000
G1 F3600
G1 X193.905 Y163.455 E3.6401
G1 X193.33 Y163.556 F9000
G1 F3600
G1 X191.518 Y161.744 E3.6896
G1 X190.943 Y161.846 F9000
G1 F3600
G1 X192.755 Y163.658 E3.73911
G1 X192.179 Y163.759 F9000
G1 F3600
G1 X190.368 Y161.947 E3.78861
G1 X189.792 Y162.049 F9000
G1 F3600
G1 X191.604 Y163.86 E3.83811
G1 X191.029 Y163.962 F9000
G1 F3600
G1 X189.217 Y162.15 E3.88761
G1 X188.642 Y162.252 F9000
G1 F3600
G1 X190.453 Y164.063 E3.93711
G1 X189.878 Y164.165 F9000
G1 F3600
G1 X188.066 Y162.353 E3.98661
G1 X187.491 Y162.455 F9000
G1 F3600
G1 X189.303 Y164.266 E4.03612
G1 X188.728 Y164.368 F9000
G1 F3600
G1 X186.916 Y162.556 E4.08562
G1 X186.341 Y162.657 F9000
G1 F3600
G1 X188.152 Y164.469 E4.13512
G1 X187.577 Y164.571 F9000
G1 F3600
G1 X185.765 Y162.759 E4.18462
G1 X185.19 Y162.86 F9000
G1 F3600
G1 X187.002 Y164.672 E4.23412
G1 X186.426 Y164.773 F9000
G1 F3600
G1 X184.615 Y162.962 E4.28363
G1 X184.039 Y163.063 F9000
G1 F3600
G1 X185.851 Y164.875 E4.33313
G1 X185.276 Y164.976 F9000
G1 F3600
G1 X183.464 Y163.165 E4.38263
G1 X182.889 Y163.266 F9000
G1 F3600
G1 X184.7 Y165.078 E4.43213
G1 X184.125 Y165.179 F9000
G1 F3600
G1 X182.313 Y163.368 E4.48163
G1 X181.738 Y163.469 F9000
G1 F3600
G1 X183.55 Y165.281 E4.53114
G1 X182.974 Y165.382 F9000
G1 F3600
G1 X181.163 Y163.57 E4.58064
G1 X180.587 Y163.672 F9000
G1 F3600
G1 X182.399 Y165.484 E4.63014
G1 X181.824 Y165.585 F9000
G1 F3600
G1 X180.012 Y163.773 E4.67964
G1 X179.437 Y163.875 F9000
G1 F3600
G1 X181.248 Y165.686 E4.72914
G1 X180.673 Y165.788 F9000
G1 F3600
G1 X178.861 Y163.976 E4.77864
G1 X178.286 Y164.078 F9000
G1 F3600
G1 X180.098 Y165.889 E4.82815
G1 X179.523 Y165.991 F9000
G1 F3600
G1 X177.711 Y164.179 E4.87765
G1 X177.136 Y164.281 F9000
G1 F3600
G1 X178.947 Y166.092 E4.92715
G1 X178.372 Y166.194 F9000
G1 F3600
G1 X176.56 Y164.382 E4.97665
G1 X175.985 Y164.483 F9000
G1 F3600
G1 X177.797 Y166.295 E5.02615
G1 X177.221 Y166.397 F9000
G1 F3600
G1 X175.41 Y164.585 E5.07566
G1 X174.834 Y164.686 F9000
G1 F3600
G1 X176.646 Y166.498 E5.12516
G1 X176.071 Y166.599 F9000
G1 F3600
G1 X174.259 Y164.788 E5.17466
G1 X173.684 Y164.889 F9000
G1 F3600
G1 X175.495 Y166.701 E5.22416
G1 X174.92 Y166.802 F9000
G1 F3600
G1 X173.108 Y164.991 E5.27366
G1 X172.533 Y165.092 F9000
G1 F3600
G1 X174.345 Y166.904 E5.32317
G1 X173.769 Y167.005 F9000
G1 F3600
G1 X171.958 Y165.193 E5.37267
G1 X171.382 Y165.295 F9000
G1 F3600
G1 X173.194 Y167.107 E5.42217
G1 X172.619 Y167.208 F9000
G1 F3600
G1 X170.807 Y165.396 E5.47167
G1 X170.232 Y165.498 F9000
G1 F3600
G1 X172.043 Y167.31 E5.52117
G1 X171.468 Y167.411 F9000
G1 F3600
G1 X169.656 Y165.599 E5.57067
G1 X169.081 Y165.701 F9000
G1 F3600
G1 X170.893 Y167.512 E5.62018
G1 X170.318 Y167.614 F9000
G1 F3600
G1 X168.506 Y165.802 E5.66968
G1 X167.931 Y165.904 F9000
G1 F3600
G1 X169.742 Y167.715 E5.71918
G1 X169.167 Y167.817 F9000
G1 F3600
G1 X167.355 Y166.005 E5.76868
G1 X166.78 Y166.106 F9000
G1 F3600
G1 X168.592 Y167.918 E5.81818
G1 X168.016 Y168.02 F9000
G1 F3600
G1 X166.205 Y166.208 E5.86769
G1 X165.629 Y166.309 F9000
G1 F3600
G1 X167.441 Y168.121 E5.91719
G1 X166.866 Y168.223 F9000
G1 F3600
G1 X165.054 Y166.411 E5.96669
G1 X164.479 Y166.512 F9000
G1 F3600
G1 X166.29 Y168.324 E6.01619
G1 X165.715 Y168.425 F9000
G1 F3600
G1 X163.903 Y166.614 E6.06569
G1 X163.328 Y166.715 F9000
G1 F3600
G1 X165.14 Y168.527 E6.1152
G1 X164.564 Y168.628 F9000
G1 F3600
G1 X162.753 Y166.817 E6.1647
G1 X162.177 Y166.918 F9000
G1 F3600
G1 X163.989 Y168.73 E6.2142
G1 X163.414 Y168.831 F9000
G1 F3600
G1 X161.602 Y167.019 E6.2637
G1 X161.027 Y167.121 F9000
G1 F3600
G1 X162.838 Y168.933 E6.3132
G1 X162.263 Y169.034 F9000
G1 F3600
G1 X160.451 Y167.222 E6.3627
G1 X159.876 Y167.324 F9000
G1 F3600
G1 X161.688 Y169.136 E6.41221
G1 X161.113 Y169.237 F9000
G1 F3600
G1 X159.301 Y167.425 E6.46171
G1 X158.726 Y167.527 F9000
G1 F3600
G1 X160.537 Y169.338 E6.51121
G1 X159.962 Y169.44 F9000
G1 F3600
G1 X158.15 Y167.628 E6.56071
G1 X157.575 Y167.73 F9000
G1 F3600
G1 X159.387 Y169.541 E6.61021
G1 X158.811 Y169.643 F9000
G1 F3600
G1 X157 Y167.831 E6.65972
G1 X156.424 Y167.932 F9000
G1 F3600
G1 X158.236 Y169.744 E6.70922
G1 X157.661 Y169.846 F9000
G1 F3600
G1 X155.849 Y168.034 E6.75872
G1 X155.274 Y168.135 F9000
G1 F3600
G1 X157.085 Y169.947 E6.80822
G1 X156.51 Y170.049 F9000
G1 F3600
G1 X154.698 Y168.237 E6.85772
G1 X154.123 Y168.338 F9000
G1 F3600
G1 X155.935 Y170.15 E6.90723
G1 X155.359 Y170.251 F9000
G1 F3600
G1 X153.548 Y168.44 E6.95673
G1 X152.972 Y168.541 F9000
G1 F3600
G1 X154.784 Y170.353 E7.00623
G1 X154.209 Y170.454 F9000
G1 F3600
G1 X152.397 Y168.643 E7.05573
G1 X151.822 Y168.744 F9000
G1 F3600
G1 X153.633 Y170.556 E7.10523
G1 X153.058 Y170.657 F9000
G1 F3600
G1 X151.246 Y168.845 E7.15474
G1 X150.671 Y168.947 F9000
G1 F3600
G1 X152.483 Y170.759 E7.20424
G1 X151.908 Y170.86 F9000
G1 F3600
G1 X150.096 Y169.048 E7.25374
G1 X149.52 Y169.15 F9000
G1 F3600
G1 X151.332 Y170.962 E7.30324
G1 X150.757 Y171.063 F9000
G1 F3600
G1 X148.945 Y169.251 E7.35274
G1 X148.37 Y169.353 F9000
G1 F3600
G1 X150.182 Y171.164 E7.40225
G1 X149.606 Y171.266 F9000
G1 F3600
G1 X147.795 Y169.454 E7.45175
G1 X147.219 Y169.556 F9000
G1 F3600
G1 X149.031 Y171.367 E7.50125
G1 X148.456 Y171.469 F9000
G1 F3600
G1 X146.644 Y169.657 E7.55075
G1 X146.069 Y169.758 F9000
G1 F3600
G1 X147.88 Y171.57 E7.60025
G1 X147.305 Y171.672 F9000
G1 F3600
G1 X145.493 Y169.86 E7.64976
G1 X144.918 Y169.961 F9000
G1 F3600
G1 X146.73 Y171.773 E7.69926
G1 X146.154 Y171.874 F9000
G1 F3600
G1 X144.343 Y170.063 E7.74876
G1 X143.767 Y170.164 F9000
G1 F3600
G1 X145.579 Y171.976 E7.79826
G1 X145.004 Y172.077 F9000
G1 F3600
G1 X143.192 Y170.266 E7.84776
G1 X142.617 Y170.367 F9000
G1 F3600
G1 X144.428 Y172.179 E7.89727
G1 X143.853 Y172.28 F9000
G1 F3600
G1 X142.041 Y170.469 E7.94677
G1 X141.466 Y170.57 F9000
G1 F3600
G1 X143.278 Y172.382 E7.99627
G1 X142.703 Y172.483 F9000
G1 F3600
G1 X140.891 Y170.671 E8.04577
G1 X140.315 Y170.773 F9000
G1 F3600
G1 X142.127 Y172.585 E8.09527
G1 X141.552 Y172.686 F9000
G1 F3600
