; generated by SuperSlicer 2.5.59 on 2023-05-07 at 02:11:30 UTC


;
;

;
;
; 

; external perimeters extrusion width = 0.40mm
; perimeters extrusion width = 0.46mm
; infill extrusion width = 0.64mm
; solid infill extrusion width = 0.56mm
; top infill extrusion width = 0.40mm
; support material extrusion width = 0.46mm
; first layer extrusion width = 0.50mm

; object:{"name":"2","id":"2.HDD_Topplate.stl id:0 copy 0","object_center":[165.000000,165.000000,0.000000],"boundingbox_center":[165.000000,165.000000,2.009998],"boundingbox_size":[178.089989,191.920013,4.019997]}
EXCLUDE_OBJECT_DEFINE NAME=2_HDD_Topplate_stl_id_0_copy_0 CENTER=165.000000,165.000000 POLYGON=[[75.955008,69.039992],[254.044992,69.039992],[254.044992,260.960016],[75.955008,260.960016],[75.955008,69.039992]]
; plater:{"center":[165.000000,165.000000,0.000000],"boundingbox_center":[165.000000,165.000000,2.009998],"boundingbox_size":[178.089989,191.920013,4.019997]}

M73 P0 R181
;TYPE:Custom
; custom gcode: start_gcode
START_PRINT T_BED=70 T_EXTRUDER=235
; custom gcode end: start_gcode
M107
G21 ; set units to millimeters
G90 ; use absolute coordinates
M82 ; use absolute distances for extrusion
G92 E0
; custom gcode: start_filament_gcode
; Filament gcode
PRESSURE_ADVANCE_SELECT FILAMENT=PETG
; custom gcode end: start_filament_gcode
;_TOOLCHANGE 0
M109 S235 ; set temperature and wait for it to be reached
M190 S70 ; set bed temperature and wait for it to be reached
;LAYER_CHANGE
;Z:0.2
;HEIGHT:0.2
G1 Z0.2 F9000
G1 E-1 F3000
M204 S1000
G1 X73.834 Y66.161 F9000
G1 E0 F1800
;TYPE:Skirt
;WIDTH:0.52
G1 X72.734 Y67.474 E0.06589
G1 X72.339 Y69.14 E0.13179
G1 X72.339 Y260.86 E7.50903
G1 X73.076 Y263.081 E7.59907
G1 X74.389 Y264.181 E7.66497
G1 X76.055 Y264.576 E7.73086
G1 X253.945 Y264.576 E14.57593
G1 X256.166 Y263.839 E14.66598
G1 X257.266 Y262.526 E14.73187
G1 X257.661 Y260.86 E14.79776
G1 X257.661 Y69.14 E22.17501
M73 P0 R181
G1 X256.924 Y66.919 E22.26505
G1 X255.611 Y65.819 E22.33094
G1 X253.945 Y65.424 E22.39684
G1 X76.055 Y65.424 E29.24191
G1 X73.834 Y66.161 E29.33195
G1 X74.212 Y66.511 F9000
G1 F1800
G1 X73.21 Y67.592 E29.38865
G1 X72.816 Y69.14 E29.45011
G1 X72.816 Y260.86 E36.82735
G1 X73.336 Y262.619 E36.89793
G1 X74.507 Y263.705 E36.95938
G1 X76.055 Y264.099 E37.02084
G1 X253.945 Y264.099 E43.86591
G1 X255.704 Y263.579 E43.93649
G1 X256.79 Y262.408 E43.99794
G1 X257.184 Y260.86 E44.0594
G1 X257.184 Y69.14 E51.43664
G1 X256.664 Y67.381 E51.50722
G1 X255.493 Y66.295 E51.56867
G1 X253.945 Y65.901 E51.63013
G1 X76.055 Y65.901 E58.4752
G1 X74.296 Y66.421 E58.54578
G1 X74.212 Y66.511 E58.55054
G92 E0
G1 E-1 F3000
; printing object 2.HDD_Topplate.stl id:0 copy 0
EXCLUDE_OBJECT_START NAME=2_HDD_Topplate_stl_id_0_copy_0
; acceleration to travel
M204 S3000
G1 X193.197 Y205.728 F9000
; decel to extrusion
M204 S1000
G1 X232.859 Y252.133
; end travel
G1 E0 F1800
;TYPE:Internal perimeter
;WIDTH:0.5
G1 X233.355 Y250.281 E0.07069
G1 X83.436 Y163.709 E6.45294
G1 X82.172 Y164.439 E6.50676
G1 X82.172 Y172.795 E6.81482
G1 X219.727 Y252.227 E12.67072
G1 X232.833 Y252.227 E13.15391
G1 X232.859 Y252.133 E13.15751
G1 X232.495 Y251.723 F9000
G1 F1800
G1 X232.823 Y250.501 E13.20414
G1 X83.436 Y164.237 E19.56373
G1 X82.629 Y164.703 E19.59809
G1 X82.629 Y172.531 E19.88669
G1 X219.849 Y251.77 E25.72835
G1 X232.483 Y251.77 E26.19409
M73 P1 R180
G1 X232.495 Y251.723 E26.19589
G1 X232.132 Y251.313 F9000
;TYPE:External perimeter
G1 F1800
G1 X232.29 Y250.722 E26.21846
G1 X83.436 Y164.765 E32.55539
G1 X83.086 Y164.967 E32.57029
G1 X83.086 Y172.268 E32.83944
G1 X219.972 Y251.313 E38.66685
M73 P1 R180
G1 X232.132 Y251.313 E39.11515
;WIPE_START
M204 S4000
G1 X232.526 Y251.382 F9000
;WIPE_END
G92 E0
G1 E-1 F3000
; acceleration to travel
M204 S3000
G1 X243.997 Y252.016 F9000
; decel to extrusion
M204 S1000
G1 X247.821 Y252.227
; end travel
G1 E0 F1800
;TYPE:Internal perimeter
G1 X247.821 Y244.841 E0.27229
G1 X83.436 Y149.916 E7.27039
G1 X82.172 Y150.646 E7.32421
G1 X82.172 Y159.002 E7.63227
G1 X243.613 Y252.227 E14.50503
G1 X247.821 Y252.227 E14.66018
G1 X247.364 Y251.77 F9000
G1 F1800
G1 X247.364 Y245.105 E14.90589
G1 X83.436 Y150.444 E21.88453
G1 X82.629 Y150.91 E21.91889
G1 X82.629 Y158.738 E22.2075
G1 X243.735 Y251.77 E29.06601
G1 X247.364 Y251.77 E29.1998
G1 X246.907 Y251.313 F9000
;TYPE:External perimeter
G1 F1800
G1 X246.907 Y245.369 E29.41893
G1 X83.436 Y150.972 E36.37811
G1 X83.086 Y151.174 E36.39301
G1 X83.086 Y158.474 E36.66216
G1 X243.858 Y251.313 E43.50643
G1 X246.907 Y251.313 E43.61885
;WIPE_START
M204 S4000
G1 X247.307 Y251.313 F9000
;WIPE_END
G92 E0
G1 E-1 F3000
; acceleration to travel
M204 S3000
G1 X247.592 Y242.44 F9000
; decel to extrusion
M204 S1000
G1 X247.687 Y239.482
; end travel
G1 E0 F1800
;TYPE:Internal perimeter
G1 X247.821 Y239.404 E0.0057
G1 X247.821 Y231.048 E0.31376
G1 X83.436 Y136.123 E7.31186
G1 X82.172 Y136.853 E7.36568
G1 X82.172 Y145.209 E7.67374
G1 X246.557 Y240.134 E14.67184
M73 P1 R179
G1 X247.687 Y239.482 E14.71996
G1 X247.364 Y239.063 F9000
G1 F1800
G1 X247.364 Y231.312 E15.00571
G1 X83.436 Y136.651 E21.98435
G1 X82.629 Y137.117 E22.01871
G1 X82.629 Y144.945 E22.30732
G1 X246.557 Y239.606 E29.28596
G1 X247.364 Y239.14 E29.32032
G1 X247.364 Y239.063 E29.32317
G1 X246.907 Y238.877 F9000
;TYPE:External perimeter
G1 F1800
G1 X246.907 Y231.576 E29.59232
G1 X83.436 Y137.179 E36.5515
G1 X83.086 Y137.381 E36.5664
G1 X83.086 Y144.681 E36.83555
G1 X246.557 Y239.079 E43.79473
G1 X246.907 Y238.877 E43.80963
;WIPE_START
M204 S4000
G1 X247.301 Y238.807 F9000
;WIPE_END
G92 E0
G1 E-1 F3000
; acceleration to travel
M204 S3000
G1 X246.643 Y229.4 F9000
; decel to extrusion
M204 S1000
G1 X246.423 Y226.264
; end travel
G1 E0 F1800
;TYPE:Internal perimeter
G1 X246.557 Y226.341 E0.0057
G1 X247.821 Y225.611 E0.05952
G1 X247.821 Y217.255 E0.36758
G1 X83.436 Y122.33 E7.36568
G1 X82.172 Y123.06 E7.41949
G1 X82.172 Y131.416 E7.72756
G1 X246.423 Y226.264 E14.71996
; acceleration to travel
M204 S3000
G1 X247.079 Y225.605 F9000
; decel to extrusion
M204 S1000
G1 X247.297 Y225.386
; end travel
G1 F1800
G1 X247.364 Y225.347 E14.72281
G1 X247.364 Y217.519 E15.01141
G1 X83.436 Y122.858 E21.99005
G1 X82.629 Y123.324 E22.02441
G1 X82.629 Y131.152 E22.31302
G1 X246.557 Y225.813 E29.29166
M73 P2 R178
G1 X247.297 Y225.386 E29.32317
G1 X246.907 Y225.083 F9000
;TYPE:External perimeter
G1 F1800
G1 X246.907 Y217.783 E29.59232
G1 X83.436 Y123.385 E36.5515
M73 P2 R178
G1 X83.086 Y123.588 E36.5664
G1 X83.086 Y130.888 E36.83555
G1 X246.557 Y225.286 E43.79474
G1 X246.907 Y225.083 E43.80963
;WIPE_START
M204 S4000
G1 X247.301 Y225.014 F9000
;WIPE_END
G92 E0
G1 E-1 F3000
; acceleration to travel
M204 S3000
G1 X246.643 Y215.607 F9000
; decel to extrusion
M204 S1000
G1 X246.423 Y212.471
; end travel
G1 E0 F1800
;TYPE:Internal perimeter
G1 X246.557 Y212.548 E0.0057
G1 X247.821 Y211.818 E0.05952
G1 X247.821 Y203.462 E0.36758
G1 X83.436 Y108.537 E7.36568
G1 X82.172 Y109.267 E7.41949
G1 X82.172 Y117.623 E7.72756
G1 X246.423 Y212.471 E14.71996
; acceleration to travel
M204 S3000
G1 X247.079 Y211.812 F9000
; decel to extrusion
M204 S1000
G1 X247.297 Y211.593
; end travel
G1 F1800
G1 X247.364 Y211.554 E14.72281
G1 X247.364 Y203.726 E15.01141
G1 X83.436 Y109.065 E21.99005
G1 X82.629 Y109.531 E22.02441
G1 X82.629 Y117.359 E22.31302
G1 X246.557 Y212.02 E29.29166
G1 X247.297 Y211.593 E29.32317
G1 X246.907 Y211.29 F9000
;TYPE:External perimeter
G1 F1800
G1 X246.907 Y203.99 E29.59232
G1 X83.436 Y109.592 E36.5515
G1 X83.086 Y109.794 E36.5664
G1 X83.086 Y117.095 E36.83555
G1 X246.557 Y211.492 E43.79474
G1 X246.907 Y211.29 E43.80964
;WIPE_START
M204 S4000
G1 X247.301 Y211.221 F9000
;WIPE_END
G92 E0
G1 E-1 F3000
; acceleration to travel
M204 S3000
G1 X246.643 Y201.813 F9000
; decel to extrusion
M204 S1000
G1 X246.423 Y198.678
; end travel
G1 E0 F1800
;TYPE:Internal perimeter
G1 X246.557 Y198.755 E0.0057
G1 X247.821 Y198.025 E0.05952
G1 X247.821 Y189.669 E0.36758
G1 X83.436 Y94.744 E7.36568
G1 X82.172 Y95.474 E7.41949
G1 X82.172 Y103.83 E7.72756
G1 X246.423 Y198.678 E14.71996
M73 P2 R177
G1 X246.49 Y198.188 F9000
G1 F1800
G1 X246.557 Y198.227 E14.72281
G1 X247.364 Y197.761 E14.75717
G1 X247.364 Y189.933 E15.04577
G1 X83.436 Y95.271 E22.02441
G1 X82.629 Y95.737 E22.05877
G1 X82.629 Y103.566 E22.34738
G1 X246.49 Y198.188 E29.32317
G1 X246.557 Y197.699 F9000
;TYPE:External perimeter
G1 F1800
G1 X246.907 Y197.497 E29.33807
G1 X246.907 Y190.197 E29.60722
G1 X83.436 Y95.799 E36.5664
G1 X83.086 Y96.001 E36.5813
G1 X83.086 Y103.302 E36.85045
G1 X246.557 Y197.699 E43.80964
;WIPE_START
M204 S4000
G1 X246.814 Y198.006 F9000
;WIPE_END
G92 E0
G1 E-1 F3000
; acceleration to travel
M204 S3000
G1 X246.521 Y188.043 F9000
; decel to extrusion
M204 S1000
G1 X246.423 Y184.722
; end travel
G1 E0 F1800
;TYPE:Internal perimeter
G1 X246.557 Y184.8 E0.0057
G1 X247.821 Y184.07 E0.05952
G1 X247.821 Y175.551 E0.37356
G1 X83.436 Y80.626 E7.37166
M73 P3 R177
G1 X82.172 Y81.356 E7.42548
G1 X82.172 Y89.874 E7.73952
G1 X246.423 Y184.722 E14.73192
G1 X246.49 Y184.233 F9000
G1 F1800
G1 X246.557 Y184.272 E14.73477
G1 X247.364 Y183.806 E14.76913
G1 X247.364 Y175.815 E15.06372
G1 X83.436 Y81.154 E22.04236
G1 X82.629 Y81.62 E22.07672
G1 X82.629 Y89.611 E22.37131
G1 X246.49 Y184.233 E29.3471
G1 X246.557 Y183.744 F9000
;TYPE:External perimeter
G1 F1800
G1 X246.907 Y183.542 E29.362
G1 X246.907 Y176.079 E29.63713
G1 X83.436 Y81.682 E36.59631
M73 P3 R176
G1 X83.086 Y81.884 E36.61121
G1 X83.086 Y89.347 E36.88634
G1 X246.557 Y183.744 E43.84553
;WIPE_START
M204 S4000
G1 X246.814 Y184.05 F9000
;WIPE_END
G92 E0
G1 E-1 F3000
; acceleration to travel
M204 S3000
G1 X128.395 Y105.672 F9000
; decel to extrusion
M204 S1000
G1 X88.922 Y79.546
; end travel
G1 E0 F1800
;TYPE:Internal perimeter
G1 X88.897 Y79.64 E0.0036
G1 X246.557 Y170.682 E6.71539
G1 X247.821 Y169.952 E6.76921
G1 X247.821 Y161.434 E7.08325
G1 X102.806 Y77.694 E13.25673
G1 X89.419 Y77.694 E13.75028
G1 X88.922 Y79.546 E13.82097
G1 X89.442 Y79.373 F9000
G1 F1800
G1 X89.429 Y79.42 E13.82277
G1 X246.557 Y170.154 E20.51191
G1 X247.364 Y169.688 E20.54626
G1 X247.364 Y161.697 E20.84085
G1 X102.684 Y78.151 E27.00009
G1 X89.769 Y78.151 E27.47619
G1 X89.442 Y79.373 E27.52282
G1 X89.962 Y79.199 F9000
;TYPE:External perimeter
G1 F1800
G1 X246.557 Y169.626 E34.1893
G1 X246.907 Y169.424 E34.2042
G1 X246.907 Y161.961 E34.47933
G1 X102.561 Y78.608 E40.62432
G1 X90.12 Y78.608 E41.08298
G1 X89.962 Y79.199 E41.10555
;WIPE_START
M204 S4000
G1 X89.792 Y79.562 F9000
;WIPE_END
G92 E0
G1 E-1 F3000
; acceleration to travel
M204 S3000
G1 X107.671 Y78.822 F9000
; decel to extrusion
M204 S1000
G1 X113.631 Y78.575
; end travel
G1 E0 F1800
;TYPE:Internal perimeter
G1 X113.345 Y79.64 E0.04066
G1 X246.557 Y156.564 E5.71166
G1 X247.821 Y155.834 E5.76548
G1 X247.821 Y147.316 E6.07953
G1 X127.254 Y77.694 E11.21222
M73 P3 R175
G1 X113.867 Y77.694 E11.70577
G1 X113.631 Y78.575 E11.7394
G1 X114.099 Y78.592 F9000
G1 F1800
G1 X113.877 Y79.42 E11.77102
G1 X246.557 Y156.036 E17.41937
G1 X247.364 Y155.571 E17.45373
G1 X247.364 Y147.58 E17.74831
G1 X127.132 Y78.151 E22.86677
G1 X114.217 Y78.151 E23.34287
G1 X114.099 Y78.592 E23.35969
G1 X114.568 Y78.608 F9000
;TYPE:External perimeter
G1 F1800
G1 X114.41 Y79.199 E23.38226
G1 X246.557 Y155.509 E29.00795
G1 X246.907 Y155.307 E29.02285
G1 X246.907 Y147.844 E29.29798
G1 X127.009 Y78.608 E34.40219
G1 X114.568 Y78.608 E34.86085
;WIPE_START
M204 S4000
G1 X114.174 Y78.539 F9000
;WIPE_END
G92 E0
G1 E-1 F3000
; acceleration to travel
M204 S3000
G1 X132.102 Y78.566 F9000
; decel to extrusion
M204 S1000
G1 X138.079 Y78.575
; end travel
G1 E0 F1800
;TYPE:Internal perimeter
G1 X137.793 Y79.64 E0.04066
G1 X246.557 Y142.447 E4.67088
M73 P4 R175
G1 X247.821 Y141.717 E4.7247
G1 X247.821 Y133.198 E5.03874
G1 X151.702 Y77.694 E9.13065
G1 X138.315 Y77.694 E9.6242
G1 X138.079 Y78.575 E9.65783
G1 X138.547 Y78.592 F9000
G1 F1800
G1 X138.325 Y79.42 E9.68945
G1 X246.557 Y141.919 E14.29701
G1 X247.364 Y141.453 E14.33137
G1 X247.364 Y133.462 E14.62596
G1 X151.58 Y78.151 E18.70363
G1 X138.665 Y78.151 E19.17973
G1 X138.547 Y78.592 E19.19655
G1 X139.016 Y78.608 F9000
;TYPE:External perimeter
G1 F1800
G1 X138.858 Y79.199 E19.21912
G1 X246.557 Y141.391 E23.80402
G1 X246.907 Y141.189 E23.81892
G1 X246.907 Y133.726 E24.09405
G1 X151.457 Y78.608 E28.15748
G1 X139.016 Y78.608 E28.61614
;WIPE_START
M204 S4000
G1 X138.622 Y78.539 F9000
;WIPE_END
G92 E0
G1 E-1 F3000
; acceleration to travel
M204 S3000
G1 X156.551 Y78.566 F9000
; decel to extrusion
M204 S1000
G1 X162.527 Y78.575
; end travel
G1 E0 F1800
;TYPE:Internal perimeter
G1 X162.241 Y79.64 E0.04066
G1 X246.557 Y128.329 E3.63009
G1 X247.821 Y127.599 E3.68391
G1 X247.821 Y119.081 E3.99796
G1 X176.15 Y77.694 E7.04908
G1 X162.763 Y77.694 E7.54263
G1 X162.527 Y78.575 E7.57626
G1 X162.995 Y78.592 F9000
G1 F1800
G1 X162.773 Y79.42 E7.60788
G1 X246.557 Y127.801 E11.17466
M73 P4 R174
G1 X247.364 Y127.335 E11.20902
G1 X247.364 Y119.344 E11.5036
G1 X176.028 Y78.151 E14.54049
G1 X163.114 Y78.151 E15.01659
G1 X162.995 Y78.592 E15.03341
G1 X163.464 Y78.608 F9000
;TYPE:External perimeter
G1 F1800
G1 X163.306 Y79.199 E15.05598
G1 X246.557 Y127.273 E18.6001
G1 X246.907 Y127.071 E18.615
G1 X246.907 Y119.608 E18.89013
G1 X175.905 Y78.608 E21.91277
G1 X163.464 Y78.608 E22.37142
;WIPE_START
M204 S4000
G1 X163.07 Y78.539 F9000
;WIPE_END
G92 E0
G1 E-1 F3000
; acceleration to travel
M204 S3000
G1 X180.999 Y78.566 F9000
; decel to extrusion
M204 S1000
G1 X186.975 Y78.575
; end travel
G1 E0 F1800
;TYPE:Internal perimeter
G1 X186.689 Y79.64 E0.04066
G1 X246.557 Y114.211 E2.58931
G1 X247.821 Y113.481 E2.64313
G1 X247.821 Y104.963 E2.95717
G1 X200.598 Y77.694 E4.96751
G1 X187.211 Y77.694 E5.46106
G1 X186.975 Y78.575 E5.49469
G1 X187.443 Y78.592 F9000
G1 F1800
G1 X187.222 Y79.42 E5.52631
G1 X246.557 Y113.684 E8.0523
G1 X247.364 Y113.218 E8.08666
G1 X247.364 Y105.227 E8.38125
G1 X200.476 Y78.151 E10.37735
G1 X187.562 Y78.151 E10.85345
G1 X187.443 Y78.592 E10.87027
G1 X187.912 Y78.608 F9000
;TYPE:External perimeter
G1 F1800
G1 X187.754 Y79.199 E10.89284
G1 X246.557 Y113.156 E13.39617
G1 X246.907 Y112.954 E13.41107
G1 X246.907 Y105.491 E13.6862
G1 X200.353 Y78.608 E15.66806
G1 X187.912 Y78.608 E16.12671
;WIPE_START
M204 S4000
G1 X187.518 Y78.539 F9000
;WIPE_END
G92 E0
G1 E-1 F3000
; acceleration to travel
M204 S3000
G1 X205.447 Y78.566 F9000
; decel to extrusion
M204 S1000
G1 X211.423 Y78.575
; end travel
G1 E0 F1800
;TYPE:Internal perimeter
G1 X211.137 Y79.64 E0.04066
G1 X246.557 Y100.094 E1.54852
G1 X247.821 Y99.364 E1.60234
G1 X247.821 Y90.845 E1.91639
G1 X225.046 Y77.694 E2.88594
G1 X211.659 Y77.694 E3.37949
G1 X211.423 Y78.575 E3.41312
G1 X211.892 Y78.592 F9000
G1 F1800
G1 X211.67 Y79.42 E3.44474
G1 X246.557 Y99.566 E4.92995
G1 X247.364 Y99.1 E4.96431
G1 X247.364 Y91.109 E5.25889
G1 X224.924 Y78.151 E6.21421
G1 X212.01 Y78.151 E6.69031
G1 X211.892 Y78.592 E6.70713
G1 X212.36 Y78.608 F9000
;TYPE:External perimeter
G1 F1800
G1 X212.202 Y79.199 E6.7297
G1 X246.557 Y99.038 E8.19225
G1 X246.907 Y98.836 E8.20715
G1 X246.907 Y91.373 E8.48228
G1 X224.801 Y78.608 E9.42335
G1 X212.36 Y78.608 E9.882
;WIPE_START
M204 S4000
G1 X211.966 Y78.539 F9000
;WIPE_END
G92 E0
G1 E-1 F3000
; acceleration to travel
M204 S3000
G1 X229.895 Y78.566 F9000
; decel to extrusion
M204 S1000
G1 X235.871 Y78.575
; end travel
G1 E0 F1800
;TYPE:Internal perimeter
G1 X235.585 Y79.64 E0.04066
G1 X246.557 Y85.976 E0.50774
G1 X247.821 Y85.246 E0.56156
G1 X247.821 Y77.694 E0.83998
G1 X236.107 Y77.694 E1.27185
G1 X235.871 Y78.575 E1.30548
G1 X236.34 Y78.592 F9000
G1 F1800
G1 X236.118 Y79.42 E1.33709
G1 X246.557 Y85.448 E1.78152
G1 X247.364 Y84.982 E1.81588
G1 X247.364 Y78.151 E2.06772
G1 X236.458 Y78.151 E2.46981
G1 X236.34 Y78.592 E2.48662
G1 X236.808 Y78.608 F9000
;TYPE:External perimeter
G1 F1800
G1 X236.65 Y79.199 E2.5092
G1 X246.557 Y84.92 E2.93096
G1 X246.907 Y84.718 E2.94586
G1 X246.907 Y78.608 E3.17113
G1 X236.808 Y78.608 E3.54343
;WIPE_START
M204 S4000
G1 X236.414 Y78.539 F9000
;WIPE_END
G92 E0
G1 E-1 F3000
