; HEADER_BLOCK_START
; generated by OrcaSlicer 1.6.4-beta3 on 2023-08-20 at 15:23:15
; total layer number: 50
; HEADER_BLOCK_END

; THUMBNAIL_BLOCK_START
; THUMBNAIL_BLOCK_END

; external perimeters extrusion width = 0.40mm
; perimeters extrusion width = 0.46mm
; infill extrusion width = 0.64mm
; solid infill extrusion width = 0.56mm
; top infill extrusion width = 0.40mm
; first layer extrusion width = 0.50mm

; external perimeters extrusion width = 0.40mm
; perimeters extrusion width = 0.46mm
; infill extrusion width = 0.64mm
; solid infill extrusion width = 0.56mm
; top infill extrusion width = 0.40mm
; first layer extrusion width = 0.50mm

; EXECUTABLE_BLOCK_START
EXCLUDE_OBJECT_DEFINE NAME=200_mm_Bag_Clip_fixed(1).stl_id_0_copy_0 CENTER=165,181.648 POLYGON=[[58,158.757],[267,158.757],[267.49,158.781],[267.975,158.853],[268.451,158.972],[268.913,159.138],[269.357,159.347],[269.778,159.6],[270.172,159.892],[270.536,160.221],[270.865,160.585],[271.157,160.979],[271.197,161.045],[271.41,161.4],[271.619,161.844],[271.78,162.292],[271.785,162.306],[271.904,162.782],[271.976,163.267],[272,163.757],[271.976,164.247],[271.904,164.732],[271.785,165.208],[271.619,165.67],[271.41,166.114],[271.157,166.535],[270.865,166.929],[270.536,167.293],[270.172,167.622],[269.778,167.914],[269.357,168.167],[268.913,168.376],[268.451,168.542],[267.975,168.661],[267.868,168.681],[261.959,169.723],[64.505,204.539],[58,172.757],[58,158.757]]
EXCLUDE_OBJECT_DEFINE NAME=BagClip-150(1).stl_id_1_copy_0 CENTER=165,139.508 POLYGON=[[81.25,133.322],[81.2528,133.113],[81.2658,132.82],[81.282,132.608],[81.3131,132.32],[81.3431,132.105],[81.3917,131.823],[81.4359,131.608],[81.5014,131.333],[81.5599,131.117],[81.6416,130.85],[81.7147,130.635],[81.8118,130.377],[81.8997,130.164],[82.0114,129.916],[82.1141,129.706],[82.2396,129.468],[82.357,129.262],[82.4954,129.036],[82.6275,128.834],[82.7779,128.62],[82.9245,128.424],[83.0859,128.223],[83.2468,128.034],[83.4183,127.846],[83.5932,127.665],[83.7736,127.49],[83.9621,127.319],[84.1506,127.158],[84.3523,126.997],[84.5477,126.85],[84.762,126.7],[84.9634,126.568],[85.1897,126.429],[85.396,126.312],[85.6337,126.186],[85.8438,126.084],[86.0921,125.972],[86.305,125.884],[86.5631,125.787],[86.7779,125.714],[87.0449,125.632],[87.2605,125.574],[87.751,125.464],[88.2474,125.385],[88.7477,125.338],[89.25,125.322],[247.75,125.322],[247.855,125.328],[247.958,125.344],[248.059,125.371],[248.157,125.409],[248.25,125.456],[248.338,125.513],[248.419,125.579],[248.493,125.653],[248.559,125.734],[248.616,125.822],[248.664,125.915],[248.701,126.013],[248.728,126.114],[248.745,126.218],[248.75,126.322],[248.75,144.022],[248.745,144.127],[248.728,144.23],[248.701,144.331],[246.135,153.694],[88.6224,141.298],[88.2474,141.259],[87.751,141.181],[87.2605,141.071],[86.7779,140.931],[86.6455,140.886],[86.305,140.76],[86.1724,140.707],[85.8438,140.561],[85.7117,140.497],[85.396,140.333],[85.2652,140.259],[84.9634,140.077],[84.8345,139.993],[84.5477,139.794],[84.4216,139.701],[84.1506,139.486],[84.0279,139.383],[83.7736,139.154],[83.6552,139.04],[83.4183,138.799],[83.3049,138.675],[83.0859,138.422],[82.9783,138.289],[82.7779,138.025],[82.6768,137.882],[82.4954,137.609],[82.4017,137.457],[82.2396,137.176],[82.1539,137.016],[82.0114,136.728],[81.9346,136.56],[81.8118,136.267],[81.7445,136.091],[81.6416,135.794],[81.5844,135.611],[81.5014,135.312],[81.4551,135.122],[81.3917,134.821],[81.3569,134.625],[81.3131,134.325],[81.2903,134.124],[81.2658,133.825],[81.2555,133.619],[81.25,133.322]]
M73 P0 R77
;TYPE:Custom
START_PRINT T_BED=60 T_EXTRUDER=220
G90
G21
M83 ; use relative distances for extrusion
; filament start gcode

    PRESSURE_ADVANCE_SELECT FILAMENT=PLA
M106 S0
;LAYER_CHANGE
;Z:0.2
;HEIGHT:0.2
;BEFORE_LAYER_CHANGE
;0.2
G92 E0

SET_VELOCITY_LIMIT ACCEL=1000 ACCEL_TO_DECEL=500
G1 E-.8 F3000
G1 X83.48 Y124.059 F12000
G1 Z.2
G1 E.8 F1800
;TYPE:Skirt
;WIDTH:0.5
G1 F3000
G1 X84.686 Y123.409 E.05104
G1 X85.791 Y122.972 E.04424
G1 X87.115 Y122.62 E.05104
G1 X87.973 Y122.484 E.03235
G1 X89.25 Y122.408 E.04764
G1 X247.902 Y122.412 E5.90918
G1 X248.814 Y122.556 E.03439
G1 X249.576 Y122.861 E.03057
G1 X250.258 Y123.318 E.03057
G1 X251.003 Y124.148 E.04154
G1 X273.611 Y159.406 E1.56002
G1 X274.254 Y160.598 E.05043
G1 X274.731 Y162.073 E.05777
G1 X274.911 Y163.614 E.05777
G1 X274.787 Y165.16 E.05777
G1 X274.363 Y166.652 E.05777
G1 X273.657 Y168.033 E.05777
G1 X272.695 Y169.25 E.05777
G1 X271.514 Y170.255 E.05777
G1 X270.159 Y171.011 E.05777
G1 X268.482 Y171.531 E.06541
G1 X65.011 Y207.409 E7.69544
G1 X63.503 Y207.276 E.05638
G1 X62.266 Y206.404 E.05638
G1 X61.65 Y205.124 E.05292
G1 X55.145 Y173.341 E1.20831
G1 X55.086 Y172.757 E.02188
G1 X55.086 Y158.757 E.52145
G1 X55.748 Y156.907 E.07319
G1 X80.834 Y126.373 E1.47188
G1 X81.708 Y125.434 E.04777
G1 X82.762 Y124.547 E.05129
G1 X83.447 Y124.082 E.03086
G1 X83.703 Y124.459 F12000
G1 F3000
G1 X83.713 Y124.453 E.00042
G1 X84.868 Y123.829 E.04891
G1 X85.946 Y123.402 E.04317
G1 X87.215 Y123.066 E.04891
G1 X89.25 Y122.865 E.07617
G1 X247.878 Y122.868 E5.90829
G1 X248.695 Y122.998 E.03082
G1 X249.368 Y123.268 E.027
G1 X249.969 Y123.673 E.02699
G1 X250.62 Y124.396 E.03624
G1 X273.226 Y159.653 E1.55992
G1 X273.841 Y160.793 E.04825
G1 X274.287 Y162.184 E.05443
G1 X274.454 Y163.636 E.05443
G1 X274.334 Y165.093 E.05443
G1 X273.933 Y166.498 E.05443
G1 X273.265 Y167.798 E.05443
G1 X272.356 Y168.943 E.05444
G1 X271.242 Y169.888 E.05443
G1 X269.964 Y170.598 E.05443
G1 X268.403 Y171.081 E.06088
G1 X64.932 Y206.959 E7.69544
G1 X63.553 Y206.804 E.05169
G1 X62.477 Y205.927 E.05169
G1 X62.098 Y205.032 E.03621
G1 X55.593 Y173.25 E1.20831
G1 X55.543 Y158.757 E.5398
M73 P0 R76
G1 X56.101 Y157.197 E.06171
G1 X81.187 Y126.663 E1.47188
G1 X82.032 Y125.757 E.04615
G1 X83.042 Y124.909 E.04911
G1 X83.67 Y124.482 E.0283
; printing object 200_mm_Bag_Clip_fixed(1).stl id:0 copy 0
G1 E-.8
EXCLUDE_OBJECT_START NAME=200_mm_Bag_Clip_fixed(1).stl_id_0_copy_0
G1 X260.807 Y165.204 F12000
G1 E.8 F1800
;TYPE:Outer wall
G1 F3000
G1 X260.83 Y165.332 E.00484
G1 X261.554 Y169.439 E.15532
G1 X64.789 Y204.134 E7.44181
G1 X64.042 Y199.899 E.16016
G1 X260.768 Y165.211 E7.44031
G1 X260.436 Y165.734 F12000
;TYPE:Inner wall
G1 F3000
G1 X261.024 Y169.068 E.12611
G1 X65.16 Y203.604 E7.40776
G1 X64.572 Y200.27 E.12611
G1 X260.397 Y165.741 E7.40626
G1 X260.066 Y166.263 F12000
G1 F3000
G1 X260.495 Y168.698 E.09206
G1 X65.531 Y203.075 E7.37371
G1 X65.101 Y200.641 E.09206
G1 X260.026 Y166.27 E7.37221
M73 P1 R76
G1 X259.695 Y166.793 F12000
G1 F3000
G1 X259.965 Y168.327 E.05801
G1 X65.901 Y202.545 E7.33966
G1 X65.631 Y201.012 E.05801
G1 X259.656 Y166.8 E7.33816
G1 X258.797 Y167.09 F12000
;TYPE:Internal solid infill
;WIDTH:0.500534
G1 F3000
G1 X259.528 Y167.822 E.03858
G1 X259.568 Y168.049 E.00858
G1 X259.177 Y168.118 E.01482
G1 X258.424 Y167.365 E.03969
G1 X257.874 Y167.462 E.02083
G1 X258.627 Y168.215 E.03969
G1 X258.076 Y168.312 E.02083
G1 X257.324 Y167.559 E.03969
G1 X256.774 Y167.656 E.02083
G1 X257.526 Y168.409 E.03969
G1 X256.976 Y168.506 E.02083
G1 X256.223 Y167.753 E.03969
G1 X255.673 Y167.85 E.02083
G1 X256.426 Y168.603 E.03969
G1 X255.876 Y168.7 E.02083
G1 X255.123 Y167.947 E.03969
G1 X254.573 Y168.044 E.02083
G1 X255.326 Y168.797 E.03969
G1 X254.776 Y168.894 E.02083
G1 X254.023 Y168.141 E.03969
G1 X253.473 Y168.238 E.02083
G1 X254.225 Y168.991 E.03969
G1 X253.675 Y169.088 E.02083
G1 X252.923 Y168.335 E.03969
G1 X252.372 Y168.432 E.02083
G1 X253.125 Y169.185 E.03969
G1 X252.575 Y169.282 E.02083
G1 X251.822 Y168.529 E.03969
G1 X251.272 Y168.626 E.02083
G1 X252.025 Y169.379 E.03969
G1 X251.475 Y169.476 E.02083
G1 X250.722 Y168.723 E.03969
G1 X250.172 Y168.82 E.02083
G1 X250.924 Y169.573 E.03969
G1 X250.374 Y169.67 E.02083
G1 X249.622 Y168.917 E.03969
G1 X249.071 Y169.014 E.02083
G1 X249.824 Y169.767 E.03969
G1 X249.274 Y169.864 E.02083
G1 X248.521 Y169.111 E.03969
G1 X247.971 Y169.208 E.02083
G1 X248.724 Y169.961 E.03969
G1 X248.174 Y170.058 E.02083
G1 X247.421 Y169.305 E.03969
G1 X246.871 Y169.402 E.02083
G1 X247.623 Y170.155 E.03969
G1 X247.073 Y170.252 E.02083
G1 X246.321 Y169.499 E.03969
G1 X245.771 Y169.596 E.02083
G1 X246.523 Y170.349 E.03969
G1 X245.973 Y170.446 E.02083
G1 X245.22 Y169.693 E.03969
G1 X244.67 Y169.79 E.02083
G1 X245.423 Y170.543 E.03969
G1 X244.873 Y170.64 E.02083
G1 X244.12 Y169.887 E.03969
G1 X243.57 Y169.984 E.02083
G1 X244.323 Y170.737 E.03969
G1 X243.772 Y170.834 E.02083
G1 X243.02 Y170.081 E.03969
G1 X242.47 Y170.178 E.02083
G1 X243.222 Y170.931 E.03969
G1 X242.672 Y171.028 E.02083
G1 X241.919 Y170.275 E.03969
G1 X241.369 Y170.372 E.02083
G1 X242.122 Y171.125 E.03969
G1 X241.572 Y171.222 E.02083
G1 X240.819 Y170.469 E.03969
G1 X240.269 Y170.566 E.02083
G1 X241.022 Y171.319 E.03969
G1 X240.471 Y171.416 E.02083
G1 X239.719 Y170.663 E.03969
G1 X239.169 Y170.76 E.02083
G1 X239.921 Y171.513 E.03969
G1 X239.371 Y171.61 E.02083
G1 X238.618 Y170.857 E.03969
G1 X238.068 Y170.954 E.02083
G1 X238.821 Y171.707 E.03969
G1 X238.271 Y171.804 E.02083
G1 X237.518 Y171.051 E.03969
G1 X236.968 Y171.148 E.02083
G1 X237.721 Y171.901 E.03969
G1 X237.171 Y171.998 E.02083
G1 X236.418 Y171.245 E.03969
G1 X235.868 Y171.342 E.02083
G1 X236.62 Y172.095 E.03969
G1 X236.07 Y172.192 E.02083
G1 X235.318 Y171.439 E.03969
G1 X234.767 Y171.536 E.02083
G1 X235.52 Y172.289 E.03969
G1 X234.97 Y172.386 E.02083
G1 X234.217 Y171.633 E.03969
G1 X233.667 Y171.73 E.02083
G1 X234.42 Y172.483 E.03969
G1 X233.87 Y172.58 E.02083
G1 X233.117 Y171.827 E.03969
G1 X232.567 Y171.924 E.02083
G1 X233.319 Y172.677 E.03969
G1 X232.769 Y172.774 E.02083
G1 X232.017 Y172.021 E.03969
G1 X231.466 Y172.118 E.02083
G1 X232.219 Y172.871 E.03969
G1 X231.669 Y172.968 E.02083
G1 X230.916 Y172.215 E.03969
G1 X230.366 Y172.312 E.02083
G1 X231.119 Y173.065 E.03969
G1 X230.569 Y173.162 E.02083
G1 X229.816 Y172.409 E.03969
G1 X229.266 Y172.506 E.02083
G1 X230.018 Y173.259 E.03969
G1 X229.468 Y173.356 E.02083
G1 X228.716 Y172.603 E.03969
G1 X228.165 Y172.7 E.02083
G1 X228.918 Y173.453 E.03969
G1 X228.368 Y173.55 E.02083
G1 X227.615 Y172.797 E.03969
G1 X227.065 Y172.894 E.02083
G1 X227.818 Y173.647 E.03969
G1 X227.268 Y173.744 E.02083
G1 X226.515 Y172.991 E.03969
G1 X225.965 Y173.088 E.02083
G1 X226.718 Y173.841 E.03969
G1 X226.167 Y173.938 E.02083
G1 X225.415 Y173.185 E.03969
G1 X224.865 Y173.282 E.02083
G1 X225.617 Y174.035 E.03969
G1 X225.067 Y174.132 E.02083
G1 X224.314 Y173.379 E.03969
G1 X223.764 Y173.476 E.02083
G1 X224.517 Y174.229 E.03969
G1 X223.967 Y174.326 E.02083
G1 X223.214 Y173.573 E.03969
G1 X222.664 Y173.671 E.02083
G1 X223.417 Y174.423 E.03969
G1 X222.866 Y174.52 E.02083
G1 X222.114 Y173.768 E.03969
G1 X221.564 Y173.865 E.02083
G1 X222.316 Y174.617 E.03969
G1 X221.766 Y174.714 E.02083
G1 X221.013 Y173.962 E.03969
G1 X220.463 Y174.059 E.02083
G1 X221.216 Y174.811 E.03969
G1 X220.666 Y174.908 E.02083
G1 X219.913 Y174.156 E.03969
G1 X219.363 Y174.253 E.02083
G1 X220.116 Y175.005 E.03969
G1 X219.566 Y175.102 E.02083
G1 X218.813 Y174.35 E.03969
G1 X218.263 Y174.447 E.02083
G1 X219.015 Y175.199 E.03969
G1 X218.465 Y175.296 E.02083
G1 X217.713 Y174.544 E.03969
G1 X217.162 Y174.641 E.02083
G1 X217.915 Y175.393 E.03969
G1 X217.365 Y175.49 E.02083
G1 X216.612 Y174.738 E.03969
G1 X216.062 Y174.835 E.02083
G1 X216.815 Y175.587 E.03969
G1 X216.265 Y175.684 E.02083
G1 X215.512 Y174.932 E.03969
G1 X214.962 Y175.029 E.02083
G1 X215.714 Y175.781 E.03969
G1 X215.164 Y175.878 E.02083
G1 X214.412 Y175.126 E.03969
G1 X213.861 Y175.223 E.02083
G1 X214.614 Y175.975 E.03969
G1 X214.064 Y176.072 E.02083
G1 X213.311 Y175.32 E.03969
G1 X212.761 Y175.417 E.02083
G1 X213.514 Y176.169 E.03969
G1 X212.964 Y176.266 E.02083
G1 X212.211 Y175.514 E.03969
G1 X211.661 Y175.611 E.02083
G1 X212.413 Y176.363 E.03969
G1 X211.863 Y176.46 E.02083
G1 X211.111 Y175.708 E.03969
G1 X210.56 Y175.805 E.02083
G1 X211.313 Y176.557 E.03969
G1 X210.763 Y176.654 E.02083
G1 X210.01 Y175.902 E.03969
G1 X209.46 Y175.999 E.02083
G1 X210.213 Y176.751 E.03969
G1 X209.663 Y176.848 E.02083
G1 X208.91 Y176.096 E.03969
G1 X208.36 Y176.193 E.02083
G1 X209.113 Y176.945 E.03969
G1 X208.562 Y177.042 E.02083
G1 X207.81 Y176.29 E.03969
G1 X207.26 Y176.387 E.02083
G1 X208.012 Y177.139 E.03969
G1 X207.462 Y177.236 E.02083
G1 X206.709 Y176.484 E.03969
G1 X206.159 Y176.581 E.02083
G1 X206.912 Y177.333 E.03969
G1 X206.362 Y177.43 E.02083
G1 X205.609 Y176.678 E.03969
G1 X205.059 Y176.775 E.02083
G1 X205.812 Y177.527 E.03969
G1 X205.261 Y177.624 E.02083
G1 X204.509 Y176.872 E.03969
G1 X203.959 Y176.969 E.02083
G1 X204.711 Y177.721 E.03969
G1 X204.161 Y177.818 E.02083
G1 X203.408 Y177.066 E.03969
G1 X202.858 Y177.163 E.02083
G1 X203.611 Y177.915 E.03969
G1 X203.061 Y178.012 E.02083
G1 X202.308 Y177.26 E.03969
G1 X201.758 Y177.357 E.02083
G1 X202.511 Y178.109 E.03969
G1 X201.96 Y178.206 E.02083
G1 X201.208 Y177.454 E.03969
G1 X200.658 Y177.551 E.02083
G1 X201.41 Y178.303 E.03969
G1 X200.86 Y178.4 E.02083
G1 X200.107 Y177.648 E.03969
G1 X199.557 Y177.745 E.02083
G1 X200.31 Y178.497 E.03969
G1 X199.76 Y178.595 E.02083
G1 X199.007 Y177.842 E.03969
G1 X198.457 Y177.939 E.02083
G1 X199.21 Y178.692 E.03969
G1 X198.66 Y178.789 E.02083
G1 X197.907 Y178.036 E.03969
G1 X197.357 Y178.133 E.02083
G1 X198.109 Y178.886 E.03969
G1 X197.559 Y178.983 E.02083
G1 X196.807 Y178.23 E.03969
G1 X196.256 Y178.327 E.02083
G1 X197.009 Y179.08 E.03969
G1 X196.459 Y179.177 E.02083
G1 X195.706 Y178.424 E.03969
G1 X195.156 Y178.521 E.02083
G1 X195.909 Y179.274 E.03969
G1 X195.359 Y179.371 E.02083
G1 X194.606 Y178.618 E.03969
G1 X194.056 Y178.715 E.02083
G1 X194.808 Y179.468 E.03969
G1 X194.258 Y179.565 E.02083
G1 X193.506 Y178.812 E.03969
G1 X192.955 Y178.909 E.02083
G1 X193.708 Y179.662 E.03969
G1 X193.158 Y179.759 E.02083
G1 X192.405 Y179.006 E.03969
G1 X191.855 Y179.103 E.02083
G1 X192.608 Y179.856 E.03969
G1 X192.058 Y179.953 E.02083
G1 X191.305 Y179.2 E.03969
G1 X190.755 Y179.297 E.02083
G1 X191.508 Y180.05 E.03969
G1 X190.957 Y180.147 E.02083
G1 X190.205 Y179.394 E.03969
G1 X189.655 Y179.491 E.02083
G1 X190.407 Y180.244 E.03969
G1 X189.857 Y180.341 E.02083
G1 X189.104 Y179.588 E.03969
G1 X188.554 Y179.685 E.02083
G1 X189.307 Y180.438 E.03969
G1 X188.757 Y180.535 E.02083
G1 X188.004 Y179.782 E.03969
G1 X187.454 Y179.879 E.02083
G1 X188.207 Y180.632 E.03969
G1 X187.656 Y180.729 E.02083
G1 X186.904 Y179.976 E.03969
G1 X186.354 Y180.073 E.02083
G1 X187.106 Y180.826 E.03969
G1 X186.556 Y180.923 E.02083
G1 X185.803 Y180.17 E.03969
G1 X185.253 Y180.267 E.02083
G1 X186.006 Y181.02 E.03969
G1 X185.456 Y181.117 E.02083
G1 X184.703 Y180.364 E.03969
G1 X184.153 Y180.461 E.02083
G1 X184.906 Y181.214 E.03969
G1 X184.355 Y181.311 E.02083
G1 X183.603 Y180.558 E.03969
G1 X183.053 Y180.655 E.02083
G1 X183.805 Y181.408 E.03969
G1 X183.255 Y181.505 E.02083
G1 X182.502 Y180.752 E.03969
G1 X181.952 Y180.849 E.02083
G1 X182.705 Y181.602 E.03969
G1 X182.155 Y181.699 E.02083
G1 X181.402 Y180.946 E.03969
G1 X180.852 Y181.043 E.02083
G1 X181.605 Y181.796 E.03969
G1 X181.055 Y181.893 E.02083
G1 X180.302 Y181.14 E.03969
G1 X179.752 Y181.237 E.02083
G1 X180.504 Y181.99 E.03969
G1 X179.954 Y182.087 E.02083
G1 X179.202 Y181.334 E.03969
G1 X178.651 Y181.431 E.02083
G1 X179.404 Y182.184 E.03969
G1 X178.854 Y182.281 E.02083
G1 X178.101 Y181.528 E.03969
G1 X177.551 Y181.625 E.02083
G1 X178.304 Y182.378 E.03969
G1 X177.754 Y182.475 E.02083
G1 X177.001 Y181.722 E.03969
G1 X176.451 Y181.819 E.02083
G1 X177.203 Y182.572 E.03969
G1 X176.653 Y182.669 E.02083
G1 X175.901 Y181.916 E.03969
G1 X175.35 Y182.013 E.02083
G1 X176.103 Y182.766 E.03969
G1 X175.553 Y182.863 E.02083
G1 X174.8 Y182.11 E.03969
G1 X174.25 Y182.207 E.02083
G1 X175.003 Y182.96 E.03969
G1 X174.453 Y183.057 E.02083
G1 X173.7 Y182.304 E.03969
G1 X173.15 Y182.401 E.02083
G1 X173.903 Y183.154 E.03969
G1 X173.352 Y183.251 E.02083
G1 X172.6 Y182.498 E.03969
G1 X172.05 Y182.595 E.02083
G1 X172.802 Y183.348 E.03969
G1 X172.252 Y183.445 E.02083
G1 X171.499 Y182.692 E.03969
G1 X170.949 Y182.789 E.02083
G1 X171.702 Y183.542 E.03969
