; HEADER_BLOCK_START
; generated by OrcaSlicer 1.6.3 on 2023-07-23 at 10:52:27
; total layer number: 50
; HEADER_BLOCK_END

; THUMBNAIL_BLOCK_START
; THUMBNAIL_BLOCK_END

; external perimeters extrusion width = 0.40mm
; perimeters extrusion width = 0.46mm
; infill extrusion width = 0.64mm
; solid infill extrusion width = 0.56mm
; top infill extrusion width = 0.40mm
; first layer extrusion width = 0.50mm

; EXECUTABLE_BLOCK_START
EXCLUDE_OBJECT_DEFINE NAME=200_mm_Bag_Clip_fixed.stl_id_0_copy_0 CENTER=165,164.931 POLYGON=[[58,142.04],[267,142.04],[267.49,142.064],[267.975,142.136],[268.451,142.255],[268.913,142.42],[269.357,142.63],[269.778,142.882],[270.172,143.175],[270.536,143.504],[270.865,143.868],[271.157,144.262],[271.197,144.327],[271.41,144.683],[271.619,145.126],[271.78,145.574],[271.785,145.588],[271.904,146.064],[271.976,146.55],[272,147.04],[271.976,147.53],[271.904,148.015],[271.785,148.491],[271.619,148.953],[271.41,149.397],[271.157,149.817],[270.865,150.212],[270.536,150.575],[270.172,150.905],[269.778,151.197],[269.357,151.449],[268.913,151.659],[268.451,151.824],[267.975,151.944],[267.868,151.964],[261.959,153.006],[64.505,187.822],[58,156.04],[58,142.04]]
M73 P0 R33
;TYPE:Custom
START_PRINT T_BED=60 T_EXTRUDER=220
G90
G21
M83 ; use relative distances for extrusion
; filament start gcode
M106 S0
;LAYER_CHANGE
;Z:0.2
;HEIGHT:0.2
;BEFORE_LAYER_CHANGE
;0.2
G92 E0

G1 E-.5 F1800
SET_VELOCITY_LIMIT ACCEL_TO_DECEL=500
M204 S1000
G1 X56.552 Y139.51 F12000
G1 Z.2
G1 E.5 F4800
;TYPE:Skirt
;WIDTH:0.5
G1 F1800
G1 X58 Y139.125 E.0558
G1 X267.033 Y139.127 E7.78567
G1 X268.403 Y139.253 E.05125
G1 X269.895 Y139.676 E.05777
G1 X271.276 Y140.383 E.05777
G1 X272.129 Y141.015 E.03956
G1 X273.206 Y142.132 E.05777
G1 X274.044 Y143.437 E.05777
G1 X274.612 Y144.88 E.05777
G1 X274.859 Y146.122 E.04716
G1 X274.911 Y147.183 E.03955
G1 X274.731 Y148.723 E.05777
G1 X274.254 Y150.199 E.05777
G1 X273.498 Y151.553 E.05777
G1 X272.493 Y152.734 E.05777
G1 X271.514 Y153.538 E.04716
G1 X270.159 Y154.293 E.05777
G1 X269.16 Y154.651 E.03955
G1 X65.011 Y190.692 E7.72134
G1 X63.503 Y190.559 E.05638
G1 X62.266 Y189.687 E.05638
G1 X61.65 Y188.406 E.05292
G1 X55.145 Y156.624 E1.20831
G1 X55.086 Y156.04 E.02188
G1 X55.086 Y142.04 E.52145
G1 X55.479 Y140.578 E.05638
G1 X56.51 Y139.553 E.05415
G1 X56.836 Y139.931 F12000
G1 F1800
G1 X56.985 Y139.802 E.00735
G1 X58 Y139.583 E.03866
G1 X267.033 Y139.584 E7.78567
M73 P1 R33
G1 X268.336 Y139.705 E.04875
G1 X269.741 Y140.107 E.05443
G1 X271.041 Y140.775 E.05443
G1 X271.822 Y141.354 E.03622
G1 X272.839 Y142.404 E.05443
G1 X273.631 Y143.632 E.05443
G1 X274.168 Y144.991 E.05443
G1 X274.406 Y146.189 E.04549
G1 X274.454 Y147.16 E.03622
G1 X274.287 Y148.612 E.05443
G1 X273.841 Y150.004 E.05443
G1 X273.265 Y151.081 E.04549
G1 X272.686 Y151.862 E.03622
G1 X271.636 Y152.878 E.05443
G1 X270.408 Y153.67 E.05443
G1 X269.048 Y154.208 E.05443
G1 X64.932 Y190.242 E7.72013
G1 X63.553 Y190.087 E.05169
G1 X62.477 Y189.21 E.05169
G1 X62.098 Y188.315 E.03621
G1 X55.543 Y156.04 E1.22667
G1 X55.543 Y142.04 E.52145
G1 X55.935 Y140.708 E.05169
G1 X56.791 Y139.97 E.0421
; printing object 200_mm_Bag_Clip_fixed.stl id:0 copy 0
EXCLUDE_OBJECT_START NAME=200_mm_Bag_Clip_fixed.stl_id_0_copy_0
G1 E-.35
;WIPE_START
G1 X56.985 Y139.802 E-.01834
G1 X58 Y139.583 E-.07396
G1 X58.705 Y139.583 E-.0502
;WIPE_END
G1 E-.0075
G1 X260.807 Y148.487 F12000
G1 E.5 F4800
;TYPE:Outer wall
G1 F1800
G1 X260.83 Y148.615 E.00484
G1 X261.554 Y152.722 E.15532
G1 X64.789 Y187.417 E7.44181
M73 P2 R33
G1 X64.042 Y183.182 E.16016
G1 X260.799 Y148.488 E7.4415
G1 X260.799 Y148.511
G1 X260.436 Y149.016 F12000
;TYPE:Inner wall
G1 F1800
G1 X261.024 Y152.351 E.12611
G1 X65.16 Y186.887 E7.40776
M73 P2 R32
G1 X64.572 Y183.553 E.12611
G1 X260.429 Y149.018 E7.40745
M73 P3 R32
G1 X260.066 Y149.546 F12000
G1 F1800
G1 X260.495 Y151.98 E.09206
G1 X65.531 Y186.358 E7.37371
G1 X65.101 Y183.923 E.09206
G1 X260.058 Y149.547 E7.3734
G1 X259.695 Y150.075 F12000
G1 F1800
G1 X259.965 Y151.609 E.05801
G1 X65.901 Y185.828 E7.33966
M73 P4 R32
G1 X65.631 Y184.294 E.05801
G1 X259.687 Y150.077 E7.33936
G1 X258.797 Y150.373 F12000
;TYPE:Bottom surface
;WIDTH:0.500534
G1 F3000
G1 X259.528 Y151.105 E.03858
G1 X259.568 Y151.331 E.00858
G1 X259.177 Y151.4 E.01482
G1 X258.424 Y150.648 E.03969
G1 X257.874 Y150.745 E.02083
G1 X258.627 Y151.497 E.03969
G1 X258.076 Y151.594 E.02083
G1 X257.324 Y150.842 E.03969
G1 X256.774 Y150.939 E.02083
G1 X257.526 Y151.691 E.03969
G1 X256.976 Y151.788 E.02083
G1 X256.223 Y151.036 E.03969
G1 X255.673 Y151.133 E.02083
G1 X256.426 Y151.885 E.03969
G1 X255.876 Y151.982 E.02083
G1 X255.123 Y151.23 E.03969
G1 X254.573 Y151.327 E.02083
G1 X255.326 Y152.079 E.03969
G1 X254.776 Y152.176 E.02083
G1 X254.023 Y151.424 E.03969
G1 X253.473 Y151.521 E.02083
G1 X254.225 Y152.273 E.03969
G1 X253.675 Y152.37 E.02083
G1 X252.923 Y151.618 E.03969
G1 X252.372 Y151.715 E.02083
G1 X253.125 Y152.467 E.03969
G1 X252.575 Y152.564 E.02083
G1 X251.822 Y151.812 E.03969
G1 X251.272 Y151.909 E.02083
G1 X252.025 Y152.661 E.03969
G1 X251.475 Y152.758 E.02083
G1 X250.722 Y152.006 E.03969
G1 X250.172 Y152.103 E.02083
G1 X250.924 Y152.855 E.03969
G1 X250.374 Y152.952 E.02083
G1 X249.622 Y152.2 E.03969
G1 X249.071 Y152.297 E.02083
G1 X249.824 Y153.049 E.03969
G1 X249.274 Y153.146 E.02083
G1 X248.521 Y152.394 E.03969
G1 X247.971 Y152.491 E.02083
G1 X248.724 Y153.243 E.03969
G1 X248.174 Y153.34 E.02083
G1 X247.421 Y152.588 E.03969
G1 X246.871 Y152.685 E.02083
G1 X247.623 Y153.437 E.03969
G1 X247.073 Y153.534 E.02083
G1 X246.321 Y152.782 E.03969
G1 X245.771 Y152.879 E.02083
G1 X246.523 Y153.631 E.03969
G1 X245.973 Y153.728 E.02083
G1 X245.22 Y152.976 E.03969
G1 X244.67 Y153.073 E.02083
G1 X245.423 Y153.826 E.03969
G1 X244.873 Y153.923 E.02083
G1 X244.12 Y153.17 E.03969
G1 X243.57 Y153.267 E.02083
G1 X244.323 Y154.02 E.03969
G1 X243.772 Y154.117 E.02083
G1 X243.02 Y153.364 E.03969
G1 X242.47 Y153.461 E.02083
G1 X243.222 Y154.214 E.03969
G1 X242.672 Y154.311 E.02083
G1 X241.919 Y153.558 E.03969
G1 X241.369 Y153.655 E.02083
G1 X242.122 Y154.408 E.03969
G1 X241.572 Y154.505 E.02083
G1 X240.819 Y153.752 E.03969
G1 X240.269 Y153.849 E.02083
G1 X241.022 Y154.602 E.03969
G1 X240.471 Y154.699 E.02083
G1 X239.719 Y153.946 E.03969
G1 X239.169 Y154.043 E.02083
G1 X239.921 Y154.796 E.03969
G1 X239.371 Y154.893 E.02083
G1 X238.618 Y154.14 E.03969
G1 X238.068 Y154.237 E.02083
G1 X238.821 Y154.99 E.03969
G1 X238.271 Y155.087 E.02083
G1 X237.518 Y154.334 E.03969
G1 X236.968 Y154.431 E.02083
G1 X237.721 Y155.184 E.03969
G1 X237.171 Y155.281 E.02083
G1 X236.418 Y154.528 E.03969
G1 X235.868 Y154.625 E.02083
G1 X236.62 Y155.378 E.03969
G1 X236.07 Y155.475 E.02083
G1 X235.318 Y154.722 E.03969
G1 X234.767 Y154.819 E.02083
G1 X235.52 Y155.572 E.03969
G1 X234.97 Y155.669 E.02083
G1 X234.217 Y154.916 E.03969
G1 X233.667 Y155.013 E.02083
G1 X234.42 Y155.766 E.03969
G1 X233.87 Y155.863 E.02083
G1 X233.117 Y155.11 E.03969
G1 X232.567 Y155.207 E.02083
G1 X233.319 Y155.96 E.03969
G1 X232.769 Y156.057 E.02083
G1 X232.017 Y155.304 E.03969
G1 X231.466 Y155.401 E.02083
G1 X232.219 Y156.154 E.03969
G1 X231.669 Y156.251 E.02083
G1 X230.916 Y155.498 E.03969
G1 X230.366 Y155.595 E.02083
G1 X231.119 Y156.348 E.03969
G1 X230.569 Y156.445 E.02083
G1 X229.816 Y155.692 E.03969
G1 X229.266 Y155.789 E.02083
G1 X230.018 Y156.542 E.03969
G1 X229.468 Y156.639 E.02083
G1 X228.716 Y155.886 E.03969
G1 X228.165 Y155.983 E.02083
G1 X228.918 Y156.736 E.03969
G1 X228.368 Y156.833 E.02083
G1 X227.615 Y156.08 E.03969
G1 X227.065 Y156.177 E.02083
G1 X227.818 Y156.93 E.03969
G1 X227.268 Y157.027 E.02083
G1 X226.515 Y156.274 E.03969
G1 X225.965 Y156.371 E.02083
G1 X226.718 Y157.124 E.03969
G1 X226.167 Y157.221 E.02083
G1 X225.415 Y156.468 E.03969
G1 X224.865 Y156.565 E.02083
G1 X225.617 Y157.318 E.03969
G1 X225.067 Y157.415 E.02083
G1 X224.314 Y156.662 E.03969
G1 X223.764 Y156.759 E.02083
G1 X224.517 Y157.512 E.03969
G1 X223.967 Y157.609 E.02083
G1 X223.214 Y156.856 E.03969
G1 X222.664 Y156.953 E.02083
G1 X223.417 Y157.706 E.03969
G1 X222.866 Y157.803 E.02083
G1 X222.114 Y157.05 E.03969
G1 X221.564 Y157.147 E.02083
G1 X222.316 Y157.9 E.03969
G1 X221.766 Y157.997 E.02083
G1 X221.013 Y157.244 E.03969
G1 X220.463 Y157.341 E.02083
G1 X221.216 Y158.094 E.03969
G1 X220.666 Y158.191 E.02083
G1 X219.913 Y157.438 E.03969
G1 X219.363 Y157.535 E.02083
G1 X220.116 Y158.288 E.03969
G1 X219.566 Y158.385 E.02083
G1 X218.813 Y157.632 E.03969
G1 X218.263 Y157.729 E.02083
G1 X219.015 Y158.482 E.03969
G1 X218.465 Y158.579 E.02083
G1 X217.713 Y157.826 E.03969
G1 X217.162 Y157.923 E.02083
G1 X217.915 Y158.676 E.03969
G1 X217.365 Y158.773 E.02083
G1 X216.612 Y158.02 E.03969
G1 X216.062 Y158.117 E.02083
G1 X216.815 Y158.87 E.03969
G1 X216.265 Y158.967 E.02083
G1 X215.512 Y158.214 E.03969
G1 X214.962 Y158.311 E.02083
G1 X215.714 Y159.064 E.03969
G1 X215.164 Y159.161 E.02083
G1 X214.412 Y158.408 E.03969
G1 X213.861 Y158.505 E.02083
G1 X214.614 Y159.258 E.03969
G1 X214.064 Y159.355 E.02083
G1 X213.311 Y158.602 E.03969
G1 X212.761 Y158.699 E.02083
G1 X213.514 Y159.452 E.03969
G1 X212.964 Y159.549 E.02083
G1 X212.211 Y158.796 E.03969
G1 X211.661 Y158.893 E.02083
G1 X212.413 Y159.646 E.03969
G1 X211.863 Y159.743 E.02083
G1 X211.111 Y158.99 E.03969
G1 X210.56 Y159.087 E.02083
G1 X211.313 Y159.84 E.03969
G1 X210.763 Y159.937 E.02083
G1 X210.01 Y159.184 E.03969
G1 X209.46 Y159.281 E.02083
G1 X210.213 Y160.034 E.03969
G1 X209.663 Y160.131 E.02083
G1 X208.91 Y159.378 E.03969
G1 X208.36 Y159.475 E.02083
M73 P5 R32
G1 X209.113 Y160.228 E.03969
G1 X208.562 Y160.325 E.02083
G1 X207.81 Y159.572 E.03969
G1 X207.26 Y159.669 E.02083
G1 X208.012 Y160.422 E.03969
G1 X207.462 Y160.519 E.02083
G1 X206.709 Y159.766 E.03969
G1 X206.159 Y159.863 E.02083
G1 X206.912 Y160.616 E.03969
G1 X206.362 Y160.713 E.02083
G1 X205.609 Y159.96 E.03969
G1 X205.059 Y160.057 E.02083
G1 X205.812 Y160.81 E.03969
G1 X205.261 Y160.907 E.02083
G1 X204.509 Y160.154 E.03969
G1 X203.959 Y160.251 E.02083
G1 X204.711 Y161.004 E.03969
G1 X204.161 Y161.101 E.02083
G1 X203.408 Y160.348 E.03969
G1 X202.858 Y160.445 E.02083
G1 X203.611 Y161.198 E.03969
G1 X203.061 Y161.295 E.02083
G1 X202.308 Y160.542 E.03969
G1 X201.758 Y160.639 E.02083
G1 X202.511 Y161.392 E.03969
G1 X201.96 Y161.489 E.02083
G1 X201.208 Y160.736 E.03969
G1 X200.658 Y160.833 E.02083
G1 X201.41 Y161.586 E.03969
G1 X200.86 Y161.683 E.02083
G1 X200.107 Y160.93 E.03969
G1 X199.557 Y161.027 E.02083
G1 X200.31 Y161.78 E.03969
G1 X199.76 Y161.877 E.02083
G1 X199.007 Y161.124 E.03969
G1 X198.457 Y161.221 E.02083
G1 X199.21 Y161.974 E.03969
G1 X198.66 Y162.071 E.02083
G1 X197.907 Y161.318 E.03969
G1 X197.357 Y161.415 E.02083
G1 X198.109 Y162.168 E.03969
G1 X197.559 Y162.265 E.02083
G1 X196.807 Y161.512 E.03969
G1 X196.256 Y161.609 E.02083
G1 X197.009 Y162.362 E.03969
G1 X196.459 Y162.459 E.02083
G1 X195.706 Y161.706 E.03969
G1 X195.156 Y161.803 E.02083
G1 X195.909 Y162.556 E.03969
G1 X195.359 Y162.653 E.02083
G1 X194.606 Y161.9 E.03969
G1 X194.056 Y161.997 E.02083
G1 X194.808 Y162.75 E.03969
G1 X194.258 Y162.847 E.02083
G1 X193.506 Y162.094 E.03969
G1 X192.955 Y162.192 E.02083
G1 X193.708 Y162.944 E.03969
G1 X193.158 Y163.041 E.02083
G1 X192.405 Y162.289 E.03969
G1 X191.855 Y162.386 E.02083
G1 X192.608 Y163.138 E.03969
G1 X192.058 Y163.235 E.02083
G1 X191.305 Y162.483 E.03969
G1 X190.755 Y162.58 E.02083
G1 X191.508 Y163.332 E.03969
G1 X190.957 Y163.429 E.02083
G1 X190.205 Y162.677 E.03969
G1 X189.655 Y162.774 E.02083
G1 X190.407 Y163.526 E.03969
G1 X189.857 Y163.623 E.02083
G1 X189.104 Y162.871 E.03969
G1 X188.554 Y162.968 E.02083
G1 X189.307 Y163.72 E.03969
G1 X188.757 Y163.817 E.02083
G1 X188.004 Y163.065 E.03969
G1 X187.454 Y163.162 E.02083
G1 X188.207 Y163.914 E.03969
G1 X187.656 Y164.011 E.02083
G1 X186.904 Y163.259 E.03969
G1 X186.354 Y163.356 E.02083
G1 X187.106 Y164.108 E.03969
G1 X186.556 Y164.205 E.02083
G1 X185.803 Y163.453 E.03969
G1 X185.253 Y163.55 E.02083
G1 X186.006 Y164.302 E.03969
G1 X185.456 Y164.399 E.02083
G1 X184.703 Y163.647 E.03969
G1 X184.153 Y163.744 E.02083
G1 X184.906 Y164.496 E.03969
G1 X184.355 Y164.593 E.02083
G1 X183.603 Y163.841 E.03969
G1 X183.053 Y163.938 E.02083
G1 X183.805 Y164.69 E.03969
G1 X183.255 Y164.787 E.02083
G1 X182.502 Y164.035 E.03969
G1 X181.952 Y164.132 E.02083
G1 X182.705 Y164.884 E.03969
G1 X182.155 Y164.981 E.02083
G1 X181.402 Y164.229 E.03969
G1 X180.852 Y164.326 E.02083
G1 X181.605 Y165.078 E.03969
G1 X181.055 Y165.175 E.02083
G1 X180.302 Y164.423 E.03969
G1 X179.752 Y164.52 E.02083
G1 X180.504 Y165.272 E.03969
G1 X179.954 Y165.369 E.02083
G1 X179.202 Y164.617 E.03969
G1 X178.651 Y164.714 E.02083
G1 X179.404 Y165.466 E.03969
G1 X178.854 Y165.563 E.02083
G1 X178.101 Y164.811 E.03969
G1 X177.551 Y164.908 E.02083
G1 X178.304 Y165.66 E.03969
G1 X177.754 Y165.757 E.02083
G1 X177.001 Y165.005 E.03969
G1 X176.451 Y165.102 E.02083
G1 X177.203 Y165.854 E.03969
G1 X176.653 Y165.951 E.02083
G1 X175.901 Y165.199 E.03969
G1 X175.35 Y165.296 E.02083
G1 X176.103 Y166.048 E.03969
G1 X175.553 Y166.145 E.02083
G1 X174.8 Y165.393 E.03969
G1 X174.25 Y165.49 E.02083
G1 X175.003 Y166.242 E.03969
G1 X174.453 Y166.339 E.02083
G1 X173.7 Y165.587 E.03969
G1 X173.15 Y165.684 E.02083
G1 X173.903 Y166.436 E.03969
G1 X173.352 Y166.533 E.02083
G1 X172.6 Y165.781 E.03969
G1 X172.05 Y165.878 E.02083
G1 X172.802 Y166.63 E.03969
G1 X172.252 Y166.727 E.02083
G1 X171.499 Y165.975 E.03969
G1 X170.949 Y166.072 E.02083
G1 X171.702 Y166.824 E.03969
G1 X171.152 Y166.921 E.02083
G1 X170.399 Y166.169 E.03969
G1 X169.849 Y166.266 E.02083
G1 X170.602 Y167.018 E.03969
G1 X170.051 Y167.116 E.02083
G1 X169.299 Y166.363 E.03969
G1 X168.749 Y166.46 E.02083
G1 X169.501 Y167.213 E.03969
G1 X168.951 Y167.31 E.02083
G1 X168.198 Y166.557 E.03969
G1 X167.648 Y166.654 E.02083
G1 X168.401 Y167.407 E.03969
G1 X167.851 Y167.504 E.02083
G1 X167.098 Y166.751 E.03969
G1 X166.548 Y166.848 E.02083
G1 X167.301 Y167.601 E.03969
G1 X166.75 Y167.698 E.02083
G1 X165.998 Y166.945 E.03969
G1 X165.448 Y167.042 E.02083
G1 X166.2 Y167.795 E.03969
G1 X165.65 Y167.892 E.02083
G1 X164.897 Y167.139 E.03969
G1 X164.347 Y167.236 E.02083
G1 X165.1 Y167.989 E.03969
G1 X164.55 Y168.086 E.02083
G1 X163.797 Y167.333 E.03969
G1 X163.247 Y167.43 E.02083
G1 X164 Y168.183 E.03969
G1 X163.45 Y168.28 E.02083
G1 X162.697 Y167.527 E.03969
G1 X162.147 Y167.624 E.02083
G1 X162.899 Y168.377 E.03969
G1 X162.349 Y168.474 E.02083
G1 X161.597 Y167.721 E.03969
G1 X161.046 Y167.818 E.02083
G1 X161.799 Y168.571 E.03969
G1 X161.249 Y168.668 E.02083
G1 X160.496 Y167.915 E.03969
G1 X159.946 Y168.012 E.02083
G1 X160.699 Y168.765 E.03969
G1 X160.149 Y168.862 E.02083
G1 X159.396 Y168.109 E.03969
G1 X158.846 Y168.206 E.02083
G1 X159.598 Y168.959 E.03969
G1 X159.048 Y169.056 E.02083
G1 X158.296 Y168.303 E.03969
G1 X157.745 Y168.4 E.02083
G1 X158.498 Y169.153 E.03969
G1 X157.948 Y169.25 E.02083
G1 X157.195 Y168.497 E.03969
G1 X156.645 Y168.594 E.02083
G1 X157.398 Y169.347 E.03969
G1 X156.848 Y169.444 E.02083
G1 X156.095 Y168.691 E.03969
G1 X155.545 Y168.788 E.02083
G1 X156.297 Y169.541 E.03969
G1 X155.747 Y169.638 E.02083
G1 X154.995 Y168.885 E.03969
G1 X154.444 Y168.982 E.02083
G1 X155.197 Y169.735 E.03969
G1 X154.647 Y169.832 E.02083
G1 X153.894 Y169.079 E.03969
G1 X153.344 Y169.176 E.02083
G1 X154.097 Y169.929 E.03969
G1 X153.547 Y170.026 E.02083
G1 X152.794 Y169.273 E.03969
G1 X152.244 Y169.37 E.02083
G1 X152.997 Y170.123 E.03969
G1 X152.446 Y170.22 E.02083
G1 X151.694 Y169.467 E.03969
G1 X151.144 Y169.564 E.02083
G1 X151.896 Y170.317 E.03969
G1 X151.346 Y170.414 E.02083
G1 X150.593 Y169.661 E.03969
G1 X150.043 Y169.758 E.02083
G1 X150.796 Y170.511 E.03969
G1 X150.246 Y170.608 E.02083
G1 X149.493 Y169.855 E.03969
G1 X148.943 Y169.952 E.02083
G1 X149.696 Y170.705 E.03969
G1 X149.145 Y170.802 E.02083
G1 X148.393 Y170.049 E.03969
G1 X147.843 Y170.146 E.02083
G1 X148.595 Y170.899 E.03969
G1 X148.045 Y170.996 E.02083
G1 X147.292 Y170.243 E.03969
G1 X146.742 Y170.34 E.02083
G1 X147.495 Y171.093 E.03969
