; generated by SuperSlicer 2.5.59 on 2023-01-10 at 17:12:52 UTC


;
;

;
;
; 

; external perimeters extrusion width = 0.40mm
; perimeters extrusion width = 0.46mm
; infill extrusion width = 0.64mm
; solid infill extrusion width = 0.56mm
; top infill extrusion width = 0.40mm
; support material extrusion width = 0.46mm
; first layer extrusion width = 0.50mm

; external perimeters extrusion width = 0.40mm
; perimeters extrusion width = 0.46mm
; infill extrusion width = 0.64mm
; solid infill extrusion width = 0.56mm
; top infill extrusion width = 0.40mm
; support material extrusion width = 0.46mm
; first layer extrusion width = 0.50mm

; external perimeters extrusion width = 0.40mm
; perimeters extrusion width = 0.46mm
; infill extrusion width = 0.64mm
; solid infill extrusion width = 0.56mm
; top infill extrusion width = 0.40mm
; support material extrusion width = 0.46mm
; first layer extrusion width = 0.50mm

; object:{"name":"2x2","id":"2x2.stl id:0 copy 0","object_center":[127.900000,138.800000,0.000000],"boundingbox_center":[127.900000,138.800000,7.300000],"boundingbox_size":[68.199997,46.400002,14.600000]}
; object:{"name":"2x2","id":"2x2.stl id:1 copy 0","object_center":[127.900000,191.200000,0.000000],"boundingbox_center":[127.900000,191.200000,7.300000],"boundingbox_size":[68.199997,46.400002,14.600000]}
; object:{"name":"2x2","id":"2x2.stl id:2 copy 0","object_center":[202.100000,165.000000,0.000000],"boundingbox_center":[202.100000,165.000000,7.300000],"boundingbox_size":[68.199997,46.400002,14.600000]}
; plater:{"center":[165.000000,165.000000,0.000000],"boundingbox_center":[165.000000,165.000000,7.300000],"boundingbox_size":[142.399997,98.800002,14.600000]}

M73 P0 R101


; Pre-Processed for Cancel-Object support by preprocess_cancellation v0.2.0
; 3 known objects
EXCLUDE_OBJECT_DEFINE NAME=2x2_stl_id_0_copy_0 CENTER=128.684,139.215 POLYGON=[[94.0,115.8],[94.0,161.8],[161.798,161.8],[161.798,115.8]]
EXCLUDE_OBJECT_DEFINE NAME=2x2_stl_id_1_copy_0 CENTER=128.640,191.184 POLYGON=[[94.0,168.2],[94.0,214.2],[161.798,214.2],[161.798,168.2]]
EXCLUDE_OBJECT_DEFINE NAME=2x2_stl_id_2_copy_0 CENTER=202.068,165.268 POLYGON=[[168.2,142.0],[168.2,188.0],[235.998,188.0],[235.998,142.0]]
;TYPE:Custom
; custom gcode: start_gcode
START_PRINT T_BED=60 T_EXTRUDER=200
; custom gcode end: start_gcode
M107
G21 ; set units to millimeters
G90 ; use absolute coordinates
M82 ; use absolute distances for extrusion
G92 E0
; custom gcode: start_filament_gcode
; Filament gcode

    PRESSURE_ADVANCE_SELECT FILAMENT=PLA
; custom gcode end: start_filament_gcode
;_TOOLCHANGE 0
M104 S200 ; set temperature
M109 S200 ; set temperature and wait for it to be reached
M190 S60 ; set bed temperature and wait for it to be reached
;LAYER_CHANGE
;Z:0.2
;HEIGHT:0.2
G1 Z0.2 F9000
G1 E-0.8 F3000
M204 S1000
G1 X92.868 Y114.774 F9000
G1 E0 F1800
;TYPE:Skirt
;WIDTH:0.52
G1 X92.147 Y115.679 E0.04313
G1 X91.803 Y116.294 E0.06941
G1 X91.351 Y117.625 E0.12184
G1 X91.228 Y118.766 E0.16462
G1 X91.228 Y211.233 E3.61265
G1 X91.349 Y212.358 E3.65481
G1 X91.695 Y213.464 E3.69804
G1 X92.348 Y214.612 E3.7473
G1 X93.311 Y215.636 E3.79972
G1 X94.093 Y216.184 E3.83533
G1 X95.146 Y216.663 E3.87846
G1 X96.073 Y216.895 E3.91408
G1 X96.966 Y216.972 E3.94751
G1 X158.796 Y216.972 E6.25311
G1 X159.958 Y216.851 E6.29667
G1 X160.638 Y216.67 E6.32291
G1 X234.838 Y190.47 E9.25719
G1 X235.76 Y190.066 E9.29472
G1 X236.412 Y189.652 E9.32353
G1 X237.436 Y188.689 E9.37595
G1 X237.984 Y187.907 E9.41155
G1 X238.463 Y186.854 E9.45468
G1 X238.695 Y185.927 E9.49031
G1 X238.772 Y185.034 E9.52374
G1 X238.771 Y144.931 E11.01915
G1 X238.527 Y143.359 E11.07849
G1 X238.112 Y142.334 E11.11971
G1 X237.51 Y141.407 E11.16092
G1 X236.741 Y140.613 E11.20213
G1 X235.836 Y139.98 E11.24335
G1 X235.007 Y139.59 E11.27748
G1 X160.247 Y113.219 E14.23357
G1 X158.832 Y113.028 E14.28681
G1 X143.378 Y113.028 E14.86308
G1 X96.712 Y113.039 E16.60321
G1 X95.563 Y113.213 E16.64655
G1 X94.736 Y113.495 E16.67913
G1 X93.992 Y113.878 E16.71034
G1 X92.868 Y114.774 E16.76396
G1 X93.202 Y115.114 F9000
G1 F1800
G1 X92.554 Y115.928 E16.80275
G1 X92.237 Y116.492 E16.82685
G1 X91.82 Y117.712 E16.87495
G1 X91.705 Y118.766 E16.91447
G1 X91.705 Y211.233 E20.36251
G1 X91.813 Y212.25 E20.40064
G1 X92.139 Y213.289 E20.44123
G1 X92.726 Y214.322 E20.48554
G1 X93.608 Y215.263 E20.53362
G1 X94.342 Y215.777 E20.56706
G1 X95.289 Y216.208 E20.60586
G1 X96.16 Y216.425 E20.63931
G1 X96.966 Y216.495 E20.66948
G1 X158.796 Y216.495 E22.97508
M73 P0 R101
G1 X159.851 Y216.386 E23.01461
G1 X160.479 Y216.22 E23.03885
G1 X234.679 Y190.02 E25.97313
G1 X235.521 Y189.653 E26.00739
G1 X236.122 Y189.274 E26.03387
G1 X237.063 Y188.392 E26.08196
G1 X237.577 Y187.658 E26.11539
G1 X238.008 Y186.711 E26.15419
G1 X238.225 Y185.84 E26.18764
G1 X238.295 Y185.034 E26.21782
G1 X238.294 Y144.931 E27.71322
G1 X238.075 Y143.51 E27.76685
G1 X237.697 Y142.569 E27.80466
G1 X237.147 Y141.717 E27.84246
G1 X236.444 Y140.986 E27.88027
G1 X235.615 Y140.403 E27.91807
G1 X234.849 Y140.04 E27.9497
G1 X160.112 Y113.676 E30.90488
G1 X158.832 Y113.505 E30.95301
G1 X143.378 Y113.505 E31.52929
G1 X96.75 Y113.515 E33.26802
G1 X95.671 Y113.678 E33.30872
G1 X94.911 Y113.939 E33.33866
G1 X94.23 Y114.291 E33.36724
G1 X93.202 Y115.114 E33.41637
G92 E0
G1 E-0.8 F3000
; printing object 2x2.stl id:0 copy 0
EXCLUDE_OBJECT_START NAME=2x2_stl_id_0_copy_0
; acceleration to travel
M204 S3000
G1 X95.859 Y117.24 F9000
; decel to extrusion
M204 S1000
G1 X96.745 Y117.948
; end travel
G1 E0 F1800
;TYPE:Internal perimeter
;WIDTH:0.5
G1 X96.855 Y117.923 E0.00404
G1 X97.05 Y117.908 E0.011
G1 X97.997 Y117.908 E0.04485
G1 X158.771 Y117.908 E2.21606
G1 X158.964 Y117.928 E2.22298
G1 X159.132 Y117.978 E2.22925
G1 X159.283 Y118.056 E2.23532
G1 X159.416 Y118.162 E2.24139
G1 X159.526 Y118.291 E2.24746
G1 X159.61 Y118.439 E2.25353
G1 X159.664 Y118.601 E2.25961
G1 X159.691 Y118.808 E2.26707
G1 X159.692 Y158.766 E3.69461
G1 X159.658 Y159.024 E3.70391
G1 X159.579 Y159.229 E3.71178
G1 X159.536 Y159.299 E3.71468
G1 X159.384 Y159.468 E3.72284
G1 X159.182 Y159.602 E3.73149
G1 X159.055 Y159.652 E3.73637
G1 X158.945 Y159.677 E3.7404
G1 X158.75 Y159.692 E3.74736
G1 X97.034 Y159.692 E5.95223
G1 X96.776 Y159.658 E5.96153
G1 X96.571 Y159.579 E5.9694
G1 X96.501 Y159.536 E5.9723
G1 X96.332 Y159.384 E5.98045
G1 X96.198 Y159.182 E5.9891
G1 X96.148 Y159.055 E5.99398
G1 X96.122 Y158.939 E5.99822
G1 X96.108 Y158.782 E6.00384
G1 X96.108 Y118.834 E7.43102
G1 X96.142 Y118.576 E7.44033
G1 X96.221 Y118.371 E7.4482
G1 X96.264 Y118.301 E7.4511
G1 X96.416 Y118.132 E7.45925
G1 X96.618 Y117.998 E7.4679
G1 X96.745 Y117.948 E7.47278
G1 X95.998 Y117.898 F9000
G1 F1800
G1 X96.116 Y117.783 E7.47866
G1 X96.243 Y117.685 E7.48441
G1 X96.406 Y117.591 E7.49113
G1 X96.609 Y117.511 E7.49893
G1 X96.786 Y117.47 E7.5054
G1 X97.032 Y117.45 E7.51421
G1 X97.997 Y117.45 E7.54871
G1 X158.795 Y117.451 E9.72078
M73 P1 R100
G1 X159.053 Y117.478 E9.73005
G1 X159.304 Y117.552 E9.73939
G1 X159.533 Y117.671 E9.74861
G1 X159.735 Y117.832 E9.75782
G1 X159.902 Y118.028 E9.76704
G1 X160.029 Y118.253 E9.77626
G1 X160.111 Y118.497 E9.78547
G1 X160.148 Y118.778 E9.79558
G1 X160.149 Y158.796 E11.22526
G1 X160.104 Y159.138 E11.23758
G1 X160.058 Y159.283 E11.24303
G1 X159.99 Y159.433 E11.24891
G1 X159.904 Y159.573 E11.25479
G1 X159.802 Y159.702 E11.26067
G1 X159.684 Y159.817 E11.26655
G1 X159.557 Y159.915 E11.2723
G1 X159.394 Y160.009 E11.27902
G1 X159.191 Y160.089 E11.28682
G1 X159.014 Y160.13 E11.29329
G1 X158.768 Y160.15 E11.3021
G1 X97.004 Y160.149 E13.50868
G1 X96.662 Y160.104 E13.521
G1 X96.517 Y160.058 E13.52645
G1 X96.367 Y159.99 E13.53233
G1 X96.227 Y159.904 E13.53821
G1 X96.098 Y159.802 E13.54409
G1 X95.983 Y159.684 E13.54997
G1 X95.885 Y159.557 E13.55572
G1 X95.791 Y159.394 E13.56244
G1 X95.711 Y159.191 E13.57024
G1 X95.669 Y159.011 E13.57684
G1 X95.651 Y158.802 E13.58431
G1 X95.651 Y118.804 E15.01327
G1 X95.696 Y118.462 E15.0256
G1 X95.742 Y118.317 E15.03105
G1 X95.81 Y118.167 E15.03693
G1 X95.896 Y118.027 E15.04281
G1 X95.998 Y117.898 E15.04869
G1 X95.658 Y117.592 F9000
;TYPE:External perimeter
G1 F1800
G1 X95.815 Y117.437 E15.05657
G1 X95.989 Y117.304 E15.06439
G1 X96.207 Y117.178 E15.07339
G1 X96.474 Y117.073 E15.08362
G1 X96.716 Y117.017 E15.09251
G1 X97.014 Y116.993 E15.10318
G1 X97.997 Y116.993 E15.13832
G1 X158.819 Y116.994 E17.31124
G1 X159.143 Y117.028 E17.32287
G1 X159.476 Y117.126 E17.33528
G1 X159.783 Y117.286 E17.34765
G1 X160.054 Y117.502 E17.36001
G1 X160.279 Y117.765 E17.37237
G1 X160.449 Y118.066 E17.38473
G1 X160.559 Y118.394 E17.39709
G1 X160.605 Y118.748 E17.40984
G1 X160.606 Y158.825 E18.84165
G1 X160.552 Y159.237 E18.85648
G1 X160.486 Y159.447 E18.86436
G1 X160.395 Y159.648 E18.87223
G1 X160.279 Y159.836 E18.88011
G1 X160.142 Y160.008 E18.88799
G1 X159.985 Y160.163 E18.89587
G1 X159.811 Y160.296 E18.90369
G1 X159.593 Y160.422 E18.91269
G1 X159.326 Y160.527 E18.92292
G1 X159.084 Y160.583 E18.93181
G1 X158.786 Y160.607 E18.94248
G1 X96.975 Y160.606 E21.15076
G1 X96.563 Y160.552 E21.16559
G1 X96.353 Y160.486 E21.17347
G1 X96.152 Y160.395 E21.18134
G1 X95.964 Y160.279 E21.18922
G1 X95.792 Y160.142 E21.1971
G1 X95.637 Y159.985 E21.20498
G1 X95.504 Y159.811 E21.2128
G1 X95.378 Y159.593 E21.2218
G1 X95.273 Y159.326 E21.23203
G1 X95.216 Y159.082 E21.24098
G1 X95.194 Y158.822 E21.25031
G1 X95.194 Y118.775 E22.68105
G1 X95.248 Y118.363 E22.69588
G1 X95.314 Y118.153 E22.70376
G1 X95.405 Y117.952 E22.71163
G1 X95.521 Y117.764 E22.71951
G1 X95.658 Y117.592 E22.72739
;WIPE_START
M204 S4000
G1 X96.047 Y117.683 F9000
;WIPE_END
G92 E0
G1 E-0.8 F3000
; acceleration to travel
M204 S3000
G1 X142.031 Y118.491 F9000
; decel to extrusion
M204 S1000
G1 X159.549 Y118.799
; end travel
G1 E0 F1800
;TYPE:Solid infill
;WIDTH:0.500668
G1 F3600
G1 X158.798 Y118.049 E0.03798
G1 X158.148 Y118.045 F9000
G1 F3600
G1 X159.554 Y119.451 E0.10911
G1 X159.554 Y120.097 F9000
G1 F3600
G1 X157.502 Y118.045 E0.21294
G1 X156.855 Y118.045 F9000
G1 F3600
G1 X159.554 Y120.744 E0.34948
G1 X159.554 Y121.39 F9000
G1 F3600
G1 X156.209 Y118.045 E0.51872
G1 X155.563 Y118.045 F9000
G1 F3600
G1 X159.554 Y122.037 E0.72066
G1 X159.554 Y122.683 F9000
G1 F3600
G1 X154.916 Y118.045 E0.95531
G1 X154.27 Y118.045 F9000
G1 F3600
G1 X159.554 Y123.329 E1.22266
G1 X159.554 Y123.976 F9000
G1 F3600
G1 X153.623 Y118.045 E1.52271
G1 X152.977 Y118.045 F9000
G1 F3600
G1 X159.554 Y124.622 E1.85547
G1 X159.554 Y125.269 F9000
G1 F3600
G1 X152.33 Y118.045 E2.22093
G1 X151.684 Y118.045 F9000
G1 F3600
G1 X159.554 Y125.915 E2.6191
G1 X159.554 Y126.562 F9000
G1 F3600
G1 X151.038 Y118.045 E3.04997
G1 X150.391 Y118.045 F9000
G1 F3600
G1 X159.554 Y127.208 E3.51354
G1 X159.554 Y127.854 F9000
G1 F3600
G1 X149.745 Y118.045 E4.00982
G1 X149.098 Y118.045 F9000
G1 F3600
G1 X159.554 Y128.501 E4.5388
G1 X159.554 Y129.147 F9000
G1 F3600
G1 X148.452 Y118.045 E5.10048
G1 X147.806 Y118.045 F9000
G1 F3600
G1 X159.554 Y129.794 E5.69487
G1 X159.554 Y130.44 F9000
G1 F3600
G1 X147.159 Y118.045 E6.32196
G1 X146.513 Y118.045 F9000
G1 F3600
G1 X159.554 Y131.087 E6.98176
G1 X159.554 Y131.733 F9000
G1 F3600
G1 X145.866 Y118.045 E7.67426
G1 X145.22 Y118.045 F9000
G1 F3600
G1 X159.554 Y132.379 E8.39946
G1 X159.554 Y133.026 F9000
G1 F3600
G1 X144.574 Y118.045 E9.15737
G1 X143.927 Y118.045 F9000
G1 F3600
G1 X159.554 Y133.672 E9.94798
G1 X159.554 Y134.319 F9000
G1 F3600
G1 X143.281 Y118.045 E10.77129
G1 X142.634 Y118.045 F9000
G1 F3600
G1 X159.554 Y134.965 E11.62731
G1 X159.554 Y135.611 F9000
G1 F3600
G1 X141.988 Y118.045 E12.51603
G1 X141.341 Y118.045 F9000
G1 F3600
G1 X159.554 Y136.258 E13.43746
G1 X159.554 Y136.904 F9000
G1 F3600
G1 X140.695 Y118.045 E14.39159
G1 X140.049 Y118.045 F9000
G1 F3600
G1 X159.555 Y137.551 E15.37842
G1 X159.555 Y138.197 F9000
G1 F3600
G1 X139.402 Y118.045 E16.39796
G1 X138.756 Y118.045 F9000
G1 F3600
G1 X159.555 Y138.844 E17.4502
G1 X159.555 Y139.49 F9000
G1 F3600
G1 X138.109 Y118.045 E18.53514
G1 X137.463 Y118.045 F9000
G1 F3600
G1 X159.555 Y140.136 E19.65279
G1 X159.555 Y140.783 F9000
G1 F3600
G1 X136.817 Y118.045 E20.80314
G1 X136.17 Y118.045 F9000
G1 F3600
G1 X159.555 Y141.429 E21.9862
G1 X159.555 Y142.076 F9000
G1 F3600
G1 X135.524 Y118.045 E23.20196
G1 X134.877 Y118.045 F9000
G1 F3600
G1 X159.555 Y142.722 E24.45042
G1 X159.555 Y143.369 F9000
G1 F3600
G1 X134.231 Y118.045 E25.73159
G1 X133.585 Y118.045 F9000
G1 F3600
G1 X159.555 Y144.015 E27.04546
G1 X159.555 Y144.661 F9000
G1 F3600
G1 X132.938 Y118.045 E28.39204
G1 X132.292 Y118.045 F9000
G1 F3600
G1 X159.555 Y145.308 E29.77132
G1 X159.555 Y145.954 F9000
G1 F3600
G1 X131.645 Y118.045 E31.1833
G1 X130.999 Y118.045 F9000
G1 F3600
G1 X159.555 Y146.601 E32.62799
G1 X159.555 Y147.247 F9000
G1 F3600
G1 X130.352 Y118.045 E34.10538
G1 X129.706 Y118.045 F9000
G1 F3600
G1 X159.555 Y147.894 E35.61547
G1 X159.555 Y148.54 F9000
G1 F3600
G1 X129.06 Y118.045 E37.15827
G1 X128.413 Y118.045 F9000
G1 F3600
G1 X159.555 Y149.186 E38.73377
G1 X159.555 Y149.833 F9000
G1 F3600
G1 X127.767 Y118.045 E40.34197
G1 X127.12 Y118.045 F9000
G1 F3600
G1 X159.555 Y150.479 E41.98288
G1 X159.555 Y151.126 F9000
G1 F3600
G1 X126.474 Y118.045 E43.6565
G1 X125.828 Y118.045 F9000
G1 F3600
G1 X159.555 Y151.772 E45.36281
G1 X159.555 Y152.418 F9000
G1 F3600
G1 X125.181 Y118.045 E47.10183
G1 X124.535 Y118.045 F9000
G1 F3600
G1 X159.555 Y153.065 E48.87356
M73 P1 R100
G1 X159.555 Y153.711 F9000
G1 F3600
G1 X123.888 Y118.045 E50.67799
G1 X123.242 Y118.045 F9000
G1 F3600
G1 X159.555 Y154.358 E52.51512
G1 X159.555 Y155.004 F9000
G1 F3600
G1 X122.596 Y118.045 E54.38495
G1 X121.949 Y118.045 F9000
G1 F3600
G1 X159.555 Y155.651 E56.28749
G1 X159.555 Y156.297 F9000
G1 F3600
G1 X121.303 Y118.045 E58.22273
G1 X120.656 Y118.045 F9000
G1 F3600
G1 X159.555 Y156.943 E60.19068
G1 X159.555 Y157.59 F9000
G1 F3600
G1 X120.01 Y118.045 E62.19133
G1 X119.363 Y118.045 F9000
G1 F3600
G1 X159.555 Y158.236 E64.22469
G1 X159.54 Y158.868 F9000
G1 F3600
G1 X118.717 Y118.045 E66.29001
G1 X118.071 Y118.045 F9000
G1 F3600
G1 X159.339 Y159.313 E68.37784
G1 X158.92 Y159.541 F9000
G1 F3600
G1 X117.424 Y118.045 E70.4772
G1 X116.778 Y118.045 F9000
G1 F3600
G1 X158.288 Y159.555 E72.57729
G1 X157.642 Y159.555 F9000
G1 F3600
G1 X116.131 Y118.045 E74.67738
G1 X115.485 Y118.045 F9000
G1 F3600
G1 X156.996 Y159.555 E76.77746
G1 X156.349 Y159.555 F9000
G1 F3600
G1 X114.839 Y118.045 E78.87755
G1 X114.192 Y118.045 F9000
G1 F3600
G1 X155.703 Y159.555 E80.97764
G1 X155.056 Y159.555 F9000
G1 F3600
G1 X113.546 Y118.045 E83.07773
G1 X112.899 Y118.045 F9000
G1 F3600
G1 X154.41 Y159.555 E85.17782
G1 X153.764 Y159.555 F9000
G1 F3600
G1 X112.253 Y118.045 E87.27791
G1 X111.607 Y118.045 F9000
G1 F3600
G1 X153.117 Y159.555 E89.378
M73 P2 R99
G1 X152.471 Y159.555 F9000
G1 F3600
G1 X110.96 Y118.045 E91.47809
G1 X110.314 Y118.045 F9000
G1 F3600
G1 X151.824 Y159.555 E93.57818
G1 X151.178 Y159.555 F9000
G1 F3600
G1 X109.667 Y118.045 E95.67827
G1 X109.021 Y118.045 F9000
G1 F3600
G1 X150.532 Y159.555 E97.77836
G1 X149.885 Y159.555 F9000
G1 F3600
G1 X108.375 Y118.045 E99.87845
G1 X107.728 Y118.045 F9000
G1 F3600
G1 X149.239 Y159.555 E101.97854
G1 X148.592 Y159.555 F9000
G1 F3600
G1 X107.082 Y118.045 E104.07863
G1 X106.435 Y118.045 F9000
G1 F3600
G1 X147.946 Y159.555 E106.17871
G1 X147.299 Y159.555 F9000
G1 F3600
G1 X105.789 Y118.045 E108.2788
G1 X105.142 Y118.045 F9000
G1 F3600
G1 X146.653 Y159.555 E110.37889
G1 X146.007 Y159.555 F9000
G1 F3600
G1 X104.496 Y118.045 E112.47898
G1 X103.85 Y118.045 F9000
G1 F3600
G1 X145.36 Y159.555 E114.57907
G1 X144.714 Y159.555 F9000
G1 F3600
G1 X103.203 Y118.045 E116.67916
G1 X102.557 Y118.045 F9000
G1 F3600
G1 X144.067 Y159.555 E118.77925
G1 X143.421 Y159.555 F9000
G1 F3600
G1 X101.91 Y118.045 E120.87934
G1 X101.264 Y118.045 F9000
G1 F3600
G1 X142.775 Y159.555 E122.97943
G1 X142.128 Y159.555 F9000
G1 F3600
G1 X100.618 Y118.045 E125.07952
G1 X99.971 Y118.045 F9000
G1 F3600
G1 X141.482 Y159.555 E127.17961
G1 X140.835 Y159.555 F9000
G1 F3600
G1 X99.325 Y118.045 E129.2797
G1 X98.678 Y118.045 F9000
G1 F3600
