; generated by SuperSlicer 2.5.59 on 2023-05-06 at 17:52:27 UTC


;
;

;
;
; 

; external perimeters extrusion width = 0.40mm
; perimeters extrusion width = 0.46mm
; infill extrusion width = 0.64mm
; solid infill extrusion width = 0.56mm
; top infill extrusion width = 0.40mm
; support material extrusion width = 0.46mm
; first layer extrusion width = 0.50mm

; object:{"name":"3","id":"3.HDD_Frontplate.stl id:0 copy 0","object_center":[165.000001,165.000000,0.000000],"boundingbox_center":[165.000001,165.000000,4.649000],"boundingbox_size":[223.619995,158.500000,9.298000]}
EXCLUDE_OBJECT_DEFINE NAME=3_HDD_Frontplate_stl_id_0_copy_0 CENTER=165.000001,165.000000 POLYGON=[[53.190004,92.100008],[59.542000,85.750000],[270.458016,85.750000],[276.809984,92.100008],[276.809984,237.900000],[270.458016,244.250000],[59.542000,244.250000],[53.190004,237.900000],[53.190004,92.100008]]
; plater:{"center":[165.000001,165.000000,0.000000],"boundingbox_center":[165.000001,165.000000,4.649000],"boundingbox_size":[223.619995,158.500000,9.298000]}

M73 P0 R183
;TYPE:Custom
; custom gcode: start_gcode
START_PRINT T_BED=70 T_EXTRUDER=235
; custom gcode end: start_gcode
M107
G21 ; set units to millimeters
G90 ; use absolute coordinates
M82 ; use absolute distances for extrusion
G92 E0
; custom gcode: start_filament_gcode
; Filament gcode
PRESSURE_ADVANCE_SELECT FILAMENT=PETG
; custom gcode end: start_filament_gcode
;_TOOLCHANGE 0
M104 S235 ; set temperature
M109 S235 ; set temperature and wait for it to be reached
M190 S70 ; set bed temperature and wait for it to be reached
;LAYER_CHANGE
;Z:0.2
;HEIGHT:0.2
G1 Z0.2 F9000
G1 E-1 F3000
M204 S1000
G1 X57.309 Y83.809 F9000
G1 E0 F1800
;TYPE:Skirt
;WIDTH:0.52
G1 X54.734 Y86.24 E0.13625
G1 X51.256 Y89.86 E0.3294
G1 X50.632 Y90.75 E0.37123
G1 X50.237 Y92.416 E0.43713
G1 X50.237 Y237.584 E6.02309
G1 X50.396 Y238.659 E6.0649
G1 X51.256 Y240.14 E6.1308
G1 X54.734 Y243.76 E6.32397
G1 X57.309 Y246.191 E6.46022
G1 X58.192 Y246.809 E6.50169
G1 X59.858 Y247.204 E6.56758
G1 X270.142 Y247.204 E14.65916
M73 P0 R183
G1 X271.209 Y247.047 E14.70064
G1 X272.692 Y246.191 E14.76653
G1 X275.617 Y243.41 E14.92186
G1 X278.75 Y240.134 E15.09627
G1 X279.368 Y239.25 E15.13777
G1 X279.763 Y237.584 E15.20366
G1 X279.763 Y92.416 E20.78961
G1 X279.606 Y91.349 E20.83111
G1 X278.75 Y89.866 E20.897
G1 X275.189 Y86.164 E21.09466
G1 X272.692 Y83.809 E21.22674
G1 X271.808 Y83.191 E21.26822
G1 X270.142 Y82.796 E21.33411
G1 X59.858 Y82.796 E29.42569
G1 X58.792 Y82.953 E29.46716
G1 X57.309 Y83.809 E29.53306
G1 X57.636 Y84.156 F9000
G1 F1800
G1 X55.071 Y86.577 E29.66877
G1 X51.603 Y90.188 E29.86143
G1 X51.108 Y90.868 E29.89379
G1 X50.714 Y92.416 E29.95525
G1 X50.714 Y237.584 E35.54121
G1 X50.823 Y238.417 E35.57355
G1 X51.602 Y239.812 E35.635
G1 X55.071 Y243.423 E35.82769
G1 X57.636 Y245.844 E35.9634
G1 X58.31 Y246.333 E35.99544
G1 X59.858 Y246.727 E36.0569
G1 X270.142 Y246.727 E44.14847
G1 X270.968 Y246.619 E44.18052
G1 X272.364 Y245.844 E44.24197
G1 X275.28 Y243.072 E44.39677
G1 X278.403 Y239.806 E44.57064
G1 X278.892 Y239.132 E44.60271
G1 X279.286 Y237.584 E44.66417
G1 X279.286 Y92.416 E50.25012
G1 X279.178 Y91.59 E50.28218
G1 X278.403 Y90.194 E50.34364
G1 X274.929 Y86.577 E50.5366
G1 X272.364 Y84.156 E50.67231
G1 X271.69 Y83.667 E50.70436
G1 X270.142 Y83.273 E50.76581
G1 X59.858 Y83.273 E58.85739
G1 X59.032 Y83.381 E58.88943
G1 X57.636 Y84.156 E58.95089
G92 E0
G1 E-1 F3000
; printing object 3.HDD_Frontplate.stl id:0 copy 0
EXCLUDE_OBJECT_START NAME=3_HDD_Frontplate_stl_id_0_copy_0
; acceleration to travel
M204 S3000
G1 X216.419 Y198.89 F9000
; decel to extrusion
M204 S1000
G1 X269.347 Y237.135
; end travel
G1 E0 F1800
;TYPE:Support material
;WIDTH:0.5
G1 X269.676 Y236.801 E0.01729
G1 X270.099 Y236.599 E0.03456
G1 X270.547 Y236.543 E0.0512
G1 X270.868 Y236.609 E0.06327
G1 X271.231 Y236.782 E0.07811
G1 X271.685 Y237.367 E0.1054
G1 X271.774 Y237.644 E0.11612
G1 X271.823 Y237.94 E0.12721
G1 X271.8 Y238.123 E0.134
G1 X271.502 Y238.765 E0.16008
G1 X271.089 Y239.08 E0.17923
G1 X270.298 Y239.242 E0.20899
G1 X270.037 Y239.191 E0.21879
G1 X269.674 Y239.007 E0.23379
G1 X269.405 Y238.764 E0.24716
G1 X269.127 Y238.147 E0.27212
G1 X269.16 Y237.544 E0.29437
G1 X269.347 Y237.135 E0.31096
; acceleration to travel
M204 S3000
G1 X270.695 Y238.455 F9000
; decel to extrusion
M204 S1000
G1 X271.144 Y238.896
; end travel
G1 F1800
G1 X271.144 Y237.172 E0.3745
G1 X271.031 Y237.027 E0.3813
G1 X270.766 Y236.903 E0.39208
G1 X270.636 Y236.87 E0.39701
G1 X270.636 Y238.855 E0.47021
G1 X270.304 Y238.927 E0.48272
G1 X270.128 Y238.889 E0.48936
G1 X270.128 Y236.929 E0.56164
G1 X269.864 Y237.052 E0.57237
G1 X269.62 Y237.296 E0.5851
G1 X269.62 Y238.81 E0.6409
G92 E0
G1 E-1 F3000
; acceleration to travel
M204 S3000
G1 X113.083 Y238.133 F9000
; decel to extrusion
M204 S1000
G1 X60.903 Y237.907
; end travel
G1 E0 F1800
G1 X60.857 Y238.245 E0.01257
G1 X60.721 Y238.591 E0.02628
G1 X60.609 Y238.745 E0.03331
G1 X60.012 Y239.166 E0.06024
G1 X59.407 Y239.235 E0.08268
G1 X58.888 Y239.083 E0.10261
G1 X58.647 Y238.9 E0.1138
G1 X58.317 Y238.275 E0.13984
G1 X58.201 Y238.114 E0.14716
G1 X58.195 Y237.666 E0.16367
G1 X58.358 Y237.236 E0.18064
G1 X58.83 Y236.746 E0.20573
G1 X59.433 Y236.559 E0.229
G1 X59.868 Y236.593 E0.24507
G1 X60.391 Y236.848 E0.26651
G1 X60.667 Y237.139 E0.28131
G1 X60.739 Y237.276 E0.28701
G1 X60.855 Y237.636 E0.30094
G1 X60.903 Y237.907 E0.3111
G1 X60.38 Y238.77 F9000
G1 F1800
G1 X60.38 Y237.285 E0.36585
G1 X60.212 Y237.106 E0.37489
G1 X59.872 Y236.937 E0.38888
G1 X59.872 Y238.871 E0.46017
G1 X59.444 Y238.922 E0.47603
G1 X59.364 Y238.898 E0.47913
G1 X59.364 Y236.905 E0.55261
G1 X59.005 Y237.012 E0.56642
G1 X58.856 Y237.165 E0.57428
G1 X58.856 Y238.921 E0.639
G92 E0
G1 E-1 F3000
; acceleration to travel
M204 S3000
G1 X216.724 Y129.379 F9000
; decel to extrusion
M204 S1000
G1 X269.347 Y92.865
; end travel
G1 E0 F1800
G1 X269.16 Y92.456 E0.01659
G1 X269.127 Y91.853 E0.03885
G1 X269.405 Y91.236 E0.0638
G1 X269.674 Y90.993 E0.07717
G1 X270.048 Y90.803 E0.09264
G1 X270.299 Y90.754 E0.10206
G1 X271.089 Y90.92 E0.13181
G1 X271.502 Y91.235 E0.15096
G1 X271.807 Y91.893 E0.17769
G1 X271.826 Y92.045 E0.18336
G1 X271.774 Y92.356 E0.19498
G1 X271.685 Y92.633 E0.20569
G1 X271.23 Y93.218 E0.23301
G1 X270.868 Y93.391 E0.24783
G1 X270.533 Y93.459 E0.26043
G1 X270.115 Y93.408 E0.27593
G1 X269.676 Y93.199 E0.29386
G1 X269.347 Y92.865 E0.31115
; acceleration to travel
M204 S3000
G1 X270.695 Y93.069 F9000
; decel to extrusion
M204 S1000
G1 X271.144 Y93.137
; end travel
G1 F1800
G1 X271.144 Y91.361 E0.37665
G1 X270.972 Y91.217 E0.38492
G1 X270.636 Y91.145 E0.39759
G1 X270.636 Y93.13 E0.47079
G1 X270.521 Y93.147 E0.47507
G1 X270.21 Y93.11 E0.48662
G1 X270.128 Y93.071 E0.48995
G1 X270.128 Y91.111 E0.56223
G1 X269.844 Y91.255 E0.57399
G1 X269.666 Y91.413 E0.58274
G1 X269.62 Y91.514 E0.58686
G1 X269.62 Y92.982 E0.64096
G92 E0
G1 E-1 F3000
; acceleration to travel
M204 S3000
G1 X113.083 Y92.315 F9000
; decel to extrusion
M204 S1000
G1 X60.903 Y92.093
; end travel
G1 E0 F1800
G1 X60.855 Y92.364 E0.01016
G1 X60.735 Y92.734 E0.02449
G1 X60.658 Y92.873 E0.03034
G1 X60.407 Y93.14 E0.04385
G1 X59.889 Y93.401 E0.06526
G1 X59.427 Y93.442 E0.08234
G1 X58.837 Y93.261 E0.10511
G1 X58.369 Y92.78 E0.12982
G1 X58.195 Y92.334 E0.14748
G1 X58.188 Y91.923 E0.16265
G1 X58.317 Y91.725 E0.17134
G1 X58.647 Y91.1 E0.19739
G1 X58.859 Y90.934 E0.20732
G1 X59.413 Y90.766 E0.22868
G1 X59.756 Y90.803 E0.2414
G1 X60.012 Y90.834 E0.2509
G1 X60.609 Y91.255 E0.27782
G1 X60.721 Y91.409 E0.28486
G1 X60.854 Y91.742 E0.29807
G1 X60.903 Y92.093 E0.31113
G1 X60.38 Y93.002 F9000
G1 F1800
G1 X60.38 Y91.47 E0.36762
G1 X59.872 Y91.129 E0.39017
G1 X59.872 Y93.063 E0.46146
G1 X59.793 Y93.102 E0.46469
G1 X59.469 Y93.13 E0.4767
G1 X59.364 Y93.099 E0.48073
G1 X59.364 Y91.106 E0.55421
G1 X59.006 Y91.212 E0.56796
G1 X58.895 Y91.296 E0.57309
G1 X58.856 Y91.37 E0.57616
G1 X58.856 Y93.117 E0.64058
G92 E0
G1 E-1 F3000
; acceleration to travel
M204 S3000
G1 X124.569 Y194.006 F9000
; decel to extrusion
M204 S1000
G1 X146.473 Y227.636
; end travel
G1 E0 F1800
;TYPE:Internal perimeter
G1 X146.649 Y227.813 E0.0092
G1 X178.796 Y227.813 E1.19434
G1 X178.973 Y227.636 E1.20354
G1 X179.149 Y227.813 E1.21273
G1 X211.296 Y227.813 E2.39788
G1 X211.473 Y227.636 E2.40707
G1 X211.649 Y227.813 E2.41627
G1 X243.796 Y227.813 E3.60141
G1 X244.637 Y226.972 E3.64524
G1 X244.637 Y116.325 E7.72437
M73 P1 R182
G1 X243.796 Y115.484 E7.76819
G1 X211.649 Y115.484 E8.95334
G1 X211.473 Y115.661 E8.96253
G1 X211.296 Y115.484 E8.97173
G1 X179.149 Y115.484 E10.15688
G1 X178.973 Y115.661 E10.16607
G1 X178.796 Y115.484 E10.17527
G1 X146.649 Y115.484 E11.36041
G1 X146.473 Y115.661 E11.36961
G1 X146.296 Y115.484 E11.3788
G1 X114.149 Y115.484 E12.56395
G1 X113.309 Y116.325 E12.60777
G1 X113.309 Y226.972 E16.68691
G1 X114.149 Y227.813 E16.73073
G1 X146.296 Y227.813 E17.91587
G1 X146.473 Y227.636 E17.92507
G1 X146.473 Y226.99 F9000
G1 F1800
G1 X146.839 Y227.355 E17.94414
G1 X178.607 Y227.355 E19.11532
G1 X178.973 Y226.99 E19.13439
G1 X179.339 Y227.355 E19.15345
G1 X211.107 Y227.355 E20.32464
G1 X211.473 Y226.99 E20.34371
G1 X211.839 Y227.355 E20.36277
G1 X243.607 Y227.355 E21.53396
G1 X244.18 Y226.783 E21.56382
G1 X244.18 Y116.514 E25.629
G1 X243.607 Y115.941 E25.65886
G1 X211.839 Y115.941 E26.83005
G1 X211.473 Y116.307 E26.84911
G1 X211.107 Y115.941 E26.86818
G1 X179.339 Y115.941 E28.03936
M73 P1 R182
G1 X178.973 Y116.307 E28.05843
G1 X178.607 Y115.941 E28.0775
G1 X146.839 Y115.941 E29.24868
G1 X146.473 Y116.307 E29.26775
G1 X146.107 Y115.941 E29.28682
G1 X114.339 Y115.941 E30.458
G1 X113.766 Y116.514 E30.48786
G1 X113.766 Y226.783 E34.55304
G1 X114.339 Y227.355 E34.5829
G1 X146.107 Y227.355 E35.75409
G1 X146.473 Y226.99 E35.77316
G92 E0
G1 E-1 F3000
; acceleration to travel
M204 S3000
G1 X171.035 Y226.692 F9000
; decel to extrusion
M204 S1000
G1 X179.223 Y226.593
; end travel
G1 E0 F1800
;TYPE:External perimeter
G1 X179.528 Y226.898 E0.0159
G1 X210.918 Y226.898 E1.17313
G1 X211.223 Y226.593 E1.18903
G1 X211.223 Y116.703 E5.24025
G1 X210.918 Y116.398 E5.25615
G1 X179.528 Y116.398 E6.41338
G1 X179.223 Y116.703 E6.42928
G1 X179.223 Y226.593 E10.4805
;WIPE_START
M204 S4000
G1 X179.023 Y226.94 F9000
;WIPE_END
M204 S1000
G1 X178.723 Y226.593
G1 F1800
G1 X178.723 Y116.703 E14.53172
G1 X178.418 Y116.398 E14.54762
G1 X147.028 Y116.398 E15.70485
G1 X146.723 Y116.703 E15.72075
G1 X146.723 Y226.593 E19.77197
G1 X147.028 Y226.898 E19.78787
G1 X178.418 Y226.898 E20.9451
G1 X178.723 Y226.593 E20.961
;WIPE_START
M204 S4000
G1 X179.109 Y226.49 F9000
;WIPE_END
G92 E0
G1 E-1 F3000
; acceleration to travel
M204 S3000
G1 X154.444 Y226.567 F9000
; decel to extrusion
M204 S1000
G1 X146.223 Y226.593
; end travel
G1 E0 F1800
G1 X146.223 Y116.703 E4.05122
G1 X145.918 Y116.398 E4.06712
G1 X114.528 Y116.398 E5.22435
G1 X114.223 Y116.703 E5.24025
G1 X114.223 Y226.593 E9.29147
G1 X114.528 Y226.898 E9.30737
G1 X145.918 Y226.898 E10.4646
G1 X146.223 Y226.593 E10.4805
;WIPE_START
M204 S4000
G1 X146.609 Y226.49 F9000
;WIPE_END
G92 E0
G1 E-1 F3000
; acceleration to travel
M204 S3000
G1 X195.444 Y226.567 F9000
; decel to extrusion
M204 S1000
G1 X211.723 Y226.593
; end travel
G1 E0 F1800
G1 X212.028 Y226.898 E0.0159
G1 X243.418 Y226.898 E1.17313
G1 X243.723 Y226.593 E1.18903
G1 X243.723 Y116.703 E5.24025
M73 P1 R181
G1 X243.418 Y116.398 E5.25615
G1 X212.028 Y116.398 E6.41338
G1 X211.723 Y116.703 E6.42928
G1 X211.723 Y226.593 E10.4805
;WIPE_START
M204 S4000
G1 X211.523 Y226.94 F9000
;WIPE_END
G92 E0
G1 E-1 F3000
; acceleration to travel
M204 S3000
G1 X242.878 Y234.668 F9000
; decel to extrusion
M204 S1000
G1 X253.33 Y237.244
; end travel
G1 E0 F1800
;TYPE:Internal perimeter
G1 X76.67 Y237.244 E6.51278
G1 X76.67 Y242.324 E6.70006
G1 X61.014 Y242.324 E7.27722
G1 X60.934 Y242.068 E7.28711
G1 X62.778 Y240.778 E7.37008
G1 X63.303 Y240.031 E7.40374
G1 X63.707 Y239.016 E7.44401
G1 X63.874 Y237.875 E7.48653
G1 X63.599 Y236.399 E7.54188
G1 X63.073 Y235.425 E7.58271
G1 X62.277 Y234.537 E7.62664
G1 X60.684 Y233.726 E7.69255
G1 X59.141 Y233.591 E7.74964
G1 X57.318 Y234.163 E7.82009
G1 X55.816 Y235.669 E7.89851
G1 X55.419 Y236.747 E7.94088
G1 X55.117 Y236.694 E7.95217
G1 X55.117 Y93.306 E13.23831
G1 X55.419 Y93.253 E13.2496
G1 X55.816 Y94.331 E13.29197
G1 X57.322 Y95.842 E13.37063
G1 X59.139 Y96.409 E13.4408
G1 X60.684 Y96.274 E13.49796
G1 X62.277 Y95.463 E13.56387
G1 X63.073 Y94.575 E13.6078
G1 X63.56 Y93.673 E13.64563
G1 X63.647 Y93.403 E13.65607
G1 X63.873 Y92.119 E13.70415
G1 X63.707 Y90.984 E13.74643
G1 X63.303 Y89.969 E13.7867
G1 X62.775 Y89.219 E13.82051
G1 X60.913 Y87.933 E13.90395
G1 X60.993 Y87.676 E13.91386
G1 X76.67 Y87.676 E14.49181
G1 X76.67 Y92.756 E14.67909
G1 X253.33 Y92.756 E21.19187
G1 X253.33 Y87.676 E21.37915
G1 X269.065 Y87.676 E21.95922
G1 X269.134 Y87.953 E21.96974
G1 X267.987 Y88.567 E22.01772
G1 X267.083 Y89.37 E22.06228
G1 X266.172 Y91.35 E22.14262
G1 X266.273 Y93.2 E22.21095
G1 X266.917 Y94.579 E22.26707
G1 X267.979 Y95.641 E22.32239
G1 X269.307 Y96.261 E22.37643
G1 X270.476 Y96.427 E22.41997
G1 X271.638 Y96.25 E22.46331
G1 X273.022 Y95.598 E22.51971
G1 X274.495 Y93.709 E22.60802
G1 X274.551 Y93.408 E22.6193
G1 X274.883 Y93.439 E22.63159
G1 X274.883 Y236.561 E27.90798
G1 X274.551 Y236.592 E27.92027
G1 X274.495 Y236.292 E27.93153
G1 X273.149 Y234.561 E28.01237
G1 X272.862 Y234.32 E28.02617
G1 X271.583 Y233.735 E28.07804
G1 X270.471 Y233.574 E28.11947
G1 X269.311 Y233.737 E28.16265
G1 X267.979 Y234.359 E28.21685
G1 X266.917 Y235.42 E28.27218
G1 X266.272 Y236.803 E28.32842
G1 X266.178 Y238.692 E28.39816
G1 X267.086 Y240.633 E28.47715
G1 X267.987 Y241.433 E28.52156
G1 X269.134 Y242.047 E28.56954
G1 X269.065 Y242.324 E28.58005
G1 X253.33 Y242.324 E29.16012
G1 X253.33 Y237.244 E29.3474
G1 X252.873 Y237.701 F9000
G1 F1800
G1 X77.127 Y237.701 E35.82648
G1 X77.127 Y242.781 E36.01376
G1 X60.15 Y242.781 E36.63964
G1 X59.121 Y241.758 E36.69312
G1 X60.895 Y241.537 E36.759
G1 X62.45 Y240.449 E36.82898
G1 X62.898 Y239.812 E36.8577
G1 X63.263 Y238.897 E36.89401
G1 X63.411 Y237.884 E36.93175
G1 X63.163 Y236.553 E36.98165
G1 X62.696 Y235.689 E37.01785
G1 X61.994 Y234.906 E37.05664
G1 X60.556 Y234.174 E37.11613
G1 X59.192 Y234.054 E37.16661
G1 X57.562 Y234.565 E37.22957
G1 X56.21 Y235.921 E37.30015
G1 X55.734 Y237.214 E37.35096
G1 X55.731 Y238.372 E37.39364
G1 X54.66 Y237.293 E37.44967
G1 X54.66 Y92.707 E42.77997
G1 X55.736 Y91.623 E42.83628
G1 X55.733 Y92.784 E42.87906
G1 X56.21 Y94.079 E42.92995
G1 X57.566 Y95.439 E43.00076
G1 X59.189 Y95.946 E43.06344
G1 X60.556 Y95.826 E43.11401
G1 X61.994 Y95.094 E43.17349
G1 X62.696 Y94.311 E43.21229
G1 X63.138 Y93.492 E43.24657
G1 X63.202 Y93.293 E43.2543
G1 X63.41 Y92.112 E43.29851
G1 X63.263 Y91.103 E43.33609
G1 X62.898 Y90.188 E43.3724
G1 X62.448 Y89.549 E43.40122
G1 X60.857 Y88.45 E43.47249
G1 X59.121 Y88.243 E43.53698
G1 X60.15 Y87.219 E43.5905
G1 X77.127 Y87.219 E44.21638
G1 X77.127 Y92.299 E44.40366
G1 X252.873 Y92.299 E50.88275
G1 X252.873 Y87.219 E51.07003
G1 X269.85 Y87.219 E51.69591
G1 X270.742 Y88.107 E51.74229
G1 X270.611 Y88.347 E51.75239
G1 X270.174 Y88.252 E51.76889
G1 X269.147 Y88.464 E51.80752
G1 X268.25 Y88.945 E51.84505
G1 X267.458 Y89.648 E51.8841
G1 X266.635 Y91.438 E51.95673
G1 X266.725 Y93.087 E52.01762
G1 X267.297 Y94.313 E52.06751
G1 X268.245 Y95.261 E52.1169
G1 X269.438 Y95.818 E52.16546
G1 X270.474 Y95.965 E52.20401
G1 X271.504 Y95.808 E52.24242
G1 X272.729 Y95.231 E52.29235
G1 X274.066 Y93.516 E52.37253
G1 X274.323 Y92.136 E52.42426
G1 X274.274 Y91.628 E52.44308
G1 X275.34 Y92.707 E52.49898
G1 X275.34 Y237.293 E57.82933
M73 P2 R180
G1 X274.274 Y238.373 E57.88527
G1 X274.323 Y237.864 E57.90412
G1 X274.066 Y236.485 E57.95584
G1 X272.818 Y234.88 E58.0308
G1 X272.616 Y234.71 E58.04052
G1 X271.452 Y234.178 E58.0877
G1 X270.47 Y234.035 E58.1243
G1 X269.442 Y234.18 E58.16255
G1 X268.245 Y234.739 E58.21127
G1 X267.297 Y235.687 E58.26066
G1 X266.724 Y236.915 E58.31062
G1 X266.64 Y238.601 E58.37287
G1 X267.46 Y240.354 E58.4442
