; HEADER_BLOCK_START
; generated by OrcaSlicer 1.6.3 on 2023-07-12 at 17:25:52
; total layer number: 240
; HEADER_BLOCK_END

; THUMBNAIL_BLOCK_START
; THUMBNAIL_BLOCK_END

; external perimeters extrusion width = 0.40mm
; perimeters extrusion width = 0.45mm
; infill extrusion width = 0.45mm
; solid infill extrusion width = 0.40mm
; top infill extrusion width = 0.40mm
; first layer extrusion width = 0.50mm

; EXECUTABLE_BLOCK_START
EXCLUDE_OBJECT_DEFINE NAME=3DBenchy.stl_id_0_copy_0 CENTER=165,165 POLYGON=[[135,155.816],[135.002,155.755],[135.007,155.699],[135.012,155.646],[135.014,155.63],[135.02,155.583],[135.028,155.525],[135.046,155.436],[135.058,155.379],[135.074,155.322],[135.081,155.296],[135.097,155.239],[135.126,155.155],[135.141,155.118],[135.162,155.064],[135.169,155.047],[135.186,155.01],[135.209,154.958],[135.231,154.916],[135.264,154.854],[135.278,154.827],[135.291,154.806],[135.34,154.727],[135.357,154.7],[135.371,154.679],[135.405,154.631],[135.44,154.584],[135.484,154.531],[135.508,154.501],[135.539,154.466],[135.578,154.423],[135.592,154.408],[135.6,154.4],[135.641,154.359],[135.661,154.34],[135.704,154.3],[135.737,154.271],[135.783,154.234],[135.793,154.225],[135.828,154.197],[135.887,154.154],[135.935,154.121],[135.979,154.092],[136.044,154.052],[136.071,154.036],[136.124,154.008],[136.148,153.995],[136.175,153.981],[136.197,153.97],[136.253,153.944],[136.312,153.919],[136.362,153.899],[136.417,153.879],[136.429,153.875],[136.472,153.861],[136.485,153.857],[136.541,153.84],[136.548,153.838],[136.584,153.828],[136.597,153.825],[136.625,153.818],[136.641,153.814],[136.71,153.799],[136.739,153.794],[136.769,153.789],[136.798,153.784],[164.812,149.886],[165.055,149.853],[165.299,149.821],[165.543,149.791],[165.882,149.752],[166.105,149.728],[166.35,149.702],[166.596,149.678],[166.842,149.656],[167.087,149.635],[167.253,149.622],[167.333,149.616],[167.523,149.602],[167.579,149.598],[167.826,149.581],[167.987,149.571],[168.071,149.566],[168.232,149.557],[168.489,149.544],[168.597,149.539],[168.619,149.538],[168.755,149.532],[168.906,149.526],[169.05,149.521],[169.167,149.517],[169.233,149.515],[169.342,149.512],[169.46,149.509],[169.548,149.507],[169.689,149.504],[169.881,149.501],[170.062,149.499],[170.18,149.498],[170.578,149.498],[170.934,149.5],[171.369,149.508],[171.45,149.51],[171.805,149.52],[171.912,149.524],[172.24,149.537],[172.677,149.558],[173.009,149.578],[173.092,149.583],[173.202,149.59],[173.375,149.602],[173.495,149.611],[173.641,149.622],[173.728,149.629],[173.909,149.644],[174.04,149.655],[174.832,149.78],[174.841,149.782],[175.269,149.888],[175.377,149.915],[175.595,149.97],[175.737,150.007],[175.813,150.027],[175.967,150.068],[176.248,150.145],[176.424,150.195],[176.68,150.27],[176.896,150.334],[177.111,150.4],[177.332,150.47],[177.558,150.543],[177.752,150.607],[178.008,150.694],[178.178,150.753],[178.232,150.772],[178.4,150.832],[178.601,150.905],[178.822,150.987],[179.033,151.067],[179.233,151.145],[179.344,151.188],[179.443,151.228],[179.453,151.232],[179.662,151.316],[179.871,151.402],[179.927,151.425],[180.134,151.513],[180.341,151.603],[180.547,151.693],[180.957,151.879],[181.16,151.974],[181.363,152.07],[181.565,152.168],[181.766,152.267],[181.967,152.367],[182.166,152.469],[182.366,152.572],[182.563,152.677],[182.762,152.783],[182.957,152.89],[183.153,152.999],[183.348,153.11],[183.543,153.221],[183.737,153.334],[183.93,153.449],[184.123,153.565],[184.314,153.683],[184.505,153.801],[184.696,153.922],[184.885,154.043],[185.075,154.167],[185.262,154.291],[185.451,154.417],[185.637,154.544],[185.824,154.673],[186.008,154.803],[186.193,154.934],[186.376,155.067],[186.56,155.201],[186.742,155.337],[186.923,155.474],[187.104,155.612],[187.284,155.752],[187.463,155.893],[187.642,156.036],[187.82,156.18],[187.998,156.325],[188.173,156.472],[188.523,156.77],[188.697,156.921],[188.87,157.074],[189.042,157.228],[189.214,157.384],[189.328,157.489],[189.498,157.645],[189.665,157.803],[189.832,157.962],[189.996,158.122],[190.161,158.283],[190.325,158.445],[190.486,158.609],[190.647,158.773],[190.807,158.939],[190.966,159.106],[191.124,159.274],[191.282,159.443],[191.438,159.614],[191.592,159.785],[191.745,159.958],[191.898,160.132],[192.05,160.306],[192.201,160.483],[192.349,160.66],[192.498,160.838],[192.645,161.017],[192.791,161.198],[192.936,161.38],[193.081,161.563],[193.223,161.747],[193.364,161.932],[193.505,162.118],[193.645,162.305],[193.784,162.493],[193.921,162.683],[194.056,162.874],[194.192,163.065],[194.326,163.258],[194.458,163.452],[194.589,163.647],[194.618,163.692],[194.651,163.745],[194.682,163.798],[194.713,163.852],[194.742,163.907],[194.769,163.962],[194.819,164.076],[194.834,164.117],[194.856,164.175],[194.876,164.233],[194.895,164.292],[194.912,164.351],[194.929,164.413],[194.943,164.47],[194.954,164.53],[194.966,164.593],[194.975,164.652],[194.984,164.713],[194.991,164.774],[194.995,164.836],[194.998,164.905],[195,164.966],[195,165.027],[194.999,165.088],[194.996,165.149],[194.992,165.209],[194.986,165.27],[194.977,165.331],[194.968,165.391],[194.958,165.449],[194.945,165.512],[194.932,165.569],[194.916,165.632],[194.901,165.686],[194.883,165.745],[194.863,165.803],[194.842,165.861],[194.82,165.918],[194.797,165.974],[194.771,166.03],[194.744,166.086],[194.716,166.14],[194.686,166.194],[194.655,166.248],[194.623,166.301],[194.589,166.353],[194.472,166.527],[194.339,166.721],[194.206,166.914],[194.071,167.106],[193.936,167.297],[193.797,167.487],[193.659,167.676],[193.52,167.864],[193.38,168.05],[193.237,168.236],[193.095,168.42],[192.951,168.604],[192.659,168.968],[192.51,169.148],[192.361,169.328],[192.21,169.506],[192.06,169.683],[191.907,169.86],[191.752,170.035],[191.597,170.209],[191.482,170.337],[191.326,170.509],[191.167,170.68],[191.008,170.85],[190.848,171.018],[190.688,171.186],[190.526,171.352],[190.2,171.68],[190.034,171.841],[189.869,172.002],[189.703,172.161],[189.535,172.319],[189.367,172.475],[189.199,172.63],[189.028,172.784],[188.857,172.937],[188.686,173.089],[188.512,173.239],[188.338,173.388],[188.164,173.536],[187.987,173.682],[187.811,173.827],[187.632,173.971],[187.454,174.114],[187.275,174.256],[187.093,174.396],[186.911,174.535],[186.728,174.673],[186.544,174.81],[186.359,174.945],[186.173,175.08],[185.799,175.344],[185.611,175.474],[185.421,175.603],[185.23,175.731],[185.039,175.857],[184.846,175.982],[184.653,176.106],[184.458,176.228],[184.263,176.349],[184.067,176.469],[183.869,176.587],[183.672,176.704],[183.472,176.819],[183.272,176.934],[183.072,177.046],[182.87,177.158],[182.595,177.307],[182.395,177.412],[182.196,177.516],[181.996,177.618],[181.796,177.719],[181.595,177.818],[181.392,177.916],[181.19,178.012],[180.987,178.107],[180.783,178.2],[180.579,178.292],[180.374,178.383],[180.169,178.472],[179.963,178.559],[179.756,178.645],[179.666,178.682],[179.549,178.73],[179.341,178.813],[179.122,178.898],[179.003,178.944],[178.704,179.057],[178.493,179.134],[178.293,179.206],[178.071,179.284],[177.884,179.348],[177.869,179.353],[177.656,179.424],[177.443,179.494],[177.207,179.57],[177.005,179.632],[176.979,179.64],[176.751,179.709],[176.523,179.776],[176.295,179.841],[176.142,179.884],[176.065,179.905],[175.924,179.943],[175.707,180.001],[175.606,180.027],[175.488,180.057],[175.269,180.112],[174.844,180.218],[174.316,180.319],[174.306,180.32],[174.05,180.344],[174.003,180.348],[173.81,180.364],[173.725,180.371],[173.561,180.384],[173.481,180.39],[173.134,180.414],[172.688,180.441],[172.649,180.443],[172.264,180.462],[172.126,180.468],[171.778,180.481],[171.564,180.487],[171.344,180.493],[170.907,180.5],[170.522,180.502],[170.177,180.502],[169.877,180.499],[169.821,180.498],[169.599,180.494],[169.457,180.491],[169.338,180.488],[169.166,180.483],[169.076,180.48],[168.93,180.475],[168.752,180.468],[168.728,180.467],[168.57,180.46],[168.463,180.455],[168.332,180.448],[168.133,180.437],[167.889,180.423],[167.644,180.407],[167.629,180.406],[167.342,180.385],[167.096,180.366],[166.849,180.345],[166.667,180.328],[166.603,180.322],[166.423,180.305],[166.179,180.28],[166.111,180.273],[165.935,180.254],[165.619,180.218],[165.373,180.188],[165.204,180.166],[164.882,180.124],[136.827,176.22],[136.792,176.215],[136.743,176.207],[136.686,176.196],[136.653,176.189],[136.597,176.175],[136.584,176.172],[136.548,176.162],[136.536,176.159],[136.481,176.142],[136.429,176.125],[136.417,176.121],[136.362,176.101],[136.312,176.081],[136.253,176.056],[136.197,176.03],[136.155,176.009],[136.105,175.982],[136.086,175.972],[136.044,175.948],[135.993,175.917],[135.979,175.908],[135.944,175.885],[135.935,175.879],[135.887,175.846],[135.847,175.817],[135.84,175.811],[135.793,175.775],[135.756,175.744],[135.749,175.738],[135.704,175.7],[135.661,175.66],[135.641,175.64],[135.592,175.592],[135.557,175.555],[135.539,175.534],[135.519,175.511],[135.481,175.466],[135.445,175.42],[135.431,175.402],[135.41,175.374],[135.407,175.37],[135.373,175.322],[135.357,175.3],[135.342,175.278],[135.308,175.224],[135.278,175.173],[135.25,175.122],[135.231,175.084],[135.218,175.06],[135.195,175.012],[135.169,174.954],[135.148,174.903],[135.127,174.849],[135.109,174.793],[135.107,174.79],[135.09,174.738],[135.075,174.682],[135.06,174.625],[135.046,174.564],[135.035,174.507],[135.026,174.454],[135.025,174.448],[135.016,174.396],[135.012,174.353],[135.008,174.325],[135.002,174.245],[135,174.208],[135,174.179],[135,155.816]]
M73 P0 R47
;TYPE:Custom
START_PRINT T_BED=60 T_EXTRUDER=220
G90
G21
M83 ; use relative distances for extrusion
; filament start gcode

    PRESSURE_ADVANCE_SELECT FILAMENT=PLA
M106 S0
;LAYER_CHANGE
;Z:0.2
;HEIGHT:0.2
;BEFORE_LAYER_CHANGE
;0.2
G92 E0

M204 S1000
G1 E-.8 F3000
G1 X137.515 Y156.848 F9000
G1 Z.2
G1 E.8 F1800
;TYPE:Skirt
;WIDTH:0.5
G1 F3000
G1 X138.284 Y156.206 E.03731
G1 X139.346 Y155.687 E.04403
G1 X140.501 Y155.448 E.04391
G1 X165.305 Y153.989 E.92546
G1 X167.388 Y154.14 E.07777
G1 X169.686 Y154.601 E.08731
M73 P0 R46
G1 X171.917 Y155.363 E.08779
G1 X174.064 Y156.437 E.0894
G1 X176.019 Y157.766 E.08808
G1 X177.756 Y159.318 E.08675
G1 X179.286 Y161.1 E.08748
G1 X180.567 Y163.074 E.08765
G1 X180.929 Y164.083 E.03992
G1 X181.032 Y165.037 E.03575
G1 X180.879 Y166.119 E.04069
G1 X180.441 Y167.157 E.04197
G1 X179.357 Y168.806 E.07349
G1 X178.119 Y170.3 E.07228
G1 X176.622 Y171.741 E.07738
G1 X174.968 Y172.996 E.07734
G1 X173.755 Y173.74 E.05301
G1 X172.61 Y174.33 E.04796
G1 X171.455 Y174.822 E.04675
G1 X170.035 Y175.302 E.05583
G1 X167.458 Y175.85 E.09815
G1 X164.822 Y176.011 E.09834
G1 X140.215 Y174.521 E.91822
G1 X139.224 Y174.271 E.03805
G1 X138.384 Y173.858 E.03484
G1 X137.61 Y173.248 E.03673
G1 X137.027 Y172.547 E.03396
G1 X136.658 Y171.896 E.0279
G1 X136.429 Y171.298 E.02382
G1 X136.219 Y170.079 E.04607
G1 X136.229 Y159.765 E.38416
G1 X136.429 Y158.702 E.04031
G1 X136.817 Y157.791 E.03688
G1 X137.48 Y156.896 E.04147
G1 X137.843 Y157.187 F9000
G1 F3000
G1 X137.932 Y157.076 E.00528
G1 X138.626 Y156.53 E.0329
G1 X139.486 Y156.122 E.03545
G1 X140.544 Y155.903 E.04027
G1 X165.303 Y154.446 E.92377
G1 X167.321 Y154.593 E.07537
G1 X169.562 Y155.041 E.0851
G1 X171.737 Y155.783 E.08561
G1 X173.827 Y156.827 E.087
G1 X175.735 Y158.124 E.08593
G1 X177.432 Y159.641 E.08478
G1 X178.918 Y161.37 E.08492
G1 X180.161 Y163.286 E.08506
G1 X180.511 Y164.32 E.04067
G1 X180.563 Y165.3 E.03655
G1 X180.346 Y166.288 E.03765
G1 X179.784 Y167.364 E.04523
G1 X178.571 Y169.078 E.07821
G1 X177.384 Y170.408 E.06637
G1 X175.994 Y171.67 E.06996
G1 X174.346 Y172.856 E.07559
G1 X172.348 Y173.947 E.08482
G1 X171.297 Y174.393 E.04252
G1 X169.833 Y174.884 E.05751
G1 X167.401 Y175.397 E.09256
G1 X165.959 Y175.532 E.05396
G1 X164.756 Y175.553 E.04483
G1 X140.283 Y174.069 E.91319
G1 X139.39 Y173.845 E.03429
G1 X138.545 Y173.418 E.03525
G1 X137.86 Y172.852 E.03309
G1 X137.317 Y172.156 E.03291
G1 X136.868 Y171.17 E.04035
G1 X136.676 Y170.064 E.04181
G1 X136.684 Y159.808 E.38199
G1 X136.868 Y158.83 E.03704
G1 X137.31 Y157.853 E.03996
G1 X137.806 Y157.234 E.02954
; printing object 3DBenchy.stl id:0 copy 0
EXCLUDE_OBJECT_START NAME=3DBenchy.stl_id_0_copy_0
G1 E-.8
G1 X139.786 Y159.207 F9000
G1 E.8 F1800
;TYPE:Outer wall
;WIDTH:0.499999
G1 F3000
G1 X140.064 Y158.946 E.01419
G1 X140.502 Y158.746 E.01792
G1 X140.812 Y158.697 E.0117
G1 X164.18 Y157.277 E.87199
G1 X165.288 Y157.253 E.04127
G1 X166.115 Y157.289 E.03083
G1 X166.918 Y157.371 E.03008
G1 X167.729 Y157.499 E.03055
G1 X168.803 Y157.744 E.04105
G1 X169.593 Y157.978 E.03067
G1 X170.637 Y158.366 E.04151
G1 X171.477 Y158.748 E.03435
G1 X172.377 Y159.231 E.03805
G1 X173.09 Y159.675 E.03127
G1 X173.992 Y160.324 E.04142
G1 X174.78 Y160.985 E.03828
G1 X175.441 Y161.62 E.03413
G1 X176.044 Y162.276 E.03322
G1 X176.658 Y163.036 E.03638
G1 X177.186 Y163.783 E.03408
G1 X177.584 Y164.439 E.02859
G1 X177.735 Y164.758 E.01313
G1 X177.757 Y165.08 E.01201
G1 X177.669 Y165.419 E.01303
G1 X177.202 Y166.193 E.03368
G1 X176.061 Y167.885 E.07604
;WIDTH:0.45465
G1 X175.943 Y168.051 E.00683
;WIDTH:0.409301
G1 X175.825 Y168.217 E.00608
;WIDTH:0.393434
G1 X175.702 Y168.32 E.00457
;WIDTH:0.422915
G1 X175.579 Y168.423 E.00496
;WIDTH:0.461457
G1 X175.368 Y168.608 E.0096
;WIDTH:0.499999
G1 X175.156 Y168.794 E.01049
G1 X174.838 Y169.007 E.01425
G1 X173.962 Y169.699 E.04158
G1 X173.377 Y170.13 E.02705
G1 X172.472 Y170.713 E.04011
G1 X171.918 Y171.026 E.02371
G1 X171.199 Y171.386 E.02994
G1 X170.319 Y171.762 E.03566
G1 X169.465 Y172.063 E.0337
G1 X168.481 Y172.339 E.03809
G1 X167.535 Y172.536 E.03599
G1 X166.676 Y172.658 E.0323
G1 X165.778 Y172.731 E.03355
G1 X164.827 Y172.747 E.03543
G1 X164.166 Y172.722 E.02463
G1 X140.967 Y171.312 E.86566
G1 X140.45 Y171.239 E.01946
G1 X140.138 Y171.103 E.0127
G1 X139.86 Y170.879 E.01329
G1 X139.595 Y170.46 E.01845
G1 X139.481 Y169.945 E.01963
G1 X139.47 Y167.314 E.09802
;WIDTH:0.547687
G1 X139.479 Y166.72 E.02441
G1 X139.411 Y166.004 E.02959
;WIDTH:0.500778
G1 X139.373 Y165.164 E.03136
;WIDTH:0.496715
G1 X139.377 Y164.519 E.02388
;WIDTH:0.50909
G1 X139.466 Y163.071 E.05511
;WIDTH:0.499999
G1 X139.481 Y160.069 E.1118
G1 X139.596 Y159.535 E.02035
G1 X139.756 Y159.259 E.01189
G1 X139.862 Y159.217
G1 E-.8
G1 X140.019 Y159.453 F9000
G1 X158.558 Y161.404
G1 X170.866 Y162.971
G1 X172.123 Y164.463
G1 E.8 F1800
G1 F3000
G1 X172.004 Y164.032 E.01666
G1 X172.063 Y163.555 E.01788
G1 X172.204 Y163.379 E.0084
G1 X172.391 Y163.25 E.00846
G1 X172.908 Y163.137 E.0197
G1 X175.035 Y163.135 E.07924
G1 X175.356 Y163.213 E.01229
G1 X175.62 Y163.414 E.01235
G1 X175.757 Y163.68 E.01116
G1 X175.805 Y163.96 E.01056
G1 X175.77 Y164.314 E.01326
G1 X175.623 Y164.677 E.01462
G1 X175.16 Y165.36 E.03071
G1 X174.774 Y165.872 E.02388
G1 X174.231 Y166.51 E.03119
G1 X174.095 Y166.8 E.01194
G1 X174.489 Y166.806 E.01467
G1 X174.759 Y166.766 E.01016
G1 X175.266 Y166.836 E.01907
G1 X175.583 Y167.003 E.01335
G1 X175.726 Y167.181 E.00849
G1 X175.789 Y167.594 E.01558
G1 X175.722 Y167.863 E.01032
;WIDTH:0.474181
G1 X175.331 Y168.257 E.01947
;WIDTH:0.499999
G1 X174.819 Y168.361 E.01946
G1 X173.922 Y168.428 E.03349
G1 X173.255 Y168.424 E.02487
G1 X172.667 Y168.452 E.02191
G1 X172.353 Y168.392 E.0119
G1 X172.137 Y168.253 E.00957
G1 X171.932 Y167.946 E.01374
G1 X171.851 Y167.441 E.01906
G1 X171.939 Y167.075 E.01401
G1 X172.19 Y166.624 E.01922
G1 X172.866 Y165.721 E.04201
G1 X173.455 Y165.034 E.03372
G1 X173.618 Y164.741 E.01249
G1 X172.782 Y164.761 E.03114
G1 X172.294 Y164.634 E.01876
G1 X172.165 Y164.506 E.00678
G1 X172.043 Y164.466
G1 E-.8
G1 X172.242 Y163.888 F9000
G1 X172.253 Y163.832
G1 X172.269 Y163.779
G1 X172.289 Y163.731
G1 X172.312 Y163.69
G1 X172.338 Y163.655
G1 X173.067 Y162.792
G1 X173.898 Y162.799
G1 X175.84 Y162.883
G1 E.8 F1800
;TYPE:Inner wall
;WIDTH:0.67284
G1 F3000
G1 X176.201 Y163.334 E.02962
;WIDTH:0.683702
G1 X176.235 Y163.387 E.0033
G1 E-.8
G1 X175.015 Y166.334 F9000
G1 E.8 F1800
;WIDTH:0.499999
G1 F3000
G1 X175.536 Y165.619 E.03292
G1 X176.001 Y164.934 E.03084
G1 X176.196 Y164.479 E.01843
G1 X176.263 Y164.066 E.01559
;WIDTH:0.545925
