; HEADER_BLOCK_START
; generated by OrcaSlicer 1.6.3 on 2023-07-13 at 22:57:08
; total layer number: 119
; HEADER_BLOCK_END

; THUMBNAIL_BLOCK_START
; THUMBNAIL_BLOCK_END

; external perimeters extrusion width = 0.40mm
; perimeters extrusion width = 0.45mm
; infill extrusion width = 0.45mm
; solid infill extrusion width = 0.40mm
; top infill extrusion width = 0.40mm
; first layer extrusion width = 0.50mm

; EXECUTABLE_BLOCK_START
EXCLUDE_OBJECT_DEFINE NAME=4010_NF-Crazy.step_id_0_copy_0 CENTER=142.5,165 POLYGON=[[122.5,146.25],[122.502,146.118],[122.505,146.054],[122.509,145.985],[122.519,145.858],[122.527,145.787],[122.543,145.663],[122.555,145.589],[122.577,145.47],[122.593,145.395],[122.62,145.278],[122.64,145.202],[122.672,145.089],[122.696,145.014],[122.734,144.902],[122.761,144.829],[122.804,144.719],[122.834,144.649],[122.884,144.54],[122.916,144.473],[122.972,144.364],[123.006,144.304],[123.069,144.194],[123.102,144.139],[123.174,144.028],[123.206,143.981],[123.287,143.867],[123.315,143.83],[123.408,143.712],[123.431,143.685],[123.536,143.564],[123.552,143.546],[123.672,143.422],[123.678,143.415],[123.808,143.291],[123.814,143.286],[123.942,143.175],[123.962,143.158],[124.08,143.065],[124.117,143.037],[124.221,142.963],[124.278,142.924],[124.364,142.868],[124.444,142.819],[124.51,142.78],[124.614,142.722],[124.657,142.7],[124.79,142.634],[124.807,142.626],[124.957,142.559],[124.969,142.554],[125.109,142.5],[125.152,142.484],[125.262,142.446],[125.339,142.422],[125.415,142.4],[125.528,142.37],[125.569,142.36],[125.72,142.327],[125.724,142.326],[125.879,142.299],[125.913,142.293],[126.034,142.277],[126.108,142.269],[126.189,142.262],[126.304,142.255],[126.344,142.253],[126.5,142.25],[158.5,142.25],[158.639,142.252],[158.696,142.255],[158.778,142.26],[158.892,142.269],[158.918,142.272],[159.058,142.289],[159.087,142.293],[159.199,142.311],[159.28,142.327],[159.339,142.339],[159.472,142.37],[159.478,142.371],[159.618,142.409],[159.661,142.422],[159.757,142.453],[159.848,142.484],[159.896,142.501],[160.031,142.554],[160.033,142.556],[160.17,142.616],[160.21,142.634],[160.307,142.681],[160.386,142.722],[160.441,142.753],[160.556,142.819],[160.575,142.83],[160.706,142.913],[160.722,142.924],[160.835,143.003],[160.883,143.037],[160.963,143.098],[161.038,143.158],[161.087,143.199],[161.186,143.286],[161.208,143.306],[161.327,143.42],[161.328,143.422],[161.441,143.539],[161.464,143.564],[161.551,143.664],[161.592,143.712],[161.657,143.794],[161.713,143.867],[161.759,143.93],[161.826,144.028],[161.855,144.071],[161.931,144.194],[161.945,144.218],[162.028,144.364],[162.03,144.369],[162.109,144.525],[162.116,144.54],[162.181,144.685],[162.196,144.719],[162.246,144.848],[162.266,144.902],[162.305,145.016],[162.328,145.089],[162.356,145.186],[162.38,145.278],[162.4,145.359],[162.423,145.47],[162.436,145.535],[162.457,145.663],[162.464,145.712],[162.481,145.858],[162.484,145.89],[162.495,146.054],[162.496,146.07],[162.5,146.25],[162.5,187.75],[122.5,187.75],[122.5,146.25]]
M73 P0 R27
M73 C3
;TYPE:Custom
START_PRINT T_BED=110 T_EXTRUDER=260
G90
G21
M83 ; use relative distances for extrusion
; Filament gcode

    PRESSURE_ADVANCE_SELECT FILAMENT=ABS
M106 S0
;LAYER_CHANGE
;Z:0.2
;HEIGHT:0.2
;BEFORE_LAYER_CHANGE
;0.2
G92 E0

M204 S1000
G1 E-.5 F2400
G1 X122.066 Y140.945 F9000
G1 Z.2
G1 E.5 F1800
;TYPE:Skirt
;WIDTH:0.5
G1 F3000
G1 X123.306 Y140.118 E.05246
G1 X124.752 Y139.561 E.05454
G1 X126.091 Y139.349 E.0477
G1 X158.509 Y139.336 E1.14093
G1 X159.783 Y139.457 E.04503
G1 X160.899 Y139.766 E.04075
G1 X162.116 Y140.358 E.04764
G1 X163.091 Y141.081 E.04273
G1 X164.011 Y142.076 E.0477
G1 X164.631 Y143.054 E.04074
G1 X165.094 Y144.173 E.0426
G1 X165.349 Y145.308 E.04094
G1 X165.414 Y146.25 E.03324
G1 X165.414 Y184.633 E1.35086
G1 X165.021 Y186.095 E.05327
G1 X163.948 Y187.163 E.05327
G1 X162.5 Y187.548 E.05272
G1 X122.5 Y187.548 E1.40775
G1 X121.038 Y187.154 E.05327
G1 X119.971 Y186.081 E.05327
G1 X119.586 Y184.633 E.05272
G1 X119.586 Y146.248 E1.35093
G1 X119.672 Y145.164 E.03829
G1 X119.968 Y143.986 E.04274
G1 X120.438 Y142.927 E.04078
G1 X121.112 Y141.918 E.0427
G1 X122.024 Y140.988 E.04584
G1 X122.349 Y141.308 F9000
G1 F3000
G1 X122.364 Y141.292 E.00077
G1 X123.512 Y140.527 E.04854
G1 X124.874 Y140.001 E.05139
G1 X126.125 Y139.804 E.04455
G1 X158.509 Y139.793 E1.13974
G1 X159.705 Y139.907 E.04226
G1 X160.734 Y140.192 E.03761
G1 X161.872 Y140.744 E.04448
G1 X162.793 Y141.427 E.04036
G1 X163.651 Y142.357 E.04455
G1 X164.222 Y143.26 E.03759
G1 X164.66 Y144.316 E.04024
G1 X164.895 Y145.363 E.03778
G1 X164.957 Y146.25 E.03127
G1 X164.957 Y184.633 E1.35086
G1 X164.565 Y185.965 E.04884
G1 X163.515 Y186.871 E.04884
G1 X162.5 Y187.09 E.03653
G1 X122.5 Y187.09 E1.40775
M73 P0 R26
G1 X121.169 Y186.699 E.04884
G1 X120.262 Y185.648 E.04884
G1 X120.043 Y184.633 E.03653
G1 X120.043 Y146.248 E1.35093
G1 X120.123 Y145.242 E.03553
G1 X120.402 Y144.129 E.04036
G1 X120.835 Y143.152 E.03763
G1 X121.472 Y142.199 E.04032
G1 X122.307 Y141.35 E.0419
; printing object 4010_NF-Crazy.step id:0 copy 0
EXCLUDE_OBJECT_START NAME=4010_NF-Crazy.step_id_0_copy_0
G1 E-.5 F2400
G1 X128.154 Y184.283 F9000
G1 E.5 F1800
;TYPE:Outer wall
;WIDTH:0.499999
G1 F3000
G1 X122.85 Y184.283 E.18668
G1 X122.848 Y166.48 E.62657
;WIDTH:0.537337
G1 X122.867 Y166.178 E.01152
;WIDTH:0.574675
G1 X122.885 Y165.876 E.01239
;WIDTH:0.612012
G2 X122.884 Y165.125 I-3.55 J-.371 E.03295
;WIDTH:0.573252
G1 X122.865 Y164.677 E.01834
;WIDTH:0.534491
G1 X122.821 Y163.78 E.03397
;WIDTH:0.50383
G1 X122.784 Y162.691 E.03868
;WIDTH:0.500857
G1 X122.772 Y161.699 E.03498
;WIDTH:0.501291
G3 X122.803 Y160.212 I34.122 J-.044 E.05249
;WIDTH:0.513823
G1 X122.848 Y159.214 E.03625
;WIDTH:0.563329
G2 X122.865 Y157.978 I-8.043 J-.728 E.04955
;WIDTH:0.531664
G1 X122.849 Y157.542 E.01642
;WIDTH:0.499999
G1 X122.855 Y146.075 E.40359
G3 X126.327 Y142.605 I3.647 J.177 E.18945
G1 X136.857 Y142.596 E.3706
;WIDTH:0.520763
G2 X138.334 Y142.494 I-.715 J-21.212 E.0545
;WIDTH:0.488521
G1 X138.612 Y142.48 E.00953
;WIDTH:0.459679
G1 X138.889 Y142.465 E.00892
;WIDTH:0.430837
G1 X139.492 Y142.441 E.01801
;WIDTH:0.381438
G1 X145.513 Y142.441 E.15693
;WIDTH:0.423072
G1 X146.026 Y142.462 E.01504
;WIDTH:0.454568
G1 X146.358 Y142.478 E.01053
;WIDTH:0.486063
G1 X146.69 Y142.494 E.01133
;WIDTH:0.524556
G1 X147.671 Y142.592 E.03657
G1 X148.338 Y142.589 E.02474
;WIDTH:0.499999
G1 X158.672 Y142.605 E.36371
G3 X162.145 Y146.074 I-.174 J3.647 E.18947
G1 X162.151 Y157.538 E.40345
;WIDTH:0.542327
G1 X162.13 Y158.72 E.04549
G1 X162.166 Y159.352 E.02435
;WIDTH:0.511411
G1 X162.2 Y160.236 E.0319
;WIDTH:0.500255
G1 X162.225 Y161.211 E.03433
;WIDTH:0.500549
G1 X162.225 Y162.201 E.03491
;WIDTH:0.501205
G1 X162.2 Y163.192 E.03497
;WIDTH:0.514305
G1 X162.154 Y164.192 E.03634
;WIDTH:0.537716
G1 X162.137 Y164.698 E.01927
;WIDTH:0.570859
G1 X162.117 Y165.151 E.01843
;WIDTH:0.604002
G2 X162.116 Y165.895 I3.636 J.381 E.03218
;WIDTH:0.569335
G1 X162.133 Y166.185 E.0118
;WIDTH:0.534667
G1 X162.15 Y166.476 E.01103
;WIDTH:0.499999
G1 X162.15 Y184.283 E.62671
G1 X156.849 Y184.283 E.18657
G1 X156.84 Y183.559 E.02551
G1 X156.702 Y182.934 E.02251
G1 X156.4 Y182.371 E.02251
G1 X155.958 Y181.909 E.02251
G1 X155.407 Y181.584 E.02251
G1 X154.851 Y181.428 E.02033
G1 X154.504 Y181.4 E.01225
G1 X146.975 Y181.403 E.26496
;WIDTH:0.548341
G1 X146.524 Y181.379 E.01758
;WIDTH:0.596682
G2 X145.621 Y181.373 I-.483 J4.825 E.03854
;WIDTH:0.561435
G1 X145.17 Y181.391 E.01804
;WIDTH:0.526188
G1 X144.272 Y181.43 E.03343
;WIDTH:0.501341
G1 X143.228 Y181.461 E.03689
;WIDTH:0.500659
G1 X142.254 Y181.467 E.03432
;WIDTH:0.501157
G1 X141.28 Y181.449 E.03435
;WIDTH:0.510941
G1 X140.3 Y181.408 E.03538
;WIDTH:0.52966
G1 X139.799 Y181.392 E.01877
;WIDTH:0.559301
G1 X139.35 Y181.374 E.01788
;WIDTH:0.588942
G2 X138.463 Y181.379 I-.418 J4.857 E.03733
;WIDTH:0.544471
G1 X138.026 Y181.401 E.01692
;WIDTH:0.499999
G1 X130.586 Y181.405 E.26184
G1 X130.189 Y181.435 E.01401
G1 X129.637 Y181.573 E.02001
G1 X129.114 Y181.856 E.02093
G1 X128.659 Y182.292 E.02219
G1 X128.334 Y182.843 E.0225
G1 X128.17 Y183.457 E.02236
G1 X128.155 Y184.223 E.02698
G1 X128.087 Y184.241
G1 E-.5 F2400
G1 X143.926 Y181.75 F9000
G1 X158.532 Y180.342
G1 X158.742 Y180.315
G1 X158.929 Y180.272
G1 X159.094 Y180.219
G1 X159.231 Y180.161
G1 X159.406 Y180.069
G1 X159.566 Y179.963
G1 X159.735 Y179.826
G1 X159.891 Y179.667
G1 X160.011 Y179.518
G1 X160.049 Y179.46
G1 X159.755 Y179.267
G1 E.5 F1800
G1 F3000
G1 X159.662 Y179.414 E.0061
G1 X159.265 Y179.759 E.01851
G1 X158.806 Y179.955 E.01754
G1 X158.303 Y180.008 E.01783
G1 X157.855 Y179.936 E.01596
G1 X157.496 Y179.785 E.01372
G1 X157.09 Y179.483 E.01779
G1 X156.809 Y179.094 E.01689
G1 X156.645 Y178.615 E.01781
G1 X156.642 Y178.058 E.01962
G1 X156.802 Y177.567 E.01816
G1 X157.081 Y177.147 E.01778
G1 X157.494 Y176.815 E.01863
G1 X157.979 Y176.622 E.01836
G1 X158.483 Y176.578 E.01782
G1 X158.973 Y176.691 E.01769
G1 X159.461 Y176.959 E.01959
G1 X159.808 Y177.307 E.0173
G1 X160.036 Y177.759 E.0178
G1 X160.11 Y178.177 E.01492
G1 X160.072 Y178.616 E.01551
G1 X159.944 Y178.97 E.01325
G1 X159.787 Y179.217 E.01031
G1 X159.772 Y179.298
G1 X160.457 Y177.639 F9000
;TYPE:Inner wall
G1 F3000
G1 X160.554 Y178.029 E.01415
G1 X160.54 Y178.588 E.01969
G1 X160.401 Y179.068 E.01759
G1 X160.047 Y179.659 E.02423
G1 X159.557 Y180.11 E.02344
G1 X159.048 Y180.359 E.01994
G3 X157.689 Y180.362 I-.686 J-2.58 E.04835
G1 X157.23 Y180.157 E.01771
G1 X156.789 Y179.83 E.01931
G1 X156.48 Y179.434 E.0177
G3 X156.175 Y178.55 I2.811 J-1.461 E.03302
G1 X156.204 Y177.924 E.02205
G1 X156.421 Y177.314 E.02277
G1 X156.715 Y176.873 E.01867
G1 X157.151 Y176.493 E.02037
G1 X157.728 Y176.22 E.02245
G1 X157.939 Y176.167 E.00763
G1 X158.466 Y176.121 E.01862
G1 X159.016 Y176.223 E.01972
G1 X159.681 Y176.558 E.02618
G1 X160.091 Y176.93 E.01949
G1 X160.418 Y177.483 E.02262
G1 X160.442 Y177.581 E.00354
G1 E-.5 F2400
G1 X161.466 Y162.87 F9000
G1 X161.487 Y162.438
G1 X161.498 Y162.005
G1 X161.499 Y161.563
G1 X161.491 Y161.131
G1 X161.472 Y160.699
G1 X161.443 Y160.259
G1 X161.405 Y159.829
G1 X161.357 Y159.399
G1 X161.297 Y158.962
G1 X160.928 Y156.368
G1 X160.86 Y155.923
G1 X160.787 Y155.484
G1 X160.708 Y155.044
G1 X160.621 Y154.596
G1 X160.529 Y154.153
G1 X160.43 Y153.709
G1 X160.279 Y153.278
G1 X157.56 Y147.675
G1 X157.476 Y147.611
G1 X157.382 Y147.533
G1 X157.282 Y147.444
G1 X157.184 Y147.347
G1 X157.053 Y147.202
G1 X156.994 Y147.123
G1 X156.914 Y147.011
G1 X156.813 Y146.854
G1 X156.739 Y146.719
G1 X156.658 Y146.548
G1 X156.604 Y146.411
G1 X156.584 Y146.33
G1 X156.56 Y146.205
G1 X156.52 Y145.966
G1 X156.506 Y145.739
G1 X156.512 Y145.573
G1 X156.529 Y145.409
G1 X156.583 Y145.258
G1 X156.67 Y145.123
G1 X156.765 Y144.997
G1 X156.865 Y144.884
G1 X156.978 Y144.774
G1 X157.109 Y144.665
G1 X157.256 Y144.563
G1 X157.292 Y144.543
G1 X157.456 Y144.839
G1 E.5 F1800
;TYPE:Outer wall
G1 F3000
G1 X157.463 Y144.834 E.00031
G1 X157.951 Y144.627 E.01865
G1 X158.379 Y144.575 E.01519
G1 X158.823 Y144.639 E.01579
G1 X159.292 Y144.845 E.01802
G1 X159.617 Y145.09 E.01432
G1 X159.929 Y145.499 E.01811
G1 X160.077 Y145.919 E.01567
G1 X160.109 Y146.318 E.0141
G1 X160.002 Y146.841 E.0188
G1 X159.733 Y147.324 E.01944
G1 X159.38 Y147.68 E.01764
G1 X158.962 Y147.906 E.01672
G1 X158.463 Y148.008 E.01793
G1 X157.96 Y147.962 E.01779
G1 X157.467 Y147.771 E.0186
G1 X157.069 Y147.465 E.01766
G1 X156.783 Y147.039 E.01807
G1 X156.628 Y146.524 E.01891
G1 X156.623 Y146.182 E.01206
G1 X156.767 Y145.642 E.01966
G1 X157.051 Y145.183 E.01901
G1 X157.41 Y144.878 E.01657
G1 X157.456 Y144.837
G1 E-.5 F2400
G1 X157.212 Y144.593 F9000
G1 X145.511 Y142.97
G1 X139.494 Y142.97
G1 X138.959 Y143.063
G1 X128.08 Y145.108
G1 X127.789 Y145.314
G1 E.5 F1800
G1 F3000
G1 X127.926 Y145.491 E.00789
G1 X128.077 Y145.919 E.01595
G1 X128.109 Y146.318 E.0141
G1 X128.006 Y146.833 E.0185
G1 X127.733 Y147.324 E.01976
G1 X127.38 Y147.68 E.01764
G1 X126.962 Y147.906 E.01672
G1 X126.458 Y148.007 E.01811
G1 X125.96 Y147.962 E.0176
G1 X125.467 Y147.771 E.0186
G1 X125.042 Y147.433 E.01911
G1 X124.783 Y147.039 E.0166
G1 X124.631 Y146.555 E.01785
G1 X124.623 Y146.182 E.01313
G1 X124.755 Y145.666 E.01875
G1 X125.01 Y145.231 E.01771
G1 X125.403 Y144.872 E.01874
G1 X125.899 Y144.643 E.01923
G1 X126.403 Y144.574 E.01791
G1 X126.823 Y144.639 E.01497
G1 X127.303 Y144.853 E.0185
G1 X127.617 Y145.09 E.01384
G1 X127.753 Y145.266 E.00783
G1 X127.833 Y145.306
G1 X128.511 Y145.846 F9000
;TYPE:Inner wall
G1 F3000
G1 X128.567 Y146.206 E.01281
G1 X128.476 Y146.854 E.02301
G1 X128.398 Y147.069 E.00807
G1 X128.119 Y147.539 E.01922
;WIDTH:0.468505
G1 X127.738 Y147.949 E.01835
;WIDTH:0.499999
G1 X127.267 Y148.271 E.02009
G1 X127.06 Y148.353 E.00781
G1 X126.536 Y148.462 E.01885
G1 X125.989 Y148.432 E.0193
G1 X125.393 Y148.242 E.02199
G1 X125.19 Y148.134 E.0081
G1 X124.666 Y147.692 E.02413
G1 X124.347 Y147.177 E.02129
G1 X124.181 Y146.634 E.02002
G1 X124.165 Y146.153 E.01692
G3 X124.337 Y145.48 I3.585 J.56 E.02449
G3 X125.28 Y144.415 I2.281 J1.068 E.05075
G1 X125.763 Y144.206 E.01853
G1 X126.324 Y144.121 E.01998
G1 X126.829 Y144.17 E.01783
G1 X127.443 Y144.409 E.0232
G1 X127.838 Y144.675 E.01676
G1 X128.259 Y145.168 E.02282
G1 X128.485 Y145.683 E.0198
G1 X128.501 Y145.787 E.00371
G1 E-.5 F2400
G1 X135.916 Y143.535 F9000
M73 P1 R26
G1 E.5 F1800
;TYPE:Outer wall
G1 F3000
G1 X136.7 Y143.271 E.02913
;WIDTH:0.523569
G1 X137.586 Y143.039 E.03388
G1 X138.263 Y142.955 E.02527
;WIDTH:0.495889
G1 X138.589 Y142.903 E.01151
;WIDTH:0.464023
G1 X138.915 Y142.851 E.0107
;WIDTH:0.432157
G1 X139.463 Y142.781 E.01654
;WIDTH:0.38395
G1 X139.492 Y142.779 E.00077
;WIDTH:0.381438
G1 X145.513 Y142.779 E.15693
;WIDTH:0.431307
G1 X146.041 Y142.852 E.01594
;WIDTH:0.481191
G1 X146.569 Y142.925 E.01799
;WIDTH:0.523896
G1 X147.558 Y143.065 E.03699
G1 X148.248 Y143.255 E.02654
;WIDTH:0.499999
G3 X161.404 Y157.599 I-5.808 J18.531 E.71747
;WIDTH:0.531585
G1 X161.504 Y158.032 E.01674
;WIDTH:0.56317
G3 X161.651 Y158.911 I-3.472 J1.031 E.03577
;WIDTH:0.537836
G1 X161.697 Y159.356 E.01705
;WIDTH:0.512501
G1 X161.742 Y160.235 E.03181
;WIDTH:0.500472
G1 X161.766 Y161.124 E.03132
;WIDTH:0.499334
G1 X161.77 Y162.005 E.03097
;WIDTH:0.498766
G1 X161.754 Y162.878 E.03065
;WIDTH:0.501653
G1 X161.719 Y163.752 E.03091
;WIDTH:0.535474
G1 X161.647 Y164.635 E.0336
;WIDTH:0.57764
G1 X161.581 Y165.141 E.021
;WIDTH:0.604002
G3 X161.444 Y165.82 I-2.497 J-.15 E.03004
;WIDTH:0.569335
G1 X161.363 Y166.1 E.0118
;WIDTH:0.534667
G1 X161.283 Y166.38 E.01103
;WIDTH:0.499999
G3 X146.899 Y180.573 I-18.82 J-4.688 E.74804
;WIDTH:0.546543
G1 X146.471 Y180.687 E.01719
;WIDTH:0.593086
G3 X145.601 Y180.854 I-1.036 J-3.046 E.03765
;WIDTH:0.560516
G1 X145.159 Y180.907 E.01772
;WIDTH:0.527945
G1 X144.269 Y180.971 E.03333
;WIDTH:0.501698
G1 X143.385 Y181.001 E.03126
;WIDTH:0.499093
G1 X142.497 Y181.011 E.03117
;WIDTH:0.498579
G1 X141.621 Y181.001 E.03076
;WIDTH:0.500611
G1 X140.742 Y180.971 E.03096
;WIDTH:0.527776
G1 X139.858 Y180.909 E.03311
;WIDTH:0.564777
G1 X139.357 Y180.849 E.02027
;WIDTH:0.588942
G3 X138.534 Y180.687 I.215 J-3.249 E.03534
;WIDTH:0.544471
G1 X138.111 Y180.575 E.01692
;WIDTH:0.499999
G3 X123.721 Y166.394 I4.41 J-18.867 E.74799
;WIDTH:0.534809
G1 X123.639 Y166.108 E.01125
;WIDTH:0.569618
G1 X123.557 Y165.823 E.01204
;WIDTH:0.604427
G3 X123.416 Y165.1 I2.421 J-.848 E.03198
;WIDTH:0.570542
G1 X123.356 Y164.662 E.01795
;WIDTH:0.536656
G1 X123.282 Y163.777 E.03376
;WIDTH:0.504371
G1 X123.246 Y162.887 E.03164
;WIDTH:0.499394
G1 X123.246 Y162.882 E.00019
G1 X123.23 Y162.007 E.03076
;WIDTH:0.498409
G1 X123.234 Y161.124 E.03094
;WIDTH:0.498906
G1 X123.258 Y160.241 E.03103
;WIDTH:0.5076
G1 X123.304 Y159.374 E.03104
;WIDTH:0.542896
G1 X123.368 Y158.751 E.02411
;WIDTH:0.563329
G3 X123.494 Y158.039 I2.796 J.13 E.02908
;WIDTH:0.531664
G1 X123.593 Y157.614 E.01642
;WIDTH:0.499999
G3 X135.86 Y143.557 I18.933 J4.141 E.68503
G1 X135.93 Y143.457
G1 E-.5 F2400
G1 X133.326 Y144.35 F9000
G1 X132.918 Y144.534
G1 X132.515 Y144.764
G1 X132.132 Y144.996
G1 X131.743 Y145.243
