; generated by SuperSlicer 2.5.59 on 2023-03-21 at 23:49:03 UTC


;
;

;
;
; 

; external perimeters extrusion width = 0.40mm
; perimeters extrusion width = 0.46mm
; infill extrusion width = 0.64mm
; solid infill extrusion width = 0.56mm
; top infill extrusion width = 0.40mm
; support material extrusion width = 0.46mm
; first layer extrusion width = 0.50mm

; external perimeters extrusion width = 0.40mm
; perimeters extrusion width = 0.46mm
; infill extrusion width = 0.64mm
; solid infill extrusion width = 0.56mm
; top infill extrusion width = 0.40mm
; support material extrusion width = 0.46mm
; first layer extrusion width = 0.50mm

; object:{"name":"5x7x0","id":"5x7x0.5mm-shim-washer.stl id:0 copy 0","object_center":[159.044738,179.902659,0.000000],"boundingbox_center":[159.044738,179.902659,0.251250],"boundingbox_size":[7.035000,7.021111,0.502500]}
EXCLUDE_OBJECT_DEFINE NAME=5x7x0_5mm_shim_washer_stl_id_0_copy_0 CENTER=159.044738,179.902659 POLYGON=[[155.527232,179.902672],[155.554976,179.461808],[155.637760,179.027888],[155.774240,178.607792],[155.962320,178.208096],[156.199024,177.835136],[156.480592,177.494784],[156.802592,177.192384],[157.159968,176.932736],[157.547056,176.719936],[157.957760,176.557328],[158.385616,176.447472],[158.823872,176.392112],[159.265616,176.392112],[159.703856,176.447472],[160.131712,176.557328],[160.542416,176.719936],[160.929504,176.932736],[161.286880,177.192384],[161.608880,177.494784],[161.890464,177.835136],[162.127152,178.208096],[162.315232,178.607792],[162.451728,179.027888],[162.534496,179.461808],[162.562240,179.902672],[162.534496,180.343520],[162.451728,180.777440],[162.315232,181.197536],[162.127152,181.597232],[161.890464,181.970208],[161.608880,182.310544],[161.286880,182.612944],[160.929504,182.872592],[160.542416,183.085392],[160.131712,183.248000],[159.703856,183.357856],[159.265616,183.413216],[158.823872,183.413216],[158.385616,183.357856],[157.957760,183.248000],[157.547056,183.085392],[157.159968,182.872592],[156.802592,182.612944],[156.480592,182.310544],[156.199024,181.970208],[155.962320,181.597232],[155.774240,181.197536],[155.637760,180.777440],[155.554976,180.343520],[155.527232,179.902672]]
; object:{"name":"Sherpa_Mini_Mount","id":"Sherpa_Mini_Mount.stl id:1 copy 0","object_center":[165.000000,158.491777,0.000000],"boundingbox_center":[165.000000,158.491777,3.450043],"boundingbox_size":[53.005081,23.809677,6.900085]}
EXCLUDE_OBJECT_DEFINE NAME=Sherpa_Mini_Mount_stl_id_1_copy_0 CENTER=165.000000,158.491777 POLYGON=[[138.497472,166.836816],[138.502448,147.086816],[139.002560,146.586944],[191.002656,146.600064],[191.502528,147.100208],[191.497552,166.850208],[190.997408,167.350064],[177.223168,170.396624],[156.744960,170.391456],[152.770048,170.390448],[138.997312,167.336944],[138.497472,166.836816]]
; plater:{"center":[165.000000,165.000076,0.000000],"boundingbox_center":[165.000000,165.000076,3.450043],"boundingbox_size":[53.005081,36.826276,6.900085]}

M73 P0 R17
;TYPE:Custom
; custom gcode: start_gcode
START_PRINT T_BED=110 T_EXTRUDER=240
; custom gcode end: start_gcode
M107
G21 ; set units to millimeters
G90 ; use absolute coordinates
M82 ; use absolute distances for extrusion
G92 E0
; custom gcode: start_filament_gcode
; Filament gcode

    PRESSURE_ADVANCE_SELECT FILAMENT=ABS
; custom gcode end: start_filament_gcode
;_TOOLCHANGE 0
M104 S240 ; set temperature
M109 S240 ; set temperature and wait for it to be reached
M190 S110 ; set bed temperature and wait for it to be reached
;LAYER_CHANGE
;Z:0.2
;HEIGHT:0.2
G1 Z0.2 F9000
M73 P0 R17
G1 E-0.5 F3000
M204 S1000
G1 X138.88 Y143.274 F9000
G1 E0 F1800
;TYPE:Skirt
;WIDTH:0.52
G1 X137.271 Y145.164 E0.09454
G1 X136.834 Y147.036 E0.16775
G1 X136.732 Y151.722 E0.34622
G1 X136.828 Y166.827 E0.9215
G1 X137.117 Y168.405 E0.98259
G1 X138.141 Y170.032 E1.0558
G1 X153.142 Y185.541 E1.87747
G1 X154.073 Y186.372 E1.92503
G1 X154.923 Y186.944 E1.96405
G1 X156.246 Y187.567 E2.01973
G1 X157.229 Y187.857 E2.05875
G1 X158.24 Y188.022 E2.09777
G1 X159.264 Y188.059 E2.13679
G1 X160.861 Y187.857 E2.19808
G1 X161.843 Y187.567 E2.2371
G1 X162.782 Y187.156 E2.27612
G1 X190.773 Y170.886 E3.50908
G1 X191.193 Y170.611 E3.52819
G1 X192.754 Y168.719 E3.6216
G1 X193.167 Y166.842 E3.69481
G1 X193.271 Y151.736 E4.2701
G1 X193.171 Y147.051 E4.44856
G1 X192.507 Y144.749 E4.53981
G1 X191.199 Y143.339 E4.61302
G1 X188.431 Y142.43 E4.72401
G1 X141.577 Y142.418 E6.50832
G1 X138.88 Y143.274 E6.61606
G1 X139.156 Y143.664 F9000
G1 F1800
G1 X137.745 Y145.279 E6.69772
G1 X137.311 Y147.047 E6.76705
G1 X137.209 Y151.722 E6.94512
G1 X137.305 Y166.823 E7.52024
G1 X137.532 Y168.149 E7.57146
G1 X138.484 Y169.701 E7.64079
G1 X153.484 Y185.209 E8.46246
G1 X154.353 Y185.986 E8.50686
G1 X155.153 Y186.526 E8.5436
G1 X156.422 Y187.123 E8.597
G1 X157.347 Y187.395 E8.63374
G1 X158.3 Y187.549 E8.67048
G1 X159.264 Y187.582 E8.70722
G1 X160.742 Y187.395 E8.76395
G1 X161.668 Y187.123 E8.8007
G1 X162.552 Y186.738 E8.83743
G1 X190.533 Y170.473 E10.06995
M73 P1 R17
G1 X190.917 Y170.222 E10.08746
G1 X192.278 Y168.611 E10.16777
G1 X192.69 Y166.837 E10.23709
G1 X192.794 Y151.735 E10.81222
G1 X192.694 Y147.061 E10.99029
G1 X192.146 Y145.077 E11.06865
G1 X190.924 Y143.728 E11.13797
G1 X188.43 Y142.907 E11.23796
G1 X141.577 Y142.895 E13.02227
G1 X139.156 Y143.664 E13.119
G1 X139.431 Y144.053 F9000
G1 F1800
G1 X138.219 Y145.4 E13.188
G1 X137.788 Y147.057 E13.25322
G1 X137.685 Y155.893 E13.58971
G1 X137.782 Y166.819 E14.00582
G1 X137.952 Y167.897 E14.04739
G1 X138.827 Y169.369 E14.1126
G1 X153.827 Y184.877 E14.93427
G1 X154.634 Y185.6 E14.97552
G1 X155.383 Y186.108 E15.00998
G1 X156.597 Y186.68 E15.0611
G1 X157.466 Y186.933 E15.09556
G1 X158.36 Y187.076 E15.13002
G1 X159.264 Y187.105 E15.16448
G1 X160.623 Y186.933 E15.21666
G1 X161.492 Y186.68 E15.25112
G1 X162.322 Y186.32 E15.28558
G1 X190.293 Y170.061 E16.51765
G1 X190.642 Y169.832 E16.53356
G1 X191.803 Y168.495 E16.60097
G1 X192.213 Y166.833 E16.66619
G1 X192.317 Y151.735 E17.24115
G1 X192.217 Y147.071 E17.41882
G1 X191.781 Y145.402 E17.4845
G1 X190.648 Y144.118 E17.54971
G1 X188.43 Y143.384 E17.63869
G1 X141.577 Y143.372 E19.423
M73 P2 R17
G1 X139.431 Y144.053 E19.50872
G1 X139.707 Y144.443 F9000
G1 F1800
G1 X138.693 Y145.529 E19.56531
G1 X138.265 Y147.068 E19.62613
G1 X138.162 Y155.889 E19.96207
G1 X138.259 Y166.815 E20.37818
G1 X138.377 Y167.651 E20.41035
G1 X139.17 Y169.037 E20.47117
G1 X154.17 Y184.546 E21.29284
M73 P2 R17
G1 X154.914 Y185.214 E21.33094
G1 X155.613 Y185.69 E21.36312
G1 X156.773 Y186.236 E21.41195
G1 X157.585 Y186.471 E21.44414
G1 X158.419 Y186.602 E21.47631
G1 X159.264 Y186.628 E21.50849
G1 X160.505 Y186.471 E21.55612
G1 X161.317 Y186.236 E21.5883
G1 X162.092 Y185.902 E21.62048
G1 X190.053 Y169.649 E22.85211
G1 X190.367 Y169.442 E22.86641
G1 X191.327 Y168.372 E22.92118
G1 X191.736 Y166.828 E22.982
G1 X191.84 Y151.735 E23.5568
G1 X191.74 Y147.081 E23.73407
G1 X191.409 Y145.723 E23.78732
G1 X190.373 Y144.507 E23.84814
G1 X188.43 Y143.861 E23.92611
G1 X141.576 Y143.849 E25.71042
G1 X139.707 Y144.443 E25.78514
G92 E0
G1 E-0.5 F3000
; printing object 5x7x0.5mm-shim-washer.stl id:0 copy 0
EXCLUDE_OBJECT_START NAME=5x7x0_5mm_shim_washer_stl_id_0_copy_0
; acceleration to travel
M204 S3000
G1 X153.091 Y169.273 F9000
; decel to extrusion
M204 S1000
G1 X157.552 Y177.55
; end travel
G1 E0 F1800
;TYPE:External perimeter
;WIDTH:0.5
G1 X157.269 Y177.756 E0.01277
G1 X157.014 Y177.996 E0.02553
G1 X156.791 Y178.265 E0.0383
G1 X156.603 Y178.56 E0.05106
G1 X156.454 Y178.877 E0.06383
G1 X156.346 Y179.21 E0.07659
G1 X156.281 Y179.553 E0.08936
G1 X156.259 Y179.903 E0.10212
G1 X156.281 Y180.252 E0.11489
G1 X156.346 Y180.596 E0.12765
G1 X156.454 Y180.928 E0.14042
G1 X156.603 Y181.245 E0.15318
G1 X156.791 Y181.54 E0.16595
G1 X157.014 Y181.81 E0.17871
G1 X157.269 Y182.049 E0.19148
G1 X157.552 Y182.255 E0.20425
G1 X157.859 Y182.424 E0.21701
G1 X158.184 Y182.552 E0.22978
G1 X158.523 Y182.639 E0.24254
G1 X158.87 Y182.683 E0.25531
G1 X159.22 Y182.683 E0.26807
G1 X159.567 Y182.639 E0.28084
G1 X159.906 Y182.552 E0.2936
G1 X160.231 Y182.424 E0.30637
G1 X160.538 Y182.255 E0.31913
G1 X160.821 Y182.049 E0.3319
G1 X161.076 Y181.81 E0.34466
G1 X161.299 Y181.54 E0.35743
G1 X161.486 Y181.245 E0.3702
G1 X161.635 Y180.928 E0.38296
G1 X161.743 Y180.596 E0.39573
G1 X161.809 Y180.252 E0.40849
G1 X161.831 Y179.903 E0.42126
G1 X161.809 Y179.553 E0.43402
G1 X161.743 Y179.21 E0.44679
G1 X161.635 Y178.877 E0.45955
G1 X161.486 Y178.56 E0.47232
G1 X161.299 Y178.265 E0.48508
G1 X161.076 Y177.996 E0.49785
G1 X160.821 Y177.756 E0.51061
G1 X160.538 Y177.55 E0.52338
G1 X160.231 Y177.382 E0.53615
G1 X159.906 Y177.253 E0.54891
G1 X159.567 Y177.166 E0.56168
G1 X159.22 Y177.122 E0.57444
G1 X158.87 Y177.122 E0.58721
G1 X158.523 Y177.166 E0.59997
G1 X158.184 Y177.253 E0.61274
G1 X157.859 Y177.382 E0.6255
G1 X157.552 Y177.55 E0.63827
;WIPE_START
M204 S4000
G1 X157.194 Y177.373 F9000
;WIPE_END
M204 S1000
G1 X156.978 Y177.404
G1 F1800
G1 X157.307 Y177.165 E0.65313
G1 X157.664 Y176.968 E0.66799
G1 X158.043 Y176.818 E0.68285
G1 X158.437 Y176.717 E0.69771
G1 X158.841 Y176.666 E0.71256
G1 X159.248 Y176.666 E0.72742
G1 X159.652 Y176.717 E0.74228
G1 X160.047 Y176.818 E0.75714
G1 X160.426 Y176.968 E0.772
G1 X160.782 Y177.165 E0.78686
G1 X161.112 Y177.404 E0.80172
G1 X161.409 Y177.683 E0.81658
G1 X161.668 Y177.996 E0.83144
G1 X161.887 Y178.34 E0.8463
G1 X162.06 Y178.709 E0.86116
G1 X162.186 Y179.096 E0.87602
G1 X162.262 Y179.496 E0.89088
G1 X162.288 Y179.903 E0.90574
G1 X162.262 Y180.309 E0.92059
G1 X162.186 Y180.709 E0.93545
G1 X162.06 Y181.096 E0.95031
G1 X161.887 Y181.465 E0.96517
G1 X161.668 Y181.809 E0.98003
G1 X161.409 Y182.123 E0.99489
G1 X161.112 Y182.401 E1.00975
G1 X160.782 Y182.641 E1.02461
G1 X160.426 Y182.837 E1.03947
G1 X160.047 Y182.987 E1.05433
G1 X159.652 Y183.088 E1.06919
G1 X159.248 Y183.139 E1.08405
G1 X158.841 Y183.139 E1.09891
G1 X158.437 Y183.088 E1.11377
G1 X158.043 Y182.987 E1.12862
G1 X157.664 Y182.837 E1.14348
G1 X157.307 Y182.641 E1.15834
G1 X156.978 Y182.401 E1.1732
G1 X156.681 Y182.123 E1.18806
G1 X156.421 Y181.809 E1.20292
G1 X156.203 Y181.465 E1.21778
G1 X156.029 Y181.096 E1.23264
G1 X155.904 Y180.709 E1.2475
G1 X155.827 Y180.309 E1.26236
G1 X155.802 Y179.903 E1.27722
G1 X155.827 Y179.496 E1.29208
G1 X155.904 Y179.096 E1.30694
G1 X156.029 Y178.709 E1.32179
G1 X156.203 Y178.34 E1.33666
G1 X156.421 Y177.996 E1.35151
G1 X156.681 Y177.683 E1.36637
G1 X156.978 Y177.404 E1.38123
;WIPE_START
M204 S4000
G1 X157.349 Y177.551 F9000
;WIPE_END
G92 E0
G1 E-0.5 F3000
; stop printing object 5x7x0.5mm-shim-washer.stl id:0 copy 0
EXCLUDE_OBJECT_END NAME=5x7x0_5mm_shim_washer_stl_id_0_copy_0
; printing object Sherpa_Mini_Mount.stl id:1 copy 0
EXCLUDE_OBJECT_START NAME=Sherpa_Mini_Mount_stl_id_1_copy_0
; acceleration to travel
M204 S3000
G1 X160.473 Y161.23 F9000
; decel to extrusion
M204 S1000
G1 X161.515 Y155.79
; end travel
G1 E0 F1800
;TYPE:Internal perimeter
G1 X161.541 Y155.851 E0.00243
G1 X161.887 Y156.383 E0.02559
G1 X162.246 Y156.789 E0.04538
G1 X162.741 Y157.205 E0.06895
G1 X163.376 Y157.564 E0.09557
G1 X163.891 Y157.76 E0.11566
G1 X164.517 Y157.891 E0.139
G1 X165.161 Y157.917 E0.16252
G1 X165.801 Y157.838 E0.18604
G1 X166.419 Y157.655 E0.20956
G1 X166.999 Y157.374 E0.23307
G1 X167.516 Y157.007 E0.25621
G1 X167.907 Y156.631 E0.276
G1 X168.303 Y156.119 E0.2996
G1 X168.635 Y155.47 E0.32621
G1 X168.809 Y154.948 E0.34629
G1 X168.914 Y154.317 E0.36964
G1 X168.915 Y153.672 E0.39316
G1 X168.809 Y153.036 E0.41668
G1 X168.601 Y152.426 E0.4402
G1 X168.296 Y151.859 E0.46371
G1 X167.908 Y151.357 E0.48683
G1 X167.517 Y150.981 E0.50662
G1 X166.989 Y150.606 E0.53026
G1 X166.311 Y150.295 E0.55748
G1 X165.698 Y150.135 E0.58059
G1 X165.151 Y150.07 E0.60071
G1 X164.616 Y150.092 E0.62022
G1 X163.903 Y150.222 E0.64668
G1 X163.287 Y150.461 E0.67078
G1 X162.732 Y150.789 E0.69429
G1 X162.248 Y151.196 E0.71739
G1 X161.888 Y151.602 E0.73718
G1 X161.542 Y152.134 E0.76034
G1 X161.285 Y152.725 E0.78385
G1 X161.127 Y153.35 E0.80737
G1 X161.074 Y153.993 E0.83089
G1 X161.127 Y154.635 E0.85441
G1 X161.284 Y155.26 E0.87792
G1 X161.515 Y155.79 E0.89901
G1 X161.932 Y155.603 F9000
G1 F1800
G1 X161.945 Y155.634 E0.90022
G1 X162.252 Y156.106 E0.92076
G1 X162.566 Y156.461 E0.93808
G1 X163.003 Y156.828 E0.95888
G1 X163.571 Y157.149 E0.98269
G1 X164.019 Y157.32 E1.0002
G1 X164.574 Y157.435 E1.02086
G1 X165.142 Y157.459 E1.04162
G1 X165.707 Y157.389 E1.06239
G1 X166.253 Y157.228 E1.08316
G1 X166.765 Y156.979 E1.10392
G1 X167.224 Y156.654 E1.12445
G1 X167.566 Y156.325 E1.14177
G1 X167.915 Y155.873 E1.16259
G1 X168.212 Y155.293 E1.18639
G1 X168.364 Y154.838 E1.20389
G1 X168.457 Y154.279 E1.22456
G1 X168.457 Y153.71 E1.24532
G1 X168.364 Y153.148 E1.26609
G1 X168.181 Y152.61 E1.28686
G1 X167.911 Y152.108 E1.30762
G1 X167.567 Y151.663 E1.32813
G1 X167.225 Y151.335 E1.34545
G1 X166.759 Y151.004 E1.3663
G1 X166.157 Y150.727 E1.39049
G1 X165.613 Y150.585 E1.41098
G1 X165.133 Y150.529 E1.42863
G1 X164.667 Y150.547 E1.44566
G1 X164.028 Y150.664 E1.46936
G1 X163.487 Y150.873 E1.4905
G1 X162.998 Y151.163 E1.51126
G1 X162.568 Y151.525 E1.53176
G1 X162.253 Y151.88 E1.54908
G1 X161.946 Y152.352 E1.56961
G1 X161.719 Y152.873 E1.59038
G1 X161.579 Y153.425 E1.61115
G1 X161.532 Y153.993 E1.63191
G1 X161.579 Y154.56 E1.65268
G1 X161.718 Y155.112 E1.67345
G1 X161.932 Y155.603 E1.693
G1 X162.349 Y155.416 F9000
;TYPE:External perimeter
G1 F1800
G1 X162.617 Y155.828 E1.71092
G1 X162.886 Y156.133 E1.72577
G1 X163.264 Y156.451 E1.74379
G1 X163.765 Y156.734 E1.76479
G1 X164.148 Y156.88 E1.77972
G1 X164.63 Y156.98 E1.79769
G1 X165.124 Y157.001 E1.81571
G1 X165.614 Y156.94 E1.83373
G1 X166.087 Y156.8 E1.85174
G1 X166.531 Y156.584 E1.86976
G1 X166.932 Y156.3 E1.88767
G1 X167.225 Y156.018 E1.90252
G1 X167.528 Y155.627 E1.92056
G1 X167.79 Y155.115 E1.94155
G1 X167.919 Y154.727 E1.95648
G1 X168 Y154.241 E1.97445
G1 X168 Y153.747 E1.99247
G1 X167.92 Y153.26 E2.01049
G1 X167.76 Y152.793 E2.0285
G1 X167.526 Y152.358 E2.04652
G1 X167.226 Y151.97 E2.06442
G1 X166.933 Y151.688 E2.07927
G1 X166.53 Y151.401 E2.09732
G1 X166.003 Y151.159 E2.11848
G1 X165.529 Y151.036 E2.13635
G1 X165.115 Y150.987 E2.15154
G1 X164.717 Y151.003 E2.16608
G1 X164.152 Y151.106 E2.18702
G1 X163.688 Y151.286 E2.2052
G1 X163.263 Y151.537 E2.22321
G1 X162.887 Y151.853 E2.24111
G1 X162.617 Y152.157 E2.25596
G1 X162.35 Y152.569 E2.27388
G1 X162.152 Y153.022 E2.29189
G1 X162.032 Y153.501 E2.30991
G1 X161.991 Y153.993 E2.32793
G1 X162.031 Y154.485 E2.34594
G1 X162.152 Y154.964 E2.36396
G1 X162.349 Y155.416 E2.38198
;WIPE_START
M204 S4000
G1 X162.148 Y155.762 F9000
;WIPE_END
G92 E0
G1 E-0.5 F3000
; acceleration to travel
M204 S3000
G1 X155.519 Y163.198 F9000
; decel to extrusion
M204 S1000
G1 X153.309 Y165.676
; end travel
G1 E0 F1800
;TYPE:Internal perimeter
G1 X142.662 Y165.674 E0.38846
G1 X142.664 Y157.838 E0.67436
G1 X142.644 Y157.213 E0.69715
G1 X143.113 Y157.299 E0.71455
G1 X143.74 Y157.267 E0.73745
G1 X144.231 Y157.158 E0.75579
G1 X144.79 Y156.929 E0.77785
G1 X145.305 Y156.595 E0.80024
G1 X145.75 Y156.173 E0.82263
G1 X146.109 Y155.675 E0.84502
G1 X146.371 Y155.12 E0.86741
G1 X146.522 Y154.539 E0.8893
G1 X146.567 Y154.046 E0.90736
G1 X146.526 Y153.451 E0.92913
G1 X146.366 Y152.838 E0.95225
G1 X146.046 Y152.21 E0.97795
G1 X145.749 Y151.802 E0.99637
G1 X145.307 Y151.382 E1.01864
G1 X144.792 Y151.048 E1.04103
G1 X144.223 Y150.814 E1.06347
G1 X143.63 Y150.693 E1.08554
G1 X143.116 Y150.677 E1.10432
G1 X142.66 Y150.749 E1.12113
M73 P3 R17
G1 X142.665 Y148.252 E1.21222
G1 X187.34 Y148.263 E2.84224
G1 X187.343 Y150.765 E2.9335
G1 X186.954 Y150.689 E2.94795
G1 X186.318 Y150.708 E2.97116
G1 X185.818 Y150.819 E2.98985
G1 X185.162 Y151.083 E3.01565
G1 X184.639 Y151.439 E3.03874
G1 X184.218 Y151.859 E3.06044
G1 X183.926 Y152.259 E3.0785
G1 X183.657 Y152.797 E3.10046
G1 X183.488 Y153.387 E3.12284
G1 X183.431 Y153.998 E3.14523
G1 X183.488 Y154.609 E3.16762
G1 X183.656 Y155.199 E3.19001
G1 X183.925 Y155.738 E3.21197
G1 X184.217 Y156.137 E3.23002
