; generated by SuperSlicer 2.5.59 on 2023-05-07 at 00:16:34 UTC


;
;

;
;
; 

; external perimeters extrusion width = 0.40mm
; perimeters extrusion width = 0.46mm
; infill extrusion width = 0.64mm
; solid infill extrusion width = 0.56mm
; top infill extrusion width = 0.40mm
; support material extrusion width = 0.46mm
; first layer extrusion width = 0.50mm

; object:{"name":"6","id":"6.HDD_BacktPlate.stl id:0 copy 0","object_center":[165.000000,165.000000,0.000000],"boundingbox_center":[165.000000,165.000000,4.649002],"boundingbox_size":[223.619995,158.500000,9.298004]}
EXCLUDE_OBJECT_DEFINE NAME=6_HDD_BacktPlate_stl_id_0_copy_0 CENTER=165.000000,165.000000 POLYGON=[[53.190004,92.100000],[59.541992,85.750000],[270.458016,85.750000],[276.809984,92.100000],[276.809984,237.900000],[270.458016,244.250000],[59.541992,244.250000],[53.190004,237.900000],[53.190004,92.100000]]
; plater:{"center":[165.000000,165.000000,0.000000],"boundingbox_center":[165.000000,165.000000,4.649002],"boundingbox_size":[223.619995,158.500000,9.298004]}

M73 P0 R180
;TYPE:Custom
; custom gcode: start_gcode
START_PRINT T_BED=70 T_EXTRUDER=235
; custom gcode end: start_gcode
M107
G21 ; set units to millimeters
G90 ; use absolute coordinates
M82 ; use absolute distances for extrusion
G92 E0
; custom gcode: start_filament_gcode
; Filament gcode
PRESSURE_ADVANCE_SELECT FILAMENT=PETG
; custom gcode end: start_filament_gcode
;_TOOLCHANGE 0
M104 S235 ; set temperature
M109 S235 ; set temperature and wait for it to be reached
M190 S70 ; set bed temperature and wait for it to be reached
;LAYER_CHANGE
;Z:0.2
;HEIGHT:0.2
G1 Z0.2 F9000
M73 P0 R180
G1 E-1 F3000
M204 S1000
G1 X57.308 Y83.809 F9000
G1 E0 F1800
;TYPE:Skirt
;WIDTH:0.52
G1 X53.681 Y87.292 E0.19349
G1 X51.25 Y89.866 E0.32974
G1 X50.632 Y90.75 E0.37124
G1 X50.237 Y92.416 E0.43713
G1 X50.237 Y237.584 E6.02308
G1 X50.394 Y238.651 E6.06458
G1 X51.25 Y240.134 E6.13048
G1 X54.734 Y243.76 E6.32397
G1 X57.308 Y246.191 E6.46022
G1 X58.192 Y246.809 E6.50169
G1 X59.858 Y247.204 E6.56759
G1 X270.142 Y247.204 E14.65916
G1 X271.208 Y247.047 E14.70064
G1 X272.691 Y246.191 E14.76653
G1 X275.266 Y243.76 E14.90278
G1 X278.744 Y240.14 E15.09593
G1 X279.368 Y239.25 E15.13777
G1 X279.763 Y237.584 E15.20366
G1 X279.763 Y92.416 E20.78961
G1 X279.604 Y91.341 E20.83143
G1 X278.744 Y89.86 E20.89732
G1 X275.189 Y86.164 E21.09466
G1 X272.692 Y83.809 E21.22674
G1 X271.808 Y83.191 E21.26822
G1 X270.142 Y82.796 E21.33411
G1 X59.858 Y82.796 E29.42569
G1 X58.791 Y82.953 E29.46716
G1 X57.308 Y83.809 E29.53306
G1 X57.636 Y84.156 F9000
G1 F1800
G1 X54.72 Y86.928 E29.68785
G1 X51.597 Y90.194 E29.86172
G1 X51.108 Y90.868 E29.89379
G1 X50.714 Y92.416 E29.95525
G1 X50.714 Y237.584 E35.5412
G1 X50.822 Y238.41 E35.57327
G1 X51.597 Y239.806 E35.63472
G1 X54.019 Y242.371 E35.77043
G1 X57.636 Y245.844 E35.96339
G1 X58.31 Y246.333 E35.99544
G1 X59.858 Y246.727 E36.0569
G1 X270.142 Y246.727 E44.14847
G1 X270.968 Y246.619 E44.18052
G1 X272.364 Y245.844 E44.24197
G1 X274.929 Y243.423 E44.37768
G1 X278.397 Y239.812 E44.57034
G1 X278.892 Y239.132 E44.60271
G1 X279.286 Y237.584 E44.66416
G1 X279.286 Y92.416 E50.25012
G1 X279.177 Y91.583 E50.28246
G1 X278.398 Y90.188 E50.34392
G1 X274.929 Y86.577 E50.5366
G1 X272.364 Y84.156 E50.67231
G1 X271.69 Y83.667 E50.70436
G1 X270.142 Y83.273 E50.76581
G1 X59.858 Y83.273 E58.85739
M73 P0 R179
G1 X59.032 Y83.381 E58.88943
G1 X57.636 Y84.156 E58.95089
G92 E0
G1 E-1 F3000
; printing object 6.HDD_BacktPlate.stl id:0 copy 0
EXCLUDE_OBJECT_START NAME=6_HDD_BacktPlate_stl_id_0_copy_0
; acceleration to travel
M204 S3000
G1 X59.021 Y198.445 F9000
; decel to extrusion
M204 S1000
G1 X59.482 Y236.541
; end travel
G1 E0 F1800
;TYPE:Support material
;WIDTH:0.5
G1 X59.694 Y236.566 E0.00785
G1 X59.885 Y236.592 E0.01495
G1 X60.307 Y236.789 E0.03215
G1 X60.642 Y237.118 E0.04944
G1 X60.84 Y237.544 E0.06676
G1 X60.877 Y238.115 E0.08783
G1 X60.581 Y238.784 E0.11482
G1 X60.326 Y239.007 E0.12731
G1 X59.963 Y239.191 E0.14231
G1 X59.702 Y239.242 E0.15211
G1 X58.911 Y239.08 E0.18187
G1 X58.498 Y238.765 E0.20103
G1 X58.2 Y238.123 E0.2271
G1 X58.177 Y237.94 E0.2339
G1 X58.226 Y237.644 E0.24499
G1 X58.315 Y237.367 E0.2557
G1 X58.77 Y236.782 E0.28302
G1 X59.123 Y236.612 E0.29747
G1 X59.284 Y236.568 E0.30361
G1 X59.482 Y236.541 E0.31101
; acceleration to travel
M204 S3000
G1 X60.155 Y238.242 F9000
; decel to extrusion
M204 S1000
G1 X60.38 Y238.81
; end travel
G1 F1800
G1 X60.38 Y237.296 E0.36682
G1 X60.136 Y237.052 E0.37954
G1 X59.872 Y236.929 E0.39027
G1 X59.872 Y238.889 E0.46255
G1 X59.696 Y238.927 E0.46919
G1 X59.364 Y238.855 E0.4817
G1 X59.364 Y236.87 E0.5549
G1 X59.234 Y236.903 E0.55983
G1 X58.969 Y237.027 E0.57061
G1 X58.856 Y237.172 E0.57741
G1 X58.856 Y238.896 E0.64095
G92 E0
G1 E-1 F3000
; acceleration to travel
M204 S3000
G1 X216.536 Y238.168 F9000
; decel to extrusion
M204 S1000
G1 X269.096 Y237.925
; end travel
G1 E0 F1800
G1 X269.145 Y237.636 E0.01083
G1 X269.265 Y237.266 E0.02516
G1 X269.342 Y237.127 E0.03101
G1 X269.593 Y236.86 E0.04452
G1 X270.112 Y236.599 E0.06594
G1 X270.573 Y236.558 E0.083
G1 X271.163 Y236.739 E0.10578
G1 X271.631 Y237.22 E0.13049
G1 X271.805 Y237.666 E0.14815
G1 X271.812 Y238.077 E0.16332
G1 X271.683 Y238.275 E0.17201
G1 X271.337 Y238.919 E0.19897
G1 X271.112 Y239.083 E0.20925
G1 X270.569 Y239.237 E0.23002
G1 X269.988 Y239.166 E0.25162
G1 X269.404 Y238.758 E0.27787
G1 X269.279 Y238.591 E0.28558
G1 X269.146 Y238.258 E0.29879
G1 X269.096 Y237.925 E0.31119
; acceleration to travel
M204 S3000
G1 X270.632 Y238.672 F9000
; decel to extrusion
M204 S1000
G1 X271.144 Y238.921
; end travel
G1 F1800
G1 X271.144 Y237.165 E0.37591
G1 X270.987 Y237.004 E0.38421
G1 X270.636 Y236.901 E0.39769
G1 X270.636 Y238.898 E0.47134
G1 X270.556 Y238.922 E0.47444
G1 X270.128 Y238.871 E0.4903
G1 X270.128 Y236.937 E0.56158
G1 X269.788 Y237.106 E0.57558
G1 X269.62 Y237.285 E0.58462
G1 X269.62 Y238.77 E0.63936
G92 E0
G1 E-1 F3000
; acceleration to travel
M204 S3000
G1 X112.886 Y129.354 F9000
; decel to extrusion
M204 S1000
G1 X60.642 Y92.882
; end travel
G1 E0 F1800
G1 X60.307 Y93.211 E0.01729
G1 X59.867 Y93.413 E0.03516
G1 X59.467 Y93.459 E0.04999
G1 X59.132 Y93.391 E0.06259
G1 X58.769 Y93.218 E0.07743
G1 X58.325 Y92.651 E0.104
G1 X58.228 Y92.364 E0.11515
G1 X58.177 Y92.076 E0.12592
G1 X58.2 Y91.877 E0.13332
G1 X58.478 Y91.259 E0.15829
G1 X58.882 Y90.933 E0.17744
G1 X59.679 Y90.759 E0.20751
G1 X59.947 Y90.803 E0.21753
G1 X60.326 Y90.993 E0.23314
G1 X60.595 Y91.236 E0.2465
G1 X60.873 Y91.853 E0.27146
G1 X60.834 Y92.477 E0.29452
G1 X60.642 Y92.882 E0.31103
G1 X60.38 Y92.982 F9000
G1 F1800
G1 X60.38 Y91.514 E0.36514
G1 X60.334 Y91.413 E0.36926
G1 X60.156 Y91.255 E0.378
G1 X59.872 Y91.111 E0.38977
G1 X59.872 Y93.071 E0.46205
G1 X59.79 Y93.11 E0.46538
G1 X59.479 Y93.147 E0.47693
G1 X59.364 Y93.13 E0.48121
G1 X59.364 Y91.145 E0.55441
G1 X59.028 Y91.217 E0.56707
G1 X58.856 Y91.361 E0.57535
G1 X58.856 Y93.137 E0.64084
G92 E0
G1 E-1 F3000
; acceleration to travel
M204 S3000
G1 X216.536 Y92.354 F9000
; decel to extrusion
M204 S1000
G1 X269.097 Y92.093
; end travel
G1 E0 F1800
G1 X269.143 Y91.755 E0.01257
G1 X269.279 Y91.409 E0.02628
G1 X269.391 Y91.255 E0.03331
G1 X269.988 Y90.834 E0.06024
G1 X270.593 Y90.765 E0.08268
G1 X271.112 Y90.917 E0.10261
G1 X271.353 Y91.1 E0.1138
G1 X271.683 Y91.725 E0.13984
G1 X271.799 Y91.886 E0.14716
G1 X271.805 Y92.334 E0.16367
G1 X271.631 Y92.78 E0.18133
G1 X271.163 Y93.261 E0.20605
G1 X270.573 Y93.442 E0.22881
G1 X270.132 Y93.407 E0.24512
G1 X269.609 Y93.152 E0.26656
G1 X269.333 Y92.861 E0.28136
G1 X269.261 Y92.724 E0.28706
G1 X269.145 Y92.364 E0.301
G1 X269.097 Y92.093 E0.31116
; acceleration to travel
M204 S3000
G1 X270.632 Y92.861 F9000
; decel to extrusion
M204 S1000
G1 X271.144 Y93.117
; end travel
G1 F1800
G1 X271.144 Y91.37 E0.37557
G1 X271.105 Y91.296 E0.37864
G1 X270.98 Y91.202 E0.38439
G1 X270.636 Y91.102 E0.39761
G1 X270.636 Y93.099 E0.47126
G1 X270.531 Y93.13 E0.47529
G1 X270.207 Y93.102 E0.4873
G1 X270.128 Y93.063 E0.49053
G1 X270.128 Y91.129 E0.56181
G1 X269.62 Y91.47 E0.58436
G1 X269.62 Y93.002 E0.64085
G92 E0
G1 E-1 F3000
; acceleration to travel
M204 S3000
G1 X157.328 Y180.614 F9000
; decel to extrusion
M204 S1000
G1 X119.898 Y209.817
; end travel
G1 E0 F1800
;TYPE:Internal perimeter
G1 X120.015 Y210.71 E0.03319
G1 X120.397 Y211.633 E0.07001
G1 X121.005 Y212.425 E0.10682
G1 X121.797 Y213.033 E0.14363
G1 X122.72 Y213.415 E0.18044
G1 X123.71 Y213.545 E0.21726
G1 X124.7 Y213.415 E0.25407
G1 X125.623 Y213.033 E0.29088
G1 X126.415 Y212.425 E0.32769
G1 X127.023 Y211.633 E0.36451
G1 X127.405 Y210.71 E0.40132
G1 X127.535 Y209.72 E0.43813
G1 X127.405 Y208.73 E0.47494
G1 X127.023 Y207.807 E0.51176
G1 X126.415 Y207.015 E0.54857
G1 X125.623 Y206.407 E0.58538
G1 X124.7 Y206.025 E0.62219
G1 X123.71 Y205.895 E0.659
G1 X123.215 Y205.96 E0.67741
G1 X122.72 Y206.025 E0.69582
G1 X121.797 Y206.407 E0.73263
G1 X121.005 Y207.015 E0.76944
G1 X120.397 Y207.807 E0.80625
G1 X120.015 Y208.73 E0.84307
G1 X119.885 Y209.72 E0.87988
G1 X119.898 Y209.817 E0.8835
G1 X120.352 Y209.769 F9000
G1 F1800
G1 X120.461 Y210.591 E0.91406
G1 X120.797 Y211.402 E0.94644
G1 X121.331 Y212.099 E0.97882
G1 X122.028 Y212.633 E1.01119
G1 X122.839 Y212.969 E1.04357
G1 X123.71 Y213.084 E1.07594
G1 X124.581 Y212.969 E1.10832
G1 X125.392 Y212.633 E1.14069
G1 X126.089 Y212.099 E1.17307
G1 X126.623 Y211.402 E1.20544
G1 X126.959 Y210.591 E1.23782
G1 X127.074 Y209.72 E1.27019
G1 X126.959 Y208.849 E1.30257
G1 X126.623 Y208.038 E1.33495
G1 X126.089 Y207.341 E1.36732
G1 X125.392 Y206.807 E1.3997
G1 X124.581 Y206.471 E1.43207
G1 X123.71 Y206.356 E1.46445
G1 X123.275 Y206.413 E1.48064
G1 X122.839 Y206.471 E1.49682
G1 X122.028 Y206.807 E1.5292
G1 X121.331 Y207.341 E1.56157
G1 X120.797 Y208.038 E1.59395
G1 X120.461 Y208.849 E1.62633
G1 X120.346 Y209.72 E1.6587
G1 X120.352 Y209.769 E1.66051
G1 X120.807 Y209.72 F9000
;TYPE:External perimeter
G1 F1800
G1 X120.906 Y210.471 E1.68845
G1 X121.196 Y211.172 E1.71639
G1 X121.657 Y211.773 E1.74433
G1 X122.258 Y212.234 E1.77226
G1 X122.959 Y212.524 E1.8002
G1 X123.71 Y212.623 E1.82814
G1 X124.461 Y212.524 E1.85608
G1 X125.162 Y212.234 E1.88402
G1 X125.763 Y211.773 E1.91196
G1 X126.224 Y211.172 E1.9399
G1 X126.514 Y210.471 E1.96783
G1 X126.613 Y209.72 E1.99577
G1 X126.514 Y208.969 E2.02371
G1 X126.224 Y208.268 E2.05165
G1 X125.763 Y207.667 E2.07959
G1 X125.162 Y207.206 E2.10753
G1 X124.461 Y206.916 E2.13547
G1 X123.71 Y206.817 E2.16341
G1 X123.334 Y206.866 E2.17737
G1 X122.959 Y206.916 E2.19134
G1 X122.258 Y207.206 E2.21928
G1 X121.657 Y207.667 E2.24722
G1 X121.196 Y208.268 E2.27516
G1 X120.906 Y208.969 E2.3031
G1 X120.807 Y209.72 E2.33104
;WIPE_START
M204 S4000
G1 X120.47 Y209.935 F9000
;WIPE_END
G92 E0
G1 E-1 F3000
; acceleration to travel
M204 S3000
G1 X77.379 Y196.329 F9000
; decel to extrusion
M204 S1000
G1 X63.016 Y191.793
; end travel
G1 E0 F1800
;TYPE:Internal perimeter
G1 X62.414 Y191.789 E0.02219
G1 X61.649 Y192.021 E0.05167
G1 X60.995 Y192.43 E0.08011
G1 X60.468 Y192.986 E0.10833
G1 X60.1 Y193.654 E0.13647
G1 X59.911 Y194.38 E0.16413
G1 X59.909 Y195.145 E0.19233
G1 X60.104 Y195.898 E0.221
G1 X60.47 Y196.556 E0.24873
G1 X60.995 Y197.11 E0.27689
G1 X61.651 Y197.52 E0.30543
G1 X62.429 Y197.753 E0.33538
G1 X63.016 Y197.747 E0.35701
G1 X62.996 Y198.352 E0.37934
G1 X62.996 Y202.671 E0.53858
G1 X62.217 Y203.064 E0.57072
G1 X61.649 Y203.562 E0.59858
G1 X61.21 Y204.207 E0.62736
G1 X60.953 Y204.934 E0.65578
G1 X60.889 Y205.698 E0.68405
G1 X61.015 Y206.444 E0.71191
G1 X61.334 Y207.156 E0.74069
G1 X61.819 Y207.755 E0.76911
G1 X62.438 Y208.212 E0.79744
G1 X63.151 Y208.497 E0.82577
G1 X63.572 Y208.551 E0.84141
G1 X63.699 Y208.855 E0.85356
G1 X64.504 Y209.9 E0.9022
G1 X65.607 Y210.751 E0.95356
G1 X66.865 Y211.269 E1.0037
G1 X68.128 Y211.434 E1.05065
G1 X97.293 Y211.434 E2.12586
G1 X98.562 Y211.267 E2.17307
G1 X99.823 Y210.745 E2.22335
G1 X100.905 Y209.915 E2.27364
G1 X101.735 Y208.833 E2.32393
G1 X102.257 Y207.572 E2.37421
G1 X102.424 Y206.303 E2.42142
G1 X102.424 Y184.137 E3.23858
G1 X102.257 Y182.868 E3.28579
G1 X101.735 Y181.607 E3.33607
G1 X100.905 Y180.525 E3.38636
G1 X99.823 Y179.695 E3.43664
G1 X98.562 Y179.173 E3.48693
G1 X97.293 Y179.006 E3.53413
G1 X68.127 Y179.006 E4.60936
G1 X66.858 Y179.173 E4.65657
G1 X65.597 Y179.695 E4.70685
G1 X64.515 Y180.525 E4.75714
G1 X63.685 Y181.607 E4.80742
G1 X63.163 Y182.868 E4.85771
G1 X62.996 Y184.137 E4.90492
G1 X62.996 Y191.199 E5.16526
G1 X63.016 Y191.793 E5.18719
G1 X63.492 Y192.368 F9000
G1 F1800
G1 X63.174 Y192.252 E5.19968
G1 X62.48 Y192.246 E5.22525
G1 X61.84 Y192.441 E5.24993
G1 X61.286 Y192.786 E5.27398
G1 X60.84 Y193.258 E5.2979
G1 X60.528 Y193.824 E5.32176
G1 X60.368 Y194.439 E5.34517
G1 X60.366 Y195.088 E5.36908
G1 X60.532 Y195.727 E5.39343
G1 X60.841 Y196.283 E5.41689
G1 X61.286 Y196.754 E5.44077
G1 X61.841 Y197.1 E5.46488
G1 X62.494 Y197.296 E5.48999
G1 X63.175 Y197.288 E5.51511
G1 X63.492 Y197.172 E5.52756
G1 X63.453 Y198.36 E5.57136
G1 X63.453 Y203.067 E5.74492
G1 X63.056 Y203.153 E5.7599
G1 X62.475 Y203.446 E5.78388
G1 X61.994 Y203.867 E5.80745
G1 X61.621 Y204.415 E5.83189
G1 X61.404 Y205.031 E5.85596
G1 X61.349 Y205.679 E5.87994
G1 X61.456 Y206.31 E5.90351
G1 X61.727 Y206.915 E5.92795
G1 X62.138 Y207.422 E5.95202
G1 X62.662 Y207.809 E5.97604
G1 X63.267 Y208.051 E6.00005
G1 X63.891 Y208.131 E6.02327
G1 X64.098 Y208.623 E6.04296
G1 X64.83 Y209.574 E6.08721
G1 X65.838 Y210.351 E6.13413
G1 X66.984 Y210.823 E6.17981
G1 X68.157 Y210.977 E6.22346
G1 X97.263 Y210.977 E7.29646
G1 X98.443 Y210.822 E7.34035
G1 X99.592 Y210.346 E7.3862
G1 X100.579 Y209.589 E7.43204
G1 X101.336 Y208.602 E7.47789
G1 X101.812 Y207.453 E7.52374
G1 X101.967 Y206.273 E7.56762
G1 X101.967 Y184.167 E8.38258
G1 X101.812 Y182.987 E8.42646
G1 X101.336 Y181.838 E8.47231
G1 X100.579 Y180.851 E8.51816
G1 X99.592 Y180.094 E8.56401
G1 X98.443 Y179.618 E8.60986
G1 X97.263 Y179.463 E8.65374
G1 X68.157 Y179.463 E9.72676
G1 X66.977 Y179.618 E9.77064
G1 X65.828 Y180.094 E9.81649
G1 X64.841 Y180.851 E9.86234
G1 X64.084 Y181.838 E9.90819
G1 X63.608 Y182.987 E9.95404
G1 X63.453 Y184.167 E9.99792
G1 X63.453 Y191.191 E10.25688
G1 X63.492 Y192.368 E10.30027
G1 X64.01 Y193.098 F9000
;TYPE:External perimeter
G1 F1800
G1 X63.573 Y192.883 E10.31821
G1 X63.091 Y192.708 E10.3371
G1 X62.546 Y192.704 E10.35721
G1 X62.03 Y192.86 E10.37707
G1 X61.578 Y193.143 E10.39673
G1 X61.212 Y193.529 E10.41635
G1 X60.956 Y193.995 E10.43594
G1 X60.825 Y194.498 E10.45511
G1 X60.824 Y195.03 E10.47472
G1 X60.96 Y195.556 E10.49475
G1 X61.213 Y196.011 E10.51394
G1 X61.578 Y196.397 E10.53353
G1 X62.031 Y196.68 E10.55322
G1 X62.558 Y196.838 E10.5735
G1 X63.092 Y196.832 E10.59318
G1 X63.573 Y196.657 E10.61206
G1 X64.01 Y196.442 E10.63
G1 X64.01 Y196.857 E10.64527
G1 X63.944 Y197.352 E10.66369
G1 X63.91 Y198.367 E10.70113
G1 X63.91 Y203.483 E10.88972
G1 X63.732 Y203.475 E10.8963
G1 X63.209 Y203.588 E10.916
G1 X62.733 Y203.828 E10.93569
G1 X62.339 Y204.173 E10.95497
G1 X62.032 Y204.623 E10.97507
G1 X61.854 Y205.128 E10.9948
G1 X61.809 Y205.66 E11.01448
G1 X61.897 Y206.176 E11.03376
G1 X62.12 Y206.673 E11.05387
G1 X62.456 Y207.089 E11.07359
G1 X62.886 Y207.407 E11.09329
G1 X63.382 Y207.605 E11.11299
G1 X63.917 Y207.673 E11.13285
G1 X64.178 Y207.633 E11.14261
G1 X64.496 Y208.392 E11.17295
G1 X65.156 Y209.249 E11.21282
G1 X66.068 Y209.952 E11.2553
G1 X67.102 Y210.378 E11.29652
G1 X68.187 Y210.52 E11.33685
G1 X97.233 Y210.52 E12.40766
G1 X98.324 Y210.376 E12.44822
G1 X99.362 Y209.947 E12.48963
G1 X100.253 Y209.263 E12.53104
G1 X100.937 Y208.372 E12.57246
G1 X101.366 Y207.334 E12.61387
G1 X101.51 Y206.243 E12.65443
G1 X101.51 Y184.197 E13.46717
G1 X101.366 Y183.106 E13.50773
G1 X100.937 Y182.068 E13.54914
G1 X100.253 Y181.177 E13.59056
G1 X99.362 Y180.493 E13.63197
G1 X98.324 Y180.064 E13.67338
G1 X97.233 Y179.92 E13.71394
G1 X68.187 Y179.92 E14.78475
G1 X67.096 Y180.064 E14.82531
G1 X66.058 Y180.493 E14.86672
G1 X65.167 Y181.177 E14.90813
G1 X64.483 Y182.068 E14.94955
G1 X64.054 Y183.106 E14.99096
G1 X63.91 Y184.197 E15.03152
