; generated by SuperSlicer 2.5.59 on 2023-03-10 at 21:45:55 UTC


;
;

;
;
; 

; external perimeters extrusion width = 0.40mm
; perimeters extrusion width = 0.46mm
; infill extrusion width = 0.64mm
; solid infill extrusion width = 0.56mm
; top infill extrusion width = 0.40mm
; support material extrusion width = 0.46mm
; first layer extrusion width = 0.50mm

; object:{"name":"70mm Gate","id":"70mm Gate id:0 copy 0","object_center":[165.000000,165.000000,0.000000],"boundingbox_center":[165.000000,165.000000,2.000000],"boundingbox_size":[110.000000,110.000000,4.000000]}
; plater:{"center":[165.000000,165.000000,0.000000],"boundingbox_center":[165.000000,165.000000,2.000000],"boundingbox_size":[110.000000,110.000000,4.000000]}

M73 P0 R44


; Pre-Processed for Cancel-Object support by preprocess_cancellation v0.2.0
; 1 known objects
EXCLUDE_OBJECT_DEFINE NAME=70mm_Gate_id_0_copy_0 CENTER=164.902,168.723 POLYGON=[[110.2,110.2],[110.2,219.8],[219.8,219.8],[219.8,110.2]]
;TYPE:Custom
; custom gcode: start_gcode
START_PRINT T_BED=70 T_EXTRUDER=235
; custom gcode end: start_gcode
M107
G21 ; set units to millimeters
G90 ; use absolute coordinates
M82 ; use absolute distances for extrusion
G92 E0
; custom gcode: start_filament_gcode
; Filament gcode
PRESSURE_ADVANCE_SELECT FILAMENT=PETG
; custom gcode end: start_filament_gcode
;_TOOLCHANGE 0
M104 S235 ; set temperature
M109 S235 ; set temperature and wait for it to be reached
M190 S70 ; set bed temperature and wait for it to be reached
;LAYER_CHANGE
;Z:0.2
;HEIGHT:0.2
G1 Z0.2 F9000
G1 E-1 F3000
M204 S1000
G1 X112.659 Y107.298 F9000
G1 E0 F1800
;TYPE:Skirt
;WIDTH:0.52
G1 X111.662 Y108.69 E0.06386
G1 X107.562 Y118.69 E0.46687
G1 X107.284 Y120.1 E0.52044
G1 X107.284 Y207.586 E3.78272
G1 X107.473 Y208.756 E3.82691
G1 X108.373 Y210.213 E3.89077
G1 X119.787 Y221.627 E4.49269
G1 X120.748 Y222.321 E4.53689
G1 X122.414 Y222.716 E4.60074
G1 X207.586 Y222.716 E7.77672
M73 P0 R44
G1 X208.756 Y222.527 E7.82091
G1 X210.213 Y221.627 E7.88477
G1 X221.627 Y210.213 E8.4867
G1 X222.321 Y209.252 E8.53089
G1 X222.716 Y207.586 E8.59475
G1 X222.716 Y120.1 E11.85702
G1 X222.438 Y118.69 E11.91059
G1 X218.338 Y108.69 E12.31361
G1 X217.879 Y107.879 E12.34837
G1 X216.566 Y106.779 E12.41223
G1 X214.9 Y106.384 E12.47608
G1 X115.1 Y106.384 E16.19754
G1 X114.175 Y106.501 E16.23231
G1 X112.659 Y107.298 E16.29616
G1 X113.054 Y107.591 F9000
G1 F1800
G1 X112.104 Y108.871 E16.35563
G1 X108.004 Y118.871 E16.75864
G1 X107.761 Y120.1 E16.80533
G1 X107.761 Y207.586 E20.06761
M73 P1 R44
G1 X107.894 Y208.503 E20.10216
G1 X108.71 Y209.876 E20.16171
G1 X120.124 Y221.29 E20.76364
G1 X120.866 Y221.845 E20.79819
G1 X122.414 Y222.239 E20.85775
G1 X207.586 Y222.239 E24.03372
G1 X208.503 Y222.106 E24.06828
G1 X209.876 Y221.29 E24.12783
G1 X221.29 Y209.876 E24.72976
G1 X221.845 Y209.134 E24.76431
G1 X222.239 Y207.586 E24.82387
G1 X222.239 Y120.1 E28.08614
G1 X221.996 Y118.871 E28.13283
G1 X217.896 Y108.871 E28.53585
G1 X216.448 Y107.255 E28.61678
G1 X214.9 Y106.861 E28.67634
G1 X115.1 Y106.861 E32.39779
G1 X113.054 Y107.591 E32.47881
G92 E0
G1 E-1 F3000
; printing object 70mm Gate id:0 copy 0
EXCLUDE_OBJECT_START NAME=70mm_Gate_id_0_copy_0
; acceleration to travel
M204 S3000
G1 X115.462 Y110.346 F9000
; decel to extrusion
M204 S1000
G1 X116.264 Y111.264
; end travel
G1 E0 F1800
;TYPE:Internal perimeter
;WIDTH:0.5
G1 X123.736 Y111.264 E0.26693
G1 X123.736 Y121.264 E0.62419
G1 X127.836 Y121.264 E0.77067
G1 X127.836 Y194.896 E3.40125
M73 P1 R44
G1 X135.104 Y202.164 E3.76845
G1 X194.896 Y202.164 E5.9046
G1 X202.164 Y194.896 E6.2718
G1 X202.164 Y121.264 E8.90238
G1 X206.264 Y121.264 E9.04886
G1 X206.264 Y111.264 E9.40612
G1 X213.736 Y111.264 E9.67305
G1 X213.736 Y121.264 E10.03031
G1 X217.836 Y121.264 E10.17679
G1 X217.836 Y207.104 E13.24348
G1 X207.104 Y217.836 E13.78572
G1 X122.896 Y217.836 E16.7941
G1 X112.164 Y207.104 E17.33634
G1 X112.164 Y121.264 E20.40303
G1 X116.264 Y121.264 E20.54951
G1 X116.264 Y111.264 E20.90677
G1 X115.807 Y110.807 F9000
G1 F1800
G1 X124.193 Y110.807 E21.20636
G1 X124.193 Y120.807 E21.56362
G1 X128.293 Y120.807 E21.7101
G1 X128.293 Y194.707 E24.35024
G1 X135.293 Y201.707 E24.70391
G1 X194.707 Y201.707 E26.82654
G1 X201.707 Y194.707 E27.18021
G1 X201.707 Y120.807 E29.82036
M73 P2 R43
G1 X205.807 Y120.807 E29.96683
G1 X205.807 Y110.807 E30.32409
G1 X214.193 Y110.807 E30.62368
G1 X214.193 Y120.807 E30.98094
G1 X218.293 Y120.807 E31.12742
G1 X218.293 Y207.293 E34.21721
G1 X207.293 Y218.293 E34.77297
G1 X122.707 Y218.293 E37.79488
G1 X111.707 Y207.293 E38.35065
G1 X111.707 Y120.807 E41.44044
G1 X115.807 Y120.807 E41.58691
G1 X115.807 Y110.807 E41.94417
G1 X115.35 Y110.35 F9000
;TYPE:External perimeter
G1 F1800
G1 X124.65 Y110.35 E42.27642
G1 X124.65 Y120.35 E42.63368
G1 X128.75 Y120.35 E42.78016
G1 X128.75 Y194.518 E45.42987
G1 X135.482 Y201.25 E45.77001
G1 X194.518 Y201.25 E47.87911
G1 X201.25 Y194.518 E48.21925
G1 X201.25 Y120.35 E50.86897
G1 X205.35 Y120.35 E51.01544
G1 X205.35 Y110.35 E51.3727
G1 X214.65 Y110.35 E51.70495
M73 P3 R43
G1 X214.65 Y120.35 E52.06221
G1 X218.75 Y120.35 E52.20869
G1 X218.75 Y207.482 E55.32157
G1 X207.482 Y218.75 E55.89087
G1 X122.518 Y218.75 E58.9263
M73 P3 R43
G1 X111.25 Y207.482 E59.4956
G1 X111.25 Y120.35 E62.60848
G1 X115.35 Y120.35 E62.75495
G1 X115.35 Y110.35 E63.11221
;WIPE_START
M204 S4000
G1 X115.696 Y110.55 F9000
;WIPE_END
G92 E0
G1 E-1 F3000
; acceleration to travel
M204 S3000
G1 X188.951 Y118.408 F9000
; decel to extrusion
M204 S1000
G1 X216.857 Y121.401
; end travel
G1 E0 F1800
;TYPE:Solid infill
;WIDTH:0.501647
G1 F3600
G1 X217.699 Y122.243 E0.04266
G1 X217.699 Y122.889 F9000
G1 F3600
G1 X216.211 Y121.401 E0.11809
G1 X215.564 Y121.401 F9000
G1 F3600
G1 X217.699 Y123.536 E0.22629
G1 X217.699 Y124.182 F9000
G1 F3600
G1 X214.918 Y121.401 E0.36725
G1 X214.271 Y121.401 F9000
G1 F3600
G1 X217.699 Y124.829 E0.54098
G1 X217.699 Y125.475 F9000
G1 F3600
G1 X213.625 Y121.401 E0.74748
G92 E0
G1 E-1 F3000
; acceleration to travel
M204 S3000
G1 X213.605 Y114.594 F9000
; decel to extrusion
M204 S1000
G1 X213.599 Y112.325
; end travel
G1 E0 F1800
G1 F3600
G1 X212.675 Y111.401 E0.04684
G1 X212.028 Y111.401 F9000
G1 F3600
G1 X213.599 Y112.972 E0.12644
G1 X213.599 Y113.618 F9000
G1 F3600
G1 X211.382 Y111.401 E0.23881
G1 X210.736 Y111.401 F9000
G1 F3600
G1 X213.599 Y114.264 E0.38395
G1 X213.599 Y114.911 F9000
G1 F3600
G1 X210.089 Y111.401 E0.56185
G1 X209.443 Y111.401 F9000
G1 F3600
G1 X213.599 Y115.557 E0.77252
G1 X213.599 Y116.204 F9000
G1 F3600
G1 X208.796 Y111.401 E1.01596
G1 X208.15 Y111.401 F9000
G1 F3600
G1 X213.599 Y116.85 E1.29216
G1 X213.599 Y117.496 F9000
G1 F3600
G1 X207.504 Y111.401 E1.60113
G1 X206.857 Y111.401 F9000
G1 F3600
G1 X213.599 Y118.143 E1.94287
G1 X213.599 Y118.789 F9000
G1 F3600
G1 X206.401 Y111.592 E2.30772
G1 X206.401 Y112.238 F9000
G1 F3600
G1 X213.599 Y119.436 E2.67256
G1 X213.599 Y120.082 F9000
G1 F3600
G1 X206.401 Y112.885 E3.03741
G1 X206.401 Y113.531 F9000
G1 F3600
G1 X213.599 Y120.729 E3.40225
G1 X213.599 Y121.375 F9000
G1 F3600
G1 X206.401 Y114.177 E3.76709
G1 X206.401 Y114.824 F9000
G1 F3600
G1 X217.699 Y126.121 E4.33977
G1 X217.699 Y126.768 F9000
G1 F3600
G1 X206.401 Y115.47 E4.91245
G1 X206.401 Y116.117 F9000
G1 F3600
G1 X217.699 Y127.414 E5.48512
G1 X217.699 Y128.061 F9000
G1 F3600
G1 X206.401 Y116.763 E6.0578
G1 X206.401 Y117.409 F9000
G1 F3600
G1 X217.699 Y128.707 E6.63047
G1 X217.699 Y129.353 F9000
G1 F3600
G1 X206.401 Y118.056 E7.20315
G1 X206.401 Y118.702 F9000
G1 F3600
G1 X217.699 Y130 E7.77583
G1 X217.699 Y130.646 F9000
G1 F3600
G1 X206.401 Y119.349 E8.3485
G1 X206.401 Y119.995 F9000
G1 F3600
G1 X217.699 Y131.293 E8.92118
G1 X217.699 Y131.939 F9000
G1 F3600
G1 X206.401 Y120.642 E9.49385
G1 X206.401 Y121.288 F9000
G1 F3600
G1 X217.699 Y132.585 E10.06653
G1 X217.699 Y133.232 F9000
G1 F3600
G1 X205.868 Y121.401 E10.66623
G1 X205.222 Y121.401 F9000
G1 F3600
G1 X217.699 Y133.878 E11.29869
G1 X217.699 Y134.525 F9000
G1 F3600
G1 X204.575 Y121.401 E11.96392
G1 X203.929 Y121.401 F9000
G1 F3600
G1 X217.699 Y135.171 E12.66192
G1 X217.699 Y135.817 F9000
G1 F3600
G1 X203.283 Y121.401 E13.39269
G1 X202.636 Y121.401 F9000
G1 F3600
G1 X217.699 Y136.464 E14.15622
G1 X217.699 Y137.11 F9000
G1 F3600
G1 X202.301 Y121.713 E14.93673
G1 X202.301 Y122.359 F9000
G1 F3600
G1 X217.699 Y137.757 E15.71724
G1 X217.699 Y138.403 F9000
G1 F3600
G1 X202.301 Y123.006 E16.49774
G1 X202.301 Y123.652 F9000
G1 F3600
G1 X217.699 Y139.049 E17.27825
G1 X217.699 Y139.696 F9000
G1 F3600
G1 X202.301 Y124.298 E18.05876
G1 X202.301 Y124.945 F9000
G1 F3600
G1 X217.699 Y140.342 E18.83926
G1 X217.699 Y140.989 F9000
G1 F3600
G1 X202.301 Y125.591 E19.61977
G1 X202.301 Y126.238 F9000
G1 F3600
G1 X217.699 Y141.635 E20.40028
G1 X217.699 Y142.282 F9000
G1 F3600
G1 X202.301 Y126.884 E21.18079
G1 X202.301 Y127.53 F9000
G1 F3600
G1 X217.699 Y142.928 E21.96129
G1 X217.699 Y143.574 F9000
G1 F3600
G1 X202.301 Y128.177 E22.7418
G1 X202.301 Y128.823 F9000
G1 F3600
G1 X217.699 Y144.221 E23.52231
G1 X217.699 Y144.867 F9000
G1 F3600
G1 X202.301 Y129.47 E24.30281
G1 X202.301 Y130.116 F9000
G1 F3600
G1 X217.699 Y145.514 E25.08332
G1 X217.699 Y146.16 F9000
G1 F3600
G1 X202.301 Y130.762 E25.86383
G1 X202.301 Y131.409 F9000
G1 F3600
G1 X217.699 Y146.806 E26.64434
G1 X217.699 Y147.453 F9000
G1 F3600
G1 X202.301 Y132.055 E27.42484
G1 X202.301 Y132.702 F9000
G1 F3600
G1 X217.699 Y148.099 E28.20535
G1 X217.699 Y148.746 F9000
G1 F3600
G1 X202.301 Y133.348 E28.98586
G1 X202.301 Y133.995 F9000
G1 F3600
G1 X217.699 Y149.392 E29.76637
G1 X217.699 Y150.038 F9000
G1 F3600
G1 X202.301 Y134.641 E30.54687
G1 X202.301 Y135.287 F9000
G1 F3600
G1 X217.699 Y150.685 E31.32738
G1 X217.699 Y151.331 F9000
G1 F3600
G1 X202.301 Y135.934 E32.10789
M73 P4 R42
G1 X202.301 Y136.58 F9000
G1 F3600
G1 X217.699 Y151.978 E32.88839
G1 X217.699 Y152.624 F9000
G1 F3600
G1 X202.301 Y137.227 E33.6689
G1 X202.301 Y137.873 F9000
G1 F3600
G1 X217.699 Y153.27 E34.44941
G1 X217.699 Y153.917 F9000
G1 F3600
G1 X202.301 Y138.519 E35.22992
G1 X202.301 Y139.166 F9000
G1 F3600
G1 X217.699 Y154.563 E36.01042
G1 X217.699 Y155.21 F9000
G1 F3600
G1 X202.301 Y139.812 E36.79093
G1 X202.301 Y140.459 F9000
G1 F3600
G1 X217.699 Y155.856 E37.57144
G1 X217.699 Y156.502 F9000
G1 F3600
G1 X202.301 Y141.105 E38.35195
G1 X202.301 Y141.751 F9000
G1 F3600
G1 X217.699 Y157.149 E39.13245
G1 X217.699 Y157.795 F9000
G1 F3600
G1 X202.301 Y142.398 E39.91296
G1 X202.301 Y143.044 F9000
G1 F3600
G1 X217.699 Y158.442 E40.69347
G1 X217.699 Y159.088 F9000
G1 F3600
G1 X202.301 Y143.691 E41.47397
G1 X202.301 Y144.337 F9000
G1 F3600
G1 X217.699 Y159.735 E42.25448
G1 X217.699 Y160.381 F9000
G1 F3600
G1 X202.301 Y144.983 E43.03499
G1 X202.301 Y145.63 F9000
G1 F3600
G1 X217.699 Y161.027 E43.8155
G1 X217.699 Y161.674 F9000
G1 F3600
G1 X202.301 Y146.276 E44.596
G1 X202.301 Y146.923 F9000
G1 F3600
G1 X217.699 Y162.32 E45.37651
G1 X217.699 Y162.967 F9000
G1 F3600
G1 X202.301 Y147.569 E46.15702
G1 X202.301 Y148.215 F9000
G1 F3600
G1 X217.699 Y163.613 E46.93753
G1 X217.699 Y164.259 F9000
G1 F3600
G1 X202.301 Y148.862 E47.71803
G1 X202.301 Y149.508 F9000
G1 F3600
G1 X217.699 Y164.906 E48.49854
G1 X217.699 Y165.552 F9000
G1 F3600
G1 X202.301 Y150.155 E49.27905
G1 X202.301 Y150.801 F9000
G1 F3600
G1 X217.699 Y166.199 E50.05955
G1 X217.699 Y166.845 F9000
G1 F3600
G1 X202.301 Y151.448 E50.84006
G1 X202.301 Y152.094 F9000
G1 F3600
G1 X217.699 Y167.491 E51.62057
G1 X217.699 Y168.138 F9000
G1 F3600
G1 X202.301 Y152.74 E52.40108
G1 X202.301 Y153.387 F9000
G1 F3600
G1 X217.699 Y168.784 E53.18158
G1 X217.699 Y169.431 F9000
G1 F3600
G1 X202.301 Y154.033 E53.96209
G1 X202.301 Y154.68 F9000
G1 F3600
G1 X217.699 Y170.077 E54.7426
G1 X217.699 Y170.723 F9000
G1 F3600
G1 X202.301 Y155.326 E55.52311
G1 X202.301 Y155.972 F9000
G1 F3600
G1 X217.699 Y171.37 E56.30361
G1 X217.699 Y172.016 F9000
G1 F3600
G1 X202.301 Y156.619 E57.08412
G1 X202.301 Y157.265 F9000
G1 F3600
G1 X217.699 Y172.663 E57.86463
G1 X217.699 Y173.309 F9000
G1 F3600
G1 X202.301 Y157.912 E58.64513
G1 X202.301 Y158.558 F9000
G1 F3600
G1 X217.699 Y173.955 E59.42564
G1 X217.699 Y174.602 F9000
G1 F3600
G1 X202.301 Y159.204 E60.20615
G1 X202.301 Y159.851 F9000
G1 F3600
G1 X217.699 Y175.248 E60.98666
G1 X217.699 Y175.895 F9000
G1 F3600
G1 X202.301 Y160.497 E61.76716
G1 X202.301 Y161.144 F9000
G1 F3600
G1 X217.699 Y176.541 E62.54767
G1 X217.699 Y177.188 F9000
G1 F3600
G1 X202.301 Y161.79 E63.32818
G1 X202.301 Y162.436 F9000
G1 F3600
G1 X217.699 Y177.834 E64.10869
G1 X217.699 Y178.48 F9000
G1 F3600
G1 X202.301 Y163.083 E64.88919
G1 X202.301 Y163.729 F9000
G1 F3600
G1 X217.699 Y179.127 E65.6697
G1 X217.699 Y179.773 F9000
G1 F3600
G1 X202.301 Y164.376 E66.45021
G1 X202.301 Y165.022 F9000
G1 F3600
G1 X217.699 Y180.42 E67.23072
G1 X217.699 Y181.066 F9000
G1 F3600
G1 X202.301 Y165.668 E68.01122
G1 X202.301 Y166.315 F9000
G1 F3600
G1 X217.699 Y181.712 E68.79173
G1 X217.699 Y182.359 F9000
G1 F3600
G1 X202.301 Y166.961 E69.57224
G1 X202.301 Y167.608 F9000
G1 F3600
G1 X217.699 Y183.005 E70.35274
G1 X217.699 Y183.652 F9000
G1 F3600
G1 X202.301 Y168.254 E71.13325
G1 X202.301 Y168.901 F9000
G1 F3600
G1 X217.699 Y184.298 E71.91376
G1 X217.699 Y184.944 F9000
G1 F3600
G1 X202.301 Y169.547 E72.69427
G1 X202.301 Y170.193 F9000
G1 F3600
G1 X217.699 Y185.591 E73.47477
G1 X217.699 Y186.237 F9000
G1 F3600
G1 X202.301 Y170.84 E74.25528
G1 X202.301 Y171.486 F9000
G1 F3600
G1 X217.699 Y186.884 E75.03579
G1 X217.699 Y187.53 F9000
G1 F3600
G1 X202.301 Y172.133 E75.8163
G1 X202.301 Y172.779 F9000
G1 F3600
G1 X217.699 Y188.176 E76.5968
G1 X217.699 Y188.823 F9000
G1 F3600
G1 X202.301 Y173.425 E77.37731
G1 X202.301 Y174.072 F9000
G1 F3600
G1 X217.699 Y189.469 E78.15782
G1 X217.699 Y190.116 F9000
G1 F3600
G1 X202.301 Y174.718 E78.93832
M73 P5 R42
G1 X202.301 Y175.365 F9000
G1 F3600
G1 X217.699 Y190.762 E79.71883
G1 X217.699 Y191.408 F9000
G1 F3600
G1 X202.301 Y176.011 E80.49934
G1 X202.301 Y176.657 F9000
G1 F3600
G1 X217.699 Y192.055 E81.27985
G1 X217.699 Y192.701 F9000
G1 F3600
G1 X202.301 Y177.304 E82.06035
G1 X202.301 Y177.95 F9000
G1 F3600
G1 X217.699 Y193.348 E82.84086
M73 P5 R42
G1 X217.699 Y193.994 F9000
G1 F3600
G1 X202.301 Y178.597 E83.62137
G1 X202.301 Y179.243 F9000
G1 F3600
G1 X217.699 Y194.641 E84.40188
G1 X217.699 Y195.287 F9000
G1 F3600
G1 X202.301 Y179.889 E85.18238
G1 X202.301 Y180.536 F9000
G1 F3600
G1 X217.699 Y195.933 E85.96289
G1 X217.699 Y196.58 F9000
G1 F3600
G1 X202.301 Y181.182 E86.7434
G1 X202.301 Y181.829 F9000
G1 F3600
G1 X217.699 Y197.226 E87.52391
G1 X217.699 Y197.873 F9000
G1 F3600
G1 X202.301 Y182.475 E88.30441
G1 X202.301 Y183.121 F9000
G1 F3600
G1 X217.699 Y198.519 E89.08492
G1 X217.699 Y199.165 F9000
G1 F3600
G1 X202.301 Y183.768 E89.86543
G1 X202.301 Y184.414 F9000
G1 F3600
G1 X217.699 Y199.812 E90.64593
G1 X217.699 Y200.458 F9000
G1 F3600
G1 X202.301 Y185.061 E91.42644
G1 X202.301 Y185.707 F9000
G1 F3600
G1 X217.699 Y201.105 E92.20695
G1 X217.699 Y201.751 F9000
G1 F3600
G1 X202.301 Y186.354 E92.98746
G1 X202.301 Y187 F9000
G1 F3600
G1 X217.699 Y202.397 E93.76796
G1 X217.699 Y203.044 F9000
G1 F3600
G1 X202.301 Y187.646 E94.54847
G1 X202.301 Y188.293 F9000
G1 F3600
G1 X217.699 Y203.69 E95.32898
G1 X217.699 Y204.337 F9000
G1 F3600
G1 X202.301 Y188.939 E96.10949
G1 X202.301 Y189.586 F9000
G1 F3600
G1 X217.699 Y204.983 E96.88999
G1 X217.699 Y205.629 F9000
G1 F3600
G1 X202.301 Y190.232 E97.6705
G1 X202.301 Y190.878 F9000
G1 F3600
G1 X217.699 Y206.276 E98.45101
G1 X217.699 Y206.922 F9000
G1 F3600
G1 X202.301 Y191.525 E99.23152
G1 X202.301 Y192.171 F9000
G1 F3600
G1 X217.438 Y207.308 E99.9988
G1 X217.115 Y207.631 F9000
G1 F3600
G1 X202.301 Y192.818 E100.74969
G1 X202.301 Y193.464 F9000
G1 F3600
G1 X216.791 Y207.954 E101.48421
G1 X216.468 Y208.277 F9000
G1 F3600
G1 X202.301 Y194.11 E102.20234
G1 X202.301 Y194.757 F9000
G1 F3600
G1 X216.145 Y208.601 E102.90408
G1 X215.822 Y208.924 F9000
G1 F3600
G1 X202.076 Y195.178 E103.60085
G1 X201.753 Y195.501 F9000
G1 F3600
G1 X215.499 Y209.247 E104.29762
G1 X215.175 Y209.57 F9000
G1 F3600
