; generated by SuperSlicer 2.5.59 on 2023-01-02 at 03:06:55 UTC


;
;

;
;
; 

; external perimeters extrusion width = 0.40mm
; perimeters extrusion width = 0.46mm
; infill extrusion width = 0.64mm
; solid infill extrusion width = 0.56mm
; top infill extrusion width = 0.40mm
; support material extrusion width = 0.46mm
; first layer extrusion width = 0.50mm

; external perimeters extrusion width = 0.40mm
; perimeters extrusion width = 0.46mm
; infill extrusion width = 0.64mm
; solid infill extrusion width = 0.56mm
; top infill extrusion width = 0.40mm
; support material extrusion width = 0.46mm
; first layer extrusion width = 0.50mm

; external perimeters extrusion width = 0.40mm
; perimeters extrusion width = 0.46mm
; infill extrusion width = 0.64mm
; solid infill extrusion width = 0.56mm
; top infill extrusion width = 0.40mm
; support material extrusion width = 0.46mm
; first layer extrusion width = 0.50mm

; external perimeters extrusion width = 0.40mm
; perimeters extrusion width = 0.46mm
; infill extrusion width = 0.64mm
; solid infill extrusion width = 0.56mm
; top infill extrusion width = 0.40mm
; support material extrusion width = 0.46mm
; first layer extrusion width = 0.50mm

; object:{"name":"Arm","id":"Arm.stl id:0 copy 0","object_center":[179.731517,126.656501,0.000000],"boundingbox_center":[179.731517,126.656501,2.500002],"boundingbox_size":[69.996445,19.999998,5.000004]}
; object:{"name":"Extension","id":"Extension.stl id:1 copy 0","object_center":[179.731518,203.343500,0.000000],"boundingbox_center":[179.731518,203.343500,2.500002],"boundingbox_size":[79.991837,19.999998,5.000004]}
; object:{"name":"TronXY_X5S_C270_Mount","id":"TronXY_X5S_C270_Mount.stl id:2 copy 0","object_center":[179.731517,165.000000,0.000000],"boundingbox_center":[179.731517,165.000000,12.791501],"boundingbox_size":[64.980003,44.687000,25.583001]}
; object:{"name":"2020_Mount","id":"2020_Mount.stl id:3 copy 0","object_center":[130.272563,177.343500,0.000000],"boundingbox_center":[130.272563,177.343500,12.499999],"boundingbox_size":[40.000000,19.999998,24.999998]}
; plater:{"center":[165.000000,165.000000,0.000000],"boundingbox_center":[165.000000,165.000000,12.791501],"boundingbox_size":[109.454873,96.686997,25.583001]}

M73 P0 R86


; Pre-Processed for Cancel-Object support by preprocess_cancellation v0.2.0
; 4 known objects
EXCLUDE_OBJECT_DEFINE NAME=Arm_stl_id_0_copy_0 CENTER=197.123,126.649 POLYGON=[[144.933,116.857],[144.933,136.457],[214.53,136.457],[214.53,116.857]]
EXCLUDE_OBJECT_DEFINE NAME=TronXY_X5S_C270_Mount_stl_id_2_copy_0 CENTER=180.320,161.214 POLYGON=[[147.443,142.857],[147.443,189.056],[212.021,189.056],[212.021,142.857]]
EXCLUDE_OBJECT_DEFINE NAME=Extension_stl_id_1_copy_0 CENTER=179.745,203.304 POLYGON=[[139.936,193.544],[139.936,213.143],[219.527,213.143],[219.527,193.544]]
EXCLUDE_OBJECT_DEFINE NAME=2020_Mount_stl_id_3_copy_0 CENTER=130.116,177.354 POLYGON=[[110.473,167.544],[110.473,187.143],[150.073,187.143],[150.073,167.544]]
;TYPE:Custom
; custom gcode: start_gcode
START_PRINT T_BED=110 T_EXTRUDER=240
; custom gcode end: start_gcode
M107
G21 ; set units to millimeters
G90 ; use absolute coordinates
M82 ; use absolute distances for extrusion
G92 E0
; custom gcode: start_filament_gcode
; Filament gcode

    PRESSURE_ADVANCE_SELECT FILAMENT=ABS
; custom gcode end: start_filament_gcode
;_TOOLCHANGE 0
M104 S240 ; set temperature
M109 S240 ; set temperature and wait for it to be reached
M190 S110 ; set bed temperature and wait for it to be reached
;LAYER_CHANGE
;Z:0.2
;HEIGHT:0.2
G1 Z0.2 F9000
G1 E-0.5 F3000
M204 S1000
G1 X141.761 Y114.667 F9000
G1 E0 F1800
;TYPE:Skirt
;WIDTH:0.52
G1 X107.3 Y165.354 E2.33416
G1 X106.657 Y167.444 E2.4174
G1 X106.657 Y187.243 E3.17143
G1 X107.081 Y188.967 E3.23904
G1 X108.204 Y190.261 E3.30426
G1 X141.815 Y214.42 E4.88062
G1 X143.129 Y215.25 E4.93981
G1 X144.334 Y215.842 E4.99094
G1 X145.794 Y216.376 E5.05014
G1 X146.751 Y216.628 E5.08783
G1 X148.285 Y216.881 E5.14703
G1 X149.733 Y216.959 E5.20225
G1 X210.403 Y216.941 E7.51271
G1 X212.158 Y216.74 E7.57998
G1 X214.406 Y216.13 E7.66871
G1 X216.518 Y215.146 E7.75745
G1 X218.267 Y213.95 E7.83813
G1 X219.421 Y212.908 E7.89733
G1 X220.448 Y211.741 E7.95653
G1 X221.335 Y210.465 E8.01573
G1 X222.071 Y209.095 E8.07492
G1 X222.646 Y207.651 E8.13412
G1 X223.053 Y206.151 E8.19332
G1 X223.287 Y204.614 E8.25252
G1 X223.343 Y203.061 E8.31172
G1 X218.24 Y124.948 E11.29281
G1 X217.739 Y122.632 E11.38305
G1 X216.933 Y120.614 E11.46579
G1 X216.222 Y119.351 E11.52097
G1 X215.503 Y118.327 E11.56864
G1 X213.895 Y116.586 E11.65888
G1 X212.773 Y115.669 E11.71407
G1 X211.73 Y114.977 E11.76174
G1 X209.599 Y113.941 E11.85198
G1 X208.22 Y113.496 E11.90717
G1 X206.996 Y113.231 E11.95483
G1 X204.831 Y113.042 E12.03762
G1 X144.833 Y113.041 E14.32248
G1 X143.024 Y113.511 E14.39368
G1 X141.761 Y114.667 E14.45889
G1 X142.155 Y114.936 F9000
G1 F1800
G1 X107.694 Y165.623 E16.79305
G1 X107.134 Y167.444 E16.8656
G1 X107.134 Y187.243 E17.61964
G1 X107.455 Y188.65 E17.67458
G1 X108.482 Y189.873 E17.7354
G1 X142.084 Y214.026 E19.31133
G1 X143.191 Y214.737 E19.36143
G1 X144.532 Y215.408 E19.41855
G1 X145.942 Y215.922 E19.47567
G1 X146.846 Y216.16 E19.51129
G1 X148.326 Y216.406 E19.56841
G1 X149.733 Y216.482 E19.62208
G1 X210.389 Y216.465 E21.93202
G1 X212.063 Y216.272 E21.99618
G1 X214.233 Y215.686 E22.0818
G1 X216.111 Y214.828 E22.16041
G1 X217.976 Y213.572 E22.24604
G1 X219.088 Y212.566 E22.30316
G1 X220.078 Y211.439 E22.36029
G1 X220.934 Y210.207 E22.41741
G1 X221.643 Y208.885 E22.47454
G1 X222.197 Y207.491 E22.53166
G1 X222.589 Y206.043 E22.58879
G1 X222.813 Y204.56 E22.64591
G1 X222.866 Y203.061 E22.70303
G1 X217.766 Y124.998 E25.68219
G1 X217.336 Y122.946 E25.76203
G1 X216.51 Y120.834 E25.84841
G1 X215.825 Y119.615 E25.90166
G1 X215.12 Y118.612 E25.94836
G1 X213.581 Y116.945 E26.03474
G1 X212.499 Y116.06 E26.088
G1 X211.477 Y115.382 E26.13469
G1 X209.437 Y114.39 E26.22107
G1 X208.107 Y113.959 E26.27433
G1 X206.908 Y113.7 E26.32103
G1 X204.818 Y113.519 E26.40092
G1 X144.833 Y113.518 E28.68529
G1 X143.351 Y113.877 E28.74337
G1 X142.155 Y114.936 E28.8042
G92 E0
G1 E-0.5 F3000
; printing object Arm.stl id:0 copy 0
EXCLUDE_OBJECT_START NAME=Arm_stl_id_0_copy_0
; acceleration to travel
M204 S3000
G1 X186.122 Y123.218 F9000
; decel to extrusion
M204 S1000
G1 X200.777 Y125.979
; end travel
G1 E0 F1800
;TYPE:Internal perimeter
;WIDTH:0.5
G1 X200.73 Y126.342 E0.01337
G1 X200.719 Y126.756 E0.02848
G1 X200.751 Y127.176 E0.04381
G1 X200.826 Y127.583 E0.05892
G1 X200.942 Y127.98 E0.07401
G1 X201.098 Y128.363 E0.08909
G1 X201.293 Y128.727 E0.10418
G1 X201.524 Y129.07 E0.11926
G1 X201.789 Y129.387 E0.13435
G1 X202.085 Y129.676 E0.14943
G1 X202.41 Y129.932 E0.16452
G1 X202.759 Y130.153 E0.1796
G1 X203.129 Y130.338 E0.19469
G1 X203.516 Y130.483 E0.20978
G1 X203.916 Y130.588 E0.22486
G1 X204.325 Y130.651 E0.23995
G1 X204.737 Y130.672 E0.25503
G1 X205.15 Y130.651 E0.27012
G1 X205.559 Y130.587 E0.2852
G1 X205.958 Y130.481 E0.30029
G1 X206.345 Y130.335 E0.31537
G1 X206.715 Y130.149 E0.33046
G1 X207.063 Y129.927 E0.34554
G1 X207.387 Y129.67 E0.36063
G1 X207.683 Y129.381 E0.37571
G1 X207.947 Y129.064 E0.39078
G1 X208.174 Y128.727 E0.40561
G1 X208.369 Y128.363 E0.42067
G1 X208.525 Y127.98 E0.43575
G1 X208.641 Y127.583 E0.45084
G1 X208.715 Y127.176 E0.46592
G1 X208.748 Y126.764 E0.48101
G1 X208.737 Y126.351 E0.49609
G1 X208.685 Y125.941 E0.51118
G1 X208.59 Y125.538 E0.52627
G1 X208.455 Y125.147 E0.54135
G1 X208.28 Y124.773 E0.55644
G1 X208.067 Y124.418 E0.57152
G1 X207.819 Y124.087 E0.58663
G1 X207.534 Y123.778 E0.60197
G1 X207.222 Y123.505 E0.61708
G1 X206.885 Y123.266 E0.63216
G1 X206.525 Y123.063 E0.64725
G1 X206.146 Y122.897 E0.66233
G1 X205.752 Y122.772 E0.67742
G1 X205.347 Y122.688 E0.6925
G1 X204.937 Y122.646 E0.70757
G1 X204.53 Y122.646 E0.7224
G1 X204.119 Y122.688 E0.73746
G1 X203.714 Y122.772 E0.75257
G1 X203.313 Y122.9 E0.76791
G1 X202.934 Y123.066 E0.78302
G1 X202.575 Y123.27 E0.7981
G1 X202.238 Y123.51 E0.81319
G1 X201.928 Y123.783 E0.82827
G1 X201.647 Y124.087 E0.84333
G1 X201.403 Y124.412 E0.85817
G1 X201.191 Y124.766 E0.87323
G1 X201.015 Y125.14 E0.88831
G1 X200.879 Y125.53 E0.9034
G1 X200.783 Y125.932 E0.91848
G1 X200.777 Y125.979 E0.9202
G1 X201.23 Y126.038 F9000
G1 F1800
G1 X201.186 Y126.378 E0.93271
G1 X201.176 Y126.745 E0.94609
G1 X201.205 Y127.117 E0.95969
G1 X201.271 Y127.477 E0.97307
G1 X201.374 Y127.829 E0.98644
G1 X201.512 Y128.168 E0.99981
G1 X201.685 Y128.491 E1.01317
G1 X201.89 Y128.795 E1.02654
G1 X202.125 Y129.076 E1.0399
G1 X202.387 Y129.331 E1.05327
G1 X202.675 Y129.559 E1.06663
G1 X202.984 Y129.755 E1.08
G1 X203.312 Y129.918 E1.09337
G1 X203.655 Y130.047 E1.10673
G1 X204.009 Y130.14 E1.1201
G1 X204.371 Y130.196 E1.13347
G1 X204.737 Y130.215 E1.14683
G1 X205.103 Y130.195 E1.1602
G1 X205.465 Y130.139 E1.17356
G1 X205.819 Y130.045 E1.18693
G1 X206.161 Y129.915 E1.20029
G1 X206.489 Y129.751 E1.21366
G1 X206.798 Y129.554 E1.22703
G1 X207.085 Y129.327 E1.24039
G1 X207.347 Y129.071 E1.25376
G1 X207.581 Y128.789 E1.26711
G1 X207.782 Y128.491 E1.28024
G1 X207.954 Y128.168 E1.29359
G1 X208.093 Y127.829 E1.30696
G1 X208.195 Y127.477 E1.32032
G1 X208.261 Y127.117 E1.33369
G1 X208.29 Y126.752 E1.34705
G1 X208.281 Y126.386 E1.36042
G1 X208.234 Y126.022 E1.37379
G1 X208.151 Y125.666 E1.38715
G1 X208.031 Y125.319 E1.40052
G1 X207.876 Y124.988 E1.41388
G1 X207.687 Y124.673 E1.42725
G1 X207.468 Y124.38 E1.44063
G1 X207.214 Y124.106 E1.45423
G1 X206.939 Y123.864 E1.46761
G1 X206.64 Y123.652 E1.48098
G1 X206.321 Y123.472 E1.49435
G1 X205.985 Y123.326 E1.50771
G1 X205.636 Y123.215 E1.52108
G1 X205.277 Y123.14 E1.53444
G1 X204.913 Y123.103 E1.54779
G1 X204.553 Y123.103 E1.56092
G1 X204.189 Y123.14 E1.57427
G1 X203.83 Y123.215 E1.58766
G1 X203.475 Y123.328 E1.60126
G1 X203.139 Y123.475 E1.61464
G1 X202.821 Y123.656 E1.62801
G1 X202.522 Y123.869 E1.64137
G1 X202.247 Y124.111 E1.65474
G1 X201.999 Y124.38 E1.66809
G1 X201.783 Y124.668 E1.68122
G1 X201.594 Y124.981 E1.69457
G1 X201.439 Y125.313 E1.70793
G1 X201.318 Y125.659 E1.7213
G1 X201.234 Y126.015 E1.73467
G1 X201.23 Y126.038 E1.73553
G1 X201.684 Y126.098 F9000
;TYPE:External perimeter
G1 F1800
G1 X201.642 Y126.414 E1.74717
G1 X201.634 Y126.733 E1.75883
G1 X201.659 Y127.058 E1.77069
G1 X201.717 Y127.372 E1.78235
G1 X201.806 Y127.678 E1.79399
G1 X201.927 Y127.974 E1.80564
G1 X202.077 Y128.255 E1.81729
G1 X202.255 Y128.52 E1.82893
G1 X202.46 Y128.765 E1.84058
G1 X202.689 Y128.987 E1.85223
G1 X202.939 Y129.185 E1.86387
M73 P1 R85
G1 X203.209 Y129.356 E1.87552
G1 X203.495 Y129.499 E1.88717
G1 X203.793 Y129.611 E1.89881
G1 X204.102 Y129.692 E1.91046
G1 X204.418 Y129.741 E1.92211
G1 X204.736 Y129.757 E1.93375
G1 X205.055 Y129.74 E1.9454
G1 X205.371 Y129.691 E1.95705
G1 X205.679 Y129.609 E1.96869
G1 X205.978 Y129.496 E1.98034
G1 X206.263 Y129.353 E1.99199
G1 X206.532 Y129.182 E2.00363
G1 X206.782 Y128.983 E2.01528
G1 X207.011 Y128.76 E2.02693
G1 X207.215 Y128.515 E2.03857
G1 X207.39 Y128.255 E2.04999
G1 X207.54 Y127.974 E2.06163
G1 X207.661 Y127.678 E2.07328
G1 X207.75 Y127.372 E2.08493
G1 X207.808 Y127.058 E2.09657
G1 X207.833 Y126.74 E2.10822
G1 X207.825 Y126.42 E2.11987
G1 X207.784 Y126.104 E2.13151
G1 X207.711 Y125.793 E2.14316
G1 X207.606 Y125.491 E2.15481
M73 P1 R85
G1 X207.471 Y125.202 E2.16645
G1 X207.307 Y124.928 E2.1781
G1 X207.116 Y124.673 E2.18975
G1 X206.895 Y124.434 E2.20162
G1 X206.655 Y124.223 E2.21327
G1 X206.395 Y124.039 E2.22492
G1 X206.117 Y123.882 E2.23657
G1 X205.824 Y123.754 E2.24821
G1 X205.52 Y123.658 E2.25986
G1 X205.207 Y123.593 E2.27151
G1 X204.89 Y123.56 E2.28315
G1 X204.577 Y123.56 E2.29457
G1 X204.259 Y123.593 E2.30621
G1 X203.947 Y123.658 E2.31787
G1 X203.637 Y123.756 E2.32973
G1 X203.344 Y123.885 E2.34139
G1 X203.067 Y124.042 E2.35303
G1 X202.807 Y124.227 E2.36468
G1 X202.567 Y124.438 E2.37633
G1 X202.351 Y124.673 E2.38797
G1 X202.163 Y124.923 E2.39939
G1 X201.998 Y125.197 E2.41103
G1 X201.863 Y125.486 E2.42268
G1 X201.757 Y125.787 E2.43433
G1 X201.684 Y126.098 E2.44597
;WIPE_START
M204 S4000
G1 X201.309 Y126.238 F9000
;WIPE_END
G92 E0
G1 E-0.5 F3000
; acceleration to travel
M204 S3000
G1 X191.325 Y122.229 F9000
; decel to extrusion
M204 S1000
G1 X187.997 Y120.892
; end travel
G1 E0 F1800
;TYPE:Internal perimeter
G1 X148.469 Y120.892 E1.44223
G1 X148.469 Y132.421 E1.86286
G1 X187.997 Y132.421 E3.30509
G1 X187.997 Y120.892 E3.72571
G1 X187.54 Y121.349 F9000
G1 F1800
G1 X148.926 Y121.349 E5.13459
G1 X148.926 Y131.964 E5.52186
G1 X187.54 Y131.964 E6.93074
G1 X187.54 Y121.349 E7.31801
G1 X187.083 Y121.807 F9000
;TYPE:External perimeter
G1 F1800
G1 X149.383 Y121.807 E8.69353
G1 X149.383 Y131.506 E9.04745
G1 X187.083 Y131.506 E10.42297
G1 X187.083 Y121.807 E10.77689
;WIPE_START
M204 S4000
G1 X187.083 Y121.407 F9000
;WIPE_END
G92 E0
G1 E-0.5 F3000
; acceleration to travel
M204 S3000
G1 X156.269 Y118.792 F9000
; decel to extrusion
M204 S1000
G1 X145.997 Y117.921
; end travel
G1 E0 F1800
;TYPE:Internal perimeter
G1 X204.852 Y117.928 E2.14737
G1 X205.676 Y117.972 E2.17747
G1 X206.123 Y118.032 E2.19393
G1 X206.58 Y118.118 E2.2109
G1 X207.032 Y118.229 E2.22786
G1 X207.477 Y118.363 E2.24483
G1 X207.914 Y118.521 E2.2618
G1 X208.343 Y118.702 E2.27877
G1 X208.761 Y118.905 E2.29574
G1 X209.168 Y119.13 E2.31271
G1 X209.562 Y119.377 E2.32968
G1 X209.943 Y119.645 E2.34665
G1 X210.309 Y119.932 E2.36362
G1 X210.659 Y120.238 E2.38059
G1 X210.992 Y120.562 E2.39755
G1 X211.307 Y120.904 E2.41452
G1 X211.604 Y121.262 E2.43149
G1 X211.881 Y121.635 E2.44846
G1 X212.139 Y122.023 E2.46543
G1 X212.375 Y122.424 E2.4824
G1 X212.586 Y122.831 E2.49916
G1 X212.934 Y123.652 E2.53168
G1 X213.097 Y124.137 E2.55034
G1 X213.219 Y124.583 E2.56723
G1 X213.317 Y125.038 E2.5842
G1 X213.391 Y125.497 E2.60117
G1 X213.441 Y125.96 E2.61814
G1 X213.466 Y126.424 E2.63511
G1 X213.466 Y126.889 E2.65207
G1 X213.441 Y127.353 E2.66904
G1 X213.391 Y127.816 E2.68601
G1 X213.317 Y128.275 E2.70298
G1 X213.219 Y128.73 E2.71995
G1 X213.097 Y129.178 E2.73692
G1 X212.951 Y129.62 E2.75389
G1 X212.781 Y130.053 E2.77086
G1 X212.589 Y130.477 E2.78783
G1 X212.375 Y130.889 E2.8048
G1 X212.139 Y131.29 E2.82176
G1 X211.881 Y131.678 E2.83873
G1 X211.604 Y132.051 E2.8557
G1 X211.307 Y132.409 E2.87267
G1 X210.992 Y132.751 E2.88964
G1 X210.659 Y133.075 E2.90661
G1 X210.309 Y133.381 E2.92358
G1 X209.943 Y133.668 E2.94055
G1 X209.562 Y133.936 E2.95752
G1 X209.168 Y134.183 E2.97448
G1 X208.761 Y134.408 E2.99146
G1 X208.343 Y134.611 E3.00842
G1 X207.914 Y134.792 E3.02539
G1 X207.477 Y134.95 E3.04236
G1 X207.032 Y135.084 E3.05933
G1 X206.58 Y135.195 E3.0763
G1 X206.123 Y135.281 E3.09327
G1 X205.662 Y135.342 E3.11024
G1 X205.198 Y135.38 E3.12721
G1 X204.716 Y135.392 E3.14479
G1 X145.997 Y135.392 E5.28722
G1 X145.997 Y117.921 E5.92468
G1 X145.54 Y117.464 F9000
G1 F1800
G1 X204.864 Y117.471 E8.08918
G1 X205.718 Y117.517 E8.12039
G1 X206.195 Y117.581 E8.13795
G1 X206.676 Y117.672 E8.15581
G1 X207.152 Y117.788 E8.17367
G1 X207.62 Y117.929 E8.19152
G1 X208.081 Y118.095 E8.20938
G1 X208.532 Y118.285 E8.22724
G1 X208.972 Y118.499 E8.24509
G1 X209.4 Y118.737 E8.26295
G1 X209.815 Y118.996 E8.28081
G1 X210.215 Y119.277 E8.29867
G1 X210.6 Y119.58 E8.31652
G1 X210.969 Y119.902 E8.33438
G1 X211.319 Y120.243 E8.35224
G1 X211.651 Y120.603 E8.3701
G1 X211.964 Y120.98 E8.38795
G1 X212.256 Y121.373 E8.40581
G1 X212.526 Y121.781 E8.42367
G1 X212.775 Y122.202 E8.44153
G1 X213 Y122.636 E8.45938
G1 X213.203 Y123.082 E8.47724
G1 X213.362 Y123.49 E8.49321
G1 X213.535 Y124.004 E8.51299
G1 X213.663 Y124.475 E8.53081
G1 X213.767 Y124.953 E8.54867
G1 X213.845 Y125.436 E8.56652
G1 X213.897 Y125.923 E8.58438
G1 X213.923 Y126.412 E8.60224
G1 X213.923 Y126.901 E8.62009
G1 X213.897 Y127.39 E8.63795
G1 X213.845 Y127.877 E8.65581
G1 X213.767 Y128.36 E8.67367
G1 X213.663 Y128.838 E8.69152
G1 X213.535 Y129.31 E8.70938
G1 X213.381 Y129.775 E8.72724
G1 X213.203 Y130.231 E8.7451
G1 X213 Y130.676 E8.76295
G1 X212.775 Y131.111 E8.78081
G1 X212.526 Y131.532 E8.79867
G1 X212.256 Y131.94 E8.81652
