; HEADER_BLOCK_START
; generated by OrcaSlicer 1.6.6 on 2023-09-08 at 15:25:50
; total layer number: 599
; HEADER_BLOCK_END

; THUMBNAIL_BLOCK_START
; THUMBNAIL_BLOCK_END

; external perimeters extrusion width = 0.40mm
; perimeters extrusion width = 0.46mm
; infill extrusion width = 0.64mm
; solid infill extrusion width = 0.56mm
; top infill extrusion width = 0.40mm
; support material extrusion width = 0.46mm
; first layer extrusion width = 0.50mm

; EXECUTABLE_BLOCK_START
EXCLUDE_OBJECT_DEFINE NAME=as.stl_id_0_copy_0 CENTER=165,165 POLYGON=[[101,166],[101.145,165.782],[101.318,165.586],[101.732,165.268],[102.214,165.068],[163.67,156.605],[165,156.5],[166.33,156.605],[227.786,165.068],[228.268,165.268],[228.682,165.586],[228.855,165.782],[229,166],[229,166.005],[229,166.02],[228.999,166.077],[228.994,166.16],[228.99,166.196],[228.983,166.262],[228.962,166.39],[228.932,166.517],[228.932,166.517],[228.932,166.517],[228.932,166.518],[228.848,166.765],[228.824,166.82],[228.732,167],[228.688,167.073],[228.663,167.111],[228.517,167.303],[228.414,167.414],[228.111,167.663],[228.086,167.679],[228,167.732],[227.765,167.848],[227.566,167.918],[227.518,167.932],[227.39,167.962],[227,168],[166.281,173.403],[165,173.5],[163.719,173.403],[103,168],[102.61,167.962],[102.482,167.932],[102.434,167.918],[102.235,167.848],[102,167.732],[101.914,167.679],[101.889,167.663],[101.586,167.414],[101.483,167.303],[101.337,167.111],[101.312,167.073],[101.268,167],[101.176,166.82],[101.152,166.765],[101.068,166.518],[101.065,166.506],[101.038,166.39],[101.015,166.247],[101.01,166.196],[101.005,166.146],[101.001,166.069],[101,166.018],[101,166.005],[101,166]]
M73 P0 R53
M73 C2
;TYPE:Custom
START_PRINT T_BED=110 T_EXTRUDER=260
G90
G21
M83 ; use relative distances for extrusion
; Filament gcode

    PRESSURE_ADVANCE_SELECT FILAMENT=ABS
M106 S0
;LAYER_CHANGE
;Z:0.2
;HEIGHT:0.2
;BEFORE_LAYER_CHANGE
;0.2
G92 E0

SET_VELOCITY_LIMIT ACCEL=5000 ACCEL_TO_DECEL=2500
G1 E-.5 F2400
G1 X97.418 Y160.512 F12000
G1 Z.2
G1 E.5 F1800
;TYPE:Skirt
;WIDTH:0.5
G1 F3000
G1 X98.434 Y160.16 E.03783
G1 X156.775 Y151.408 E2.07624
G1 X173.225 Y151.408 E.57893
G1 X231.566 Y160.16 E2.07624
G1 X232.954 Y160.765 E.05327
G1 X233.85 Y161.985 E.05327
G1 X234.048 Y163.042 E.03783
G1 X234.048 Y169.876 E.24051
G1 X233.655 Y171.337 E.05327
G1 X232.582 Y172.405 E.05327
G1 X231.424 Y172.775 E.04278
G1 X173.083 Y178.609 E2.06351
G1 X157.207 Y178.624 E.55871
G1 X98.576 Y172.775 E2.07371
G1 X97.16 Y172.239 E.05327
G1 X96.205 Y171.064 E.05327
G1 X95.952 Y169.876 E.04278
G1 X95.952 Y163.042 E.24051
G1 X96.345 Y161.58 E.05327
G1 X97.39 Y160.541 E.05187
G1 X97.749 Y161.097 F12000
G1 F3000
G1 X98.501 Y160.612 E.0315
G1 X156.843 Y151.86 E2.07624
G1 X173.157 Y151.86 E.57416
G1 X231.499 Y160.612 E2.07624
G1 X232.757 Y161.197 E.04884
G1 X233.591 Y163.042 E.07126
G1 X233.591 Y169.876 E.24051
G1 X233.199 Y171.207 E.04884
G1 X232.149 Y172.113 E.04884
G1 X231.379 Y172.32 E.02807
G1 X173.037 Y178.155 E2.06351
G1 X157.207 Y178.167 E.55711
G1 X98.621 Y172.32 E2.07211
G1 X97.336 Y171.798 E.04884
G1 X96.538 Y170.662 E.04884
G1 X96.409 Y169.876 E.02807
G1 X96.409 Y163.042 E.24051
G1 X96.801 Y161.71 E.04884
G1 X97.716 Y161.119 E.03835
; printing object as.stl id:0 copy 0
G1 E-.5 F2400
EXCLUDE_OBJECT_START NAME=as.stl_id_0_copy_0
G1 X166.773 Y157.998 F12000
G1 E.5 F1800
;TYPE:Support
G1 F3000
G3 X165.596 Y157.801 I-1.771 J6.99 E1.55251
G1 X166.706 Y157.987 E.03957
G1 X158.284 Y166.128 F12000
G1 F3000
G3 X158.559 Y167.211 I6.705 J-1.122 E1.46402
G1 X158.284 Y166.128 E.03932
G1 X158.787 Y166.044 F12000
G1 F3000
G3 X159.041 Y167.046 I6.204 J-1.038 E1.35448
G1 X158.787 Y166.044 E.03637
G1 X159.289 Y165.96 F12000
G1 F3000
G3 X159.523 Y166.88 I5.702 J-.954 E1.24494
G1 X159.289 Y165.96 E.03342
G1 X159.792 Y165.876 F12000
M73 C1
G1 F3000
G3 X160.005 Y166.715 I5.2 J-.87 E1.1354
G1 X159.792 Y165.876 E.03046
G1 X160.295 Y165.792 F12000
G1 F3000
G3 X160.487 Y166.549 I4.698 J-.787 E1.02586
G1 X160.295 Y165.792 E.02751
G1 X160.797 Y165.708 F12000
G1 F3000
G3 X160.969 Y166.384 I4.197 J-.703 E.91632
G1 X160.797 Y165.708 E.02456
G1 X161.3 Y165.623 F12000
G1 F3000
G3 X161.451 Y166.219 I3.695 J-.619 E.80678
G1 X161.3 Y165.623 E.0216
G1 X161.802 Y165.539 F12000
G1 F3000
G3 X161.933 Y166.053 I3.193 J-.535 E.69724
G1 X161.802 Y165.539 E.01865
G1 X162.305 Y165.455 F12000
G1 F3000
G3 X162.415 Y165.888 I2.691 J-.451 E.5877
G1 X162.305 Y165.455 E.0157
G1 X162.808 Y165.371 F12000
G1 F3000
G3 X162.897 Y165.722 I2.189 J-.368 E.47817
G1 X162.808 Y165.371 E.01275
G1 X163.31 Y165.287 F12000
G1 F3000
G3 X163.379 Y165.557 I1.688 J-.284 E.36863
G1 X163.31 Y165.287 E.00979
G1 X163.813 Y165.203 F12000
G1 F3000
G3 X163.861 Y165.391 I1.186 J-.2 E.25909
G1 X163.813 Y165.203 E.00684
G1 X164.315 Y165.119 F12000
G1 F3000
G3 X164.343 Y165.226 I.684 J-.116 E.14955
G1 X164.315 Y165.119 E.00389
G1 E-.5 F2400
G1 X170.444 Y159.399 F12000
G1 X170.944 Y158.933
G1 X172.793 Y157.207
G1 E.5 F1800
G1 F3000
G1 X175.71 Y157.207 E.10266
G1 X175.71 Y163.042 E.20533
G1 X231.134 Y163.042 E1.9506
G1 X231.134 Y169.876 E.24051
G1 X175.71 Y169.876 E1.9506
G1 X175.71 Y172.793 E.10266
G1 X172.793 Y172.793 E.10266
G1 X172.793 Y175.71 E.10266
G1 X157.207 Y175.71 E.5485
G1 X157.207 Y172.793 E.10266
G1 X154.29 Y172.793 E.10266
G1 X154.29 Y169.876 E.10266
G1 X98.866 Y169.876 E1.9506
G1 X98.866 Y163.042 E.24051
G1 X154.29 Y163.042 E1.9506
G1 X154.29 Y157.207 E.20533
G1 X157.207 Y157.207 E.10266
G1 X157.207 Y154.29 E.10266
G1 X172.793 Y154.29 E.5485
M73 P0 R52
G1 X172.793 Y157.139 E.10025
G1 E-.5 F2400
G1 X163.6 Y156.008 F12000
G1 E.5 F1800
G1 F3000
G2 X164.985 Y155.901 I1.395 J8.979 E1.96043
G1 X163.668 Y156.003 E.04646
G1 E-.5 F2400
G1 X163.126 Y156.735 F12000
G1 X157.967 Y160.26
G1 X157.002 Y162.167
G1 X154.702 Y163.453
G1 E.5 F1800
G1 F3000
G1 X154.702 Y157.619 E.20533
G1 X157.619 Y157.619 E.10266
G1 X157.619 Y154.702 E.10266
G1 X172.381 Y154.702 E.51955
G1 X172.381 Y157.619 E.10266
G1 X175.298 Y157.619 E.10266
G1 X175.298 Y163.453 E.20533
G1 X230.723 Y163.453 E1.9506
G1 X230.723 Y169.464 E.21156
G1 X175.298 Y169.464 E1.9506
M73 P1 R52
G1 X175.298 Y172.381 E.10266
G1 X172.381 Y172.381 E.10266
G1 X172.381 Y175.298 E.10266
G1 X157.619 Y175.298 E.51955
G1 X157.619 Y172.381 E.10266
G1 X154.702 Y172.381 E.10266
G1 X154.702 Y169.464 E.10266
G1 X99.277 Y169.464 E1.9506
G1 X99.277 Y163.453 E.21156
G1 X154.702 Y163.453 E1.9506
G1 X155.058 Y163.961 F12000
G1 F3000
G2 X157.729 Y171.873 I9.758 J1.113 E.30357
G1 X155.21 Y171.873 E.08866
G1 X155.21 Y168.956 E.10266
G1 X99.785 Y168.956 E1.9506
G1 X99.785 Y163.961 E.17581
G1 X155.058 Y163.961 E1.94526
G1 X156.051 Y170.492 F12000
G1 F3000
G1 X156.585 Y171.366 E.03603
G1 X155.717 Y171.366 E.03053
G1 X155.717 Y170.586 E.02742
G1 X156.051 Y170.492 E.01218
G1 X155.029 Y168.448 F12000
G1 F3000
G1 X100.293 Y168.448 E1.92636
G1 X100.293 Y164.469 E.14006
G1 X154.508 Y164.469 E1.90805
G2 X155.029 Y168.448 I11.86 J.474 E.14194
G1 X154.384 Y167.941 F12000
G1 F3000
G1 X100.801 Y167.941 E1.88581
G1 X100.801 Y164.977 E.10432
G1 X153.955 Y164.977 E1.87071
G2 X154.384 Y167.941 I10.288 J.024 E.10578
G1 X153.74 Y167.433 F12000
G1 F3000
G1 X101.309 Y167.433 E1.84526
G1 X101.309 Y165.484 E.06857
G1 X153.486 Y165.484 E1.83632
G2 X153.74 Y167.433 I7.295 J.039 E.06936
G1 X153.091 Y166.925 F12000
G1 F3000
G1 X101.817 Y166.925 E1.80453
G1 X101.817 Y165.992 E.03282
G1 X153.017 Y165.992 E1.80193
G1 X153.091 Y166.925 E.03292
G1 X155.21 Y161.562 F12000
G1 F3000
G1 X155.21 Y158.127 E.12089
G1 X157.729 Y158.127 E.08866
G2 X155.577 Y161.635 I7.802 J7.198 E.14576
G1 X155.21 Y161.562 E.0132
G1 X155.717 Y159.413 F12000
G1 F3000
G1 X155.717 Y158.635 E.0274
G1 X156.585 Y158.635 E.03053
G1 X156.05 Y159.507 E.03601
G1 X155.717 Y159.413 E.01218
G1 X158.127 Y157.729 F12000
G1 F3000
G1 X158.127 Y155.21 E.08866
G1 X161.562 Y155.21 E.1209
G1 X161.635 Y155.577 E.0132
G2 X158.127 Y157.729 I3.688 J9.95 E.14576
G1 X158.635 Y156.585 F12000
G1 F3000
G1 X158.635 Y155.717 E.03053
G1 X159.413 Y155.717 E.0274
G1 X159.507 Y156.05 E.01218
G1 X158.635 Y156.585 E.03601
G1 X159.384 Y157.324 F12000
G1 F3000
G3 X158.303 Y158.246 I5.604 J7.669 E2.05027
G1 X159.384 Y157.324 E.05001
G1 E-.5 F2400
G1 X168.365 Y155.577 F12000
G1 E.5 F1800
G1 F3000
G1 X168.438 Y155.21 E.0132
G1 X171.873 Y155.21 E.1209
G1 X171.873 Y157.729 E.08866
G2 X168.365 Y155.577 I-7.198 J7.802 E.14576
G1 X170.493 Y156.05 F12000
G1 F3000
G1 X170.587 Y155.717 E.01218
G1 X171.366 Y155.717 E.0274
G1 X171.366 Y156.585 E.03054
G1 X170.493 Y156.05 E.03601
G1 X172.271 Y158.127 F12000
G1 F3000
G1 X174.79 Y158.127 E.08866
G1 X174.79 Y161.562 E.1209
G1 X174.423 Y161.635 E.0132
G2 X172.271 Y158.127 I-9.954 J3.69 E.14576
G1 X173.415 Y158.635 F12000
G1 F3000
G1 X174.283 Y158.635 E.03054
G1 X174.283 Y159.413 E.0274
G1 X173.95 Y159.507 E.01218
G1 X173.415 Y158.635 E.03601
G1 X174.942 Y163.961 F12000
G1 F3000
G1 X230.215 Y163.961 E1.94526
G1 X230.215 Y168.956 E.17581
G1 X174.79 Y168.956 E1.9506
G1 X174.79 Y171.873 E.10266
G1 X172.271 Y171.873 E.08866
G2 X174.942 Y163.961 I-7.087 J-6.8 E.30357
G1 X173.949 Y170.492 F12000
G1 F3000
G1 X174.283 Y170.586 E.01218
G1 X174.283 Y171.366 E.02743
G1 X173.415 Y171.366 E.03054
G1 X173.949 Y170.492 E.03603
G1 X174.971 Y168.448 F12000
G1 F3000
G2 X175.492 Y164.469 I-11.339 J-3.506 E.14194
G1 X229.707 Y164.469 E1.90805
G1 X229.707 Y168.448 E.14006
G1 X174.971 Y168.448 E1.92636
G1 X175.616 Y167.941 F12000
G1 F3000
G2 X176.045 Y164.977 I-9.859 J-2.94 E.10578
G1 X229.199 Y164.977 E1.87071
G1 X229.199 Y167.941 E.10432
G1 X175.616 Y167.941 E1.88581
G1 X176.26 Y167.433 F12000
G1 F3000
G2 X176.514 Y165.484 I-7.041 J-1.909 E.06936
G1 X228.691 Y165.484 E1.83632
G1 X228.691 Y167.433 E.06857
G1 X176.26 Y167.433 E1.84526
G1 X176.909 Y166.925 F12000
G1 F3000
G1 X176.983 Y165.992 E.03292
G1 X228.184 Y165.992 E1.80193
G1 X228.184 Y166.925 E.03282
G1 X176.909 Y166.925 E1.80453
G1 X171.873 Y172.271 F12000
G1 F3000
G1 X171.873 Y174.79 E.08866
G1 X168.438 Y174.79 E.12089
G1 X168.365 Y174.423 E.0132
G2 X171.873 Y172.271 I-3.691 J-9.956 E.14575
G1 X171.366 Y173.415 F12000
G1 F3000
G1 X171.366 Y174.283 E.03053
G1 X170.587 Y174.283 E.0274
G1 X170.493 Y173.95 E.01218
G1 X171.366 Y173.415 E.03601
G1 X161.635 Y174.423 F12000
G1 F3000
G1 X161.562 Y174.79 E.0132
G1 X158.127 Y174.79 E.12089
G1 X158.127 Y172.271 E.08865
G2 X161.635 Y174.423 I7.199 J-7.805 E.14575
G1 X159.507 Y173.95 F12000
G1 F3000
G1 X159.413 Y174.283 E.01218
G1 X158.635 Y174.283 E.0274
G1 X158.635 Y173.415 E.03053
G1 X159.507 Y173.95 E.036
G1 E-.5 F2400
G1 X158.05 Y169.876 F12000
G1 X157.618 Y168.668
G1 E.5 F1800
;TYPE:Outer wall
G1 F3000
G1 X157.155 Y167.549 E.04263
G1 X156.853 Y166.295 E.0454
G1 X156.751 Y165 E.04572
G1 X156.852 Y163.71 E.04555
G1 X157.157 Y162.444 E.04583
G1 X157.65 Y161.255 E.04529
G1 X158.326 Y160.151 E.04556
G1 X159.167 Y159.167 E.04555
G1 X160.158 Y158.322 E.04583
G1 X161.255 Y157.65 E.04528
G1 X162.451 Y157.155 E.04556
M73 P2 R52
G1 X163.709 Y156.852 E.04555
G1 X165.008 Y156.751 E.04583
G1 X165.429 Y156.785 E.01487
G1 X166.29 Y156.852 E.03042
G1 X167.549 Y157.155 E.04556
G1 X168.745 Y157.65 E.04556
G1 X169.849 Y158.326 E.04556
G1 X170.833 Y159.167 E.04556
G1 X171.674 Y160.151 E.04556
G1 X172.35 Y161.255 E.04556
G1 X172.845 Y162.451 E.04556
G1 X173.148 Y163.71 E.04556
G1 X173.249 Y165 E.04555
G1 X173.147 Y166.295 E.04572
G1 X172.845 Y167.549 E.0454
G1 X172.352 Y168.74 E.04536
G1 X171.673 Y169.85 E.04581
G1 X170.832 Y170.834 E.04554
G1 X169.848 Y171.674 E.04555
G1 X168.744 Y172.351 E.04555
G1 X167.556 Y172.843 E.04528
G1 X166.29 Y173.148 E.04581
G1 X165 Y173.249 E.04554
G1 X163.71 Y173.148 E.04554
G1 X162.444 Y172.843 E.04581
G1 X161.256 Y172.351 E.04528
G1 X160.152 Y171.674 E.04555
G1 X159.168 Y170.834 E.04555
G1 X158.327 Y169.85 E.04554
G1 X157.648 Y168.74 E.04581
G1 X157.633 Y168.705 E.00132
G1 E-.5 F2400
G1 X159.7 Y170.757 F12000
G1 X160.72 Y171.551
G1 X161.857 Y172.166
G1 X163.079 Y172.586
G1 X164.354 Y172.799
G1 X165.646 Y172.799
G1 X166.921 Y172.586
G1 X168.143 Y172.166
G1 X169.28 Y171.551
G1 X170.3 Y170.757
G1 X171.175 Y169.806
G1 X171.882 Y168.724
G1 X172.401 Y167.541
G1 X172.719 Y166.288
G1 X172.825 Y165
G1 X172.639 Y162.381
G1 E.5 F1800
G1 F3000
G1 X172.964 Y163.663 E.04653
G1 X173.076 Y165 E.04722
G1 X172.966 Y166.329 E.04695
G1 X172.639 Y167.622 E.04694
G1 X172.103 Y168.844 E.04694
G1 X171.373 Y169.96 E.04694
G1 X170.47 Y170.942 E.04694
G1 X169.417 Y171.761 E.04694
G1 X168.244 Y172.396 E.04694
G1 X166.983 Y172.829 E.04694
G1 X165.667 Y173.049 E.04694
G1 X164.333 Y173.049 E.04694
G1 X163.017 Y172.829 E.04694
G1 X161.756 Y172.396 E.04694
G1 X160.583 Y171.761 E.04694
G1 X159.53 Y170.942 E.04694
G1 X158.627 Y169.96 E.04694
G1 X157.897 Y168.844 E.04694
G1 X157.361 Y167.622 E.04694
G1 X157.036 Y166.337 E.04666
G1 X156.924 Y165 E.04722
G1 X157.034 Y163.671 E.04695
G1 X157.361 Y162.378 E.04694
G1 X157.897 Y161.156 E.04694
G1 X158.627 Y160.04 E.04694
G1 X159.525 Y159.064 E.04666
G1 X160.583 Y158.239 E.04722
G1 X161.756 Y157.604 E.04695
G1 X163.017 Y157.171 E.04694
G1 X164.333 Y156.951 E.04694
G1 X165.667 Y156.951 E.04694
G1 X166.983 Y157.171 E.04694
G1 X168.244 Y157.604 E.04694
G1 X169.41 Y158.235 E.04666
G1 X170.47 Y159.058 E.04722
G1 X171.373 Y160.04 E.04695
G1 X172.103 Y161.156 E.04694
G1 X172.624 Y162.344 E.04566
; stop printing object as.stl id:0 copy 0
;LAYER_CHANGE
;Z:0.4
;HEIGHT:0.2
;BEFORE_LAYER_CHANGE
;0.4
G92 E0

EXCLUDE_OBJECT_END NAME=as.stl_id_0_copy_0
SET_VELOCITY_LIMIT ACCEL=18000 ACCEL_TO_DECEL=9000
M140 S110 ; set bed temperature
; printing object as.stl id:0 copy 0
SET_VELOCITY_LIMIT ACCEL=15000 ACCEL_TO_DECEL=7500
G1 E-.5 F2400
EXCLUDE_OBJECT_START NAME=as.stl_id_0_copy_0
G1 X173.084 Y167.627 Z.4 F12000
G1 X168.857 Y172.575
G1 X162.354 Y173.076
G1 X157.391 Y168.774
G1 X157.576 Y168.698
G1 E.5 F1800
SET_VELOCITY_LIMIT ACCEL=12000 ACCEL_TO_DECEL=6000
;WIDTH:0.4
G1 F2297
G1 X157.107 Y167.565 E.0337
G1 X156.806 Y166.312 E.03544
G1 X156.701 Y165 E.03619
G1 X156.803 Y163.702 E.0358
G1 X157.107 Y162.435 E.03581
G1 X157.605 Y161.232 E.03581
G1 X158.286 Y160.122 E.03581
G1 X159.131 Y159.131 E.03581
G1 X160.122 Y158.286 E.03581
G1 X161.232 Y157.605 E.03581
G1 X162.435 Y157.107 E.03581
G1 X163.702 Y156.803 E.03581
G1 X165.008 Y156.701 E.03602
G1 X166.298 Y156.803 E.03559
G1 X167.565 Y157.107 E.03581
G1 X168.768 Y157.605 E.03581
G1 X169.878 Y158.286 E.03581
G1 X170.869 Y159.131 E.03581
G1 X171.714 Y160.122 E.03581
G1 X172.395 Y161.232 E.03581
G1 X172.893 Y162.435 E.03581
G1 X173.197 Y163.702 E.03581
G1 X173.299 Y165 E.0358
G1 X173.194 Y166.312 E.03619
G1 X172.893 Y167.565 E.03544
G1 X172.394 Y168.769 E.03584
G1 X171.711 Y169.882 E.0359
G1 X170.865 Y170.872 E.03578
G1 X169.875 Y171.716 E.03578
G1 X168.766 Y172.396 E.03578
G3 X167.564 Y172.893 I-17.826 J-41.345 E.03574
G1 X166.297 Y173.197 E.03582
G1 X165 Y173.299 E.03578
G1 X163.703 Y173.197 E.03578
G1 X162.436 Y172.893 E.03582
G3 X161.234 Y172.396 I16.624 J-41.843 E.03574
G1 X160.125 Y171.716 E.03578
G1 X159.135 Y170.872 E.03578
G1 X158.289 Y169.882 E.03578
G1 X157.603 Y168.763 E.03609
G1 X157.591 Y168.735 E.00085
SET_VELOCITY_LIMIT ACCEL=15000 ACCEL_TO_DECEL=7500
G1 E-.5 F2400
G1 X159.7 Y170.757 F12000
G1 X160.72 Y171.551
G1 X161.857 Y172.166
G1 X163.079 Y172.586
G1 X164.354 Y172.799
G1 X165.646 Y172.799
G1 X166.921 Y172.586
G1 X168.143 Y172.166
G1 X169.28 Y171.551
G1 X170.3 Y170.757
G1 X171.175 Y169.806
G1 X171.882 Y168.724
G1 X172.401 Y167.541
G1 X172.719 Y166.288
G1 X172.825 Y165
G1 X172.719 Y163.712
G1 X172.591 Y162.394
G1 E.5 F1800
SET_VELOCITY_LIMIT ACCEL=12000 ACCEL_TO_DECEL=6000
G1 F2297
G1 X172.916 Y163.679 E.03645
G1 X173.026 Y165 E.03645
G1 X172.916 Y166.321 E.03644
G1 X172.591 Y167.606 E.03644
G1 X172.059 Y168.82 E.03644
G1 X171.334 Y169.93 E.03645
G1 X170.436 Y170.905 E.03644
G1 X169.39 Y171.719 E.03644
G1 X168.224 Y172.35 E.03644
G1 X166.97 Y172.78 E.03644
G1 X165.663 Y172.999 E.03645
G1 X164.337 Y172.999 E.03644
G1 X163.076 Y172.788 E.03516
G1 X161.776 Y172.35 E.03771
G1 X160.61 Y171.719 E.03644
G1 X159.564 Y170.905 E.03644
G1 X158.666 Y169.93 E.03644
