; HEADER_BLOCK_START
; generated by OrcaSlicer 1.6.6 on 2023-08-31 at 19:17:56
; total layer number: 22
; HEADER_BLOCK_END

; THUMBNAIL_BLOCK_START
; THUMBNAIL_BLOCK_END

; external perimeters extrusion width = 0.40mm
; perimeters extrusion width = 0.46mm
; infill extrusion width = 0.64mm
; solid infill extrusion width = 0.56mm
; top infill extrusion width = 0.40mm
; support material extrusion width = 0.46mm
; first layer extrusion width = 0.50mm

; EXECUTABLE_BLOCK_START
EXCLUDE_OBJECT_DEFINE NAME=asdfw3.stl_id_0_copy_0 CENTER=165,165 POLYGON=[[142.862,171.658],[142.868,171.496],[145.292,152.31],[145.398,151.686],[145.666,151.06],[152.478,138.082],[153.218,137.15],[154.124,136.382],[155.174,135.8],[155.624,135.616],[156.09,135.474],[156.566,135.372],[157.868,135.234],[157.906,135.232],[159.214,135.19],[171.122,135],[172.14,135.012],[173.116,135.08],[174.034,135.202],[174.58,135.294],[175.114,135.428],[175.64,135.596],[176.292,135.866],[177.092,136.354],[177.774,136.972],[178.338,137.712],[184.982,150.374],[185.346,151.68],[187.138,171.65],[187.13,171.784],[187.076,171.996],[180.934,188.944],[180.736,189.374],[180.504,189.732],[180.23,190.032],[179.908,190.286],[179.53,190.504],[179.174,190.664],[178.816,190.776],[178.438,190.84],[169.292,192.3],[154.81,194.588],[154.446,194.634],[153.956,194.68],[152.918,194.764],[152.716,194.78],[151.482,194.87],[150.906,194.912],[150.37,194.944],[149.834,194.968],[149.198,194.992],[148.88,195],[148.562,194.998],[148.244,194.99],[147.906,194.966],[147.646,194.926],[147.122,194.768],[146.552,194.516],[146.224,194.348],[145.922,194.142],[145.63,193.918],[145.33,193.54],[145.246,193.144],[142.888,171.924],[142.862,171.658]]
M73 P0 R14
M73 C11
;TYPE:Custom
START_PRINT T_BED=60 T_EXTRUDER=220
G90
G21
M83 ; use relative distances for extrusion
; filament start gcode

    PRESSURE_ADVANCE_SELECT FILAMENT=PLA
M106 S0
;LAYER_CHANGE
;Z:0.2
;HEIGHT:0.2
;BEFORE_LAYER_CHANGE
;0.2
G92 E0

SET_VELOCITY_LIMIT ACCEL=5000 ACCEL_TO_DECEL=2500
G1 E-.8 F1800
G1 X150.936 Y135.338 F12000
G1 Z.2
G1 E.8 F1800
;TYPE:Skirt
;WIDTH:0.5
G1 F3000
G1 X151.334 Y134.927 E.0213
G1 X152.711 Y133.833 E.06552
G1 X153.761 Y133.251 E.04471
G1 X154.775 Y132.828 E.0409
G1 X155.955 Y132.523 E.04543
G1 X157.603 Y132.334 E.06178
G1 X172.174 Y132.098 E.54279
G1 X173.5 Y132.191 E.04949
G1 X175.064 Y132.42 E.05889
G1 X176.755 Y132.904 E.0655
G1 X177.81 Y133.378 E.04307
G1 X178.61 Y133.866 E.0349
G1 X179.049 Y134.195 E.02043
G1 X180.092 Y135.206 E.0541
G1 X180.918 Y136.358 E.05283
G1 X187.562 Y149.02 E.53259
G1 X188.153 Y150.898 E.07331
G1 X190.04 Y171.39 E.76648
G1 X190.039 Y171.958 E.02116
G1 X189.816 Y172.989 E.0393
G1 X183.674 Y189.937 E.67142
G1 X182.95 Y191.317 E.05805
G1 X182.035 Y192.32 E.05057
G1 X180.725 Y193.162 E.05801
G1 X179.302 Y193.649 E.05599
G1 X154.811 Y197.525 E.92355
G1 X151.08 Y197.821 E.13943
G1 X148.544 Y197.912 E.09452
G1 X147.203 Y197.806 E.0501
G1 X145.944 Y197.433 E.04892
G1 X144.896 Y196.942 E.04312
G1 X143.856 Y196.23 E.04691
G1 X143.047 Y195.352 E.04448
G1 X142.479 Y194.145 E.04968
G1 X142.35 Y193.466 E.02574
G1 X139.962 Y171.941 E.80662
G1 X139.977 Y171.131 E.0302
G1 X142.401 Y151.945 E.72029
G1 X142.719 Y150.539 E.05368
G1 X143.086 Y149.706 E.03391
G1 X149.898 Y136.728 E.54592
G1 X150.912 Y135.37 E.06312
G1 X151.305 Y135.683 F12000
G1 F3000
G1 X151.629 Y135.276 E.0194
G1 X152.933 Y134.233 E.06218
G1 X153.983 Y133.651 E.04471
G1 X154.908 Y133.266 E.03732
G1 X156.051 Y132.969 E.04399
G1 X157.651 Y132.788 E.05996
G1 X172.169 Y132.555 E.54082
G1 X173.44 Y132.644 E.04745
G1 X174.988 Y132.871 E.05829
G1 X176.58 Y133.326 E.06166
G1 X177.572 Y133.768 E.04044
G1 X178.372 Y134.256 E.0349
G1 X179.728 Y135.483 E.06811
G1 X180.514 Y136.57 E.04997
G1 X187.158 Y149.232 E.53259
G1 X187.713 Y151.02 E.06973
G1 X189.583 Y171.93 E.78193
G1 X189.386 Y172.833 E.03441
G1 X183.244 Y189.781 E.67142
G1 X182.566 Y191.068 E.05418
G1 X181.752 Y191.961 E.04501
G1 X180.537 Y192.745 E.05384
G1 X179.226 Y193.199 E.05167
G1 X154.754 Y197.072 E.92284
G1 X151.052 Y197.365 E.1383
G1 X148.547 Y197.455 E.0934
G1 X147.272 Y197.355 E.04761
G1 X146.128 Y197.015 E.04444
G1 X145.104 Y196.535 E.04215
G1 X144.134 Y195.868 E.04384
G1 X143.405 Y195.067 E.04032
G1 X142.926 Y194.05 E.04189
G1 X142.804 Y193.415 E.02407
G1 X140.417 Y171.897 E.8064
G1 X140.43 Y171.188 E.02641
G1 X142.854 Y152.002 E.72029
G1 X143.139 Y150.719 E.04895
G1 X143.49 Y149.918 E.03257
G1 X150.302 Y136.94 E.54592
M73 P1 R14
G1 X151.28 Y135.714 E.05839
; printing object asdfw3.stl id:0 copy 0
G1 E-.8 F1800
EXCLUDE_OBJECT_START NAME=asdfw3.stl_id_0_copy_0
G1 X179.257 Y161.059 F12000
G1 E.8 F1800
;TYPE:Outer wall
;WIDTH:0.499999
G1 F3000
G1 X179.269 Y161.235 E.00656
G2 X179.975 Y161.722 I1.778 J-1.824 E.03212
G1 X181.139 Y162.324 E.0488
G1 X181.77 Y162.733 E.02802
G1 X181.917 Y162.905 E.00843
G1 X182.002 Y163.312 E.01547
G2 X182.264 Y166.341 I770.404 J-64.885 E.11325
G1 X182.364 Y167.098 E.02844
G1 X182.56 Y167.42 E.01402
G1 X182.842 Y167.55 E.01158
;WIDTH:0.536624
G1 X183.008 Y167.572 E.00674
;WIDTH:0.573249
G1 X183.174 Y167.594 E.00724
;WIDTH:0.609874
G1 X183.34 Y167.616 E.00774
G1 X184.332 Y167.414 E.04678
;WIDTH:0.563341
G1 X185.036 Y167.39 E.02985
G1 X185.178 Y167.443 E.00641
G1 X185.173 Y167.636 E.00816
G1 X184.801 Y167.806 E.01737
;WIDTH:0.570345
G1 X184.312 Y167.955 E.02196
;WIDTH:0.609874
G1 X183.466 Y168.168 E.04029
G1 X183.322 Y168.243 E.00754
;WIDTH:0.573249
G1 X183.177 Y168.319 E.00705
;WIDTH:0.536624
G1 X183.032 Y168.394 E.00656
;WIDTH:0.499999
G1 X182.74 Y168.611 E.01356
G1 X182.555 Y168.875 E.01199
G1 X182.478 Y169.292 E.01578
G1 X182.525 Y170.12 E.03092
G1 X182.618 Y170.56 E.01675
G1 X182.718 Y170.808 E.00995
G1 X182.925 Y171.049 E.01183
G1 X183.06 Y171.119 E.00566
G1 X183.659 Y171.202 E.02253
G1 X185.405 Y171.257 E.06508
;WIDTH:0.543254
G1 X185.866 Y171.293 E.01885
;WIDTH:0.589883
G1 X186.182 Y171.35 E.01428
;WIDTH:0.636512
G1 X186.497 Y171.406 E.01549
G1 X186.639 Y171.485 E.00788
G1 X186.71 Y171.676 E.00984
G1 X186.712 Y171.732 E.00272
G1 X186.615 Y171.894 E.0091
G3 X186.099 Y171.997 I-6.084 J-29.226 E.02546
;WIDTH:0.589883
G1 X185.88 Y172.039 E.00995
;WIDTH:0.543254
G1 X185.422 Y172.101 E.01884
;WIDTH:0.499999
G2 X183.321 Y172.218 I35.444 J653.755 E.07838
G1 X182.823 Y172.281 E.01871
G1 X182.699 Y172.338 E.00507
G1 X182.625 Y172.474 E.00577
G1 X182.245 Y175.018 E.09581
G2 X181.936 Y177.726 I30.494 J4.854 E.10155
G2 X181.947 Y179.057 I24.671 J.472 E.04959
G3 X182.643 Y180.739 I-17.558 J8.257 E.06782
G3 X182.724 Y181.933 I-8.475 J1.171 E.0446
G2 X181.866 Y183.811 I40.974 J19.853 E.07691
G1 X181.542 Y184.725 E.03611
G2 X181.033 Y187.086 I22.636 J6.115 E.09001
G1 X180.827 Y188.087 E.03808
G3 X180.429 Y189.205 I-4.941 J-1.132 E.04429
G1 X180.099 Y189.656 E.02082
G1 X179.715 Y189.992 E.01899
G1 X179.051 Y190.334 E.02785
G1 X178.4 Y190.49 E.02492
G1 X177.551 Y190.477 E.03163
G3 X176.316 Y190.277 I1.394 J-12.516 E.0466
G2 X173.358 Y189.699 I-8.757 J36.955 E.1123
G1 X172.778 Y189.688 E.02161
G1 X172.295 Y189.84 E.01884
G1 X171.793 Y190.23 E.02369
G1 X171.106 Y190.977 E.0378
G1 X170.66 Y191.377 E.02231
G1 X170.065 Y191.714 E.02549
G1 X169.419 Y191.914 E.02517
G3 X167.684 Y191.894 I-.819 J-4.349 E.06506
G1 X167.138 Y191.666 E.02203
G1 X166.661 Y191.365 E.02103
G1 X166.237 Y190.978 E.02137
G3 X165.476 Y189.996 I23.823 J-19.225 E.04628
G1 X165.025 Y189.536 E.02397
G1 X164.725 Y189.34 E.01338
G2 X163.381 Y189.048 I-2.401 J7.808 E.05128
G2 X159.197 Y188.562 I-9.551 J64.047 E.15691
G1 X158.415 Y188.537 E.02913
G1 X157.843 Y188.584 E.0214
G2 X156.726 Y188.927 I2.499 J10.132 E.04354
G3 X153.465 Y190.076 I-27.453 J-72.689 E.12877
G1 X152.89 Y190.226 E.02214
G3 X152.05 Y190.251 I-.789 J-12.617 E.0313
G1 X151.91 Y190.337 E.00611
G1 X151.779 Y190.719 E.01505
G1 X151.864 Y190.882 E.00685
G1 X152.361 Y191.336 E.02507
G3 X152.94 Y192.271 I-2.645 J2.283 E.04112
G3 X154.43 Y193.715 I-20.077 J22.2 E.07731
G1 X154.864 Y194.215 E.02467
G1 X154.753 Y194.242 E.00426
G3 X148.876 Y194.65 I-9.1 J-88.601 E.21944
G3 X147.718 Y194.582 I-.205 J-6.428 E.04326
G3 X145.959 Y193.729 I1.481 J-5.296 E.07322
G1 X145.655 Y193.387 E.01704
G1 X145.606 Y193.155 E.00883
G1 X145.705 Y192.796 E.01387
G2 X146.617 Y191.141 I-18.562 J-11.304 E.07042
G1 X146.775 Y190.595 E.02117
G1 X146.87 Y189.741 E.03199
G2 X146.948 Y183.229 I-152.549 J-5.079 E.24257
G2 X146.608 Y181.059 I-7.463 J.057 E.08214
G1 X146.237 Y180.037 E.04049
G1 X146.108 Y179.518 E.01993
G3 X146.037 Y178.286 I6.037 J-.966 E.04601
G1 X146.082 Y177.246 E.03877
G3 X146.146 Y172.96 I139.734 J-.058 E.15968
G1 X146.098 Y172.814 E.00572
G1 X145.87 Y172.703 E.00942
G2 X144.171 Y172.362 I-2.732 J9.208 E.06464
G1 X143.679 Y172.235 E.01893
G3 X143.274 Y171.977 I.299 J-.912 E.01806
G3 X143.239 Y171.488 I.962 J-.315 E.01842
G1 X143.405 Y171.305 E.00919
G2 X146.733 Y171.363 I3.479 J-104.48 E.12399
G1 X147.37 Y171.311 E.02379
G1 X147.526 Y171.23 E.00657
G1 X147.669 Y170.965 E.0112
G1 X147.722 Y170.402 E.02105
G2 X147.687 Y168.927 I-9.974 J-.502 E.05502
G1 X147.609 Y168.674 E.00984
G1 X147.398 Y168.398 E.01296
G1 X146.173 Y167.669 E.05307
G1 X145.846 Y167.387 E.01609
G1 X145.886 Y167.362 E.00177
G1 X146.316 Y167.319 E.01608
G1 X146.937 Y167.405 E.02335
G1 X147.384 Y167.343 E.0168
G1 X147.619 Y167.023 E.0148
G2 X147.753 Y165.866 I-6.296 J-1.316 E.04347
G3 X147.935 Y163.621 I20.751 J.551 E.08391
G1 X148.283 Y163.381 E.01575
G3 X150.217 Y162.548 I23.787 J52.53 E.07843
G2 X151.109 Y162.049 I-1.35 J-3.465 E.03821
G1 X151.301 Y161.685 E.0153
G1 X151.227 Y161.383 E.01158
G2 X150.521 Y160.5 I-4.035 J2.503 E.04222
G3 X147.407 Y157.19 I72.068 J-70.91 E.16928
G1 X146.779 Y156.35 E.03907
G3 X145.989 Y154.76 I7.488 J-4.712 E.06622
G1 X145.774 Y153.943 E.03148
G1 X145.656 Y153.095 E.0319
G1 X145.643 Y152.337 E.02825
G1 X145.736 Y151.786 E.02081
G3 X146.781 Y149.826 I10.876 J4.542 E.08285
G1 X147.124 Y149.37 E.02125
G1 X147.707 Y148.93 E.0272
G3 X149.243 Y148.347 I4.72 J10.108 E.06126
G2 X150.281 Y147.95 I-4.343 J-12.934 E.04137
G1 X150.907 Y147.59 E.02691
G1 X151.317 Y147.19 E.02135
G1 X151.483 Y146.715 E.01872
G2 X151.635 Y144.827 I-22.175 J-2.744 E.07059
G3 X151.837 Y141.06 I134.192 J5.277 E.14048
G3 X152.254 Y139.287 I6.384 J.567 E.0681
G1 X152.774 Y138.272 E.04244
G1 X153.471 Y137.395 E.04175
G1 X154.324 Y136.671 E.04166
G1 X155.321 Y136.119 E.04246
G3 X156.621 Y135.718 I3.019 J7.487 E.05073
G3 X159.218 Y135.54 I2.533 J17.913 E.09703
G3 X162.626 Y135.657 I-.269 J57.682 E.12704
G1 X163.364 Y135.74 E.02765
G1 X163.748 Y135.887 E.0153
G2 X164.97 Y136.539 I105.661 J-196.636 E.0516
G1 X165.476 Y136.602 E.01898
G2 X166.421 Y136.39 I-.072 J-2.534 E.0363
G3 X167.822 Y135.777 I10.619 J22.34 E.057
G1 X168.517 Y135.572 E.02697
G3 X174.508 Y135.637 I2.807 J17.407 E.22426
G3 X176.133 Y136.179 I-1.837 J8.212 E.06391
G1 X176.881 Y136.636 E.03266
G1 X177.515 Y137.21 E.03185
G1 X178.041 Y137.9 E.03233
G1 X178.395 Y138.581 E.02859
G1 X178.601 Y139.135 E.02198
G3 X178.766 Y141.018 I-14.327 J2.208 E.07049
G2 X178.929 Y145.635 I158.675 J-3.294 E.17205
G2 X179.187 Y146.503 I2.652 J-.313 E.0339
G1 X179.564 Y147.08 E.02569
G2 X180.731 Y147.796 I1.821 J-1.659 E.05166
G3 X182.271 Y148.182 I-1.951 J11.048 E.05921
G1 X182.988 Y148.577 E.03047
G1 X183.672 Y149.145 E.03313
G1 X184.256 Y149.818 E.03318
G1 X184.657 Y150.511 E.02981
G1 X184.998 Y151.735 E.04734
G1 X185.055 Y153.082 E.05022
G1 X184.867 Y154.203 E.04231
G1 X184.697 Y154.853 E.02503
G1 X184.421 Y155.447 E.0244
G1 X184.031 Y155.99 E.0249
G3 X180.748 Y159.445 I-57.372 J-51.228 E.17755
G1 X179.804 Y160.41 E.05029
G1 X179.283 Y161.029 E.03012
G1 E-.8 F1800
G1 X179.01 Y160.81 F12000
G1 X178.691 Y161.208
G1 X182.311 Y170.164
G1 X183.561 Y172.385
G1 X183.565 Y171.699
G1 E.8 F1800
;TYPE:Inner wall
;WIDTH:0.594308
G1 F3000
G1 X183.643 Y171.7 E.00353
;WIDTH:0.583248
G1 X184.08 Y171.695 E.01925
;WIDTH:0.545109
G1 X184.518 Y171.69 E.01789
;WIDTH:0.50697
G1 X184.955 Y171.685 E.01653
;WIDTH:0.468831
G1 X185.392 Y171.679 E.01517
;WIDTH:0.430692
G1 X185.744 Y171.67 E.01113
G1 E-.8 F1800
G1 X183.045 Y170.975 F12000
G1 X182.792 Y170.808
G1 X182.602 Y170.596
G1 X182.444 Y170.385
G1 X182.311 Y170.164
G1 X178.691 Y161.208
G1 X178.839 Y160.916
G1 E.8 F1800
;WIDTH:0.499999
G1 F3000
G1 X178.795 Y161.033 E.00467
G1 X178.82 Y161.341 E.01151
G1 X178.979 Y161.609 E.01158
G2 X179.766 Y162.129 I2.369 J-2.732 E.03524
G1 X180.907 Y162.718 E.04782
G1 X181.489 Y163.094 E.0258
G1 X181.547 Y163.355 E.00998
G2 X181.853 Y166.792 I287.059 J-23.757 E.12853
G1 X181.958 Y167.328 E.02034
G1 X182.234 Y167.74 E.01848
G1 X182.419 Y167.874 E.0085
G1 X182.792 Y168.009 E.01477
G1 X182.362 Y168.343 E.02026
G1 X182.095 Y168.789 E.01938
G1 X182.022 Y169.321 E.02
G1 X182.07 Y170.162 E.03139
G1 X182.171 Y170.657 E.01882
G1 X182.338 Y171.067 E.01647
G1 X182.682 Y171.443 E.019
G1 X182.996 Y171.572 E.01265
;WIDTH:0.547154
G1 X183.281 Y171.635 E.01196
;WIDTH:0.594308
G1 X183.565 Y171.699 E.01308
G1 X183.413 Y171.727 E.00691
;WIDTH:0.557629
G1 X183.262 Y171.754 E.00645
;WIDTH:0.520949
G1 X182.765 Y171.828 E.01957
;WIDTH:0.499999
G1 X182.509 Y171.913 E.01005
G1 X182.293 Y172.11 E.01092
G1 X182.173 Y172.407 E.01189
G1 X181.753 Y175.224 E.10609
G2 X181.479 Y177.725 I29.723 J4.516 E.09377
G1 X181.471 Y178.963 E.04608
G1 X181.527 Y179.238 E.01045
G3 X182.194 Y180.837 I-28.2 J12.7 E.06454
G3 X182.263 Y181.837 I-11.397 J1.298 E.03735
G2 X181.435 Y183.658 I37.947 J18.364 E.07454
M73 C10
G1 X181.111 Y184.572 E.03611
G2 X180.831 Y185.678 I69.419 J18.159 E.04249
G1 X180.463 Y187.651 E.07474
G3 X180.132 Y188.756 I-5.444 J-1.026 E.04305
G1 X179.863 Y189.237 E.02053
G1 X179.467 Y189.606 E.02016
G1 X178.891 Y189.903 E.02414
G1 X178.35 Y190.032 E.02072
G1 X177.585 Y190.02 E.02848
G3 X176.406 Y189.828 I1.339 J-11.957 E.04452
G2 X173.368 Y189.242 I-8.164 J34.11 E.11526
G1 X172.722 Y189.235 E.02408
G1 X172.237 Y189.367 E.01871
G1 X172.027 Y189.47 E.00872
G1 X171.457 Y189.92 E.02707
G1 X170.784 Y190.651 E.03698
G1 X170.391 Y191.003 E.01966
G1 X169.877 Y191.295 E.02201
G1 X169.449 Y191.439 E.01683
G3 X167.819 Y191.455 I-.854 J-3.84 E.06115
G3 X166.572 Y190.666 I1.052 J-3.041 E.05548
G3 X165.805 Y189.679 I32.48 J-26.025 E.04654
G1 X165.319 Y189.183 E.02589
G1 X164.952 Y188.943 E.01633
G1 X164.662 Y188.843 E.01141
G2 X162.629 Y188.477 I-3.86 J15.621 E.07698
G1 X162.063 Y188.406 E.02127
G2 X158.381 Y188.081 I-4.659 J31.7 E.13774
G1 X157.72 Y188.144 E.02474
G2 X156.568 Y188.498 I2.634 J10.616 E.04493
G3 X153.32 Y189.643 I-27.329 J-72.353 E.12825
G1 X152.826 Y189.772 E.01904
G1 X152.112 Y189.79 E.0266
G1 X151.829 Y189.842 E.01069
G1 X151.547 Y190.059 E.01327
G1 X151.449 Y190.237 E.00757
G1 X151.326 Y190.628 E.01527
G1 X151.353 Y190.91 E.01053
G1 X151.512 Y191.178 E.01162
G1 X151.868 Y191.474 E.01723
G1 X152.226 Y191.915 E.02117
G1 X152.478 Y192.401 E.02037
G1 X152.629 Y192.605 E.00948
G3 X153.942 Y193.87 I-12.721 J14.529 E.06793
G3 X149.356 Y194.174 I-9.089 J-102.136 E.17119
G3 X147.953 Y194.148 I-.535 J-8.679 E.05234
G1 X147.403 Y194.01 E.02113
G3 X146.378 Y193.475 I1.716 J-4.535 E.04315
G1 X146.086 Y193.194 E.01511
G1 X146.13 Y192.974 E.00835
G2 X146.853 Y191.699 I-46.463 J-27.18 E.05461
G1 X147.094 Y191.157 E.02208
G1 X147.229 Y190.646 E.01969
G1 X147.327 Y189.753 E.03345
G1 X147.357 Y188.583 E.04358
G2 X147.404 Y183.205 I-139.92 J-3.92 E.20033
G2 X147.266 Y181.752 I-11.207 J.333 E.0544
G2 X146.707 Y180.007 I-9.971 J2.23 E.06832
G3 X146.496 Y178.858 I3.677 J-1.269 E.04369
G3 X146.539 Y177.25 I16.729 J-.361 E.05994
G3 X146.592 Y172.831 I962.562 J9.29 E.1646
G1 X146.421 Y172.49 E.01421
G1 X145.996 Y172.264 E.01792
G1 X145.715 Y172.211 E.01068
;WIDTH:0.466324
G1 X145.433 Y172.158 E.00989
;WIDTH:0.432649
G1 X145.151 Y172.105 E.0091
;WIDTH:0.398973
G1 X144.625 Y172.04 E.01538
;WIDTH:0.407859
G1 X144.563 Y172.008 E.00209
;WIDTH:0.452332
G1 X144.501 Y171.976 E.00234
;WIDTH:0.496805
G1 X144.439 Y171.943 E.00259
;WIDTH:0.541278
G1 X144.376 Y171.911 E.00285
;WIDTH:0.585751
G1 X144.314 Y171.879 E.0031
;WIDTH:0.630224
G1 X144.252 Y171.846 E.00336
G1 X144.319 Y171.826 E.00336
;WIDTH:0.585751
