; HEADER_BLOCK_START
; generated by OrcaSlicer 1.6.6 on 2023-08-31 at 18:46:57
; total layer number: 12
; HEADER_BLOCK_END

; THUMBNAIL_BLOCK_START
; THUMBNAIL_BLOCK_END

; external perimeters extrusion width = 0.40mm
; perimeters extrusion width = 0.46mm
; infill extrusion width = 0.64mm
; solid infill extrusion width = 0.56mm
; top infill extrusion width = 0.40mm
; support material extrusion width = 0.46mm
; first layer extrusion width = 0.50mm

; EXECUTABLE_BLOCK_START
EXCLUDE_OBJECT_DEFINE NAME=asdf.stl_id_0_copy_0 CENTER=160.503,156.957 POLYGON=[[138.365,163.615],[138.371,163.453],[140.797,144.267],[140.901,143.643],[141.169,143.017],[147.981,130.039],[148.721,129.107],[149.627,128.339],[150.677,127.757],[151.127,127.573],[151.593,127.431],[152.069,127.329],[152.745,127.247],[152.919,127.227],[153.409,127.189],[153.833,127.165],[154.057,127.157],[166.625,126.957],[167.643,126.969],[168.619,127.039],[169.539,127.159],[170.081,127.251],[170.617,127.385],[171.143,127.553],[171.795,127.823],[172.593,128.311],[173.277,128.927],[173.843,129.667],[180.483,142.331],[180.849,143.637],[182.641,163.607],[182.633,163.741],[182.577,163.953],[176.437,180.901],[176.239,181.331],[176.007,181.689],[175.733,181.989],[175.411,182.243],[175.033,182.461],[174.677,182.621],[174.319,182.731],[157.585,185.833],[157.221,185.895],[149.459,186.637],[148.229,186.737],[146.947,186.831],[146.409,186.869],[145.875,186.901],[145.337,186.925],[144.699,186.949],[144.383,186.957],[144.065,186.955],[143.747,186.947],[143.409,186.923],[143.149,186.883],[142.625,186.725],[142.055,186.473],[141.727,186.305],[141.425,186.099],[141.131,185.875],[140.833,185.499],[140.749,185.101],[138.391,163.881],[138.365,163.615]]
M73 P0 R10
M73 C5
;TYPE:Custom
START_PRINT T_BED=60 T_EXTRUDER=220
G90
G21
M83 ; use relative distances for extrusion
; filament start gcode

    PRESSURE_ADVANCE_SELECT FILAMENT=PLA
M106 S0
;LAYER_CHANGE
;Z:0.2
;HEIGHT:0.2
;BEFORE_LAYER_CHANGE
;0.2
G92 E0

SET_VELOCITY_LIMIT ACCEL=5000 ACCEL_TO_DECEL=2500
G1 E-.8 F1800
G1 X146.438 Y127.295 F12000
G1 Z.2
G1 E.8 F1800
;TYPE:Skirt
;WIDTH:0.5
G1 F3000
G1 X146.836 Y126.884 E.0213
G1 X148.214 Y125.79 E.06552
G1 X149.264 Y125.208 E.04471
G1 X150.277 Y124.785 E.0409
G1 X151.458 Y124.479 E.04543
G1 X152.525 Y124.34 E.04008
G1 X154.121 Y124.241 E.05954
G1 X167.507 Y124.053 E.49863
G1 X168.995 Y124.149 E.05557
G1 X170.568 Y124.378 E.05919
G1 X172.257 Y124.86 E.06544
G1 X173.315 Y125.337 E.04319
G1 X174.113 Y125.825 E.03484
G1 X175.591 Y127.156 E.07411
G1 X176.423 Y128.314 E.05309
G1 X183.063 Y140.978 E.53259
G1 X183.655 Y142.85 E.07315
G1 X185.543 Y163.346 E.76663
G1 X185.542 Y163.915 E.02116
G1 X185.316 Y164.945 E.0393
G1 X179.176 Y181.894 E.6714
G1 X178.452 Y183.274 E.05806
G1 X177.537 Y184.277 E.05057
G1 X176.227 Y185.119 E.05801
G1 X174.85 Y185.596 E.0543
G1 X157.498 Y188.796 E.65719
G1 X149.695 Y189.541 E.29197
G1 X144.808 Y189.861 E.18239
G1 X142.965 Y189.803 E.06867
M73 C4
G1 X141.446 Y189.39 E.05864
G1 X140.398 Y188.899 E.04312
G1 X139.364 Y188.193 E.04662
G1 X138.549 Y187.309 E.0448
G1 X137.981 Y186.101 E.04972
G1 X137.852 Y185.423 E.0257
G1 X135.464 Y163.898 E.80662
G1 X135.479 Y163.087 E.03021
G1 X137.905 Y143.901 E.72029
G1 X138.222 Y142.496 E.05365
G1 X138.588 Y141.663 E.03391
G1 X145.4 Y128.684 E.54592
G1 X146.414 Y127.327 E.06312
G1 X146.807 Y127.64 F12000
G1 F3000
G1 X147.132 Y127.233 E.0194
G1 X148.435 Y126.19 E.06218
G1 X149.485 Y125.608 E.04471
G1 X150.41 Y125.222 E.03732
G1 X151.554 Y124.926 E.04399
G1 X152.565 Y124.795 E.03797
G1 X154.128 Y124.698 E.05833
G1 X167.501 Y124.51 E.49816
G1 X169.95 Y124.736 E.09158
G1 X171.212 Y125.001 E.04806
G1 X172.083 Y125.283 E.03406
G1 X173.076 Y125.727 E.04054
G1 X173.874 Y126.215 E.03484
G1 X175.228 Y127.434 E.06786
G1 X176.019 Y128.526 E.0502
G1 X182.659 Y141.19 E.53259
G1 X183.214 Y142.974 E.0696
G1 X185.085 Y163.887 E.78206
M73 P1 R10
G1 X184.887 Y164.79 E.03442
G1 X178.747 Y181.738 E.6714
G1 X178.069 Y183.025 E.05419
G1 X177.254 Y183.918 E.04501
G1 X176.04 Y184.702 E.05384
G1 X174.766 Y185.147 E.05024
G1 X157.454 Y188.341 E.65569
G1 X149.658 Y189.086 E.29172
G1 X145.429 Y189.38 E.15788
G1 X143.235 Y189.374 E.08173
G1 X142.439 Y189.235 E.03007
G1 X141.631 Y188.972 E.03166
G1 X140.606 Y188.492 E.04215
G1 X139.641 Y187.829 E.0436
G1 X138.907 Y187.025 E.04057
G1 X138.428 Y186.006 E.04192
G1 X135.919 Y163.854 E.83037
G1 X135.933 Y163.145 E.02642
G1 X138.359 Y143.959 E.72029
G1 X138.642 Y142.676 E.04893
G1 X138.993 Y141.875 E.03257
G1 X145.805 Y128.897 E.54592
G1 X146.782 Y127.671 E.05839
; printing object asdf.stl id:0 copy 0
G1 E-.8 F1800
EXCLUDE_OBJECT_START NAME=asdf.stl_id_0_copy_0
G1 X154.968 Y180.585 F12000
G1 E.8 F1800
;TYPE:Outer wall
;WIDTH:0.499999
G1 F3000
G1 X154.82 Y180.523 E.00598
G1 X153.909 Y180.493 E.03393
G1 X153.346 Y180.541 E.02107
G2 X152.228 Y180.884 I2.497 J10.126 E.04355
G3 X148.956 Y182.037 I-28.53 J-75.742 E.12926
G1 X148.396 Y182.182 E.02153
G2 X147.548 Y182.208 I1.62 J66.843 E.03159
G1 X147.411 Y182.295 E.00604
G1 X147.284 Y182.677 E.015
G1 X147.361 Y182.834 E.0065
G1 X147.857 Y183.275 E.02473
G3 X148.448 Y184.233 I-4.515 J3.443 E.04199
G3 X150.367 Y186.172 I-10.795 J12.6 E.10171
G1 X150.254 Y186.199 E.00432
G3 X144.379 Y186.607 I-9.055 J-87.936 E.21939
G3 X143.221 Y186.539 I-.205 J-6.427 E.04326
G1 X142.642 Y186.35 E.02269
G3 X141.471 Y185.694 I2.28 J-5.446 E.05008
G1 X141.158 Y185.346 E.01745
G1 X141.109 Y185.112 E.00891
G3 X141.32 Y184.548 I1.899 J.39 E.02253
G2 X142.122 Y183.097 I-19.236 J-11.578 E.06178
G1 X142.277 Y182.553 E.02105
G1 X142.372 Y181.698 E.03203
G2 X142.45 Y175.184 I-154.105 J-5.098 E.24265
G2 X142.326 Y173.826 I-9.279 J.16 E.05086
G2 X141.801 Y172.19 I-8.655 J1.881 E.06407
G3 X141.54 Y170.74 I3.69 J-1.413 E.05521
G3 X141.585 Y169.203 I17.093 J-.265 E.05729
G3 X141.648 Y164.917 I138.26 J-.091 E.15967
G1 X141.6 Y164.77 E.00574
G1 X141.483 Y164.692 E.00524
G2 X139.702 Y164.323 I-2.833 J9.208 E.06785
G1 X139.179 Y164.192 E.02008
G1 X138.929 Y164.074 E.0103
G1 X138.777 Y163.934 E.00768
G3 X138.742 Y163.446 I.961 J-.316 E.01844
G1 X138.906 Y163.264 E.00912
G2 X142.233 Y163.32 I3.987 J-138.82 E.12393
G1 X142.872 Y163.268 E.02387
G1 X143.029 Y163.186 E.00657
G1 X143.172 Y162.922 E.0112
G1 X143.225 Y162.359 E.02105
G2 X143.189 Y160.883 I-9.915 J-.503 E.05504
G1 X143.111 Y160.631 E.00982
G1 X142.931 Y160.379 E.01156
G2 X141.876 Y159.772 I-3.416 J4.713 E.04541
G1 X141.45 Y159.464 E.01957
G1 X141.348 Y159.344 E.00587
G1 X141.769 Y159.275 E.01591
G2 X142.597 Y159.375 I9.088 J-72.068 E.03106
G1 X142.884 Y159.297 E.01106
G1 X143.122 Y158.98 E.01478
G2 X143.256 Y157.823 I-6.336 J-1.318 E.04344
G3 X143.438 Y155.579 I20.573 J.54 E.0839
G1 X143.786 Y155.338 E.01575
G3 X145.721 Y154.505 I23.53 J51.986 E.07849
G2 X146.612 Y154.006 I-1.322 J-3.405 E.03815
G1 X146.803 Y153.643 E.01527
G1 X146.73 Y153.338 E.01168
G2 X146.023 Y152.457 I-4.111 J2.573 E.04217
G3 X142.91 Y149.147 I72.066 J-70.908 E.16928
G1 X142.282 Y148.307 E.03907
G3 X141.492 Y146.718 I7.487 J-4.712 E.06621
G1 X141.278 Y145.9 E.03148
G1 X141.158 Y145.052 E.03191
G1 X141.147 Y144.293 E.02825
G1 X141.239 Y143.742 E.02082
G3 X142.284 Y141.783 I10.784 J4.493 E.08281
G1 X142.627 Y141.329 E.02121
G1 X143.21 Y140.887 E.02726
G3 X144.746 Y140.303 I4.719 J10.106 E.06125
G2 X145.784 Y139.907 I-4.345 J-12.938 E.04139
G1 X146.389 Y139.564 E.02592
G1 X146.77 Y139.213 E.01928
G1 X146.924 Y138.931 E.01197
G2 X147.077 Y137.786 I-6.14 J-1.406 E.04311
G2 X147.282 Y133.907 I-187.639 J-11.852 E.14468
G3 X147.425 Y132.357 I11.862 J.314 E.05802
G3 X147.755 Y131.243 I5.729 J1.091 E.04332
G1 X148.276 Y130.23 E.04246
G1 X148.973 Y129.352 E.04176
G1 X149.826 Y128.628 E.04166
G1 X150.823 Y128.076 E.04246
G3 X152.126 Y127.674 I3.085 J7.702 E.05083
G3 X155.379 Y127.501 I2.764 J21.228 E.12144
G3 X158.129 Y127.614 I-.732 J51.399 E.10252
G1 X158.866 Y127.697 E.02765
G1 X159.25 Y127.843 E.0153
G3 X160.429 Y128.479 I-57.168 J107.419 E.04989
G1 X160.931 Y128.553 E.01888
G1 X161.405 Y128.506 E.01774
G1 X161.923 Y128.349 E.02016
G3 X163.327 Y127.733 I10.275 J21.484 E.05712
G1 X164.019 Y127.529 E.02687
G3 X170.009 Y127.594 I2.806 J17.43 E.22419
G3 X171.635 Y128.136 I-1.819 J8.17 E.06397
G1 X172.382 Y128.593 E.03261
G1 X173.018 Y129.165 E.03187
G1 X173.546 Y129.855 E.03233
G1 X173.897 Y130.538 E.02861
G1 X174.103 Y131.091 E.022
G3 X174.269 Y132.975 I-14.327 J2.208 E.07049
G2 X174.432 Y137.592 I158.635 J-3.293 E.17205
G2 X174.689 Y138.46 I2.8 J-.357 E.03387
G1 X175.066 Y139.037 E.02568
G2 X175.752 Y139.573 I1.553 J-1.281 E.03267
G1 X176.233 Y139.751 E.0191
G3 X177.774 Y140.139 I-2.05 J11.383 E.05925
G1 X178.491 Y140.534 E.03047
G1 X179.177 Y141.102 E.03318
G1 X179.758 Y141.774 E.03311
G1 X180.157 Y142.468 E.0298
G1 X180.501 Y143.692 E.04737
G1 X180.557 Y145.039 E.05021
G1 X180.37 Y146.16 E.04231
G1 X180.153 Y146.931 E.02986
G1 X179.779 Y147.627 E.02939
G3 X178.534 Y149.057 I-12.339 J-9.489 E.07068
G3 X175.306 Y152.367 I-327 J-315.616 E.17218
G1 X174.76 Y153.017 E.03163
G1 X174.771 Y153.192 E.00655
G2 X175.48 Y153.68 I1.787 J-1.836 E.0322
G1 X176.642 Y154.282 E.04874
G1 X177.272 Y154.692 E.028
G1 X177.42 Y154.864 E.00846
G1 X177.505 Y155.271 E.01546
G2 X177.766 Y158.298 I816.955 J-68.936 E.11317
G1 X177.867 Y159.055 E.02846
G1 X178.062 Y159.377 E.01402
G1 X178.344 Y159.507 E.01157
;WIDTH:0.536629
G1 X178.511 Y159.529 E.00675
;WIDTH:0.573259
G1 X178.677 Y159.551 E.00725
;WIDTH:0.609888
G1 X178.843 Y159.573 E.00775
G1 X179.835 Y159.372 E.04674
;WIDTH:0.562292
G1 X180.539 Y159.347 E.02982
G1 X180.68 Y159.399 E.00639
G1 X180.676 Y159.593 E.00818
G1 X180.301 Y159.763 E.01744
;WIDTH:0.569513
G1 X179.814 Y159.912 E.02185
;WIDTH:0.609888
G1 X178.969 Y160.125 E.04029
G1 X178.824 Y160.2 E.00754
;WIDTH:0.573259
G1 X178.679 Y160.276 E.00705
;WIDTH:0.536629
G1 X178.535 Y160.351 E.00656
;WIDTH:0.499999
G1 X178.242 Y160.568 E.01355
G1 X178.058 Y160.832 E.01199
M73 P2 R10
G1 X177.981 Y161.248 E.01578
G1 X178.028 Y162.077 E.03092
G1 X178.12 Y162.517 E.01675
G1 X178.221 Y162.765 E.00997
G1 X178.431 Y163.007 E.01193
G1 X178.565 Y163.076 E.00562
G1 X179.164 Y163.157 E.02249
G1 X180.915 Y163.214 E.06528
;WIDTH:0.543232
G1 X181.368 Y163.25 E.01853
;WIDTH:0.589868
G1 X181.683 Y163.306 E.01425
;WIDTH:0.636503
G1 X181.998 Y163.362 E.01547
G1 X182.14 Y163.441 E.00784
G1 X182.213 Y163.635 E.01
G1 X182.214 Y163.687 E.00253
G1 X182.118 Y163.852 E.00921
G3 X181.601 Y163.954 I-8.248 J-40.407 E.02547
;WIDTH:0.589868
G1 X181.382 Y163.996 E.00995
;WIDTH:0.543232
G1 X180.932 Y164.057 E.01854
;WIDTH:0.499999
G2 X178.823 Y164.175 I35.896 J660.355 E.07864
G1 X178.325 Y164.238 E.0187
G1 X178.203 Y164.293 E.005
G1 X178.128 Y164.431 E.00584
G1 X177.732 Y167.081 E.09982
G2 X177.439 Y169.683 I27.411 J4.408 E.09755
G2 X177.448 Y171.011 I26.474 J.483 E.04946
G3 X178.146 Y172.694 I-18.098 J8.491 E.06789
G3 X178.226 Y173.892 I-8.527 J1.175 E.04475
G2 X177.368 Y175.767 I67.184 J31.862 E.07683
G1 X177.045 Y176.681 E.03611
G2 X176.536 Y179.043 I22.634 J6.114 E.09001
G1 X176.33 Y180.044 E.03807
G3 X175.931 Y181.162 I-4.942 J-1.132 E.0443
G1 X175.602 Y181.613 E.02082
G1 X175.218 Y181.949 E.01899
G1 X174.554 Y182.291 E.02783
G1 X173.901 Y182.447 E.025
G1 X173.053 Y182.434 E.03156
G3 X171.819 Y182.234 I1.394 J-12.513 E.0466
G2 X168.86 Y181.656 I-8.732 J36.835 E.11233
G1 X168.28 Y181.647 E.02158
G1 X167.798 Y181.797 E.01881
G1 X167.296 Y182.187 E.02369
G1 X166.608 Y182.933 E.0378
G1 X166.162 Y183.334 E.02232
G1 X165.564 Y183.673 E.02562
G1 X164.923 Y183.87 E.02499
G3 X163.186 Y183.851 I-.82 J-4.348 E.0651
G1 X162.639 Y183.623 E.02208
G1 X162.164 Y183.322 E.02094
G1 X161.739 Y182.933 E.02144
G3 X160.979 Y181.953 I22.061 J-17.895 E.04623
G1 X160.527 Y181.492 E.02404
G1 X160.169 Y181.273 E.01561
G1 X159.347 Y181.079 E.03146
G1 X159.184 Y181.159 E.00678
G1 X159.129 Y181.303 E.00577
G1 X159.115 Y182.215 E.03397
;WIDTH:0.540357
G1 X159.089 Y182.588 E.01513
;WIDTH:0.580714
G1 X159.063 Y182.96 E.01636
;WIDTH:0.611333
G3 X158.997 Y183.863 I-13.366 J-.518 E.04191
;WIDTH:0.609146
G1 X158.852 Y184.312 E.02178
G1 X158.581 Y184.743 E.02347
;WIDTH:0.606439
G1 X158.224 Y185.068 E.0222
;WIDTH:0.60732
G1 X157.811 Y185.328 E.02244
G1 X157.325 Y185.469 E.02328
;WIDTH:0.608709
G1 X156.855 Y185.491 E.02169
G1 X156.359 Y185.393 E.0233
;WIDTH:0.610508
G1 X155.975 Y185.221 E.01947
G1 X155.537 Y184.879 E.02569
;WIDTH:0.610855
G1 X155.304 Y184.593 E.0171
G1 X155.046 Y184.059 E.02743
;WIDTH:0.609886
G1 X154.961 Y183.547 E.02397
;WIDTH:0.612243
G2 X154.972 Y182.96 I-2.278 J-.335 E.0273
;WIDTH:0.574829
G1 X154.961 Y182.811 E.00651
;WIDTH:0.537414
G1 X154.949 Y182.661 E.00605
;WIDTH:0.499999
G2 X155.04 Y180.74 I-641.255 J-31.313 E.07164
G1 X154.985 Y180.621 E.00488
G1 E-.8 F1800
G1 X179.072 Y163.655 F12000
G1 E.8 F1800
;TYPE:Inner wall
;WIDTH:0.595698
G1 F3000
G1 X179.147 Y163.656 E.0034
;WIDTH:0.585124
G1 X179.586 Y163.651 E.01938
;WIDTH:0.546402
G1 X180.024 Y163.646 E.01799
;WIDTH:0.507679
G1 X180.463 Y163.641 E.01661
;WIDTH:0.468957
G1 X180.901 Y163.636 E.01523
;WIDTH:0.430234
G1 X181.246 Y163.626 E.01088
G1 E-.8 F1800
G1 X178.258 Y164.369 F12000
G1 X159.083 Y180.962
G1 X158.136 Y184.376
G1 E.8 F1800
;TYPE:Outer wall
;WIDTH:0.609146
G1 F3000
G1 X158.08 Y184.459 E.00464
G1 X157.759 Y184.719 E.01905
;WIDTH:0.610723
G1 X157.35 Y184.887 E.02048
G1 X156.893 Y184.928 E.0212
;WIDTH:0.608709
G1 X156.444 Y184.825 E.02126
;WIDTH:0.608979
G1 X156.102 Y184.628 E.01822
;WIDTH:0.610855
G1 X155.782 Y184.288 E.0216
G1 X155.584 Y183.876 E.02115
;WIDTH:0.609886
G1 X155.521 Y183.422 E.02117
;WIDTH:0.606025
G1 X155.587 Y183.077 E.01611
;WIDTH:0.575432
G1 X155.751 Y182.804 E.01383
;WIDTH:0.537716
G1 X155.915 Y182.531 E.01285
;WIDTH:0.499999
G1 X156.212 Y182.268 E.01478
G1 X156.646 Y182.083 E.01758
G1 X156.855 Y182.038 E.00793
G1 X157.197 Y182.045 E.01278
G1 X157.638 Y182.19 E.01727
G1 X157.831 Y182.299 E.00826
G1 X158.082 Y182.531 E.01272
;WIDTH:0.540357
G1 X158.248 Y182.803 E.01291
;WIDTH:0.580714
G1 X158.414 Y183.074 E.01396
;WIDTH:0.628112
G1 X158.453 Y183.136 E.00349
G1 X158.462 Y183.631 E.02361
;WIDTH:0.610986
G1 X158.339 Y184.076 E.02137
;WIDTH:0.609146
G1 X158.159 Y184.342 E.01484
G1 E-.8 F1800
G1 X158.061 Y183.195 F12000
G1 X158.009 Y182.925
G1 X157.909 Y182.648
G1 X157.746 Y182.372
G1 X157.506 Y182.116
G1 X155.266 Y180.258
G1 E.8 F1800
;TYPE:Inner wall
;WIDTH:0.499999
G1 F3000
G1 X155.12 Y180.139 E.00701
G1 X154.835 Y180.066 E.01095
G1 X153.874 Y180.038 E.03581
G1 X153.223 Y180.101 E.02439
G2 X152.07 Y180.455 I2.631 J10.611 E.04492
G3 X149.123 Y181.499 I-25.802 J-68.169 E.11647
G1 X148.337 Y181.726 E.03047
G1 X147.687 Y181.744 E.02423
G1 X147.325 Y181.801 E.01364
G1 X147.046 Y182.02 E.01322
G1 X146.947 Y182.204 E.00779
G1 X146.831 Y182.587 E.01487
G1 X146.857 Y182.865 E.0104
G1 X147.057 Y183.176 E.01379
G1 X147.513 Y183.58 E.02269
G3 X147.974 Y184.345 I-2.674 J2.131 E.03335
G1 X148.15 Y184.579 E.01092
G3 X149.443 Y185.827 I-10.502 J12.18 E.06696
G3 X144.374 Y186.15 I-8.836 J-98.798 E.18921
G3 X143.312 Y186.089 I-.144 J-6.838 E.03966
G1 X142.827 Y185.932 E.01899
G3 X141.748 Y185.331 I2.099 J-5.035 E.04609
G1 X141.579 Y185.127 E.00988
G3 X142.002 Y184.271 I3.291 J1.095 E.03567
G2 X142.595 Y183.123 I-5.3 J-3.464 E.04819
G1 X142.732 Y182.604 E.02
G1 X142.829 Y181.71 E.0335
G1 X142.859 Y180.562 E.04276
G2 X142.907 Y175.16 I-141.714 J-3.958 E.20124
G2 X142.768 Y173.707 I-11.244 J.341 E.0544
G2 X142.195 Y171.918 I-10.562 J2.398 E.07005
G1 X142.056 Y171.381 E.02064
G3 X141.996 Y170.223 I6.339 J-.909 E.04328
G1 X142.042 Y169.206 E.0379
G3 X142.104 Y164.865 I222.556 J1.014 E.16172
G1 X141.959 Y164.488 E.01503
G1 X141.61 Y164.253 E.01571
G1 X141.012 Y164.087 E.0231
;WIDTH:0.487423
G1 X140.833 Y164.075 E.0065
;WIDTH:0.441986
G1 X140.654 Y164.063 E.00583
;WIDTH:0.396548
G1 X140.157 Y164.002 E.01444
;WIDTH:0.407834
G1 X140.094 Y163.969 E.00209
;WIDTH:0.452388
G1 X140.032 Y163.937 E.00234
;WIDTH:0.496943
G1 X139.97 Y163.905 E.0026
;WIDTH:0.541497
G1 X139.908 Y163.872 E.00285
;WIDTH:0.586052
G1 X139.845 Y163.84 E.0031
;WIDTH:0.630606
G1 X139.783 Y163.807 E.00336
