; generated by SuperSlicer 2.5.59 on 2023-03-23 at 00:30:15 UTC


;
;

;
;
; 

; external perimeters extrusion width = 0.40mm
; perimeters extrusion width = 0.46mm
; infill extrusion width = 0.64mm
; solid infill extrusion width = 0.56mm
; top infill extrusion width = 0.40mm
; support material extrusion width = 0.46mm
; first layer extrusion width = 0.50mm

; external perimeters extrusion width = 0.40mm
; perimeters extrusion width = 0.46mm
; infill extrusion width = 0.64mm
; solid infill extrusion width = 0.56mm
; top infill extrusion width = 0.40mm
; support material extrusion width = 0.46mm
; first layer extrusion width = 0.50mm

; object:{"name":"Back_Cover_v1","id":"Back_Cover_v1.stl id:0 copy 0","object_center":[181.627401,173.094316,0.000000],"boundingbox_center":[181.627401,173.094316,3.700000],"boundingbox_size":[31.000000,31.000001,7.400000]}
EXCLUDE_OBJECT_DEFINE NAME=Back_Cover_v1_stl_id_0_copy_0 CENTER=181.627401,173.094316 POLYGON=[[166.127392,173.094320],[166.155664,172.158448],[166.240400,171.226000],[166.381280,170.300352],[166.577792,169.384912],[166.829232,168.483024],[167.134640,167.597936],[167.492944,166.732912],[167.902832,165.891104],[168.362800,165.075584],[168.871136,164.289312],[169.426064,163.535168],[170.025488,162.815920],[170.667232,162.134160],[171.348992,161.492400],[172.068256,160.892976],[172.822384,160.338064],[173.608656,159.829712],[174.424192,159.369744],[175.265984,158.959872],[176.131024,158.601568],[177.016096,158.296144],[177.918000,158.044704],[178.833456,157.848208],[179.759072,157.707328],[180.691536,157.622592],[181.627392,157.594320],[182.563264,157.622592],[183.495712,157.707328],[184.421360,157.848208],[185.336800,158.044704],[186.238688,158.296144],[187.123776,158.601568],[187.988800,158.959872],[188.830608,159.369744],[189.646128,159.829712],[190.432400,160.338064],[191.186544,160.892976],[191.905792,161.492400],[192.587552,162.134160],[193.229312,162.815920],[193.828736,163.535168],[194.383648,164.289312],[194.892000,165.075584],[195.351952,165.891104],[195.761840,166.732912],[196.120144,167.597936],[196.425568,168.483024],[196.677008,169.384912],[196.873504,170.300352],[197.014384,171.226000],[197.099120,172.158448],[197.127392,173.094320],[197.099120,174.030176],[197.014384,174.962624],[196.873504,175.888272],[196.677008,176.803712],[196.425568,177.705616],[196.120144,178.590688],[195.761840,179.455712],[195.351952,180.297520],[194.892000,181.113056],[194.383648,181.899328],[193.828736,182.653456],[193.229312,183.372704],[192.587552,184.054480],[191.905792,184.696224],[191.186544,185.295648],[190.432400,185.850560],[189.646128,186.358912],[188.830608,186.818880],[187.988800,187.228768],[187.123776,187.587072],[186.238688,187.892480],[185.336800,188.143920],[184.421360,188.340432],[183.495712,188.481296],[182.563264,188.566048],[181.627392,188.594320],[180.691536,188.566048],[179.759072,188.481296],[178.833456,188.340432],[177.918000,188.143920],[177.016096,187.892480],[176.131024,187.587072],[175.265984,187.228768],[174.424192,186.818880],[173.608656,186.358912],[172.822384,185.850560],[172.068256,185.295648],[171.348992,184.696224],[170.667232,184.054480],[170.025488,183.372704],[169.426064,182.653456],[168.871136,181.899328],[168.362800,181.113056],[167.902832,180.297520],[167.492944,179.455712],[167.134640,178.590688],[166.829232,177.705616],[166.577792,176.803712],[166.381280,175.888272],[166.240400,174.962624],[166.155664,174.030176],[166.127392,173.094320]]
; object:{"name":"Front_Cover_v1","id":"Front_Cover_v1.stl id:1 copy 0","object_center":[148.372601,156.905685,0.000000],"boundingbox_center":[148.372601,156.905685,4.625000],"boundingbox_size":[31.000000,31.000001,9.250000]}
EXCLUDE_OBJECT_DEFINE NAME=Front_Cover_v1_stl_id_1_copy_0 CENTER=148.372601,156.905685 POLYGON=[[132.872608,156.905680],[132.900880,155.969824],[132.985608,155.037376],[133.126496,154.111728],[133.323000,153.196288],[133.574432,152.294384],[133.879856,151.409296],[134.238160,150.544288],[134.648048,149.702464],[135.108000,148.886944],[135.616352,148.100672],[136.171264,147.346544],[136.770688,146.627296],[137.412448,145.945520],[138.094208,145.303776],[138.813456,144.704352],[139.567600,144.149424],[140.353872,143.641088],[141.169408,143.181120],[142.011200,142.771248],[142.876224,142.412928],[143.761312,142.107520],[144.663216,141.856080],[145.578640,141.659584],[146.504288,141.518688],[147.436736,141.433968],[148.372608,141.405680],[149.308480,141.433968],[150.240928,141.518688],[151.166560,141.659584],[152.082000,141.856080],[152.983904,142.107520],[153.868992,142.412928],[154.734016,142.771248],[155.575808,143.181120],[156.391344,143.641088],[157.177616,144.149424],[157.931744,144.704352],[158.651008,145.303776],[159.332768,145.945520],[159.974512,146.627296],[160.573952,147.346544],[161.128848,148.100672],[161.637200,148.886944],[162.097168,149.702464],[162.507056,150.544288],[162.865360,151.409296],[163.170784,152.294384],[163.422208,153.196288],[163.618720,154.111728],[163.759584,155.037376],[163.844336,155.969824],[163.872608,156.905680],[163.844336,157.841552],[163.759584,158.774000],[163.618720,159.699648],[163.422208,160.615088],[163.170784,161.516976],[162.865360,162.402048],[162.507056,163.267088],[162.097168,164.108880],[161.637200,164.924416],[161.128848,165.710688],[160.573952,166.464832],[159.974512,167.184080],[159.332768,167.865840],[158.651008,168.507600],[157.931744,169.107024],[157.177616,169.661920],[156.391344,170.170288],[155.575808,170.630256],[154.734016,171.040128],[153.868992,171.398432],[152.983904,171.703856],[152.082000,171.955296],[151.166560,172.151792],[150.240928,172.292672],[149.308480,172.377408],[148.372608,172.405680],[147.436736,172.377408],[146.504288,172.292672],[145.578640,172.151792],[144.663216,171.955296],[143.761312,171.703856],[142.876224,171.398432],[142.011200,171.040128],[141.169408,170.630256],[140.353872,170.170288],[139.567600,169.661920],[138.813456,169.107024],[138.094208,168.507600],[137.412448,167.865840],[136.770688,167.184080],[136.171264,166.464832],[135.616352,165.710688],[135.108000,164.924416],[134.648048,164.108880],[134.238160,163.267088],[133.879856,162.402048],[133.574432,161.516976],[133.323000,160.615088],[133.126496,159.699648],[132.985608,158.774000],[132.900880,157.841552],[132.872608,156.905680]]
; plater:{"center":[165.000001,165.000000,0.000000],"boundingbox_center":[165.000001,165.000000,4.625000],"boundingbox_size":[64.254800,47.188632,9.250000]}

M73 P0 R16
;TYPE:Custom
; custom gcode: start_gcode
START_PRINT T_BED=60 T_EXTRUDER=200
; custom gcode end: start_gcode
M107
G21 ; set units to millimeters
G90 ; use absolute coordinates
M82 ; use absolute distances for extrusion
G92 E0
; custom gcode: start_filament_gcode
; Filament gcode

    PRESSURE_ADVANCE_SELECT FILAMENT=PLA
; custom gcode end: start_filament_gcode
;_TOOLCHANGE 0
M104 S200 ; set temperature
M109 S200 ; set temperature and wait for it to be reached
M190 S60 ; set bed temperature and wait for it to be reached
;LAYER_CHANGE
;Z:0.2
;HEIGHT:0.2
G1 Z0.2 F9000
M73 P0 R16
G1 E-0.8 F3000
M204 S1000
G1 X135.583 Y143.937 F9000
G1 E0 F1800
;TYPE:Skirt
;WIDTH:0.52
G1 X134.823 Y144.733 E0.04365
G1 X133.311 Y146.663 E0.14093
G1 X132.72 Y147.591 E0.18457
G1 X131.815 Y149.315 E0.26179
G1 X130.946 Y151.608 E0.35907
G1 X130.658 Y152.67 E0.40272
G1 X130.307 Y154.585 E0.47994
G1 X130.159 Y157.032 E0.57722
G1 X130.307 Y159.227 E0.66447
G1 X130.658 Y161.142 E0.7417
G1 X130.946 Y162.203 E0.78534
G1 X131.815 Y164.496 E0.88262
G1 X132.72 Y166.22 E0.95984
G1 X133.311 Y167.148 E1.00349
G1 X134.823 Y169.079 E1.10077
G1 X136.2 Y170.455 E1.17799
G1 X137.239 Y171.321 E1.23168
G1 X138.841 Y172.427 E1.3089
G1 X140.02 Y173.092 E1.36259
G1 X174.037 Y189.652 E2.86341
G1 X176.33 Y190.521 E2.96068
G1 X177.391 Y190.809 E3.00432
G1 X179.306 Y191.16 E3.08155
G1 X181.501 Y191.308 E3.1688
G1 X183.697 Y191.191 E3.25605
G1 X185.863 Y190.809 E3.34331
G1 X188.205 Y190.08 E3.44058
G1 X190.204 Y189.163 E3.52784
G1 X192.078 Y188.012 E3.61509
G1 X193.8 Y186.644 E3.70234
G1 X195.177 Y185.267 E3.77956
G1 X196.043 Y184.227 E3.83325
G1 X197.149 Y182.625 E3.91048
G1 X198.185 Y180.685 E3.99773
G1 X198.703 Y179.435 E4.05142
G1 X199.342 Y177.33 E4.13867
G1 X199.693 Y175.415 E4.21589
G1 X199.816 Y174.068 E4.26958
G1 X199.816 Y172.121 E4.3468
G1 X199.693 Y170.773 E4.40049
G1 X199.342 Y168.858 E4.47771
G1 X198.703 Y166.754 E4.56496
G1 X198.185 Y165.504 E4.61865
G1 X197.28 Y163.78 E4.69587
G1 X196.043 Y161.961 E4.78313
G1 X195.177 Y160.921 E4.83681
G1 X193.8 Y159.545 E4.91404
G1 X192.761 Y158.679 E4.96772
G1 X191.158 Y157.573 E5.04495
G1 X189.98 Y156.908 E5.09863
G1 X155.963 Y140.348 E6.59945
G1 X153.912 Y139.554 E6.68669
G1 X152.609 Y139.191 E6.74038
G1 X150.694 Y138.84 E6.8176
G1 X149.346 Y138.717 E6.87129
G1 X147.399 Y138.717 E6.94851
G1 X146.303 Y138.809 E6.99216
G1 X143.891 Y139.251 E7.08944
G1 X142.032 Y139.831 E7.16666
G1 X141.013 Y140.244 E7.21031
G1 X138.841 Y141.384 E7.30759
G1 X137.04 Y142.646 E7.39484
G1 X135.583 Y143.937 E7.47206
G1 X135.948 Y144.302 F9000
G1 F1800
G1 X135.022 Y145.228 E7.52401
G1 X134.341 Y146.055 E7.56652
M73 P1 R16
G1 X133.252 Y147.634 E7.6426
G1 X132.152 Y149.729 E7.73645
G1 X131.748 Y150.721 E7.77895
G1 X131.178 Y152.552 E7.85503
G1 X130.751 Y154.879 E7.94889
G1 X130.661 Y155.947 E7.99139
G1 X130.661 Y157.865 E8.06747
G1 X130.946 Y160.213 E8.16132
G1 X131.178 Y161.259 E8.20383
G1 X131.748 Y163.09 E8.2799
G1 X132.719 Y165.248 E8.37376
G1 X133.252 Y166.178 E8.41626
G1 X134.341 Y167.756 E8.49234
G1 X135.751 Y169.368 E8.57731
G1 X136.695 Y170.256 E8.62871
G1 X138.204 Y171.439 E8.70479
G1 X140.229 Y172.663 E8.79864
G1 X174.246 Y189.223 E10.29946
G1 X176.458 Y190.062 E10.39331
G1 X177.492 Y190.343 E10.43581
G1 X179.378 Y190.688 E10.51189
G1 X181.515 Y190.831 E10.59686
G1 X183.654 Y190.716 E10.68182
G1 X185.763 Y190.343 E10.76679
G1 X188.022 Y189.639 E10.86065
G1 X189.97 Y188.748 E10.94561
G1 X190.899 Y188.215 E10.98812
G1 X192.478 Y187.126 E11.0642
G1 X194.09 Y185.716 E11.14917
G1 X194.978 Y184.772 E11.20057
G1 X196.161 Y183.262 E11.27665
G1 X196.864 Y182.174 E11.32805
G1 X197.848 Y180.271 E11.41302
G1 X198.528 Y178.478 E11.4891
G1 X199.054 Y176.402 E11.57406
G1 X199.249 Y175.121 E11.62547
G1 X199.364 Y173.207 E11.70155
G1 X199.325 Y171.911 E11.75295
G1 X199.054 Y169.787 E11.83792
G1 X198.595 Y167.925 E11.91399
G1 X198.172 Y166.7 E11.9654
G1 X197.385 Y164.951 E12.04148
G1 X196.288 Y163.111 E12.12645
G1 X195.52 Y162.067 E12.17785
G1 X194.249 Y160.632 E12.25393
G1 X193.305 Y159.744 E12.30533
G1 X191.796 Y158.561 E12.38141
G1 X189.771 Y157.337 E12.47526
G1 X155.754 Y140.777 E13.97608
M73 P1 R16
G1 X153.757 Y140.005 E14.06104
G1 X152.508 Y139.657 E14.11244
G1 X150.622 Y139.312 E14.18852
G1 X149.331 Y139.194 E14.23992
G1 X147.414 Y139.194 E14.316
G1 X146.346 Y139.284 E14.3585
G1 X144.019 Y139.711 E14.45236
G1 X142.188 Y140.281 E14.52844
G1 X141.195 Y140.685 E14.57094
G1 X139.101 Y141.785 E14.66479
G1 X137.522 Y142.874 E14.74087
G1 X136.695 Y143.555 E14.78338
G1 X135.948 Y144.302 E14.82528
G1 X136.284 Y144.638 F9000
G1 F1800
G1 X135.388 Y145.533 E14.87552
G1 X134.112 Y147.181 E14.9582
G1 X133.551 Y148.06 E14.99956
G1 X132.673 Y149.733 E15.0745
G1 X131.865 Y151.864 E15.16493
G1 X131.591 Y152.87 E15.20629
G1 X131.25 Y154.728 E15.28122
G1 X131.112 Y157.003 E15.37165
G1 X131.15 Y158.045 E15.41301
G1 X131.378 Y159.921 E15.48795
G1 X131.923 Y162.134 E15.57837
G1 X132.269 Y163.118 E15.61974
G1 X133.044 Y164.84 E15.69467
G1 X134.223 Y166.791 E15.7851
G1 X135.388 Y168.278 E15.86004
G1 X136.099 Y169.041 E15.9014
G1 X137 Y169.89 E15.95051
G1 X138.487 Y171.055 E16.02545
G1 X140.438 Y172.234 E16.11588
G1 X174.455 Y188.794 E17.6167
G1 X176.586 Y189.602 E17.70711
G1 X177.592 Y189.876 E17.74847
G1 X179.45 Y190.217 E17.82341
G1 X181.53 Y190.354 E17.90609
G1 X183.611 Y190.24 E17.98878
G1 X185.663 Y189.876 E18.07146
G1 X187.839 Y189.198 E18.16189
G1 X189.735 Y188.332 E18.24457
G1 X190.64 Y187.815 E18.28593
G1 X192.195 Y186.742 E18.36087
G1 X193.763 Y185.368 E18.44355
G1 X194.612 Y184.467 E18.49267
G1 X195.888 Y182.819 E18.57535
G1 X196.865 Y181.202 E18.65029
M73 P2 R16
G1 X197.407 Y180.089 E18.69941
G1 X198.135 Y178.136 E18.78209
G1 X198.587 Y176.302 E18.85702
G1 X198.773 Y175.078 E18.90614
G1 X198.888 Y173.192 E18.98108
G1 X198.85 Y171.955 E19.03019
G1 X198.622 Y170.079 E19.10513
G1 X198.135 Y168.053 E19.18781
G1 X197.731 Y166.882 E19.23693
G1 X196.956 Y165.16 E19.31187
G1 X195.888 Y163.37 E19.39455
G1 X195.154 Y162.373 E19.44367
G1 X193.901 Y160.959 E19.5186
G1 X193 Y160.11 E19.56772
G1 X191.513 Y158.945 E19.64265
G1 X189.562 Y157.766 E19.73308
G1 X155.545 Y141.206 E21.2339
G1 X153.601 Y140.456 E21.31658
G1 X152.408 Y140.124 E21.36569
G1 X150.55 Y139.783 E21.44063
G1 X149.317 Y139.671 E21.48974
G1 X147.428 Y139.671 E21.56468
G1 X146.389 Y139.76 E21.60604
G1 X144.147 Y140.17 E21.69647
G1 X142.344 Y140.732 E21.7714
G1 X141.378 Y141.126 E21.81277
G1 X139.36 Y142.185 E21.90319
G1 X137.805 Y143.258 E21.97813
G1 X137 Y143.921 E22.01949
G1 X136.284 Y144.638 E22.05968
G92 E0
G1 E-0.8 F3000
; printing object Back_Cover_v1.stl id:0 copy 0
EXCLUDE_OBJECT_START NAME=Back_Cover_v1_stl_id_0_copy_0
; acceleration to travel
M204 S3000
G1 X173.36 Y157.11 F9000
; decel to extrusion
M204 S1000
G1 X185.719 Y161.268
; end travel
G1 E0 F1800
;TYPE:Internal perimeter
;WIDTH:0.5
G1 X184.934 Y161.024 E0.03123
G1 X184.12 Y160.831 E0.06302
G1 X183.295 Y160.691 E0.09481
G1 X182.463 Y160.608 E0.12659
G1 X181.627 Y160.58 E0.15838
G1 X181.209 Y160.594 E0.17427
G1 X180.792 Y160.608 E0.19017
G1 X179.959 Y160.691 E0.22195
G1 X179.135 Y160.831 E0.25374
G1 X178.321 Y161.024 E0.28552
G1 X177.522 Y161.272 E0.31731
G1 X176.742 Y161.573 E0.3491
G1 X175.983 Y161.925 E0.38088
G1 X175.25 Y162.327 E0.41267
G1 X174.545 Y162.777 E0.44446
G1 X173.872 Y163.273 E0.47624
G1 X173.233 Y163.813 E0.50803
G1 X172.632 Y164.394 E0.53982
G1 X172.071 Y165.015 E0.5716
G1 X171.552 Y165.671 E0.60339
G1 X171.079 Y166.36 E0.63517
G1 X170.653 Y167.08 E0.66696
G1 X170.276 Y167.827 E0.69875
G1 X169.949 Y168.597 E0.73053
G1 X169.675 Y169.387 E0.76232
G1 X169.454 Y170.193 E0.79411
G1 X169.287 Y171.013 E0.82589
G1 X169.176 Y171.842 E0.85768
G1 X169.12 Y172.676 E0.88946
G1 X169.12 Y173.512 E0.92125
G1 X169.176 Y174.347 E0.95304
G1 X169.287 Y175.176 E0.98482
G1 X169.454 Y175.995 E1.01661
G1 X169.675 Y176.802 E1.0484
G1 X169.949 Y177.592 E1.08018
G1 X170.276 Y178.362 E1.11197
G1 X170.653 Y179.109 E1.14376
G1 X171.079 Y179.828 E1.17554
G1 X171.552 Y180.518 E1.20733
G1 X172.071 Y181.174 E1.23911
G1 X172.632 Y181.794 E1.2709
G1 X173.233 Y182.376 E1.30269
G1 X173.872 Y182.916 E1.33447
G1 X174.545 Y183.412 E1.36626
G1 X175.25 Y183.862 E1.39805
G1 X175.983 Y184.264 E1.42983
G1 X176.742 Y184.616 E1.46162
G1 X177.522 Y184.916 E1.49341
G1 X178.321 Y185.164 E1.52519
G1 X179.135 Y185.358 E1.55698
G1 X179.959 Y185.497 E1.58876
G1 X180.792 Y185.581 E1.62055
G1 X181.627 Y185.609 E1.65234
G1 X182.463 Y185.581 E1.68412
G1 X183.295 Y185.497 E1.71591
G1 X184.12 Y185.358 E1.7477
G1 X184.934 Y185.164 E1.77948
G1 X185.732 Y184.916 E1.81127
G1 X186.513 Y184.616 E1.84306
G1 X187.272 Y184.264 E1.87484
G1 X188.005 Y183.862 E1.90663
G1 X188.71 Y183.412 E1.93841
G1 X189.386 Y182.914 E1.97032
G1 X190.167 Y182.235 E2.00966
G1 X190.623 Y181.794 E2.03376
G1 X191.184 Y181.174 E2.06555
G1 X191.702 Y180.518 E2.09733
G1 X192.176 Y179.828 E2.12912
G1 X192.602 Y179.109 E2.16091
G1 X192.979 Y178.362 E2.19269
G1 X193.306 Y177.592 E2.22448
G1 X193.58 Y176.802 E2.25626
G1 X193.801 Y175.995 E2.28805
G1 X193.968 Y175.176 E2.31984
G1 X194.079 Y174.347 E2.35162
G1 X194.107 Y173.93 E2.36752
G1 X194.135 Y173.512 E2.38341
G1 X194.135 Y172.676 E2.4152
G1 X194.079 Y171.842 E2.44698
G1 X193.968 Y171.013 E2.47877
G1 X193.801 Y170.193 E2.51055
G1 X193.58 Y169.387 E2.54234
G1 X193.306 Y168.597 E2.57413
G1 X192.979 Y167.827 E2.60591
G1 X192.602 Y167.08 E2.6377
G1 X192.176 Y166.36 E2.66949
G1 X191.702 Y165.671 E2.70127
G1 X191.184 Y165.015 E2.73306
G1 X190.623 Y164.394 E2.76485
