; HEADER_BLOCK_START
; generated by OrcaSlicer 1.6.2 on 2023-05-18 at 12:48:33
; total layer number: 58
; HEADER_BLOCK_END

; THUMBNAIL_BLOCK_START
; THUMBNAIL_BLOCK_END

; external perimeters extrusion width = 0.40mm
; perimeters extrusion width = 0.45mm
; infill extrusion width = 0.45mm
; solid infill extrusion width = 0.40mm
; top infill extrusion width = 0.40mm
; first layer extrusion width = 0.50mm

; EXECUTABLE_BLOCK_START
EXCLUDE_OBJECT_DEFINE NAME=BackPlate.stl_id_0_copy_0 CENTER=165,165 POLYGON=[[97.5,103.38],[98,102.88],[232,102.88],[232.5,103.38],[232.5,226.62],[232,227.12],[98,227.12],[97.5,226.62],[97.5,103.38]]
M73 P0 R114
;TYPE:Custom
START_PRINT T_BED=70 T_EXTRUDER=240
G90
G21
M83 ; use relative distances for extrusion
; filament start gcode
PRESSURE_ADVANCE_SELECT FILAMENT=PETG
M106 S0
;LAYER_CHANGE
;Z:0.2
;HEIGHT:0.2
M204 S500
G1 E-1 F3000
G1 Z.2 F21000
G1 X95.939 Y101.22
G1 E1 F1800
;TYPE:Skirt
;WIDTH:0.5
G1 F3000
G1 X98 Y100.366 E.08053
G1 X232 Y100.366 E4.83821
G1 X234.061 Y101.22 E.08053
G1 X234.161 Y101.32 E.00511
G1 X235.014 Y103.38 E.08053
G1 X235.014 Y226.62 E4.44969
G1 X234.161 Y228.68 E.08053
G1 X234.061 Y228.78 E.00511
G1 X232 Y229.634 E.08053
G1 X98 Y229.634 E4.83821
G1 X95.939 Y228.78 E.08053
G1 X95.839 Y228.68 E.00511
G1 X94.986 Y226.62 E.08053
G1 X94.986 Y103.38 E4.44969
G1 X95.839 Y101.32 E.08053
G1 X95.897 Y101.262 E.00294
G1 X96.22 Y101.585 F21000
G1 F3000
G1 X96.263 Y101.543 E.00217
G1 X98 Y100.823 E.0679
G1 X232 Y100.823 E4.83821
G1 X233.737 Y101.543 E.0679
G1 X233.837 Y101.643 E.00511
G1 X234.557 Y103.38 E.0679
G1 X234.557 Y226.62 E4.44969
G1 X233.837 Y228.357 E.0679
G1 X233.737 Y228.457 E.00511
G1 X232 Y229.177 E.0679
G1 X98 Y229.177 E4.83821
G1 X96.263 Y228.457 E.0679
G1 X96.163 Y228.357 E.00511
G1 X95.443 Y226.62 E.0679
G1 X95.443 Y103.38 E4.44969
G1 X96.163 Y101.643 E.0679
G1 X96.178 Y101.628 E.00077
; printing object BackPlate.stl id:0 copy 0
EXCLUDE_OBJECT_START NAME=BackPlate.stl_id_0_copy_0
G1 E-1
G1 Z.4 F21000
G1 X226.226 Y103.987
G1 Z.2
G1 E1 F1800
;TYPE:Inner wall
;WIDTH:0.499999
G1 F3000
G1 X227.28 Y103.987 E.03805
;WIDTH:0.535994
G1 X227.629 Y104.005 E.01362
;WIDTH:0.571988
G1 X227.978 Y104.023 E.01461
G1 X228.533 Y104.007 E.02317
;WIDTH:0.571704
G1 X229.097 Y104.023 E.02358
G1 X229.448 Y104.005 E.01469
;WIDTH:0.535852
G1 X229.799 Y103.987 E.0137
;WIDTH:0.499999
G1 X231.393 Y103.987 E.05753
G1 X231.393 Y105.629 E.05926
;WIDTH:0.525988
G1 X231.38 Y105.975 E.01323
;WIDTH:0.551977
G1 X231.367 Y106.321 E.01394
G1 X231.383 Y106.88 E.02248
;WIDTH:0.555129
G1 X231.365 Y107.48 E.02429
G1 X231.379 Y107.803 E.01305
;WIDTH:0.527564
G1 X231.393 Y108.125 E.01235
;WIDTH:0.499999
G1 X231.393 Y221.929 E4.10899
;WIDTH:0.525988
G1 X231.38 Y222.275 E.01323
;WIDTH:0.551977
G1 X231.367 Y222.621 E.01394
G1 X231.383 Y223.18 E.02248
;WIDTH:0.555129
G1 X231.365 Y223.78 E.02429
G1 X231.379 Y224.106 E.01319
;WIDTH:0.527564
G1 X231.393 Y224.432 E.01248
;WIDTH:0.499999
G1 X231.393 Y226.013 E.05707
G1 X229.787 Y226.013 E.05797
;WIDTH:0.541607
G1 X229.097 Y225.992 E.0272
G1 X228.54 Y226.008 E.02197
G1 X227.982 Y225.992 E.02197
G1 X227.299 Y226.013 E.02692
;WIDTH:0.499999
G1 X166.292 Y226.013 E2.20272
;WIDTH:0.541606
G1 X165.602 Y225.992 E.0272
G1 X165.045 Y226.008 E.02197
G1 X164.487 Y225.992 E.02197
G1 X163.804 Y226.013 E.02692
;WIDTH:0.499999
G1 X102.76 Y226.013 E2.20405
;WIDTH:0.541606
G1 X102.07 Y225.992 E.0272
G1 X101.513 Y226.008 E.02197
G1 X100.955 Y225.992 E.02197
G1 X100.272 Y226.013 E.02692
;WIDTH:0.499999
G1 X98.607 Y226.013 E.06013
G1 X98.607 Y224.442 E.05669
;WIDTH:0.539193
G1 X98.627 Y224.092 E.01374
;WIDTH:0.578383
G1 X98.646 Y223.742 E.01483
G1 X98.63 Y223.18 E.02379
G1 X98.646 Y222.618 E.02379
G1 X98.627 Y222.268 E.01483
;WIDTH:0.539191
G1 X98.607 Y221.918 E.01374
;WIDTH:0.499999
G1 X98.607 Y108.142 E4.10798
;WIDTH:0.539193
G1 X98.627 Y107.792 E.01374
;WIDTH:0.578383
G1 X98.646 Y107.442 E.01483
G1 X98.63 Y106.88 E.02379
G1 X98.646 Y106.318 E.02379
G1 X98.627 Y105.968 E.01483
;WIDTH:0.539191
G1 X98.607 Y105.618 E.01374
;WIDTH:0.499999
G1 X98.607 Y103.987 E.05888
G1 X100.253 Y103.987 E.05943
;WIDTH:0.535994
G1 X100.602 Y104.005 E.01362
;WIDTH:0.571988
G1 X100.951 Y104.023 E.01461
G1 X101.506 Y104.007 E.02317
;WIDTH:0.571707
G1 X102.07 Y104.023 E.02358
G1 X102.421 Y104.005 E.01469
;WIDTH:0.535853
G1 X102.772 Y103.987 E.0137
;WIDTH:0.499999
G1 X163.785 Y103.987 E2.20291
;WIDTH:0.535994
G1 X164.134 Y104.005 E.01362
;WIDTH:0.571989
G1 X164.483 Y104.023 E.01461
G1 X165.037 Y104.007 E.02317
;WIDTH:0.571704
G1 X165.602 Y104.023 E.02358
G1 X165.953 Y104.005 E.01469
;WIDTH:0.535852
G1 X166.304 Y103.987 E.0137
;WIDTH:0.499999
G1 X226.166 Y103.987 E2.16138
G1 E-1
G1 Z.4 F21000
G1 X231.85 Y103.53
G1 Z.2
G1 E1 F1800
;TYPE:Outer wall
G1 F3000
G1 X231.85 Y226.47 E4.43885
G1 X98.15 Y226.47 E4.82737
G1 X98.15 Y103.53 E4.43885
G1 X231.79 Y103.53 E4.8252
G1 X231.828 Y103.607
G1 E-1
G1 Z.4 F21000
G1 X226.511 Y108.052
G1 Z.2
G1 E1 F1800
;TYPE:Inner wall
G1 F3000
G1 X226.459 Y107.978 E.00326
G1 X226.245 Y107.402 E.02218
G1 X226.188 Y106.791 E.02218
G1 X226.292 Y106.185 E.02218
G1 X226.544 Y105.636 E.02182
G1 X226.94 Y105.154 E.02253
G1 X227.442 Y104.799 E.02218
;WIDTH:0.537605
G1 X227.712 Y104.676 E.0116
;WIDTH:0.57521
G1 X227.982 Y104.553 E.01249
G1 X228.533 Y104.504 E.02324
;WIDTH:0.571704
G1 X229.064 Y104.55 E.02226
G1 X229.351 Y104.674 E.01308
;WIDTH:0.535852
G1 X229.638 Y104.799 E.01219
;WIDTH:0.499999
G1 X230.139 Y105.154 E.02218
G1 X230.531 Y105.627 E.02218
;WIDTH:0.518342
G1 X230.796 Y106.182 E.02308
;WIDTH:0.551977
G1 X230.86 Y106.355 E.00741
G1 X230.907 Y106.88 E.02122
;WIDTH:0.551972
G1 X230.86 Y107.406 E.02122
G1 X230.742 Y107.689 E.01233
;WIDTH:0.525986
G1 X230.624 Y107.972 E.0117
;WIDTH:0.499999
G1 X230.268 Y108.477 E.02233
G1 X229.793 Y108.872 E.02228
G1 X229.242 Y109.126 E.02192
G1 X228.632 Y109.231 E.02233
G1 X228.091 Y109.184 E.01961
G1 X227.845 Y109.128 E.00912
G1 X227.287 Y108.872 E.02218
G1 X226.814 Y108.48 E.02218
G1 X226.546 Y108.101 E.01675
G1 X226.887 Y107.812 F21000
;TYPE:Outer wall
G1 F3000
G1 X226.881 Y107.804 E.00038
G1 X226.695 Y107.312 E.01897
G1 X226.642 Y106.85 E.01679
G1 X226.714 Y106.36 E.01789
G1 X226.908 Y105.913 E.0176
G1 X227.219 Y105.517 E.01818
G1 X227.617 Y105.221 E.0179
G1 X228.077 Y105.039 E.01789
G1 X228.562 Y104.983 E.0176
G1 X229.06 Y105.054 E.01818
G1 X229.515 Y105.251 E.0179
G1 X229.903 Y105.559 E.01789
G1 X230.199 Y105.957 E.0179
G1 X230.381 Y106.418 E.01789
G1 X230.44 Y106.88 E.01683
G1 X230.366 Y107.4 E.01897
G1 X230.172 Y107.848 E.0176
G1 X229.861 Y108.244 E.01818
G1 X229.463 Y108.539 E.01789
G1 X229.01 Y108.719 E.0176
G1 X228.51 Y108.778 E.01818
G1 X228.02 Y108.706 E.0179
G1 X227.565 Y108.509 E.01789
G1 X227.177 Y108.201 E.01789
G1 X226.923 Y107.86 E.01535
G1 X226.885 Y107.812
G1 E-1
G1 Z.4 F21000
G1 X214.952 Y218.277
G1 Z.2
G1 E1 F1800
;TYPE:Inner wall
G1 F3000
G1 X205.079 Y218.287 E.35651
G1 X204.843 Y218.246 E.00863
G1 X204.571 Y218.063 E.01183
G1 X204.429 Y217.821 E.01012
G1 X204.393 Y217.602 E.00804
G1 X204.393 Y112.459 E3.79629
G1 X204.469 Y112.146 E.01163
G1 X204.65 Y111.924 E.01033
G1 X204.845 Y111.814 E.00809
G1 X205.079 Y111.773 E.00857
G1 X214.921 Y111.773 E.35539
G1 X215.17 Y111.82 E.00913
G1 X215.385 Y111.954 E.00914
G1 X215.523 Y112.131 E.00812
G1 X215.607 Y112.459 E.01222
G1 X215.607 Y217.602 E3.79629
M73 P0 R113
G1 X215.525 Y217.928 E.01215
G1 X215.329 Y218.153 E.01076
G1 X215.04 Y218.277 E.01137
G1 X215.012 Y218.277 E.00099
G1 X214.921 Y217.83 F21000
;TYPE:Outer wall
G1 F3000
G1 X205.079 Y217.83 E.35539
G1 X204.935 Y217.779 E.00551
G1 X204.851 Y217.622 E.00645
G1 X204.85 Y112.459 E3.79701
G1 X204.875 Y112.354 E.00388
G1 X205.001 Y112.244 E.00603
G1 X205.079 Y112.23 E.00286
G1 X214.921 Y112.23 E.35539
G1 X215.076 Y112.29 E.00599
G1 X215.15 Y112.459 E.00664
G1 X215.15 Y217.602 E3.79629
G1 X215.077 Y217.77 E.00661
G1 X214.977 Y217.808 E.00385
G1 X214.901 Y217.908
G1 E-1
G1 Z.4 F21000
G1 X171.914 Y217.651
G1 Z.2
G1 E1 F1800
;TYPE:Inner wall
G1 F3000
G1 X171.893 Y217.281 E.0134
G1 X171.896 Y112.397 E3.78692
G1 X171.998 Y112.094 E.01154
G1 X172.231 Y111.868 E.01172
G1 X172.482 Y111.78 E.00962
G1 X172.579 Y111.773 E.00349
G1 X182.421 Y111.773 E.35539
G1 X182.67 Y111.82 E.00913
G1 X182.885 Y111.954 E.00914
G1 X183.023 Y112.131 E.00812
G1 X183.107 Y112.459 E.01222
G1 X183.107 Y217.602 E3.79629
G1 X183.025 Y217.928 E.01215
G1 X182.829 Y218.153 E.01076
G1 X182.54 Y218.277 E.01137
G1 X172.579 Y218.287 E.35967
G1 X172.309 Y218.232 E.00993
G1 X172.077 Y218.069 E.01027
G1 X171.922 Y217.801 E.01116
G1 X171.917 Y217.711 E.00324
G1 X172.35 Y217.602 F21000
;TYPE:Outer wall
G1 F3000
G1 X172.351 Y112.438 E3.79703
G1 X172.42 Y112.294 E.00579
G1 X172.579 Y112.23 E.00615
G1 X182.421 Y112.23 E.35539
G1 X182.576 Y112.29 E.00599
G1 X182.65 Y112.459 E.00664
G1 X182.65 Y217.602 E3.79629
M73 P1 R113
G1 X182.577 Y217.77 E.00661
G1 X182.421 Y217.83 E.00602
G1 X172.579 Y217.83 E.35539
G1 X172.42 Y217.766 E.00618
G1 X172.373 Y217.657 E.00428
G1 X172.273 Y217.581
G1 E-1
G1 Z.4 F21000
G1 X166.815 Y105.36
G1 Z.2
G1 E1 F1800
;TYPE:Inner wall
G1 F3000
G1 X167.036 Y105.627 E.01254
G1 X167.293 Y106.185 E.02218
G1 X167.396 Y106.791 E.02218
G1 X167.339 Y107.402 E.02218
G1 X167.128 Y107.972 E.02192
G1 X166.772 Y108.477 E.02233
G1 X166.298 Y108.872 E.02228
G1 X165.746 Y109.126 E.02192
G1 X165.137 Y109.231 E.02233
G1 X164.522 Y109.175 E.02228
G1 X163.946 Y108.961 E.02218
G1 X163.445 Y108.606 E.02218
G1 X163.053 Y108.133 E.02218
G1 X162.796 Y107.575 E.02218
G1 X162.693 Y106.97 E.02218
G1 X162.75 Y106.358 E.02218
G1 X162.963 Y105.782 E.02218
G1 X163.319 Y105.281 E.02218
G1 X163.791 Y104.889 E.02218
;WIDTH:0.533483
G1 X164.343 Y104.617 E.02384
;WIDTH:0.571989
G1 X164.518 Y104.55 E.00781
G1 X165.037 Y104.504 E.0218
;WIDTH:0.571704
G1 X165.568 Y104.55 E.02226
G1 X165.856 Y104.674 E.01308
;WIDTH:0.535852
G1 X166.143 Y104.799 E.01219
;WIDTH:0.499999
G1 X166.644 Y105.154 E.02218
G1 X166.776 Y105.314 E.00748
G1 X166.693 Y105.953 F21000
;TYPE:Outer wall
G1 F3000
G1 X166.886 Y106.418 E.01818
G1 X166.943 Y106.91 E.01789
G1 X166.87 Y107.4 E.01789
G1 X166.677 Y107.848 E.0176
G1 X166.366 Y108.244 E.01818
G1 X165.968 Y108.539 E.0179
G1 X165.515 Y108.719 E.0176
G1 X165.015 Y108.778 E.01818
G1 X164.483 Y108.689 E.01947
G1 X164.07 Y108.509 E.01628
G1 X163.681 Y108.201 E.01789
G1 X163.386 Y107.804 E.01789
G1 X163.199 Y107.312 E.01897
G1 X163.146 Y106.85 E.01679
G1 X163.219 Y106.36 E.01789
G1 X163.416 Y105.905 E.01789
G1 X163.723 Y105.517 E.01789
G1 X164.121 Y105.221 E.0179
G1 X164.582 Y105.039 E.01789
G1 X165.066 Y104.983 E.0176
G1 X165.565 Y105.054 E.01818
G1 X166.02 Y105.251 E.0179
G1 X166.408 Y105.559 E.01789
G1 X166.668 Y105.898 E.01544
G1 X166.773 Y105.953
G1 E-1
G1 Z.4 F21000
G1 X140.001 Y218.274
G1 Z.2
G1 E1 F1800
;TYPE:Inner wall
G1 F3000
G1 X139.843 Y218.246 E.00578
G1 X139.571 Y218.063 E.01183
G1 X139.429 Y217.821 E.01012
G1 X139.393 Y217.602 E.00804
G1 X139.393 Y112.459 E3.79629
G1 X139.469 Y112.146 E.01163
G1 X139.574 Y111.995 E.00662
G1 X139.845 Y111.814 E.01177
G1 X140.079 Y111.773 E.00857
G1 X149.921 Y111.773 E.35539
G1 X150.17 Y111.82 E.00913
G1 X150.385 Y111.954 E.00914
G1 X150.523 Y112.131 E.00812
G1 X150.607 Y112.459 E.01222
G1 X150.607 Y217.602 E3.79629
G1 X150.525 Y217.928 E.01215
G1 X150.329 Y218.153 E.01076
G1 X150.04 Y218.277 E.01137
G1 X140.079 Y218.287 E.35967
G1 X140.06 Y218.284 E.00068
G1 X140.079 Y217.83 F21000
;TYPE:Outer wall
G1 F3000
G1 X139.935 Y217.779 E.00551
G1 X139.851 Y217.622 E.00645
G1 X139.85 Y112.459 E3.79701
G1 X139.91 Y112.304 E.00599
G1 X140.079 Y112.23 E.00664
G1 X149.921 Y112.23 E.35539
G1 X150.076 Y112.29 E.00599
G1 X150.15 Y112.459 E.00664
G1 X150.15 Y217.602 E3.79629
G1 X150.077 Y217.77 E.00661
G1 X149.921 Y217.83 E.00602
G1 X140.139 Y217.83 E.35322
G1 X140.058 Y217.853
G1 E-1
G1 Z.4 F21000
G1 X118.081 Y217.703
G1 Z.2
G1 E1 F1800
;TYPE:Inner wall
G1 F3000
G1 X118.025 Y217.928 E.00837
G1 X117.829 Y218.153 E.01076
G1 X117.54 Y218.277 E.01137
G1 X107.579 Y218.287 E.35967
G1 X107.333 Y218.242 E.00901
G1 X107.106 Y218.099 E.00967
G1 X106.953 Y217.882 E.00961
G1 X106.893 Y217.602 E.01034
G1 X106.893 Y112.459 E3.79629
G1 X106.953 Y112.179 E.01034
G1 X107.109 Y111.96 E.00971
G1 X107.334 Y111.818 E.00962
G1 X107.671 Y111.773 E.01225
G1 X117.421 Y111.773 E.35206
G1 X117.67 Y111.82 E.00913
G1 X117.885 Y111.954 E.00914
G1 X118.023 Y112.131 E.00812
G1 X118.107 Y112.459 E.01222
G1 X118.107 Y217.602 E3.79629
G1 X118.096 Y217.645 E.00161
G1 X117.65 Y217.602 F21000
;TYPE:Outer wall
G1 F3000
G1 X117.577 Y217.77 E.00661
G1 X117.421 Y217.83 E.00602
G1 X107.579 Y217.83 E.35539
G1 X107.421 Y217.767 E.00612
G1 X107.35 Y217.602 E.00651
G1 X107.35 Y112.459 E3.79629
G1 X107.422 Y112.292 E.00655
G1 X107.579 Y112.23 E.00608
G1 X107.671 Y112.23 E.00333
G1 X117.421 Y112.23 E.35206
G1 X117.576 Y112.29 E.00599
G1 X117.65 Y112.459 E.00664
G1 X117.65 Y217.542 E3.79412
G1 X117.676 Y217.628
G1 E-1
G1 Z.4 F21000
G1 X102.626 Y108.936
G1 Z.2
G1 E1 F1800
;TYPE:Inner wall
G1 F3000
G1 X102.214 Y109.126 E.01637
G1 X101.605 Y109.231 E.02233
G1 X100.991 Y109.175 E.02228
G1 X100.415 Y108.961 E.02218
G1 X99.913 Y108.606 E.02218
G1 X99.521 Y108.133 E.02218
;WIDTH:0.536047
G1 X99.248 Y107.582 E.02397
;WIDTH:0.578387
G1 X99.179 Y107.408 E.00794
G1 X99.133 Y106.88 E.02239
G1 X99.179 Y106.353 E.02239
G1 X99.306 Y106.068 E.0132
;WIDTH:0.539191
G1 X99.432 Y105.782 E.01223
;WIDTH:0.499999
G1 X99.787 Y105.281 E.02218
G1 X100.26 Y104.889 E.02218
;WIDTH:0.533483
G1 X100.811 Y104.617 E.02384
;WIDTH:0.571988
G1 X100.986 Y104.55 E.00781
G1 X101.506 Y104.504 E.0218
;WIDTH:0.571707
G1 X102.036 Y104.55 E.02226
G1 X102.324 Y104.674 E.01308
;WIDTH:0.535853
G1 X102.611 Y104.799 E.01219
;WIDTH:0.499999
G1 X103.112 Y105.154 E.02218
G1 X103.504 Y105.627 E.02218
G1 X103.761 Y106.185 E.02218
G1 X103.864 Y106.791 E.02218
G1 X103.811 Y107.372 E.02108
G1 X103.597 Y107.972 E.02299
G1 X103.241 Y108.477 E.02233
G1 X102.766 Y108.872 E.02228
G1 X102.681 Y108.911 E.00338
G1 X102.449 Y108.53 F21000
;TYPE:Outer wall
G1 F3000
G1 X102.436 Y108.539 E.00057
G1 X101.983 Y108.719 E.0176
G1 X101.483 Y108.778 E.01818
G1 X100.993 Y108.706 E.0179
G1 X100.538 Y108.509 E.01789
G1 X100.149 Y108.201 E.01789
G1 X99.884 Y107.855 E.01576
G1 X99.673 Y107.352 E.01968
G1 X99.615 Y106.85 E.01825
G1 X99.687 Y106.36 E.01789
G1 X99.884 Y105.905 E.0179
G1 X100.192 Y105.517 E.01789
G1 X100.589 Y105.221 E.0179
G1 X101.05 Y105.039 E.01789
G1 X101.534 Y104.983 E.0176
G1 X102.033 Y105.054 E.01818
G1 X102.488 Y105.251 E.0179
G1 X102.876 Y105.559 E.01789
G1 X103.172 Y105.957 E.01789
G1 X103.354 Y106.418 E.01789
G1 X103.411 Y106.91 E.01789
G1 X103.339 Y107.4 E.01789
G1 X103.145 Y107.848 E.0176
G1 X102.834 Y108.244 E.01818
G1 X102.497 Y108.494 E.01516
G1 X102.449 Y108.533
G1 E-1
G1 Z.4 F21000
G1 X130.505 Y111.788
G1 Z.2
G1 E1 F1800
;TYPE:Inner wall
G1 F3000
G1 X130.655 Y111.814 E.00549
G1 X130.926 Y111.995 E.01177
G1 X131.07 Y112.237 E.01015
G1 X131.107 Y112.459 E.00813
G1 X131.107 Y217.602 E3.79629
G1 X131.033 Y217.912 E.01152
G1 X130.853 Y218.135 E.01034
G1 X130.657 Y218.246 E.00813
G1 X130.54 Y218.277 E.00437
G1 X122.579 Y218.287 E.28745
G1 X122.328 Y218.24 E.00919
G1 X122.113 Y218.105 E.00917
G1 X121.975 Y217.928 E.0081
G1 X121.893 Y217.602 E.01215
G1 X121.893 Y112.459 E3.79629
G1 X121.977 Y112.131 E.01222
G1 X122.173 Y111.906 E.01077
G1 X122.46 Y111.783 E.01128
G1 X122.579 Y111.773 E.00429
G1 X130.421 Y111.773 E.28318
G1 X130.446 Y111.778 E.00091
G1 X130.421 Y112.23 F21000
;TYPE:Outer wall
G1 F3000
G1 X130.59 Y112.304 E.00664
G1 X130.65 Y112.459 E.00599
G1 X130.65 Y217.602 E3.79629
G1 X130.591 Y217.755 E.00595
G1 X130.461 Y217.827 E.00534
G1 X122.579 Y217.83 E.2846
G1 X122.423 Y217.77 E.00602
G1 X122.35 Y217.602 E.00661
G1 X122.35 Y112.459 E3.79629
G1 X122.424 Y112.29 E.00664
G1 X122.579 Y112.23 E.00599
G1 X130.361 Y112.23 E.28101
G1 X130.448 Y112.205
G1 E-1
G1 Z.4 F21000
G1 X154.995 Y218.272
G1 Z.2
G1 E1 F1800
;TYPE:Inner wall
G1 F3000
G1 X154.828 Y218.24 E.00613
G1 X154.613 Y218.105 E.00917
G1 X154.475 Y217.928 E.0081
