; generated by SuperSlicer 2.5.59 on 2023-05-08 at 14:13:30 UTC


;
;

;
;
; 

; external perimeters extrusion width = 0.40mm
; perimeters extrusion width = 0.46mm
; infill extrusion width = 0.64mm
; solid infill extrusion width = 0.56mm
; top infill extrusion width = 0.40mm
; first layer extrusion width = 0.50mm

; object:{"name":"BackPlate","id":"BackPlate.stl id:0 copy 0","object_center":[165.000000,165.000000,0.000000],"boundingbox_center":[165.000000,165.000000,5.750000],"boundingbox_size":[135.000000,124.239502,11.500000]}
EXCLUDE_OBJECT_DEFINE NAME=BackPlate_stl_id_0_copy_0 CENTER=165.000000,165.000000 POLYGON=[[97.500000,103.380248],[98.000000,102.880248],[232.000000,102.880248],[232.500000,103.380248],[232.500000,226.619744],[232.000000,227.119744],[98.000000,227.119744],[97.500000,226.619744],[97.500000,103.380248]]
; plater:{"center":[165.000000,165.000000,0.000000],"boundingbox_center":[165.000000,165.000000,5.750000],"boundingbox_size":[135.000000,124.239502,11.500000]}

M73 P0 R175
;TYPE:Custom
; custom gcode: start_gcode
START_PRINT T_BED=70 T_EXTRUDER=235
; custom gcode end: start_gcode
M107
G21 ; set units to millimeters
G90 ; use absolute coordinates
M82 ; use absolute distances for extrusion
G92 E0
; custom gcode: start_filament_gcode
; Filament gcode
PRESSURE_ADVANCE_SELECT FILAMENT=PETG
; custom gcode end: start_filament_gcode
;_TOOLCHANGE 0
M104 S235 ; set temperature
M109 S235 ; set temperature and wait for it to be reached
M190 S70 ; set bed temperature and wait for it to be reached
;LAYER_CHANGE
;Z:0.2
;HEIGHT:0.2
G1 Z0.2 F9000
G1 E-1 F3000
M204 S1000
G1 X95.414 Y100.753 F9000
G1 E0 F1800
;TYPE:Skirt
;WIDTH:0.52
G1 X94.679 Y101.755 E0.04783
G1 X94.284 Y103.422 E0.11373
G1 X94.284 Y226.578 E4.8527
M73 P0 R175
G1 X94.473 Y227.748 E4.89831
G1 X95.373 Y229.206 E4.9642
G1 X96.375 Y229.941 E5.01203
G1 X98.041 Y230.335 E5.07792
G1 X231.959 Y230.335 E10.23096
G1 X233.129 Y230.146 E10.27656
G1 X234.586 Y229.247 E10.34246
G1 X235.321 Y228.245 E10.39029
G1 X235.716 Y226.578 E10.45618
G1 X235.716 Y103.422 E15.19516
G1 X235.527 Y102.252 E15.24076
G1 X234.627 Y100.794 E15.30666
G1 X233.625 Y100.059 E15.35449
G1 X231.959 Y99.665 E15.42038
G1 X98.041 Y99.665 E20.57341
G1 X96.871 Y99.854 E20.61902
G1 X95.414 Y100.753 E20.68491
G1 X95.751 Y101.09 F9000
G1 F1800
G1 X95.155 Y101.874 E20.7228
G1 X94.761 Y103.422 E20.78425
G1 X94.761 Y226.578 E25.52323
G1 X94.894 Y227.495 E25.55888
G1 X95.71 Y228.868 E25.62034
G1 X96.494 Y229.464 E25.65823
G1 X98.041 Y229.858 E25.71968
G1 X231.959 Y229.858 E30.87272
G1 X232.876 Y229.726 E30.90837
G1 X234.249 Y228.91 E30.96983
G1 X234.845 Y228.126 E31.00771
G1 X235.239 Y226.578 E31.06917
G1 X235.239 Y103.422 E35.80814
G1 X235.106 Y102.505 E35.8438
G1 X234.29 Y101.132 E35.90525
G1 X233.506 Y100.536 E35.94314
G1 X231.959 Y100.142 E36.0046
G1 X98.041 Y100.142 E41.15763
G1 X97.124 Y100.274 E41.19328
G1 X95.751 Y101.09 E41.25474
G92 E0
G1 E-1 F3000
; printing object BackPlate.stl id:0 copy 0
EXCLUDE_OBJECT_START NAME=BackPlate_stl_id_0_copy_0
; acceleration to travel
M204 S3000
G1 X195.716 Y194.486 F9000
; decel to extrusion
M204 S1000
G1 X229.038 Y225.618
; end travel
G1 E0 F1800
;TYPE:Internal perimeter
;WIDTH:0.5
G1 X229.772 Y225.314 E0.0293
G1 X230.282 Y224.923 E0.05302
G1 X230.674 Y224.412 E0.07673
G1 X230.92 Y223.818 E0.10045
G1 X230.951 Y223.581 E0.10927
G1 X231.293 Y223.603 E0.1219
G1 X231.293 Y225.913 E0.20704
G1 X229.096 Y225.913 E0.28803
G1 X229.038 Y225.618 E0.29909
G92 E0
G1 E-1 F3000
; acceleration to travel
M204 S3000
G1 X228.738 Y134.726 F9000
; decel to extrusion
M204 S1000
G1 X228.638 Y104.429
; end travel
G1 E0 F1800
G1 X228.66 Y104.087 E0.01263
G1 X231.293 Y104.087 E0.10969
G1 X231.293 Y106.457 E0.19707
G1 X230.951 Y106.48 E0.20969
G1 X230.92 Y106.243 E0.21852
G1 X230.674 Y105.648 E0.24223
G1 X230.282 Y105.138 E0.26595
G1 X229.772 Y104.746 E0.28966
G1 X229.178 Y104.5 E0.31337
G1 X228.638 Y104.429 E0.33345
G92 E0
G1 E-1 F3000
; acceleration to travel
M204 S3000
G1 X185.661 Y190.241 F9000
; decel to extrusion
M204 S1000
G1 X171.336 Y218.844
; end travel
G1 E0 F1800
G1 X183.664 Y218.844 E0.4545
G1 X183.664 Y111.216 E4.42234
G1 X171.336 Y111.216 E4.87683
G1 X171.336 Y218.844 E8.84467
G1 X171.793 Y218.387 F9000
G1 F1800
G1 X183.207 Y218.387 E9.26547
G1 X183.207 Y111.673 E13.19961
G1 X171.793 Y111.673 E13.62041
G1 X171.793 Y218.387 E17.55454
G1 X172.25 Y217.93 F9000
;TYPE:External perimeter
G1 F1800
G1 X182.75 Y217.93 E17.94164
G1 X182.75 Y112.13 E21.84208
G1 X172.25 Y112.13 E22.22917
G1 X172.25 Y217.93 E26.12961
;WIPE_START
M204 S4000
M73 P1 R174
G1 X172.25 Y218.33 F9000
;WIPE_END
G92 E0
G1 E-1 F3000
; acceleration to travel
M204 S3000
G1 X182.814 Y218.716 F9000
; decel to extrusion
M204 S1000
G1 X186.336 Y218.844
; end travel
G1 E0 F1800
;TYPE:Internal perimeter
G1 X196.664 Y218.844 E0.38077
G1 X196.664 Y111.216 E4.34861
G1 X186.336 Y111.216 E4.72937
G1 X186.336 Y218.844 E8.69721
G1 X186.793 Y218.387 F9000
G1 F1800
G1 X196.207 Y218.387 E9.04427
G1 X196.207 Y111.673 E12.97841
G1 X186.793 Y111.673 E13.32548
G1 X186.793 Y218.387 E17.25961
G1 X187.25 Y217.93 F9000
;TYPE:External perimeter
G1 F1800
G1 X195.75 Y217.93 E17.57298
G1 X195.75 Y112.13 E21.47341
M73 P1 R174
G1 X187.25 Y112.13 E21.78678
G1 X187.25 Y217.93 E25.68721
;WIPE_START
M204 S4000
G1 X187.25 Y218.33 F9000
;WIPE_END
G92 E0
G1 E-1 F3000
; acceleration to travel
M204 S3000
G1 X199.689 Y218.716 F9000
; decel to extrusion
M204 S1000
G1 X203.836 Y218.844
; end travel
G1 E0 F1800
;TYPE:Internal perimeter
G1 X216.164 Y218.844 E0.4545
G1 X216.164 Y111.216 E4.42234
G1 X203.836 Y111.216 E4.87683
G1 X203.836 Y218.844 E8.84467
G1 X204.293 Y218.387 F9000
G1 F1800
G1 X215.707 Y218.387 E9.26547
G1 X215.707 Y111.673 E13.19961
G1 X204.293 Y111.673 E13.62041
G1 X204.293 Y218.387 E17.55454
G1 X204.75 Y217.93 F9000
;TYPE:External perimeter
G1 F1800
G1 X215.25 Y217.93 E17.94164
G1 X215.25 Y112.13 E21.84208
G1 X204.75 Y112.13 E22.22917
G1 X204.75 Y217.93 E26.12961
;WIPE_START
M204 S4000
G1 X204.75 Y218.33 F9000
;WIPE_END
G92 E0
G1 E-1 F3000
; acceleration to travel
M204 S3000
G1 X215.314 Y218.716 F9000
; decel to extrusion
M204 S1000
G1 X218.836 Y218.844
; end travel
G1 E0 F1800
;TYPE:Internal perimeter
G1 X229.164 Y218.844 E0.38077
G1 X229.164 Y111.216 E4.34861
G1 X218.836 Y111.216 E4.72937
G1 X218.836 Y218.844 E8.69721
G1 X219.293 Y218.387 F9000
G1 F1800
G1 X228.707 Y218.387 E9.04427
G1 X228.707 Y111.673 E12.97841
M73 P1 R173
G1 X219.293 Y111.673 E13.32548
G1 X219.293 Y218.387 E17.25961
G1 X219.75 Y217.93 F9000
;TYPE:External perimeter
G1 F1800
G1 X228.25 Y217.93 E17.57298
G1 X228.25 Y112.13 E21.47341
G1 X219.75 Y112.13 E21.78678
G1 X219.75 Y217.93 E25.68721
;WIPE_START
M204 S4000
G1 X219.75 Y218.33 F9000
;WIPE_END
G92 E0
G1 E-1 F3000
; acceleration to travel
M204 S3000
G1 X170.314 Y218.716 F9000
; decel to extrusion
M204 S1000
G1 X153.836 Y218.844
; end travel
G1 E0 F1800
;TYPE:Internal perimeter
G1 X164.164 Y218.844 E0.38077
G1 X164.164 Y111.216 E4.34861
G1 X153.836 Y111.216 E4.72937
G1 X153.836 Y218.844 E8.69721
G1 X154.293 Y218.387 F9000
G1 F1800
G1 X163.707 Y218.387 E9.04427
G1 X163.707 Y111.673 E12.97841
G1 X154.293 Y111.673 E13.32548
G1 X154.293 Y218.387 E17.25961
G1 X154.75 Y217.93 F9000
;TYPE:External perimeter
G1 F1800
G1 X163.25 Y217.93 E17.57298
G1 X163.25 Y112.13 E21.47341
G1 X154.75 Y112.13 E21.78678
G1 X154.75 Y217.93 E25.68721
;WIPE_START
M204 S4000
G1 X154.75 Y218.33 F9000
;WIPE_END
G92 E0
G1 E-1 F3000
; acceleration to travel
M204 S3000
G1 X152.061 Y218.716 F9000
; decel to extrusion
M204 S1000
G1 X151.164 Y218.844
; end travel
G1 E0 F1800
;TYPE:Internal perimeter
G1 X151.164 Y111.216 E3.96784
G1 X138.836 Y111.216 E4.42234
G1 X138.836 Y218.844 E8.39018
G1 X151.164 Y218.844 E8.84467
G1 X150.707 Y218.387 F9000
G1 F1800
G1 X150.707 Y111.673 E12.77881
G1 X139.293 Y111.673 E13.19961
G1 X139.293 Y218.387 E17.13375
G1 X150.707 Y218.387 E17.55454
G1 X150.25 Y217.93 F9000
;TYPE:External perimeter
G1 F1800
G1 X150.25 Y112.13 E21.45498
G1 X139.75 Y112.13 E21.84208
G1 X139.75 Y217.93 E25.74251
M73 P2 R172
G1 X150.25 Y217.93 E26.12961
;WIPE_START
M204 S4000
G1 X150.65 Y217.93 F9000
;WIPE_END
G92 E0
G1 E-1 F3000
; acceleration to travel
M204 S3000
G1 X136.411 Y218.616 F9000
; decel to extrusion
M204 S1000
G1 X131.664 Y218.844
; end travel
G1 E0 F1800
;TYPE:Internal perimeter
G1 X131.664 Y111.216 E3.96784
G1 X121.336 Y111.216 E4.34861
G1 X121.336 Y218.844 E8.31645
G1 X131.664 Y218.844 E8.69721
G1 X131.207 Y218.387 F9000
G1 F1800
G1 X131.207 Y111.673 E12.63135
G1 X121.793 Y111.673 E12.97841
G1 X121.793 Y218.387 E16.91255
G1 X131.207 Y218.387 E17.25961
G1 X130.75 Y217.93 F9000
;TYPE:External perimeter
G1 F1800
G1 X130.75 Y112.13 E21.16005
G1 X122.25 Y112.13 E21.47341
G1 X122.25 Y217.93 E25.37385
G1 X130.75 Y217.93 E25.68721
;WIPE_START
M204 S4000
G1 X131.15 Y217.93 F9000
;WIPE_END
G92 E0
G1 E-1 F3000
; acceleration to travel
M204 S3000
G1 X121.786 Y218.616 F9000
; decel to extrusion
M204 S1000
G1 X118.664 Y218.844
; end travel
G1 E0 F1800
;TYPE:Internal perimeter
G1 X118.664 Y111.216 E3.96784
G1 X106.336 Y111.216 E4.42234
G1 X106.336 Y218.844 E8.39018
G1 X118.664 Y218.844 E8.84467
G1 X118.207 Y218.387 F9000
G1 F1800
G1 X118.207 Y111.673 E12.77881
G1 X106.793 Y111.673 E13.19961
G1 X106.793 Y218.387 E17.13375
G1 X118.207 Y218.387 E17.55454
G1 X117.75 Y217.93 F9000
;TYPE:External perimeter
G1 F1800
G1 X117.75 Y112.13 E21.45498
G1 X107.25 Y112.13 E21.84208
G1 X107.25 Y217.93 E25.74251
G1 X117.75 Y217.93 E26.12961
;WIPE_START
M204 S4000
G1 X118.15 Y217.93 F9000
;WIPE_END
G92 E0
G1 E-1 F3000
; acceleration to travel
M204 S3000
G1 X154.917 Y133.15 F9000
; decel to extrusion
M204 S1000
G1 X167.173 Y104.89
; end travel
G1 E0 F1800
;TYPE:Internal perimeter
G1 X166.908 Y104.544 E0.01605
G1 X226.677 Y104.544 E2.21951
G1 X226.007 Y105.418 E2.26009
G1 X225.714 Y106.123 E2.28824
G1 X225.615 Y106.88 E2.31639
G1 X225.714 Y107.637 E2.34454
G1 X226.007 Y108.343 E2.37269
G1 X226.472 Y108.949 E2.40084
G1 X227.077 Y109.413 E2.42899
G1 X227.783 Y109.706 E2.45714
G1 X228.54 Y109.805 E2.4853
G1 X229.297 Y109.706 E2.51345
G1 X230.002 Y109.413 E2.5416
G1 X230.836 Y108.774 E2.58033
G1 X230.836 Y221.287 E6.72824
G1 X230.002 Y220.647 E6.76697
G1 X229.297 Y220.355 E6.79512
G1 X228.54 Y220.255 E6.82327
G1 X227.783 Y220.355 E6.85142
G1 X227.077 Y220.647 E6.87957
G1 X226.472 Y221.112 E6.90772
G1 X226.007 Y221.718 E6.93587
G1 X225.714 Y222.423 E6.96402
G1 X225.615 Y223.18 E6.99217
G1 X225.714 Y223.937 E7.02032
G1 X226.007 Y224.643 E7.04847
G1 X226.63 Y225.456 E7.08625
G1 X166.954 Y225.456 E9.28628
G1 X167.578 Y224.643 E9.32405
G1 X167.87 Y223.937 E9.3522
G1 X167.97 Y223.18 E9.38035
G1 X167.87 Y222.423 E9.4085
G1 X167.578 Y221.718 E9.43665
G1 X167.113 Y221.112 E9.4648
G1 X166.507 Y220.647 E9.49296
G1 X165.802 Y220.355 E9.52111
G1 X165.045 Y220.255 E9.54926
G1 X164.288 Y220.355 E9.57741
G1 X163.582 Y220.647 E9.60556
G1 X162.976 Y221.112 E9.63371
G1 X162.511 Y221.718 E9.66186
G1 X162.219 Y222.423 E9.69001
G1 X162.12 Y223.18 E9.71816
G1 X162.219 Y223.937 E9.74631
G1 X162.511 Y224.643 E9.77446
M73 P2 R171
G1 X163.135 Y225.456 E9.81223
G1 X103.422 Y225.456 E12.01362
G1 X104.046 Y224.643 E12.05139
G1 X104.338 Y223.937 E12.07954
G1 X104.438 Y223.18 E12.10769
G1 X104.338 Y222.423 E12.13584
G1 X104.046 Y221.718 E12.16399
G1 X103.581 Y221.112 E12.19214
G1 X102.975 Y220.647 E12.22029
G1 X102.27 Y220.355 E12.24844
G1 X101.513 Y220.255 E12.27659
G1 X100.756 Y220.355 E12.30474
G1 X100.05 Y220.647 E12.3329
G1 X99.164 Y221.327 E12.37407
G1 X99.164 Y108.734 E16.52495
G1 X100.05 Y109.413 E16.56613
G1 X100.756 Y109.706 E16.59428
G1 X101.513 Y109.805 E16.62243
G1 X102.27 Y109.706 E16.65058
G1 X102.975 Y109.413 E16.67873
G1 X103.581 Y108.949 E16.70688
G1 X104.046 Y108.343 E16.73503
G1 X104.338 Y107.637 E16.76318
G1 X104.438 Y106.88 E16.79133
G1 X104.338 Y106.123 E16.81948
G1 X104.046 Y105.418 E16.84764
G1 X103.376 Y104.544 E16.88822
G1 X163.182 Y104.544 E19.09302
G1 X162.511 Y105.418 E19.1336
G1 X162.219 Y106.123 E19.16176
G1 X162.12 Y106.88 E19.18991
G1 X162.219 Y107.637 E19.21806
G1 X162.511 Y108.343 E19.24621
G1 X162.976 Y108.949 E19.27436
G1 X163.582 Y109.413 E19.30251
G1 X164.288 Y109.706 E19.33066
G1 X165.045 Y109.805 E19.35881
G1 X165.802 Y109.706 E19.38696
G1 X166.507 Y109.413 E19.41511
G1 X167.113 Y108.949 E19.44326
G1 X167.578 Y108.343 E19.47141
G1 X167.87 Y107.637 E19.49957
G1 X167.97 Y106.88 E19.52772
G1 X167.87 Y106.123 E19.55587
G1 X167.578 Y105.418 E19.58402
G1 X167.173 Y104.89 E19.60855
G1 X166.748 Y105.108 F9000
G1 F1800
G1 X166.277 Y104.746 E19.63046
G1 X165.682 Y104.5 E19.65417
G1 X165.142 Y104.429 E19.67425
G1 X165.165 Y104.087 E19.68688
G1 X228.42 Y104.087 E22.01884
G1 X228.442 Y104.429 E22.03147
G1 X227.902 Y104.5 E22.05155
G1 X227.308 Y104.746 E22.07526
G1 X226.798 Y105.138 E22.09898
G1 X226.406 Y105.648 E22.12269
G1 X226.16 Y106.243 E22.1464
G1 X226.076 Y106.88 E22.17012
G1 X226.16 Y107.518 E22.19383
G1 X226.406 Y108.112 E22.21755
G1 X226.798 Y108.623 E22.24126
G1 X227.308 Y109.014 E22.26497
G1 X227.902 Y109.26 E22.28869
G1 X228.54 Y109.344 E22.3124
G1 X229.178 Y109.26 E22.33612
G1 X229.772 Y109.014 E22.35983
G1 X230.282 Y108.623 E22.38354
G1 X230.674 Y108.112 E22.40726
G1 X230.92 Y107.518 E22.43097
G1 X230.951 Y107.281 E22.4398
G1 X231.293 Y107.303 E22.45242
G1 X231.293 Y222.757 E26.70878
G1 X230.951 Y222.78 E26.7214
G1 X230.92 Y222.543 E26.73023
G1 X230.674 Y221.948 E26.75394
G1 X230.282 Y221.438 E26.77766
G1 X229.772 Y221.046 E26.80137
G1 X229.178 Y220.8 E26.82508
G1 X228.54 Y220.716 E26.8488
G1 X227.902 Y220.8 E26.87251
G1 X227.308 Y221.046 E26.89623
G1 X226.798 Y221.438 E26.91994
G1 X226.406 Y221.948 E26.94365
G1 X226.16 Y222.543 E26.96737
G1 X226.076 Y223.18 E26.99108
G1 X226.16 Y223.818 E27.01479
G1 X226.406 Y224.412 E27.03851
G1 X226.798 Y224.923 E27.06222
G1 X227.308 Y225.314 E27.08594
G1 X228.042 Y225.618 E27.11524
G1 X227.984 Y225.913 E27.1263
G1 X165.601 Y225.913 E29.42612
G1 X165.542 Y225.618 E29.43718
G1 X166.277 Y225.314 E29.46648
G1 X166.787 Y224.923 E29.4902
G1 X167.179 Y224.412 E29.51391
G1 X167.425 Y223.818 E29.53763
G1 X167.509 Y223.18 E29.56134
G1 X167.425 Y222.543 E29.58505
G1 X167.179 Y221.948 E29.60877
G1 X166.787 Y221.438 E29.63248
G1 X166.277 Y221.046 E29.6562
G1 X165.682 Y220.8 E29.67991
G1 X165.045 Y220.716 E29.70362
G1 X164.407 Y220.8 E29.72734
G1 X163.813 Y221.046 E29.75105
G1 X163.302 Y221.438 E29.77477
G1 X162.911 Y221.948 E29.79848
G1 X162.665 Y222.543 E29.82219
G1 X162.581 Y223.18 E29.84591
G1 X162.665 Y223.818 E29.86962
G1 X162.911 Y224.412 E29.89334
G1 X163.302 Y224.923 E29.91705
G1 X163.813 Y225.314 E29.94076
G1 X164.547 Y225.618 E29.97007
G1 X164.488 Y225.913 E29.98113
G1 X102.069 Y225.913 E32.28229
G1 X102.01 Y225.618 E32.29336
G1 X102.745 Y225.314 E32.32266
G1 X103.255 Y224.923 E32.34637
G1 X103.647 Y224.412 E32.37009
G1 X103.893 Y223.818 E32.3938
G1 X103.977 Y223.18 E32.41752
G1 X103.893 Y222.543 E32.44123
G1 X103.647 Y221.948 E32.46494
G1 X103.255 Y221.438 E32.48866
G1 X102.745 Y221.046 E32.51237
G1 X102.15 Y220.8 E32.53608
G1 X101.513 Y220.716 E32.5598
G1 X100.875 Y220.8 E32.58351
G1 X100.281 Y221.046 E32.60723
G1 X99.77 Y221.438 E32.63094
G1 X99.379 Y221.948 E32.65465
G1 X99.133 Y222.543 E32.67837
G1 X99.049 Y223.179 E32.70205
G1 X98.707 Y223.157 E32.71467
G1 X98.707 Y106.904 E37.00049
G1 X99.049 Y106.881 E37.01311
G1 X99.133 Y107.518 E37.03679
G1 X99.379 Y108.112 E37.06051
G1 X99.77 Y108.623 E37.08422
G1 X100.281 Y109.014 E37.10794
G1 X100.875 Y109.26 E37.13165
G1 X101.513 Y109.344 E37.15536
G1 X102.15 Y109.26 E37.17908
G1 X102.745 Y109.014 E37.20279
G1 X103.255 Y108.623 E37.22651
G1 X103.647 Y108.112 E37.25022
G1 X103.893 Y107.518 E37.27393
G1 X103.977 Y106.88 E37.29765
G1 X103.893 Y106.243 E37.32136
G1 X103.647 Y105.648 E37.34508
G1 X103.255 Y105.138 E37.36879
G1 X102.745 Y104.746 E37.3925
G1 X102.15 Y104.5 E37.41622
G1 X101.61 Y104.429 E37.4363
G1 X101.633 Y104.087 E37.44892
G1 X164.924 Y104.087 E39.78224
G1 X164.947 Y104.429 E39.79486
G1 X164.407 Y104.5 E39.81494
