; HEADER_BLOCK_START
; generated by OrcaSlicer 1.6.4-beta3 on 2023-08-20 at 14:16:51
; total layer number: 45
; HEADER_BLOCK_END

; THUMBNAIL_BLOCK_START
; THUMBNAIL_BLOCK_END

; external perimeters extrusion width = 0.40mm
; perimeters extrusion width = 0.46mm
; infill extrusion width = 0.64mm
; solid infill extrusion width = 0.56mm
; top infill extrusion width = 0.40mm
; first layer extrusion width = 0.50mm

; external perimeters extrusion width = 0.40mm
; perimeters extrusion width = 0.46mm
; infill extrusion width = 0.64mm
; solid infill extrusion width = 0.56mm
; top infill extrusion width = 0.40mm
; first layer extrusion width = 0.50mm

; external perimeters extrusion width = 0.40mm
; perimeters extrusion width = 0.46mm
; infill extrusion width = 0.64mm
; solid infill extrusion width = 0.56mm
; top infill extrusion width = 0.40mm
; first layer extrusion width = 0.50mm

; EXECUTABLE_BLOCK_START
EXCLUDE_OBJECT_DEFINE NAME=BagClip-150.stl_id_0_copy_0 CENTER=165,203.157 POLYGON=[[81.25,196.971],[81.2528,196.762],[81.2658,196.469],[81.282,196.256],[81.3131,195.968],[81.3432,195.754],[81.3917,195.472],[81.4359,195.257],[81.5014,194.982],[81.56,194.766],[81.6416,194.499],[81.7148,194.284],[81.8118,194.026],[81.8997,193.813],[82.0114,193.565],[82.1141,193.355],[82.2396,193.117],[82.357,192.911],[82.4954,192.684],[82.6275,192.483],[82.7779,192.269],[82.9245,192.073],[83.0859,191.872],[83.2468,191.683],[83.4183,191.495],[83.5932,191.314],[83.7737,191.139],[83.9622,190.968],[84.1507,190.807],[84.3523,190.646],[84.5478,190.499],[84.762,190.349],[84.9634,190.216],[85.1897,190.078],[85.396,189.961],[85.6337,189.835],[85.8438,189.732],[86.0921,189.621],[86.305,189.533],[86.5631,189.436],[86.7779,189.363],[87.0449,189.281],[87.2605,189.222],[87.751,189.113],[88.2474,189.034],[88.7477,188.987],[89.25,188.971],[247.75,188.971],[247.855,188.977],[247.958,188.993],[248.059,189.02],[248.157,189.058],[248.25,189.105],[248.338,189.162],[248.419,189.228],[248.493,189.302],[248.559,189.383],[248.616,189.471],[248.664,189.564],[248.701,189.662],[248.728,189.763],[248.745,189.867],[248.75,189.971],[248.75,207.671],[248.745,207.776],[248.728,207.879],[248.701,207.98],[246.135,217.343],[88.6224,204.946],[88.2474,204.908],[87.751,204.829],[87.2605,204.72],[86.7779,204.58],[86.6455,204.535],[86.305,204.409],[86.1725,204.355],[85.8438,204.21],[85.7117,204.146],[85.396,203.982],[85.2652,203.908],[84.9634,203.726],[84.8345,203.642],[84.5478,203.443],[84.4216,203.35],[84.1507,203.135],[84.028,203.032],[83.7737,202.803],[83.6552,202.689],[83.4183,202.447],[83.3049,202.324],[83.0859,202.07],[82.9783,201.938],[82.7779,201.673],[82.6769,201.531],[82.4954,201.258],[82.4017,201.106],[82.2396,200.825],[82.154,200.665],[82.0114,200.377],[81.9346,200.209],[81.8118,199.916],[81.7445,199.74],[81.6416,199.443],[81.5845,199.26],[81.5014,198.961],[81.4551,198.771],[81.3917,198.47],[81.3569,198.274],[81.3131,197.974],[81.2903,197.773],[81.2658,197.473],[81.2555,197.268],[81.25,196.971]]
EXCLUDE_OBJECT_DEFINE NAME=BagClip-120.stl_id_1_copy_0 CENTER=163.591,164.707 POLYGON=[[94.8413,158.592],[94.8441,158.382],[94.8571,158.089],[94.8733,157.877],[94.9044,157.589],[94.9344,157.375],[94.983,157.093],[95.0272,156.877],[95.0927,156.602],[95.1512,156.387],[95.2329,156.119],[95.306,155.905],[95.4031,155.647],[95.491,155.434],[95.6027,155.185],[95.7053,154.975],[95.8309,154.738],[95.9483,154.531],[96.0867,154.305],[96.2188,154.104],[96.3692,153.889],[96.5158,153.694],[96.6772,153.492],[96.8381,153.304],[97.0096,153.115],[97.1845,152.935],[97.3649,152.76],[97.5534,152.588],[97.7419,152.428],[97.9436,152.266],[98.139,152.12],[98.3533,151.969],[98.5547,151.837],[98.781,151.699],[98.9873,151.581],[99.2249,151.456],[99.4351,151.353],[99.6834,151.241],[99.8963,151.153],[100.154,151.056],[100.369,150.983],[100.636,150.902],[100.852,150.843],[101.342,150.733],[101.839,150.655],[102.339,150.607],[102.841,150.592],[231.341,150.592],[231.446,150.597],[231.549,150.613],[231.65,150.641],[231.748,150.678],[231.841,150.726],[231.929,150.783],[232.01,150.849],[232.084,150.923],[232.15,151.004],[232.207,151.092],[232.255,151.185],[232.292,151.283],[232.319,151.384],[232.336,151.487],[232.341,151.592],[232.341,169.292],[232.336,169.396],[232.319,169.5],[232.292,169.601],[229.485,178.823],[104.931,166.83],[102.075,166.555],[101.839,166.529],[101.342,166.45],[100.852,166.34],[100.369,166.2],[100.237,166.156],[99.8963,166.03],[99.7637,165.976],[99.4351,165.83],[99.303,165.767],[98.9873,165.602],[98.8564,165.529],[98.5547,165.346],[98.4258,165.263],[98.139,165.064],[98.0129,164.97],[97.7419,164.756],[97.6192,164.652],[97.3649,164.423],[97.2465,164.31],[97.0096,164.068],[96.8962,163.945],[96.6772,163.691],[96.5696,163.558],[96.3692,163.294],[96.2681,163.152],[96.0867,162.878],[95.993,162.727],[95.8309,162.446],[95.7452,162.286],[95.6027,161.998],[95.5259,161.83],[95.4031,161.537],[95.3358,161.361],[95.2329,161.064],[95.1757,160.88],[95.0927,160.581],[95.0464,160.391],[94.983,160.091],[94.9482,159.895],[94.9044,159.594],[94.8816,159.393],[94.8571,159.094],[94.8468,158.888],[94.8413,158.592]]
EXCLUDE_OBJECT_DEFINE NAME=BagClip-90.stl_id_2_copy_0 CENTER=164.231,126.473 POLYGON=[[110.481,120.531],[110.483,120.322],[110.497,120.029],[110.513,119.817],[110.544,119.529],[110.574,119.314],[110.622,119.032],[110.667,118.817],[110.732,118.542],[110.791,118.326],[110.872,118.059],[110.945,117.844],[111.043,117.586],[111.13,117.373],[111.242,117.125],[111.345,116.915],[111.47,116.677],[111.588,116.471],[111.726,116.245],[111.858,116.043],[112.009,115.829],[112.155,115.634],[112.317,115.432],[112.478,115.243],[112.649,115.055],[112.824,114.874],[113.004,114.7],[113.193,114.528],[113.381,114.367],[113.583,114.206],[113.778,114.059],[113.993,113.909],[114.194,113.777],[114.42,113.638],[114.627,113.521],[114.864,113.395],[115.075,113.293],[115.323,113.181],[115.536,113.093],[115.794,112.996],[116.009,112.923],[116.276,112.841],[116.491,112.783],[116.982,112.673],[117.478,112.594],[117.978,112.547],[118.481,112.531],[216.981,112.531],[217.085,112.537],[217.189,112.553],[217.29,112.58],[217.387,112.618],[217.481,112.665],[217.569,112.722],[217.65,112.788],[217.724,112.862],[217.79,112.943],[217.847,113.031],[217.894,113.125],[217.932,113.222],[217.959,113.323],[217.975,113.427],[217.981,113.531],[217.981,131.231],[217.975,131.336],[217.959,131.439],[217.932,131.54],[214.775,140.415],[120.344,128.82],[117.506,128.472],[117.478,128.468],[116.982,128.39],[116.491,128.28],[116.009,128.14],[115.876,128.095],[115.536,127.969],[115.403,127.916],[115.075,127.77],[114.942,127.706],[114.627,127.542],[114.496,127.468],[114.194,127.286],[114.065,127.202],[113.778,127.003],[113.652,126.91],[113.381,126.695],[113.259,126.592],[113.004,126.363],[112.886,126.249],[112.649,126.008],[112.536,125.884],[112.317,125.631],[112.209,125.498],[112.009,125.234],[111.908,125.091],[111.726,124.818],[111.632,124.667],[111.47,124.385],[111.385,124.225],[111.242,123.937],[111.165,123.769],[111.043,123.476],[110.975,123.3],[110.872,123.003],[110.815,122.82],[110.732,122.521],[110.686,122.331],[110.622,122.03],[110.588,121.834],[110.544,121.534],[110.521,121.333],[110.497,121.034],[110.486,120.828],[110.481,120.531]]
M73 P0 R95
;TYPE:Custom
START_PRINT T_BED=60 T_EXTRUDER=220
G90
G21
M83 ; use relative distances for extrusion
; filament start gcode

    PRESSURE_ADVANCE_SELECT FILAMENT=PLA
M106 S0
;LAYER_CHANGE
;Z:0.2
;HEIGHT:0.2
;BEFORE_LAYER_CHANGE
;0.2
G92 E0

SET_VELOCITY_LIMIT ACCEL=1000 ACCEL_TO_DECEL=500
G1 E-.8 F3000
G1 X111.077 Y112.514 F12000
G1 Z.2
G1 E.8 F1800
;TYPE:Skirt
;WIDTH:0.5
G1 F3000
G1 X112.141 Y111.649 E.05105
G1 X113.751 Y110.696 E.06971
G1 X115.021 Y110.181 E.05105
G1 X116.526 Y109.795 E.05785
G1 X118.389 Y109.619 E.06971
G1 X217.133 Y109.621 E3.67785
G1 X218.044 Y109.765 E.03434
G1 X219.155 Y110.278 E.04558
G1 X219.988 Y111.028 E.04174
G1 X220.598 Y112.036 E.04389
G1 X251.517 Y188.91 E3.08618
G1 X251.664 Y189.971 E.03989
G1 X251.621 Y208.248 E.68075
G1 X248.946 Y218.113 E.38071
G1 X248.18 Y219.419 E.05638
G1 X246.863 Y220.165 E.05638
G1 X245.906 Y220.248 E.03576
G1 X87.973 Y207.809 E5.90063
G1 X87.115 Y207.673 E.03235
G1 X85.791 Y207.321 E.05104
G1 X84.686 Y206.884 E.04424
G1 X83.48 Y206.234 E.05104
G1 X81.846 Y204.989 E.07651
G1 X81.232 Y204.375 E.03235
G1 X80.368 Y203.311 E.05105
G1 X79.731 Y202.309 E.04424
G1 X79.137 Y201.073 E.05105
G1 X78.703 Y199.774 E.05105
G1 X78.435 Y198.43 E.05104
G1 X78.337 Y197.063 E.05104
G1 X78.365 Y196.195 E.03235
G1 X78.548 Y194.836 E.05105
G1 X78.895 Y193.526 E.05048
G1 X92.708 Y154.539 E1.54057
G1 X108.568 Y115.968 E1.55334
G1 X109.316 Y114.607 E.05785
G1 X110.131 Y113.505 E.05105
G1 X111.05 Y112.542 E.04956
G1 X111.379 Y112.857 F12000
G1 F3000
G1 X111.379 Y112.856 E.00001
G1 X112.397 Y112.027 E.04891
G1 X113.959 Y111.103 E.06757
G1 X115.176 Y110.611 E.04891
G1 X116.597 Y110.246 E.05464
G1 X118.404 Y110.075 E.06758
G1 X217.109 Y110.078 E3.67642
G1 X217.926 Y110.207 E.03078
G1 X218.906 Y110.661 E.04026
G1 X219.633 Y111.316 E.03642
G1 X220.174 Y112.207 E.03883
G1 X251.075 Y189.028 E3.08411
G1 X251.207 Y189.971 E.03546
G1 X251.17 Y208.174 E.67799
G1 X248.505 Y217.992 E.37893
G1 X247.775 Y219.173 E.05169
G1 X245.942 Y219.792 E.07206
G1 X88.016 Y207.354 E5.90036
G1 X87.215 Y207.227 E.03021
G1 X85.946 Y206.891 E.04891
G1 X84.868 Y206.465 E.04317
G1 X83.713 Y205.841 E.04891
G1 X82.149 Y204.646 E.0733
G1 X81.575 Y204.072 E.03021
G1 X80.746 Y203.054 E.04891
G1 X80.05 Y201.941 E.04891
G1 X79.557 Y200.892 E.04317
G1 X79.142 Y199.646 E.04891
G1 X78.886 Y198.358 E.04891
G1 X78.794 Y197.048 E.04891
G1 X78.82 Y196.238 E.03021
G1 X78.994 Y194.936 E.04891
G1 X79.325 Y193.679 E.04843
G1 X93.13 Y154.713 E1.53972
G1 X108.987 Y116.149 E1.55303
G1 X109.694 Y114.864 E.05464
G1 X110.474 Y113.807 E.04891
G1 X111.352 Y112.886 E.04741
; printing object BagClip-150.stl id:0 copy 0
G1 E-.8
EXCLUDE_OBJECT_START NAME=BagClip-150.stl_id_0_copy_0
G1 X96.911 Y196.621 F12000
G1 E.8 F1800
;TYPE:Outer wall
G1 F3000
G3 X96.363 Y199.788 I-8.573 J.146 E.12041
G3 X89.256 Y189.321 I-7.11 J-2.818 E1.2351
G1 X241.25 Y189.321 E5.66123
G2 X243.261 Y189.243 I.117 J-22.817 E.07499
G1 X247.241 Y189.243 E.14821
G1 X247.717 Y189.278 E.01779
G3 X248.443 Y190.003 I-.071 J.797 E.04146
G1 X248.479 Y190.472 E.01752
G1 X248.478 Y205.692 E.5669
G2 X248.396 Y207.739 I20.31 J1.837 E.0763
G3 X247.849 Y208.312 I-.648 J-.071 E.03172
G1 X246.004 Y206.997 E.08438
G2 X245.202 Y206.483 I-6.623 J9.439 E.03551
G2 X244.599 Y206 I-6.049 J6.946 E.02877
G2 X245.25 Y205.938 I-.146 J-4.968 E.02438
G2 X248.022 Y205.919 I1.309 J-10.891 E.10351
G1 X248.022 Y190.464 E.57564
G2 X247.315 Y189.701 I-.723 J-.039 E.04319
G1 X243.01 Y189.7 E.16035
G1 X242.914 Y190.785 E.04058
G2 X244.257 Y190.821 I1.269 J-22.263 E.05003
G1 X246.9 Y190.821 E.09846
G1 X246.9 Y196.621 E.21603
G1 X96.951 Y196.621 E5.58504
M73 P0 R94
G1 E-.8
G1 X96.951 Y196.285 F12000
G1 X248.701 Y189.662
G1 X247.87 Y207.914
G1 X246.385 Y206.473
G1 E.8 F1800
;TYPE:Inner wall
G1 F3000
G2 X247.964 Y206.384 I.116 J-11.913 E.05895
G1 X247.951 Y206.666 E.01052
G2 X247.943 Y207.817 I50.741 J.92 E.04289
G1 X246.324 Y206.664 E.07402
G1 X246.373 Y206.511 E.00597
G1 E-.8
G1 X248.75 Y206.356 F12000
G1 X247.75 Y188.971
G1 X240.415 Y189.657
G1 X96.468 Y196.171
G1 E.8 F1800
G1 F3000
G1 X96.428 Y197.423 E.04664
G3 X89.263 Y189.778 I-7.177 J-.453 E1.24584
G1 X241.251 Y189.778 E5.66097
G2 X242.546 Y189.756 I.229 J-24.864 E.04825
G1 X242.417 Y191.223 E.05485
G2 X246.443 Y191.278 I2.861 J-62.28 E.15001
G1 X246.443 Y196.164 E.18198
G1 X96.501 Y196.164 E5.58477
G1 X96.025 Y195.721 F12000
G1 F3000
G1 X95.972 Y197.394 E.06235
G3 X89.27 Y190.235 I-6.721 J-.424 E1.16692
G1 X241.251 Y190.235 E5.66071
G2 X242.045 Y190.23 I.187 J-32.767 E.02958
G1 X241.919 Y191.662 E.05353
G2 X245.986 Y191.735 I3.139 J-61.212 E.15153
G1 X245.986 Y195.707 E.14793
G1 X96.051 Y195.707 E5.58451
G1 X95.813 Y195.211 F12000
G1 F3000
G1 X95.714 Y194.871 E.01316
G2 X92.304 Y190.903 I-6.445 J2.088 E.20008
G1 X92.355 Y190.692 E.00805
G1 X241.546 Y190.692 E5.55679
G1 X241.422 Y192.1 E.05267
G1 X243.721 Y192.188 E.08573
G2 X245.529 Y192.192 I1.179 J-114.621 E.06732
G1 X245.529 Y195.25 E.11389
G1 X95.824 Y195.25 E5.57592
G1 X95.824 Y195.249 E.00003
G1 E-.8
G1 X94.729 Y198.751 F12000
G1 X94.607 Y199.092
G1 X94.463 Y199.424
G1 X94.299 Y199.746
G1 X94.114 Y200.058
G1 X93.911 Y200.357
G1 X93.689 Y200.644
G1 X93.441 Y200.924
G1 X93.194 Y201.171
G1 X92.922 Y201.41
G1 X92.636 Y201.632
G1 X92.337 Y201.835
G1 X92.025 Y202.02
G1 X91.703 Y202.184
G1 X91.371 Y202.328
G1 X91.03 Y202.45
G1 X90.683 Y202.551
G1 X90.33 Y202.63
G1 X90.172 Y202.655
G1 X90.12 Y202.323
G1 E.8 F1800
;TYPE:Outer wall
G1 F3000
G1 X89.93 Y202.35 E.00715
G3 X88.909 Y191.557 I-.686 J-5.38 E.64776
G1 X89.238 Y191.546 E.01224
G3 X90.266 Y202.296 I.006 J5.424 E.59656
G1 X90.159 Y202.316 E.00405
G1 X90.339 Y202.752 F12000
;TYPE:Inner wall
G1 F3000
G1 X89.987 Y202.803 E.01325
G3 X88.881 Y191.1 I-.743 J-5.834 E.70235
G1 X89.237 Y191.089 E.01329
G3 X90.377 Y202.74 I.006 J5.881 E.64589
G1 X90.411 Y203.203 F12000
G1 F3000
G1 X90.044 Y203.257 E.01381
G3 X88.852 Y190.644 I-.801 J-6.287 E.75693
G1 X89.237 Y190.632 E.01435
G3 X90.449 Y203.192 I.007 J6.338 E.69668
G1 E-.8
G1 X92.636 Y201.632 F12000
G1 X92.922 Y201.41
G1 X93.194 Y201.171
G1 X93.441 Y200.924
G1 X93.689 Y200.644
G1 X93.911 Y200.357
G1 X94.114 Y200.058
G1 X94.299 Y199.746
G1 X94.463 Y199.424
G1 X94.607 Y199.092
G1 X95.762 Y195.943
G1 E.8 F1800
;TYPE:Gap infill
;WIDTH:0.136837
G1 F3000
G1 X95.749 Y195.733 E.00161
;WIDTH:0.182645
G1 X95.725 Y195.478 E.00291
G1 E-.8
G1 X93.204 Y191.134 F12000
G1 E.8 F1800
;WIDTH:0.112194
G1 F3000
G1 X92.922 Y190.921 E.00199
G1 X92.108 Y190.741 F12000
;WIDTH:0.460173
G1 F3000
G1 X91.738 Y190.67 E.01282
;WIDTH:0.455202
G1 X91.6 Y190.646 E.00469
;WIDTH:0.407195
G1 X91.463 Y190.622 E.00414
;WIDTH:0.359188
G1 X91.325 Y190.598 E.0036
;WIDTH:0.311182
G1 X91.317 Y190.597 E.00019
;WIDTH:0.308526
G1 X91.179 Y190.577 E.00301
;WIDTH:0.269369
G1 X91.042 Y190.557 E.00256
;WIDTH:0.228936
G1 X90.9 Y190.537 E.00218
;WIDTH:0.189882
G1 X90.688 Y190.514 E.00255
;WIDTH:0.146401
G1 X90.476 Y190.49 E.0018
G1 E-.8
G1 X245.392 Y193.256 F12000
M73 P1 R94
G1 E.8 F1800
;TYPE:Internal solid infill
;WIDTH:0.501286
G1 F3000
G1 X244.669 Y192.533 E.03818
G1 X244.019 Y192.531 E.02427
G1 X245.186 Y193.698 E.06164
G1 X245.186 Y194.346 E.02421
G1 X243.357 Y192.517 E.09664
G1 X242.683 Y192.491 E.02519
G1 X245.098 Y194.907 E.12761
G1 X244.45 Y194.907 E.02421
G1 X241.795 Y192.252 E.14027
G1 X241.313 Y191.77 F12000
G1 F3000
G1 X240.578 Y191.034 E.03885
G1 X239.929 Y191.034 E.02421
G1 X243.802 Y194.907 E.20456
G1 X243.154 Y194.907 E.02421
G1 X239.281 Y191.034 E.20456
G1 X238.633 Y191.034 E.02421
G1 X242.505 Y194.907 E.20456
G1 X241.857 Y194.907 E.02421
G1 X237.985 Y191.034 E.20456
G1 X237.336 Y191.034 E.02421
G1 X241.209 Y194.907 E.20456
G1 X240.561 Y194.907 E.02421
G1 X236.688 Y191.034 E.20456
G1 X236.04 Y191.034 E.02421
G1 X239.913 Y194.907 E.20456
G1 X239.264 Y194.907 E.02421
G1 X235.392 Y191.034 E.20456
G1 X234.744 Y191.034 E.02421
G1 X238.616 Y194.907 E.20456
G1 X237.968 Y194.907 E.02421
G1 X234.095 Y191.034 E.20456
G1 X233.447 Y191.034 E.02421
G1 X237.32 Y194.907 E.20456
G1 X236.671 Y194.907 E.02421
G1 X232.799 Y191.034 E.20456
G1 X232.151 Y191.034 E.02421
G1 X236.023 Y194.907 E.20456
G1 X235.375 Y194.907 E.02421
G1 X231.502 Y191.034 E.20456
G1 X230.854 Y191.034 E.02421
G1 X234.727 Y194.907 E.20456
G1 X234.079 Y194.907 E.02421
G1 X230.206 Y191.034 E.20456
G1 X229.558 Y191.034 E.02421
G1 X233.43 Y194.907 E.20456
G1 X232.782 Y194.907 E.02421
G1 X228.91 Y191.034 E.20456
G1 X228.261 Y191.034 E.02421
G1 X232.134 Y194.907 E.20456
G1 X231.486 Y194.907 E.02421
G1 X227.613 Y191.034 E.20456
G1 X226.965 Y191.034 E.02421
G1 X230.837 Y194.907 E.20456
G1 X230.189 Y194.907 E.02421
G1 X226.317 Y191.035 E.20456
G1 X225.668 Y191.035 E.02421
G1 X229.541 Y194.907 E.20456
G1 X228.893 Y194.907 E.02421
G1 X225.02 Y191.035 E.20456
G1 X224.372 Y191.035 E.02421
