; generated by SuperSlicer 2.5.59 on 2023-02-07 at 18:12:30 UTC


;
;

;
;
; 

; external perimeters extrusion width = 0.40mm
; perimeters extrusion width = 0.46mm
; infill extrusion width = 0.64mm
; solid infill extrusion width = 0.56mm
; top infill extrusion width = 0.40mm
; first layer extrusion width = 0.50mm

; external perimeters extrusion width = 0.40mm
; perimeters extrusion width = 0.46mm
; infill extrusion width = 0.64mm
; solid infill extrusion width = 0.56mm
; top infill extrusion width = 0.40mm
; first layer extrusion width = 0.50mm

; external perimeters extrusion width = 0.40mm
; perimeters extrusion width = 0.46mm
; infill extrusion width = 0.64mm
; solid infill extrusion width = 0.56mm
; top infill extrusion width = 0.40mm
; first layer extrusion width = 0.50mm

; object:{"name":"barge-hull","id":"barge-hull.stl id:0 copy 0","object_center":[130.619997,165.000004,0.000000],"boundingbox_center":[130.619997,165.000004,3.900000],"boundingbox_size":[28.380002,133.199995,7.800000]}
; object:{"name":"barge-hull","id":"barge-hull.stl id:1 copy 0","object_center":[165.000001,165.000004,0.000000],"boundingbox_center":[165.000001,165.000004,3.900000],"boundingbox_size":[28.380002,133.199995,7.800000]}
; object:{"name":"barge-hull","id":"barge-hull.stl id:2 copy 0","object_center":[199.380005,165.000005,0.000000],"boundingbox_center":[199.380005,165.000005,3.900000],"boundingbox_size":[28.380002,133.199995,7.800000]}
; plater:{"center":[165.000001,165.000004,0.000000],"boundingbox_center":[165.000001,165.000004,3.900000],"boundingbox_size":[97.140010,133.199996,7.800000]}

M73 P0 R230


; Pre-Processed for Cancel-Object support by preprocess_cancellation v0.2.0
; 3 known objects
EXCLUDE_OBJECT_DEFINE NAME=barge_hull_stl_id_0_copy_0 CENTER=130.555,165.234 POLYGON=[[116.63,98.6],[116.63,231.519],[144.61,231.519],[144.61,98.6]]
EXCLUDE_OBJECT_DEFINE NAME=barge_hull_stl_id_1_copy_0 CENTER=164.973,165.419 POLYGON=[[151.01,98.6],[151.01,231.519],[178.99,231.519],[178.99,98.6]]
EXCLUDE_OBJECT_DEFINE NAME=barge_hull_stl_id_2_copy_0 CENTER=199.360,165.421 POLYGON=[[185.39,98.6],[185.39,231.519],[213.37,231.519],[213.37,98.6]]
;TYPE:Custom
; custom gcode: start_gcode
START_PRINT T_BED=60 T_EXTRUDER=215
; custom gcode end: start_gcode
M107
G21 ; set units to millimeters
G90 ; use absolute coordinates
M82 ; use absolute distances for extrusion
G92 E0
; custom gcode: start_filament_gcode
; Filament gcode

    PRESSURE_ADVANCE_SELECT FILAMENT=PLA
; custom gcode end: start_filament_gcode
;_TOOLCHANGE 0
M104 S215 ; set temperature
M109 S215 ; set temperature and wait for it to be reached
M190 S60 ; set bed temperature and wait for it to be reached
;LAYER_CHANGE
;Z:0.1
;HEIGHT:0.1
G1 Z0.1 F9000
G1 E-0.8 F3000
M204 S1000
G1 X113.793 Y95.881 F9000
G1 E0 F1800
;TYPE:Skirt
;WIDTH:0.52
G1 X113.233 Y96.564 E0.01831
G1 X112.843 Y97.227 E0.03424
G1 X112.449 Y98.294 E0.05782
G1 X112.284 Y99.567 E0.08443
G1 X112.284 Y230.406 E2.79633
G1 X112.507 Y231.922 E2.82807
G1 X112.845 Y232.776 E2.84711
G1 X113.231 Y233.434 E2.86293
G1 X113.912 Y234.238 E2.88477
G1 X114.596 Y234.798 E2.90308
G1 X115.258 Y235.187 E2.91901
G1 X116.326 Y235.582 E2.94262
G1 X117.6 Y235.746 E2.96923
G1 X212.373 Y235.746 E4.93357
G1 X213.886 Y235.525 E4.96527
G1 X214.743 Y235.187 E4.98437
G1 X215.402 Y234.8 E5.0002
G1 X216.207 Y234.119 E5.02206
G1 X216.767 Y233.436 E5.04037
G1 X217.157 Y232.773 E5.0563
G1 X217.551 Y231.706 E5.07988
G1 X217.716 Y230.433 E5.10649
G1 X217.716 Y99.593 E7.81839
G1 X217.504 Y98.123 E7.84919
G1 X217.016 Y96.963 E7.87527
G1 X216.466 Y96.169 E7.89529
G1 X215.75 Y95.463 E7.91613
G1 X214.94 Y94.915 E7.93639
G1 X214.22 Y94.588 E7.95279
G1 X212.993 Y94.294 E7.97895
G1 X186.383 Y94.254 E8.53047
G1 X117.623 Y94.254 E9.95565
G1 X116.113 Y94.476 E9.98729
G1 X115.257 Y94.813 E10.00637
G1 X114.598 Y95.2 E10.02219
G1 X113.793 Y95.881 E10.04405
G1 X114.145 Y96.233 F9000
G1 F1800
G1 X113.638 Y96.855 E10.06068
G1 X113.294 Y97.439 E10.07474
G1 X112.93 Y98.424 E10.09649
G1 X112.782 Y99.567 E10.12038
G1 X112.782 Y230.406 E12.83228
M73 P0 R230
G1 X112.987 Y231.787 E12.86121
G1 X113.296 Y232.563 E12.87851
G1 X113.637 Y233.143 E12.89247
G1 X114.264 Y233.886 E12.91262
G1 X114.886 Y234.393 E12.92924
G1 X115.471 Y234.736 E12.94331
G1 X116.456 Y235.101 E12.96508
G1 X117.6 Y235.248 E12.98898
G1 X212.373 Y235.248 E14.95332
G1 X213.752 Y235.044 E14.98221
G1 X214.53 Y234.736 E14.99958
G1 X215.112 Y234.394 E15.01355
G1 X215.855 Y233.767 E15.03371
G1 X216.362 Y233.145 E15.05034
G1 X216.706 Y232.56 E15.0644
G1 X217.07 Y231.576 E15.08615
G1 X217.218 Y230.433 E15.11004
G1 X217.218 Y99.593 E17.82194
G1 X217.027 Y98.271 E17.84964
G1 X216.578 Y97.2 E17.8737
G1 X216.078 Y96.482 E17.89184
G1 X215.427 Y95.843 E17.91076
G1 X214.693 Y95.348 E17.9291
G1 X214.057 Y95.06 E17.94357
G1 X212.924 Y94.788 E17.96771
G1 X186.383 Y94.752 E18.51782
G1 X117.623 Y94.752 E19.94301
G1 X116.247 Y94.956 E19.97183
G1 X115.47 Y95.264 E19.98917
G1 X114.889 Y95.606 E20.00314
G1 X114.145 Y96.233 E20.02331
G1 X114.498 Y96.586 F9000
G1 F1800
G1 X113.745 Y97.652 E20.05036
G1 X113.411 Y98.554 E20.07029
G1 X113.281 Y99.567 E20.09146
G1 X113.281 Y230.406 E22.80335
G1 X113.467 Y231.652 E22.82946
G1 X114.042 Y232.853 E22.85706
G1 X114.617 Y233.533 E22.87552
G1 X115.683 Y234.285 E22.90257
G1 X116.586 Y234.62 E22.92252
G1 X117.6 Y234.749 E22.9437
G1 X212.373 Y234.749 E24.90804
G1 X213.618 Y234.564 E24.93413
G1 X214.822 Y233.989 E24.96179
G1 X215.502 Y233.414 E24.98026
G1 X216.255 Y232.348 E25.00731
G1 X216.589 Y231.446 E25.02724
G1 X216.719 Y230.433 E25.04841
G1 X216.719 Y99.593 E27.76031
G1 X216.551 Y98.418 E27.78491
G1 X216.14 Y97.438 E27.80695
G1 X215.69 Y96.795 E27.8232
G1 X215.103 Y96.222 E27.8402
G1 X214.445 Y95.781 E27.85663
G1 X213.894 Y95.531 E27.86917
G1 X212.856 Y95.281 E27.8913
G1 X186.383 Y95.251 E28.44
G1 X117.623 Y95.251 E29.86518
G1 X116.382 Y95.436 E29.8912
G1 X115.179 Y96.011 E29.91883
G1 X114.498 Y96.586 E29.93731
G92 E0
G1 E-0.8 F3000
; printing object barge-hull.stl id:0 copy 0
EXCLUDE_OBJECT_START NAME=barge_hull_stl_id_0_copy_0
; acceleration to travel
M204 S3000
G1 X116.927 Y98.927 F9000
; decel to extrusion
M204 S1000
G1 X117.737 Y99.707
; end travel
G1 E0 F1800
;TYPE:Internal perimeter
;WIDTH:0.5
G1 X118.11 Y99.707 E0.00741
G1 X143.492 Y99.707 E0.51241
G1 X143.503 Y230.284 E3.11028
G1 X117.746 Y230.293 E3.62272
G1 X117.737 Y99.707 E6.22077
G1 X117.293 Y99.442 F9000
G1 F1800
G1 X117.413 Y99.299 E6.22447
G1 X117.572 Y99.238 E6.22786
G1 X117.661 Y99.229 E6.22963
G1 X118.11 Y99.229 E6.23857
G1 X143.601 Y99.229 E6.74573
G1 X143.692 Y99.241 E6.74755
G1 X143.77 Y99.268 E6.7492
G1 X143.816 Y99.294 E6.75024
G1 X143.878 Y99.348 E6.75188
G1 X143.914 Y99.392 E6.75302
G1 X143.947 Y99.453 E6.7544
G1 X143.971 Y99.529 E6.75598
G1 X143.981 Y99.631 E6.75802
G1 X143.981 Y230.375 E9.35922
G1 X143.95 Y230.538 E9.36252
G1 X143.926 Y230.591 E9.36368
G1 X143.901 Y230.625 E9.36453
G1 X143.797 Y230.712 E9.36722
G1 X143.669 Y230.762 E9.36996
G1 X143.576 Y230.771 E9.37182
G1 X117.657 Y230.771 E9.88747
G1 X117.492 Y230.74 E9.89082
G1 X117.439 Y230.716 E9.89198
G1 X117.405 Y230.691 E9.89283
G1 X117.318 Y230.587 E9.89552
G1 X117.268 Y230.459 E9.89826
G1 X117.259 Y230.369 E9.90006
G1 X117.259 Y99.625 E12.50125
G1 X117.293 Y99.442 E12.50497
G1 X117.077 Y98.955 F9000
;TYPE:External perimeter
G1 F1800
G1 X117.196 Y98.87 E12.50788
G1 X117.459 Y98.768 E12.51349
G1 X117.636 Y98.75 E12.51703
G1 X118.11 Y98.75 E12.52645
G1 X143.634 Y98.75 E13.03427
G1 X143.804 Y98.774 E13.03768
G1 X143.969 Y98.831 E13.04115
G1 X144.092 Y98.901 E13.04398
G1 X144.223 Y99.012 E13.04739
G1 X144.314 Y99.126 E13.05029
G1 X144.391 Y99.267 E13.05348
G1 X144.442 Y99.432 E13.05693
G1 X144.46 Y99.606 E13.06041
G1 X144.46 Y230.42 E15.663
G1 X144.409 Y230.687 E15.66841
G1 X144.34 Y230.834 E15.67164
G1 X144.254 Y230.953 E15.67456
G1 X144.044 Y231.13 E15.68003
G1 X143.781 Y231.232 E15.68563
G1 X143.6 Y231.25 E15.68926
G1 X117.613 Y231.25 E16.20628
G1 X117.343 Y231.199 E16.21173
G1 X117.196 Y231.13 E16.21498
G1 X117.077 Y231.045 E16.21789
G1 X116.9 Y230.834 E16.22336
G1 X116.798 Y230.572 E16.22894
G1 X116.78 Y230.393 E16.23252
G1 X116.78 Y99.58 E18.8351
M73 P1 R229
G1 X116.831 Y99.313 E18.84051
G1 X116.9 Y99.166 E18.84375
G1 X117.077 Y98.955 E18.84922
;WIPE_START
M204 S4000
G1 X117.454 Y99.09 F9000
;WIPE_END
G92 E0
G1 E-0.8 F3000
; acceleration to travel
M204 S3000
G1 X136.205 Y100.341 F9000
; decel to extrusion
M204 S1000
G1 X143.349 Y100.818
; end travel
G1 E0 F1800
;TYPE:Solid infill
;WIDTH:0.500558
G1 F3600
G1 X142.381 Y99.851 E0.02725
G1 X141.705 Y99.851 F9000
G1 F3600
G1 X143.349 Y101.495 E0.07356
G1 X143.349 Y102.172 F9000
G1 F3600
G1 X141.028 Y99.851 E0.13894
G1 X140.351 Y99.851 F9000
G1 F3600
G1 X143.349 Y102.849 E0.22339
G1 X143.349 Y103.525 F9000
G1 F3600
G1 X139.674 Y99.851 E0.32689
G1 X138.998 Y99.851 F9000
G1 F3600
G1 X143.349 Y104.202 E0.44947
G1 X143.349 Y104.879 F9000
G1 F3600
G1 X138.321 Y99.851 E0.5911
G1 X137.644 Y99.851 F9000
G1 F3600
G1 X143.349 Y105.556 E0.7518
G1 X143.349 Y106.233 F9000
G1 F3600
G1 X136.967 Y99.851 E0.93157
G1 X136.291 Y99.851 F9000
G1 F3600
G1 X143.349 Y106.909 E1.13039
G1 X143.349 Y107.586 F9000
G1 F3600
G1 X135.614 Y99.851 E1.34829
G1 X134.937 Y99.851 F9000
G1 F3600
G1 X143.35 Y108.263 E1.58524
G1 X143.35 Y108.94 F9000
G1 F3600
G1 X134.26 Y99.851 E1.84126
G1 X133.584 Y99.851 F9000
G1 F3600
G1 X143.35 Y109.617 E2.11635
G1 X143.35 Y110.293 F9000
G1 F3600
G1 X132.907 Y99.851 E2.4105
G1 X132.23 Y99.851 F9000
G1 F3600
G1 X143.35 Y110.97 E2.72371
G1 X143.35 Y111.647 F9000
G1 F3600
G1 X131.553 Y99.851 E3.05599
G1 X130.877 Y99.851 F9000
G1 F3600
G1 X143.35 Y112.324 E3.40733
G1 X143.35 Y113.001 F9000
G1 F3600
G1 X130.2 Y99.851 E3.77774
G1 X129.523 Y99.851 F9000
G1 F3600
G1 X143.35 Y113.677 E4.16721
G1 X143.35 Y114.354 F9000
G1 F3600
G1 X128.846 Y99.851 E4.57575
G1 X128.17 Y99.851 F9000
G1 F3600
G1 X143.35 Y115.031 E5.00334
G1 X143.35 Y115.708 F9000
G1 F3600
G1 X127.493 Y99.851 E5.45001
G1 X126.816 Y99.851 F9000
G1 F3600
G1 X143.35 Y116.385 E5.91574
G1 X143.35 Y117.062 F9000
G1 F3600
G1 X126.139 Y99.851 E6.40053
G1 X125.463 Y99.851 F9000
G1 F3600
G1 X143.35 Y117.738 E6.90438
G1 X143.35 Y118.415 F9000
G1 F3600
G1 X124.786 Y99.851 E7.4273
G1 X124.109 Y99.851 F9000
G1 F3600
G1 X143.35 Y119.092 E7.96929
G1 X143.35 Y119.769 F9000
G1 F3600
G1 X123.432 Y99.851 E8.53034
G1 X122.756 Y99.851 F9000
G1 F3600
G1 X143.351 Y120.446 E9.11045
G1 X143.351 Y121.122 F9000
G1 F3600
G1 X122.079 Y99.851 E9.70963
G1 X121.402 Y99.851 F9000
G1 F3600
G1 X143.351 Y121.799 E10.32787
G1 X143.351 Y122.476 F9000
G1 F3600
G1 X120.725 Y99.851 E10.96517
G1 X120.049 Y99.851 F9000
G1 F3600
G1 X143.351 Y123.153 E11.62154
G1 X143.351 Y123.83 F9000
G1 F3600
G1 X119.372 Y99.851 E12.29698
G1 X118.695 Y99.851 F9000
G1 F3600
G1 X143.351 Y124.506 E12.99148
G1 X143.351 Y125.183 F9000
G1 F3600
G1 X118.018 Y99.851 E13.70504
G1 X117.881 Y100.39 F9000
G1 F3600
G1 X143.351 Y125.86 E14.42248
G1 X143.351 Y126.537 F9000
G1 F3600
G1 X117.881 Y101.067 E15.13992
G1 X117.881 Y101.743 F9000
G1 F3600
G1 X143.351 Y127.214 E15.85736
G1 X143.351 Y127.891 F9000
G1 F3600
G1 X117.881 Y102.42 E16.5748
G1 X117.881 Y103.097 F9000
G1 F3600
G1 X143.351 Y128.567 E17.29224
G1 X143.351 Y129.244 F9000
G1 F3600
G1 X117.881 Y103.774 E18.00968
G1 X117.881 Y104.451 F9000
G1 F3600
G1 X143.351 Y129.921 E18.72712
G1 X143.351 Y130.598 F9000
G1 F3600
G1 X117.881 Y105.127 E19.44456
G1 X117.881 Y105.804 F9000
G1 F3600
G1 X143.351 Y131.275 E20.162
G1 X143.351 Y131.951 F9000
G1 F3600
G1 X117.881 Y106.481 E20.87944
G1 X117.881 Y107.158 F9000
G1 F3600
G1 X143.351 Y132.628 E21.59688
G1 X143.352 Y133.305 F9000
G1 F3600
G1 X117.881 Y107.835 E22.31432
G1 X117.881 Y108.511 F9000
G1 F3600
G1 X143.352 Y133.982 E23.03176
G1 X143.352 Y134.659 F9000
G1 F3600
G1 X117.881 Y109.188 E23.7492
G1 X117.881 Y109.865 F9000
G1 F3600
G1 X143.352 Y135.335 E24.46664
G1 X143.352 Y136.012 F9000
G1 F3600
G1 X117.881 Y110.542 E25.18408
G1 X117.881 Y111.219 F9000
G1 F3600
G1 X143.352 Y136.689 E25.90153
G1 X143.352 Y137.366 F9000
G1 F3600
G1 X117.881 Y111.895 E26.61897
G1 X117.882 Y112.572 F9000
G1 F3600
G1 X143.352 Y138.043 E27.33641
G1 X143.352 Y138.719 F9000
G1 F3600
G1 X117.882 Y113.249 E28.05385
G1 X117.882 Y113.926 F9000
G1 F3600
G1 X143.352 Y139.396 E28.7713
G1 X143.352 Y140.073 F9000
G1 F3600
G1 X117.882 Y114.603 E29.48874
G1 X117.882 Y115.28 F9000
G1 F3600
G1 X143.352 Y140.75 E30.20618
G1 X143.352 Y141.427 F9000
G1 F3600
G1 X117.882 Y115.956 E30.92363
G1 X117.882 Y116.633 F9000
G1 F3600
G1 X143.352 Y142.104 E31.64107
G1 X143.352 Y142.78 F9000
G1 F3600
G1 X117.882 Y117.31 E32.35851
G1 X117.882 Y117.987 F9000
G1 F3600
G1 X143.352 Y143.457 E33.07596
G1 X143.352 Y144.134 F9000
G1 F3600
G1 X117.882 Y118.664 E33.7934
G1 X117.882 Y119.34 F9000
G1 F3600
G1 X143.352 Y144.811 E34.51084
M73 P1 R228
G1 X143.353 Y145.488 F9000
G1 F3600
G1 X117.882 Y120.017 E35.22829
G1 X117.882 Y120.694 F9000
G1 F3600
G1 X143.353 Y146.164 E35.94573
G1 X143.353 Y146.841 F9000
G1 F3600
G1 X117.882 Y121.371 E36.66318
G1 X117.882 Y122.048 F9000
G1 F3600
G1 X143.353 Y147.518 E37.38062
G1 X143.353 Y148.195 F9000
G1 F3600
G1 X117.882 Y122.724 E38.09807
G1 X117.882 Y123.401 F9000
G1 F3600
G1 X143.353 Y148.872 E38.81551
G1 X143.353 Y149.548 F9000
G1 F3600
G1 X117.882 Y124.078 E39.53296
G1 X117.882 Y124.755 F9000
G1 F3600
G1 X143.353 Y150.225 E40.2504
G1 X143.353 Y150.902 F9000
G1 F3600
G1 X117.882 Y125.432 E40.96785
G1 X117.883 Y126.108 F9000
G1 F3600
G1 X143.353 Y151.579 E41.68529
G1 X143.353 Y152.256 F9000
G1 F3600
G1 X117.883 Y126.785 E42.40274
G1 X117.883 Y127.462 F9000
G1 F3600
G1 X143.353 Y152.933 E43.12019
G1 X143.353 Y153.609 F9000
G1 F3600
G1 X117.883 Y128.139 E43.83763
G1 X117.883 Y128.816 F9000
G1 F3600
G1 X143.353 Y154.286 E44.55508
G1 X143.353 Y154.963 F9000
G1 F3600
G1 X117.883 Y129.492 E45.27253
G1 X117.883 Y130.169 F9000
G1 F3600
G1 X143.353 Y155.64 E45.98997
G1 X143.353 Y156.317 F9000
G1 F3600
G1 X117.883 Y130.846 E46.70742
G1 X117.883 Y131.523 F9000
G1 F3600
G1 X143.353 Y156.993 E47.42487
G1 X143.354 Y157.67 F9000
G1 F3600
G1 X117.883 Y132.2 E48.14232
G1 X117.883 Y132.876 F9000
G1 F3600
G1 X143.354 Y158.347 E48.85976
G1 X143.354 Y159.024 F9000
G1 F3600
G1 X117.883 Y133.553 E49.57721
G1 X117.883 Y134.23 F9000
G1 F3600
G1 X143.354 Y159.701 E50.29466
G1 X143.354 Y160.377 F9000
G1 F3600
G1 X117.883 Y134.907 E51.01211
G1 X117.883 Y135.584 F9000
G1 F3600
G1 X143.354 Y161.054 E51.72956
G1 X143.354 Y161.731 F9000
G1 F3600
G1 X117.883 Y136.26 E52.447
G1 X117.883 Y136.937 F9000
G1 F3600
G1 X143.354 Y162.408 E53.16445
G1 X143.354 Y163.085 F9000
G1 F3600
G1 X117.883 Y137.614 E53.8819
G1 X117.883 Y138.291 F9000
G1 F3600
G1 X143.354 Y163.762 E54.59935
G1 X143.354 Y164.438 F9000
G1 F3600
G1 X117.883 Y138.968 E55.3168
G1 X117.883 Y139.644 F9000
G1 F3600
G1 X143.354 Y165.115 E56.03425
G1 X143.354 Y165.792 F9000
G1 F3600
G1 X117.884 Y140.321 E56.7517
G1 X117.884 Y140.998 F9000
G1 F3600
G1 X143.354 Y166.469 E57.46915
G1 X143.354 Y167.146 F9000
G1 F3600
G1 X117.884 Y141.675 E58.1866
G1 X117.884 Y142.352 F9000
G1 F3600
G1 X143.354 Y167.822 E58.90405
G1 X143.354 Y168.499 F9000
G1 F3600
G1 X117.884 Y143.029 E59.6215
G1 X117.884 Y143.705 F9000
G1 F3600
G1 X143.354 Y169.176 E60.33895
G1 X143.354 Y169.853 F9000
G1 F3600
G1 X117.884 Y144.382 E61.0564
G1 X117.884 Y145.059 F9000
G1 F3600
G1 X143.355 Y170.53 E61.77385
G1 X143.355 Y171.206 F9000
M73 P1 R228
G1 F3600
G1 X117.884 Y145.736 E62.4913
G1 X117.884 Y146.413 F9000
G1 F3600
G1 X143.355 Y171.883 E63.20875
G1 X143.355 Y172.56 F9000
G1 F3600
G1 X117.884 Y147.089 E63.92621
G1 X117.884 Y147.766 F9000
G1 F3600
G1 X143.355 Y173.237 E64.64366
G1 X143.355 Y173.914 F9000
G1 F3600
G1 X117.884 Y148.443 E65.36111
G1 X117.884 Y149.12 F9000
G1 F3600
G1 X143.355 Y174.59 E66.07856
G1 X143.355 Y175.267 F9000
G1 F3600
G1 X117.884 Y149.797 E66.79601
G1 X117.884 Y150.473 F9000
G1 F3600
G1 X143.355 Y175.944 E67.51347
G1 X143.355 Y176.621 F9000
G1 F3600
G1 X117.884 Y151.15 E68.23092
G1 X117.884 Y151.827 F9000
G1 F3600
