; generated by SuperSlicer 2.5.59 on 2023-08-31 at 19:16:13 UTC


;
;

;
;
; 

; external perimeters extrusion width = 0.40mm
; perimeters extrusion width = 0.46mm
; infill extrusion width = 0.64mm
; solid infill extrusion width = 0.56mm
; top infill extrusion width = 0.40mm
; support material extrusion width = 0.46mm
; first layer extrusion width = 0.50mm

; external perimeters extrusion width = 0.20mm
; perimeters extrusion width = 0.20mm
; infill extrusion width = 0.64mm
; solid infill extrusion width = 0.56mm
; top infill extrusion width = 0.46mm
; support material extrusion width = 0.46mm
; first layer extrusion width = 0.50mm

; object:{"name":"Sign Thick","id":"Sign Thick id:0 copy 0","object_center":[164.999999,131.979000,0.000000],"boundingbox_center":[164.999999,131.979000,8.819999],"boundingbox_size":[109.952072,60.043610,17.639997]}
EXCLUDE_OBJECT_DEFINE NAME=Sign_Thick_id_0_copy_0 CENTER=164.999999,131.979000 POLYGON=[[110.023968,103.557208],[110.043672,103.306904],[110.102272,103.062784],[110.198360,102.830824],[110.329536,102.616744],[110.492592,102.425824],[110.683512,102.262776],[110.897592,102.131576],[111.129544,102.035504],[111.373672,101.976904],[111.623968,101.957200],[218.376032,101.957200],[218.626320,101.976904],[218.870448,102.035504],[219.102416,102.131576],[219.316496,102.262776],[219.507424,102.425824],[219.670464,102.616744],[219.801664,102.830824],[219.897744,103.062784],[219.956336,103.306904],[219.976048,103.557208],[219.976048,146.807360],[219.953072,147.077472],[219.884864,147.339808],[219.773280,147.586896],[219.621648,147.811600],[219.434240,148.007456],[219.216464,148.168864],[218.974544,148.291216],[180.367248,161.961648],[180.245184,161.990944],[180.120032,162.000816],[149.880000,162.000816],[149.754848,161.990944],[149.632784,161.961648],[111.025464,148.291216],[110.783560,148.168864],[110.565776,148.007456],[110.378368,147.811600],[110.226712,147.586896],[110.115168,147.339808],[110.046928,147.077472],[110.023968,146.807360],[110.023968,103.557208]]
; plater:{"center":[164.999999,131.979000,0.000000],"boundingbox_center":[164.999999,131.979000,8.819999],"boundingbox_size":[109.952072,60.043610,17.639997]}

M73 P0 R92
M73 P0 R92
;TYPE:Custom
; custom gcode: start_gcode
START_PRINT T_BED=60 T_EXTRUDER=210
; custom gcode end: start_gcode
M107
G21 ; set units to millimeters
G90 ; use absolute coordinates
M82 ; use absolute distances for extrusion
G92 E0
; custom gcode: start_filament_gcode
; Filament gcode

    PRESSURE_ADVANCE_SELECT FILAMENT=PLA
; custom gcode end: start_filament_gcode
;_TOOLCHANGE 0
M109 S210 ; set temperature and wait for it to be reached
M190 S60 ; set bed temperature and wait for it to be reached
;LAYER_CHANGE
;Z:0.2
;HEIGHT:0.2
G1 Z0.2 F9000
M73 P0 R92
M73 P0 R92
G1 E-0.8 F2400
M204 S1000
G1 X107.804 Y100.149 F9000
G1 E0 F1800
;TYPE:Skirt
;WIDTH:0.52
G1 X107.317 Y100.789 E0.03187
G1 X106.937 Y101.496 E0.06374
G1 X106.673 Y102.255 E0.09562
G1 X106.512 Y103.27 E0.13636
G1 X106.501 Y146.803 E1.86331
G1 X106.641 Y147.98 E1.91034
G1 X107.009 Y149.022 E1.95415
G1 X107.449 Y149.769 E1.98855
G1 X108.009 Y150.432 E2.02296
G1 X108.672 Y150.99 E2.05737
G1 X109.854 Y151.614 E2.11037
G1 X148.435 Y165.32 E3.73459
G1 X149.098 Y165.489 E3.76171
G1 X149.889 Y165.567 E3.79324
G1 X180.223 Y165.558 E4.99657
G1 X181.37 Y165.376 E5.04263
G1 X220.579 Y151.428 E6.69353
G1 X221.328 Y150.99 E6.72794
G1 X221.991 Y150.432 E6.76235
G1 X222.685 Y149.571 E6.80617
G1 X223.089 Y148.805 E6.84056
G1 X223.299 Y148.211 E6.86554
G1 X223.486 Y147.118 E6.90953
G1 X223.499 Y103.561 E8.6374
G1 X223.379 Y102.47 E8.68097
G1 X223.147 Y101.701 E8.71283
G1 X222.683 Y100.789 E8.75343
G1 X222.196 Y100.149 E8.78531
G1 X221.145 Y99.251 E8.84017
G1 X220.437 Y98.871 E8.87204
G1 X219.463 Y98.554 E8.91264
G1 X218.664 Y98.445 E8.94466
G1 X111.628 Y98.434 E13.1907
G1 X110.536 Y98.554 E13.23426
G1 X109.563 Y98.871 E13.27485
G1 X108.384 Y99.593 E13.32973
G1 X107.804 Y100.149 E13.36159
G1 X108.166 Y100.459 F9000
G1 F1800
G1 X107.724 Y101.038 E13.3905
G1 X107.378 Y101.679 E13.4194
G1 X107.137 Y102.366 E13.4483
G1 X106.988 Y103.307 E13.48608
G1 X106.978 Y146.803 E15.21154
G1 X107.103 Y147.86 E15.25377
G1 X107.345 Y148.608 E15.28496
G1 X107.844 Y149.502 E15.32557
G1 X108.353 Y150.102 E15.35678
G1 X108.956 Y150.607 E15.38798
G1 X110.013 Y151.164 E15.43538
G1 X148.595 Y164.87 E17.0596
G1 X149.889 Y165.09 E17.11166
G1 X180.223 Y165.081 E18.31498
G1 X181.222 Y164.923 E18.35513
G1 X220.364 Y151.002 E20.00313
G1 X221.044 Y150.607 E20.03432
G1 X221.647 Y150.102 E20.06553
G1 X222.289 Y149.305 E20.10615
G1 X222.837 Y148.091 E20.15898
G1 X223.011 Y147.077 E20.19976
G1 X223.022 Y103.561 E21.92602
G1 X222.915 Y102.581 E21.96514
G1 X222.706 Y101.883 E21.99403
G1 X222.276 Y101.038 E22.03166
G1 X221.834 Y100.459 E22.06057
G1 X220.895 Y99.657 E22.10952
G1 X220.254 Y99.311 E22.13841
G1 X219.352 Y99.018 E22.17604
G1 X218.626 Y98.921 E22.20509
G1 X111.628 Y98.911 E26.44965
G1 X110.648 Y99.018 E26.48876
G1 X109.746 Y99.311 E26.52639
G1 X108.693 Y99.956 E26.57534
G1 X108.166 Y100.459 E26.60424
G92 E0
G1 E-0.8 F2400
; printing object Sign Thick id:0 copy 0
EXCLUDE_OBJECT_START NAME=Sign_Thick_id_0_copy_0
; acceleration to travel
M204 S3000
G1 X139.114 Y140.193 F9000
; decel to extrusion
M204 S1000
G1 X149.43 Y153.438
; end travel
G1 E0 F1800
;TYPE:External perimeter
;WIDTH:0.5
G1 X149.183 Y153.207 E0.01288
G1 X141.864 Y152.63 E0.29188
G1 X134.193 Y151.807 E0.58514
G1 X126.55 Y150.75 E0.87838
G1 X118.943 Y149.46 E1.17163
G1 X111.39 Y147.941 E1.46441
G1 X111.191 Y147.88 E1.47232
G1 X111.017 Y147.791 E1.47976
G1 X110.859 Y147.675 E1.48721
G1 X110.724 Y147.533 E1.49466
G1 X110.614 Y147.371 E1.5021
G1 X110.534 Y147.192 E1.50955
G1 X110.484 Y147.003 E1.51699
G1 X110.466 Y146.793 E1.52501
G1 X110.466 Y103.571 E3.1677
G1 X110.482 Y103.376 E3.17512
G1 X110.524 Y103.2 E3.18202
G1 X110.594 Y103.032 E3.18891
G1 X110.688 Y102.877 E3.19581
G1 X110.806 Y102.739 E3.20271
G1 X110.944 Y102.622 E3.20961
G1 X111.099 Y102.527 E3.2165
G1 X111.267 Y102.457 E3.2234
G1 X111.443 Y102.415 E3.2303
G1 X111.638 Y102.4 E3.23772
G1 X218.362 Y102.4 E7.29393
G1 X218.533 Y102.413 E7.30042
G1 X218.733 Y102.457 E7.30824
G1 X218.901 Y102.527 E7.31513
G1 X219.056 Y102.622 E7.32203
G1 X219.194 Y102.739 E7.32893
G1 X219.312 Y102.877 E7.33583
G1 X219.406 Y103.032 E7.34272
G1 X219.476 Y103.2 E7.34962
G1 X219.518 Y103.376 E7.35652
G1 X219.534 Y103.571 E7.36394
G1 X219.534 Y146.792 E9.00663
G1 X219.516 Y147.003 E9.01464
G1 X219.466 Y147.192 E9.02209
G1 X219.386 Y147.371 E9.02953
G1 X219.276 Y147.533 E9.03698
G1 X219.141 Y147.675 E9.04443
G1 X218.983 Y147.791 E9.05187
G1 X218.809 Y147.88 E9.05932
G1 X218.61 Y147.941 E9.06723
G1 X211.057 Y149.46 E9.36001
G1 X203.45 Y150.75 E9.65325
G1 X195.807 Y151.807 E9.9465
G1 X188.136 Y152.63 E10.23975
G1 X180.817 Y153.207 E10.51875
G1 X180.57 Y153.438 E10.53164
G1 X180.52 Y153.688 E10.54132
G1 X180.512 Y161.263 E10.8292
G1 X180.473 Y161.381 E10.83393
G1 X180.4 Y161.481 E10.83864
G1 X180.3 Y161.554 E10.84336
G1 X180.182 Y161.593 E10.84808
G1 X149.907 Y161.602 E11.9987
M73 P1 R92
G1 X149.757 Y161.578 E12.00448
G1 X149.634 Y161.515 E12.00973
G1 X149.527 Y161.381 E12.01628
G1 X149.488 Y161.263 E12.021
G1 X149.48 Y153.688 E12.30888
G1 X149.43 Y153.438 E12.31857
;WIPE_START
M204 S4000
G1 X149.599 Y153.076 F9000
;WIPE_END
M204 S1000
G1 X149.863 Y153.27
;TYPE:Internal perimeter
G1 F1800
G1 X149.85 Y153.205 E12.32107
G1 X149.378 Y152.763 E12.34563
G1 X141.907 Y152.175 E12.63047
G1 X134.248 Y151.353 E12.92322
G1 X126.619 Y150.298 E13.21593
G1 X119.026 Y149.011 E13.50864
G1 X111.503 Y147.497 E13.80029
G1 X111.363 Y147.454 E13.80585
G1 X111.163 Y147.331 E13.8148
G1 X111.015 Y147.147 E13.82375
G1 X110.966 Y147.039 E13.82825
G1 X110.923 Y146.773 E13.8385
G1 X110.923 Y103.589 E15.47977
G1 X110.96 Y103.341 E15.48928
G1 X111.059 Y103.147 E15.49758
G1 X111.214 Y102.993 E15.50588
G1 X111.408 Y102.893 E15.51418
G1 X111.656 Y102.857 E15.52368
G1 X218.465 Y102.866 E19.58312
G1 X218.693 Y102.935 E19.59216
G1 X218.786 Y102.993 E19.59633
G1 X218.941 Y103.147 E19.60463
G1 X219.04 Y103.341 E19.61293
G1 X219.077 Y103.589 E19.62243
G1 X219.077 Y146.773 E21.2637
G1 X219.064 Y146.925 E21.2695
G1 X218.985 Y147.147 E21.27845
G1 X218.837 Y147.331 E21.28741
G1 X218.637 Y147.454 E21.29636
G1 X218.497 Y147.497 E21.30192
G1 X210.974 Y149.011 E21.59357
G1 X203.381 Y150.298 E21.88628
G1 X195.752 Y151.353 E22.17899
G1 X188.093 Y152.175 E22.47174
M73 P1 R92
G1 X180.622 Y152.763 E22.75658
G1 X180.15 Y153.205 E22.78114
G1 X180.063 Y153.643 E22.79811
G1 X180.055 Y161.136 E23.08287
G1 X149.945 Y161.145 E24.22724
G1 X149.937 Y153.643 E24.51235
G1 X149.863 Y153.27 E24.52682
G1 X150.295 Y153.101 F9000
G1 F1800
G1 X150.27 Y152.972 E24.53182
G1 X149.574 Y152.32 E24.56806
G1 X141.949 Y151.72 E24.85874
G1 X134.304 Y150.9 E25.15097
G1 X126.689 Y149.846 E25.44316
G1 X119.109 Y148.561 E25.73534
G1 X111.615 Y147.054 E26.02585
G1 X111.469 Y146.983 E26.03203
G1 X111.408 Y146.906 E26.03575
G1 X111.381 Y146.737 E26.04228
G1 X111.381 Y103.623 E27.6809
G1 X111.401 Y103.482 E27.68628
G1 X111.434 Y103.419 E27.68899
G1 X111.549 Y103.335 E27.69443
G1 X111.689 Y103.314 E27.69981
G1 X218.397 Y103.323 E31.75539
G1 X218.503 Y103.355 E31.75957
G1 X218.566 Y103.419 E31.763
G1 X218.599 Y103.482 E31.7657
G1 X218.619 Y103.623 E31.77109
G1 X218.619 Y146.754 E33.41034
G1 X218.58 Y146.921 E33.41688
G1 X218.531 Y146.983 E33.41989
G1 X218.447 Y147.035 E33.42364
G1 X210.891 Y148.561 E33.71661
G1 X203.311 Y149.846 E34.00879
G1 X195.696 Y150.9 E34.30097
G1 X188.051 Y151.72 E34.59321
G1 X180.426 Y152.32 E34.88388
G1 X179.73 Y152.972 E34.92013
G1 X179.606 Y153.598 E34.94439
G1 X179.598 Y160.679 E35.21349
G1 X150.402 Y160.687 E36.32315
G1 X150.394 Y153.598 E36.5926
G1 X150.295 Y153.101 E36.61186
G92 E0
G1 E-0.8 F2400
; acceleration to travel
M204 S3000
G1 X199.003 Y117.154 F9000
; decel to extrusion
M204 S1000
G1 X217.558 Y103.46
; end travel
G1 E0 F1800
;TYPE:Solid infill
;WIDTH:0.500497
G1 F3600
G1 X218.482 Y104.384 E0.04971
G1 X218.482 Y105.031 F9000
G1 F3600
G1 X216.912 Y103.461 E0.13419
G1 X216.266 Y103.461 F9000
G1 F3600
G1 X218.482 Y105.677 E0.25344
G1 X218.482 Y106.324 F9000
G1 F3600
G1 X215.619 Y103.461 E0.40747
G1 X214.973 Y103.461 F9000
G1 F3600
G1 X218.482 Y106.97 E0.59628
G1 X218.482 Y107.616 F9000
G1 F3600
G1 X214.327 Y103.461 E0.81986
G1 X213.68 Y103.461 F9000
G1 F3600
G1 X218.482 Y108.263 E1.07821
G1 X218.482 Y108.909 F9000
G1 F3600
G1 X213.034 Y103.461 E1.37134
G1 X212.388 Y103.461 F9000
G1 F3600
G1 X218.482 Y109.556 E1.69925
G1 X218.482 Y110.202 F9000
G1 F3600
G1 X211.741 Y103.461 E2.06193
G1 X211.095 Y103.461 F9000
G1 F3600
G1 X218.482 Y110.848 E2.45938
G1 X218.482 Y111.495 F9000
G1 F3600
G1 X210.449 Y103.461 E2.89161
G1 X209.802 Y103.461 F9000
G1 F3600
G1 X218.482 Y112.141 E3.35861
G1 X218.482 Y112.788 F9000
G1 F3600
G1 X209.156 Y103.461 E3.86039
G1 X208.51 Y103.461 F9000
G1 F3600
G1 X218.482 Y113.434 E4.39694
G1 X218.482 Y114.08 F9000
G1 F3600
G1 X207.863 Y103.462 E4.96826
G1 X207.217 Y103.462 F9000
G1 F3600
G1 X218.482 Y114.727 E5.57436
G1 X218.482 Y115.373 F9000
G1 F3600
G1 X206.571 Y103.462 E6.21524
G1 X205.924 Y103.462 F9000
G1 F3600
G1 X218.482 Y116.02 E6.89089
G1 X218.482 Y116.666 F9000
G1 F3600
G1 X205.278 Y103.462 E7.60131
G1 X204.632 Y103.462 F9000
G1 F3600
G1 X218.482 Y117.313 E8.34651
G1 X218.482 Y117.959 F9000
G1 F3600
G1 X203.985 Y103.462 E9.12649
G1 X203.339 Y103.462 F9000
G1 F3600
G1 X218.482 Y118.605 E9.94124
G1 X218.482 Y119.252 F9000
G1 F3600
G1 X202.693 Y103.462 E10.79076
G1 X202.046 Y103.462 F9000
G1 F3600
G1 X218.482 Y119.898 E11.67506
G1 X218.482 Y120.545 F9000
G1 F3600
G1 X201.4 Y103.462 E12.59413
G1 X200.754 Y103.462 F9000
G1 F3600
G1 X218.482 Y121.191 E13.54798
G1 X218.482 Y121.837 F9000
G1 F3600
G1 X200.107 Y103.462 E14.5366
G1 X199.461 Y103.462 F9000
G1 F3600
G1 X218.482 Y122.484 E15.56
G1 X218.482 Y123.13 F9000
G1 F3600
G1 X198.815 Y103.462 E16.61817
G1 X198.168 Y103.463 F9000
G1 F3600
G1 X218.482 Y123.777 E17.71111
G1 X218.482 Y124.423 F9000
G1 F3600
G1 X197.522 Y103.463 E18.83883
G1 X196.876 Y103.463 F9000
G1 F3600
G1 X218.482 Y125.069 E20.00133
G1 X218.482 Y125.716 F9000
G1 F3600
G1 X196.229 Y103.463 E21.1986
G1 X195.583 Y103.463 F9000
G1 F3600
G1 X218.482 Y126.362 E22.43064
G1 X218.482 Y127.009 F9000
G1 F3600
G1 X194.937 Y103.463 E23.69746
G1 X194.29 Y103.463 F9000
G1 F3600
G1 X218.482 Y127.655 E24.99905
G1 X218.482 Y128.301 F9000
G1 F3600
G1 X193.644 Y103.463 E26.33542
G1 X192.998 Y103.463 F9000
G1 F3600
G1 X218.482 Y128.948 E27.70657
G1 X218.482 Y129.594 F9000
G1 F3600
G1 X192.351 Y103.463 E29.11248
G1 X191.705 Y103.463 F9000
G1 F3600
G1 X218.482 Y130.241 E30.55317
G1 X218.482 Y130.887 F9000
G1 F3600
G1 X191.059 Y103.463 E32.02864
G1 X190.412 Y103.463 F9000
G1 F3600
G1 X218.482 Y131.533 E33.53888
G1 X218.482 Y132.18 F9000
G1 F3600
G1 X189.766 Y103.463 E35.0839
G1 X189.12 Y103.463 F9000
G1 F3600
G1 X218.482 Y132.826 E36.66369
G1 X218.482 Y133.473 F9000
G1 F3600
G1 X188.473 Y103.464 E38.27825
G1 X187.827 Y103.464 F9000
G1 F3600
G1 X218.482 Y134.119 E39.92759
G1 X218.482 Y134.766 F9000
G1 F3600
G1 X187.181 Y103.464 E41.61171
G1 X186.534 Y103.464 F9000
G1 F3600
G1 X218.482 Y135.412 E43.3306
G1 X218.482 Y136.058 F9000
G1 F3600
G1 X185.888 Y103.464 E45.08426
G1 X185.242 Y103.464 F9000
G1 F3600
G1 X218.482 Y136.705 E46.8727
G1 X218.482 Y137.351 F9000
G1 F3600
G1 X184.595 Y103.464 E48.69591
G1 X183.949 Y103.464 F9000
G1 F3600
G1 X218.482 Y137.998 E50.5539
G1 X218.482 Y138.644 F9000
G1 F3600
G1 X183.302 Y103.464 E52.44666
G1 X182.656 Y103.464 F9000
G1 F3600
G1 X218.482 Y139.29 E54.3742
G1 X218.482 Y139.937 F9000
G1 F3600
G1 X182.01 Y103.464 E56.33651
G1 X181.363 Y103.464 F9000
G1 F3600
G1 X218.482 Y140.583 E58.3336
G1 X218.482 Y141.23 F9000
G1 F3600
G1 X180.717 Y103.464 E60.36546
M73 P2 R91
G1 X180.071 Y103.464 F9000
G1 F3600
G1 X218.482 Y141.876 E62.43209
G1 X218.482 Y142.522 F9000
G1 F3600
G1 X179.424 Y103.465 E64.5335
G1 X178.778 Y103.465 F9000
G1 F3600
G1 X218.482 Y143.169 E66.66969
G1 X218.482 Y143.815 F9000
G1 F3600
G1 X178.132 Y103.465 E68.84065
G1 X177.485 Y103.465 F9000
G1 F3600
G1 X218.482 Y144.462 E71.04638
G1 X218.482 Y145.108 F9000
G1 F3600
G1 X176.839 Y103.465 E73.28689
G1 X176.193 Y103.465 F9000
G1 F3600
G1 X218.482 Y145.754 E75.56217
G1 X218.482 Y146.401 F9000
G1 F3600
G1 X175.546 Y103.465 E77.87223
G1 X174.9 Y103.465 F9000
G1 F3600
G1 X218.349 Y146.914 E80.20992
G1 X217.812 Y147.023 F9000
G1 F3600
G1 X174.254 Y103.465 E82.55344
G1 X173.607 Y103.465 F9000
G1 F3600
G1 X217.274 Y147.132 E84.90281
G1 X216.736 Y147.24 F9000
G1 F3600
G1 X172.961 Y103.465 E87.25802
G1 X172.315 Y103.465 F9000
G1 F3600
G1 X216.198 Y147.349 E89.61907
G1 X215.661 Y147.458 F9000
G1 F3600
G1 X171.668 Y103.465 E91.98596
G1 X171.022 Y103.465 F9000
G1 F3600
G1 X215.123 Y147.566 E94.35869
M73 P2 R91
G1 X214.585 Y147.675 F9000
G1 F3600
G1 X170.376 Y103.465 E96.73727
G1 X169.729 Y103.466 F9000
G1 F3600
G1 X214.047 Y147.783 E99.12168
G1 X213.51 Y147.892 F9000
G1 F3600
G1 X169.083 Y103.466 E101.51194
G1 X168.437 Y103.466 F9000
G1 F3600
G1 X212.972 Y148.001 E103.90804
G1 X212.434 Y148.109 F9000
G1 F3600
G1 X167.79 Y103.466 E106.30998
G1 X167.144 Y103.466 F9000
G1 F3600
G1 X211.896 Y148.218 E108.71776
G1 X211.358 Y148.327 F9000
G1 F3600
G1 X166.498 Y103.466 E111.13138
G1 X165.851 Y103.466 F9000
G1 F3600
G1 X210.819 Y148.434 E113.55078
G1 X210.267 Y148.528 F9000
G1 F3600
G1 X165.205 Y103.466 E115.97521
G1 X164.559 Y103.466 F9000
G1 F3600
G1 X209.714 Y148.622 E118.40468
G1 X209.161 Y148.715 F9000
G1 F3600
G1 X163.912 Y103.466 E120.8392
G1 X163.266 Y103.466 F9000
G1 F3600
G1 X208.609 Y148.809 E123.27875
G1 X208.056 Y148.903 F9000
G1 F3600
G1 X162.62 Y103.466 E125.72333
G1 X161.973 Y103.466 F9000
G1 F3600
G1 X207.503 Y148.996 E128.17296
G1 X206.951 Y149.09 F9000
G1 F3600
G1 X161.327 Y103.466 E130.62763
G1 X160.681 Y103.466 F9000
G1 F3600
G1 X206.398 Y149.184 E133.08733
G1 X205.845 Y149.278 F9000
G1 F3600
G1 X160.034 Y103.467 E135.55208
G1 X159.388 Y103.467 F9000
G1 F3600
