; generated by SuperSlicer 2.5.59 on 2023-07-05 at 01:17:11 UTC


;
;

;
;
; 

; external perimeters extrusion width = 0.40mm
; perimeters extrusion width = 0.46mm
; infill extrusion width = 0.64mm
; solid infill extrusion width = 0.56mm
; top infill extrusion width = 0.40mm
; first layer extrusion width = 0.50mm

; external perimeters extrusion width = 0.40mm
; perimeters extrusion width = 0.46mm
; infill extrusion width = 0.64mm
; solid infill extrusion width = 0.56mm
; top infill extrusion width = 0.40mm
; first layer extrusion width = 0.50mm

; external perimeters extrusion width = 0.40mm
; perimeters extrusion width = 0.46mm
; infill extrusion width = 0.64mm
; solid infill extrusion width = 0.56mm
; top infill extrusion width = 0.40mm
; first layer extrusion width = 0.50mm

; external perimeters extrusion width = 0.40mm
; perimeters extrusion width = 0.46mm
; infill extrusion width = 0.64mm
; solid infill extrusion width = 0.56mm
; top infill extrusion width = 0.40mm
; first layer extrusion width = 0.50mm

; external perimeters extrusion width = 0.40mm
; perimeters extrusion width = 0.46mm
; infill extrusion width = 0.64mm
; solid infill extrusion width = 0.56mm
; top infill extrusion width = 0.40mm
; first layer extrusion width = 0.50mm

; external perimeters extrusion width = 0.40mm
; perimeters extrusion width = 0.46mm
; infill extrusion width = 0.64mm
; solid infill extrusion width = 0.56mm
; top infill extrusion width = 0.40mm
; first layer extrusion width = 0.50mm

; object:{"name":"Post","id":"Post.stl id:0 copy 0","object_center":[174.080091,97.644344,0.000000],"boundingbox_center":[174.080091,97.644344,10.875000],"boundingbox_size":[110.969398,12.161605,21.750000]}
EXCLUDE_OBJECT_DEFINE NAME=Post_stl_id_0_copy_0 CENTER=174.080091,97.644344 POLYGON=[[118.595400,91.775656],[118.598936,91.738832],[118.609496,91.703112],[118.626728,91.669600],[118.650112,91.639312],[118.678944,91.613168],[118.712328,91.591960],[118.749264,91.576336],[118.788648,91.566760],[118.829264,91.563536],[229.564784,91.563536],[229.564784,91.565704],[229.564672,91.680560],[229.551056,103.549856],[229.550880,103.701832],[229.550848,103.725144],[118.829264,103.725144],[118.810928,103.724488],[118.788648,103.721928],[118.772704,103.718840],[118.749264,103.712352],[118.723096,103.702024],[118.712328,103.696728],[118.691808,103.684632],[118.678944,103.675512],[118.663888,103.663016],[118.650112,103.649368],[118.640064,103.637704],[118.626728,103.619080],[118.620880,103.609320],[118.609496,103.585568],[118.606824,103.578568],[118.598936,103.549856],[118.598264,103.546200],[118.595400,103.513024],[118.595400,91.775656]]
; object:{"name":"Post","id":"Post.stl id:1 copy 0","object_center":[174.080090,250.517261,0.000000],"boundingbox_center":[174.080090,250.517261,10.875000],"boundingbox_size":[110.969398,12.161605,21.750000]}
EXCLUDE_OBJECT_DEFINE NAME=Post_stl_id_1_copy_0 CENTER=174.080090,250.517261 POLYGON=[[118.595400,244.648576],[118.598936,244.611744],[118.609496,244.576032],[118.626728,244.542512],[118.650112,244.512224],[118.678944,244.486080],[118.712328,244.464880],[118.749264,244.449248],[118.788648,244.439680],[118.829264,244.436464],[229.564784,244.436464],[229.564784,244.438624],[229.564672,244.553472],[229.551056,256.422768],[229.550880,256.574736],[229.550848,256.598048],[118.829264,256.598048],[118.810928,256.597408],[118.788648,256.594848],[118.772704,256.591760],[118.757080,256.587440],[118.749264,256.585264],[118.723096,256.574944],[118.712328,256.569648],[118.691808,256.557552],[118.678944,256.548432],[118.663888,256.535920],[118.650112,256.522272],[118.640064,256.510624],[118.626728,256.492000],[118.620880,256.482240],[118.609496,256.458496],[118.606824,256.451472],[118.598936,256.422768],[118.598264,256.419136],[118.595400,256.385920],[118.595400,244.648576]]
; object:{"name":"Post","id":"Post.stl id:2 copy 0","object_center":[174.080090,79.482739,0.000000],"boundingbox_center":[174.080090,79.482739,10.875000],"boundingbox_size":[110.969398,12.161605,21.750000]}
EXCLUDE_OBJECT_DEFINE NAME=Post_stl_id_2_copy_0 CENTER=174.080090,79.482739 POLYGON=[[118.595400,73.614056],[118.598936,73.577232],[118.609496,73.541512],[118.626728,73.508000],[118.650112,73.477712],[118.678944,73.451568],[118.712328,73.430360],[118.749264,73.414736],[118.788648,73.405168],[118.829264,73.401936],[229.564784,73.401936],[229.564784,73.404112],[229.564672,73.518960],[229.551056,85.388264],[229.550880,85.540240],[229.550848,85.563544],[118.829264,85.563544],[118.810928,85.562888],[118.788648,85.560328],[118.772704,85.557240],[118.757080,85.552920],[118.749264,85.550752],[118.723096,85.540432],[118.712328,85.535128],[118.691808,85.523032],[118.678944,85.513920],[118.663888,85.501416],[118.650112,85.487768],[118.640064,85.476104],[118.626728,85.457480],[118.620880,85.447720],[118.609496,85.423976],[118.606824,85.416976],[118.598936,85.388264],[118.598264,85.384608],[118.595400,85.351424],[118.595400,73.614056]]
; object:{"name":"Base X100","id":"Base X100.5 Y98.5.stl id:3 copy 0","object_center":[174.080803,140.402975,0.000000],"boundingbox_center":[174.080803,140.402975,4.875000],"boundingbox_size":[173.410309,61.355653,9.750000]}
EXCLUDE_OBJECT_DEFINE NAME=Base_X100_5_Y98_5_stl_id_3_copy_0 CENTER=174.080803,140.402975 POLYGON=[[87.375656,110.303424],[87.383328,110.212960],[87.406192,110.124728],[87.443664,110.040888],[87.494824,109.963520],[87.558424,109.894520],[87.632872,109.835576],[87.716368,109.788168],[87.806824,109.753440],[87.902040,109.732264],[87.999648,109.725144],[260.161984,109.725144],[260.259584,109.732264],[260.354800,109.753440],[260.445248,109.788168],[260.528752,109.835576],[260.603216,109.894520],[260.666816,109.963520],[260.717952,110.040888],[260.755440,110.124728],[260.778288,110.212960],[260.785952,110.303424],[260.785952,170.502512],[260.778288,170.592992],[260.755440,170.681216],[260.717952,170.765040],[260.666816,170.842416],[260.603216,170.911424],[260.528752,170.970368],[260.445248,171.017776],[260.354800,171.052496],[260.259584,171.073664],[260.161984,171.080800],[87.999648,171.080800],[87.902040,171.073664],[87.806824,171.052496],[87.716368,171.017776],[87.632872,170.970368],[87.558424,170.911424],[87.494824,170.842416],[87.443664,170.765040],[87.406192,170.681216],[87.383328,170.592992],[87.375656,170.502512],[87.375656,110.303424]]
; object:{"name":"Post","id":"Post.stl id:4 copy 0","object_center":[75.294848,174.081514,0.000000],"boundingbox_center":[75.294848,174.081514,10.875000],"boundingbox_size":[12.161605,110.969398,21.750000]}
EXCLUDE_OBJECT_DEFINE NAME=Post_stl_id_4_copy_0 CENTER=75.294848,174.081514 POLYGON=[[69.214040,118.596816],[69.216216,118.596816],[69.331064,118.596944],[69.912728,118.597608],[81.269584,118.610632],[81.347232,118.610728],[81.372424,118.610760],[81.375648,118.610768],[81.375648,229.332336],[81.374992,229.350672],[81.372432,229.372960],[81.369344,229.388896],[81.365024,229.404528],[81.362856,229.412336],[81.352528,229.438512],[81.347232,229.449280],[81.335136,229.469792],[81.326016,229.482672],[81.313520,229.497712],[81.299872,229.511504],[81.288208,229.521552],[81.269584,229.534880],[81.259824,229.540720],[81.236080,229.552112],[81.229080,229.554784],[81.200360,229.562672],[81.196712,229.563344],[81.163528,229.566208],[69.426160,229.566208],[69.389336,229.562672],[69.353616,229.552112],[69.320104,229.534880],[69.289816,229.511504],[69.263672,229.482672],[69.242464,229.449280],[69.226840,229.412336],[69.217272,229.372960],[69.214040,229.332336],[69.214040,118.596816]]
; object:{"name":"Base X100","id":"Base X100.5 Y98.5.stl id:5 copy 0","object_center":[174.080803,207.758631,0.000000],"boundingbox_center":[174.080803,207.758631,4.875000],"boundingbox_size":[173.410309,61.355653,9.750000]}
EXCLUDE_OBJECT_DEFINE NAME=Base_X100_5_Y98_5_stl_id_5_copy_0 CENTER=174.080803,207.758631 POLYGON=[[87.375656,177.659088],[87.383328,177.568640],[87.406192,177.480400],[87.443664,177.396560],[87.494824,177.319184],[87.558424,177.250176],[87.632872,177.191248],[87.716368,177.143840],[87.806824,177.109120],[87.902040,177.087920],[87.999648,177.080816],[260.161984,177.080816],[260.259584,177.087920],[260.354800,177.109120],[260.445248,177.143840],[260.528752,177.191248],[260.603216,177.250176],[260.666816,177.319184],[260.717952,177.396560],[260.755440,177.480400],[260.778288,177.568640],[260.785952,177.659088],[260.785952,237.858192],[260.778288,237.948656],[260.755440,238.036880],[260.717952,238.120720],[260.666816,238.198096],[260.603216,238.267088],[260.528752,238.326016],[260.445248,238.373440],[260.354800,238.408160],[260.259584,238.429360],[260.161984,238.436464],[87.999648,238.436464],[87.902040,238.429360],[87.806824,238.408160],[87.716368,238.373440],[87.632872,238.326016],[87.558424,238.267088],[87.494824,238.198096],[87.443664,238.120720],[87.406192,238.036880],[87.383328,237.948656],[87.375656,237.858192],[87.375656,177.659088]]
; plater:{"center":[165.000001,165.000000,0.000000],"boundingbox_center":[165.000001,165.000000,10.875000],"boundingbox_size":[191.571912,183.196127,21.750000]}

M73 P0 R245
;TYPE:Custom
; custom gcode: start_gcode
START_PRINT T_BED=60 T_EXTRUDER=210
; custom gcode end: start_gcode
M107
G21 ; set units to millimeters
G90 ; use absolute coordinates
M82 ; use absolute distances for extrusion
G92 E0
; custom gcode: start_filament_gcode
; Filament gcode

    PRESSURE_ADVANCE_SELECT FILAMENT=PLA
; custom gcode end: start_filament_gcode
;_TOOLCHANGE 0
M109 S210 ; set temperature and wait for it to be reached
M190 S60 ; set bed temperature and wait for it to be reached
;LAYER_CHANGE
;Z:0.2
;HEIGHT:0.2
G1 Z0.2 F9000
G1 E-0.8 F2400
M204 S1000
G1 X88.138 Y96.508 F9000
G1 E0 F1800
;TYPE:Skirt
;WIDTH:0.52
G1 X66.845 Y115.953 E1.1439
G1 X66.03 Y117.031 E1.1975
G1 X65.635 Y118.697 E1.26543
G1 X65.635 Y229.316 E5.65362
G1 X65.847 Y230.556 E5.70353
G1 X67.38 Y232.526 E5.80254
G1 X116.986 Y259.696 E8.0462
G1 X117.68 Y259.99 E8.07612
G1 X118.845 Y260.177 E8.12292
G1 X229.451 Y260.177 E12.51057
G1 X231.333 Y259.665 E12.58796
G1 X262.349 Y241.439 E14.01505
G1 X263.105 Y240.856 E14.05291
G1 X263.907 Y239.791 E14.1058
G1 X264.313 Y238.627 E14.15471
G1 X264.392 Y237.85 E14.1857
G1 X264.392 Y110.312 E19.24503
G1 X264.313 Y109.535 E19.27602
G1 X263.907 Y108.371 E19.32493
G1 X263.407 Y107.62 E19.36071
G1 X232.292 Y71.128 E21.26311
G1 X231.131 Y70.218 E21.32164
G1 X229.465 Y69.823 E21.38957
G1 X118.82 Y69.826 E25.77876
G1 X117.097 Y70.25 E25.84916
G1 X116.254 Y70.829 E25.88972
G1 X88.138 Y96.508 E27.40025
G1 X88.459 Y96.86 F9000
G1 F1800
G1 X67.167 Y116.306 E28.54416
M73 P0 R244
G1 X66.506 Y117.149 E28.58666
G1 X66.112 Y118.697 E28.65002
G1 X66.112 Y229.316 E33.03821
G1 X66.3 Y230.407 E33.08211
G1 X67.636 Y232.123 E33.16841
G1 X117.215 Y259.277 E35.41082
G1 X117.83 Y259.537 E35.4373
G1 X118.845 Y259.7 E35.47809
G1 X229.451 Y259.7 E39.86574
G1 X231.092 Y259.254 E39.9332
G1 X262.107 Y241.027 E41.36028
G1 X262.781 Y240.506 E41.39406
G1 X263.489 Y239.561 E41.44091
G1 X263.843 Y238.546 E41.48354
G1 X263.915 Y237.85 E41.51133
G1 X263.915 Y110.312 E46.57067
G1 X263.843 Y109.615 E46.59845
G1 X263.489 Y108.601 E46.64108
G1 X263.044 Y107.93 E46.67302
G1 X231.929 Y71.437 E48.57542
G1 X231.012 Y70.694 E48.62224
G1 X229.465 Y70.3 E48.6856
G1 X118.82 Y70.303 E53.07479
G1 X117.318 Y70.672 E53.13615
G1 X116.576 Y71.181 E53.17185
G1 X88.459 Y96.86 E54.68238
G92 E0
G1 E-0.8 F2400
; printing object Post.stl id:0 copy 0
EXCLUDE_OBJECT_START NAME=Post_stl_id_0_copy_0
; acceleration to travel
M204 S3000
G1 X194.016 Y101.719 F9000
; decel to extrusion
M204 S1000
G1 X229.201 Y103.338
; end travel
G1 E0 F1800
;TYPE:External perimeter
;WIDTH:0.5
G1 X118.989 Y103.338 E4.18878
G1 X118.986 Y91.953 E4.6215
G1 X229.214 Y91.95 E8.81088
G1 X229.201 Y103.338 E9.24371
;WIPE_START
M204 S4000
G1 X228.855 Y103.138 F9000
;WIPE_END
M204 S1000
G1 X228.745 Y102.881
;TYPE:Internal perimeter
G1 F1800
G1 X119.446 Y102.881 E13.39776
G1 X119.443 Y92.41 E13.79574
G1 X228.757 Y92.407 E17.95035
G1 X228.745 Y102.881 E18.34844
G1 X228.288 Y102.424 F9000
G1 F1800
G1 X119.903 Y102.424 E22.46777
G1 X119.9 Y92.867 E22.83101
G1 X228.299 Y92.864 E26.95085
G1 X228.288 Y102.424 E27.31419
G92 E0
G1 E-0.8 F2400
; acceleration to travel
M204 S3000
G1 X227.528 Y95.601 F9000
; decel to extrusion
M204 S1000
G1 X227.238 Y93.002
; end travel
G1 E0 F1800
;TYPE:Solid infill
;WIDTH:0.50194
G1 F3600
G1 X228.161 Y93.924 E0.0498
G1 X228.16 Y94.57 F9000
G1 F3600
G1 X226.592 Y93.002 E0.13443
G1 X225.945 Y93.002 F9000
G1 F3600
G1 X228.159 Y95.216 E0.2539
G1 X228.159 Y95.861 F9000
G1 F3600
G1 X225.299 Y93.002 E0.40821
G1 X224.652 Y93.002 F9000
G1 F3600
G1 X228.158 Y96.507 E0.59736
G1 X228.157 Y97.153 F9000
G1 F3600
G1 X224.006 Y93.002 E0.82134
G1 X223.36 Y93.002 F9000
G1 F3600
G1 X228.156 Y97.798 E1.08017
G1 X228.156 Y98.444 F9000
G1 F3600
G1 X222.713 Y93.002 E1.37383
G1 X222.067 Y93.002 F9000
G1 F3600
G1 X228.155 Y99.09 E1.70232
G1 X228.154 Y99.735 F9000
G1 F3600
G1 X221.42 Y93.002 E2.06566
G1 X220.774 Y93.002 F9000
G1 F3600
G1 X228.153 Y100.381 E2.46384
G1 X228.153 Y101.027 F9000
G1 F3600
G1 X220.128 Y93.002 E2.89685
G1 X219.481 Y93.002 F9000
G1 F3600
G1 X228.152 Y101.672 E3.3647
G1 X228.12 Y102.287 F9000
G1 F3600
G1 X218.835 Y93.002 E3.86572
G1 X218.188 Y93.002 F9000
G1 F3600
G1 X227.474 Y102.287 E4.36674
G1 X226.828 Y102.287 F9000
G1 F3600
G1 X217.542 Y93.002 E4.86776
G1 X216.896 Y93.002 F9000
G1 F3600
G1 X226.181 Y102.287 E5.36878
G1 X225.535 Y102.287 F9000
G1 F3600
G1 X216.249 Y93.002 E5.8698
G1 X215.603 Y93.002 F9000
G1 F3600
G1 X224.888 Y102.287 E6.37082
G1 X224.242 Y102.287 F9000
G1 F3600
G1 X214.957 Y93.002 E6.87184
G1 X214.31 Y93.002 F9000
G1 F3600
G1 X223.595 Y102.287 E7.37285
G1 X222.949 Y102.287 F9000
G1 F3600
G1 X213.664 Y93.002 E7.87387
G1 X213.017 Y93.002 F9000
G1 F3600
G1 X222.303 Y102.287 E8.37488
G1 X221.656 Y102.287 F9000
G1 F3600
G1 X212.371 Y93.002 E8.8759
G1 X211.725 Y93.002 F9000
G1 F3600
G1 X221.01 Y102.287 E9.37691
G1 X220.363 Y102.287 F9000
G1 F3600
G1 X211.078 Y93.002 E9.87792
G1 X210.432 Y93.002 F9000
G1 F3600
G1 X219.717 Y102.287 E10.37893
G1 X219.071 Y102.287 F9000
G1 F3600
G1 X209.785 Y93.002 E10.87994
G1 X209.139 Y93.002 F9000
G1 F3600
G1 X218.424 Y102.287 E11.38095
G1 X217.778 Y102.287 F9000
G1 F3600
G1 X208.493 Y93.002 E11.88196
G1 X207.846 Y93.002 F9000
G1 F3600
G1 X217.131 Y102.287 E12.38297
G1 X216.485 Y102.287 F9000
G1 F3600
G1 X207.2 Y93.002 E12.88398
G1 X206.553 Y93.002 F9000
G1 F3600
G1 X215.839 Y102.287 E13.38499
G1 X215.192 Y102.287 F9000
G1 F3600
G1 X205.907 Y93.002 E13.88599
G1 X205.261 Y93.002 F9000
G1 F3600
G1 X214.546 Y102.287 E14.387
G1 X213.899 Y102.287 F9000
G1 F3600
G1 X204.614 Y93.002 E14.888
G1 X203.968 Y93.002 F9000
G1 F3600
G1 X213.253 Y102.287 E15.389
G1 X212.607 Y102.287 F9000
G1 F3600
G1 X203.321 Y93.002 E15.89
G1 X202.675 Y93.002 F9000
G1 F3600
G1 X211.96 Y102.287 E16.39101
G1 X211.314 Y102.287 F9000
G1 F3600
G1 X202.029 Y93.002 E16.89201
G1 X201.382 Y93.002 F9000
G1 F3600
G1 X210.667 Y102.287 E17.39301
G1 X210.021 Y102.287 F9000
G1 F3600
G1 X200.736 Y93.002 E17.89401
G1 X200.089 Y93.002 F9000
G1 F3600
G1 X209.375 Y102.287 E18.395
G1 X208.728 Y102.287 F9000
G1 F3600
G1 X199.443 Y93.002 E18.896
G1 X198.797 Y93.002 F9000
G1 F3600
G1 X208.082 Y102.287 E19.397
G1 X207.435 Y102.287 F9000
G1 F3600
G1 X198.15 Y93.002 E19.89799
M73 P1 R243
G1 X197.504 Y93.002 F9000
G1 F3600
G1 X206.789 Y102.287 E20.39899
G1 X206.142 Y102.287 F9000
G1 F3600
G1 X196.858 Y93.002 E20.89998
G1 X196.211 Y93.002 F9000
G1 F3600
G1 X205.496 Y102.287 E21.40097
G1 X204.85 Y102.287 F9000
G1 F3600
G1 X195.565 Y93.002 E21.90197
G1 X194.918 Y93.002 F9000
G1 F3600
G1 X204.203 Y102.287 E22.40296
G1 X203.557 Y102.287 F9000
G1 F3600
G1 X194.272 Y93.002 E22.90395
G1 X193.626 Y93.002 F9000
G1 F3600
G1 X202.91 Y102.287 E23.40494
G1 X202.264 Y102.287 F9000
G1 F3600
G1 X192.979 Y93.002 E23.90593
G1 X192.333 Y93.002 F9000
G1 F3600
G1 X201.618 Y102.287 E24.40692
G1 X200.971 Y102.287 F9000
G1 F3600
G1 X191.686 Y93.002 E24.9079
