; HEADER_BLOCK_START
; generated by OrcaSlicer 1.6.4-beta3 on 2023-08-19 at 11:26:04
; total layer number: 108
; HEADER_BLOCK_END

; THUMBNAIL_BLOCK_START
; THUMBNAIL_BLOCK_END

; external perimeters extrusion width = 0.40mm
; perimeters extrusion width = 0.46mm
; infill extrusion width = 0.64mm
; solid infill extrusion width = 0.56mm
; top infill extrusion width = 0.40mm
; support material extrusion width = 0.46mm
; first layer extrusion width = 0.50mm

; external perimeters extrusion width = 0.40mm
; perimeters extrusion width = 0.46mm
; infill extrusion width = 0.64mm
; solid infill extrusion width = 0.56mm
; top infill extrusion width = 0.40mm
; support material extrusion width = 0.46mm
; first layer extrusion width = 0.50mm

; external perimeters extrusion width = 0.40mm
; perimeters extrusion width = 0.46mm
; infill extrusion width = 0.64mm
; solid infill extrusion width = 0.56mm
; top infill extrusion width = 0.40mm
; support material extrusion width = 0.46mm
; first layer extrusion width = 0.50mm

; external perimeters extrusion width = 0.40mm
; perimeters extrusion width = 0.46mm
; infill extrusion width = 0.64mm
; solid infill extrusion width = 0.56mm
; top infill extrusion width = 0.40mm
; support material extrusion width = 0.46mm
; first layer extrusion width = 0.50mm

; external perimeters extrusion width = 0.40mm
; perimeters extrusion width = 0.46mm
; infill extrusion width = 0.64mm
; solid infill extrusion width = 0.56mm
; top infill extrusion width = 0.40mm
; support material extrusion width = 0.46mm
; first layer extrusion width = 0.50mm

; EXECUTABLE_BLOCK_START
EXCLUDE_OBJECT_DEFINE NAME=Base_X100.5_Y98.5.stl_id_0_copy_0 CENTER=165,259.503 POLYGON=[[78.2948,229.404],[78.3025,229.313],[78.3254,229.225],[78.3629,229.141],[78.414,229.064],[78.4776,228.995],[78.5521,228.936],[78.6356,228.889],[78.726,228.854],[78.8212,228.833],[78.9188,228.826],[251.081,228.826],[251.179,228.833],[251.274,228.854],[251.364,228.889],[251.448,228.936],[251.522,228.995],[251.586,229.064],[251.637,229.141],[251.675,229.225],[251.697,229.313],[251.705,229.404],[251.705,289.603],[251.697,289.693],[251.675,289.782],[251.637,289.865],[251.586,289.943],[251.522,290.012],[251.448,290.071],[251.364,290.118],[251.274,290.153],[251.179,290.174],[251.081,290.181],[78.9188,290.181],[78.8212,290.174],[78.726,290.153],[78.6356,290.118],[78.5521,290.071],[78.4776,290.012],[78.414,289.943],[78.3629,289.865],[78.3254,289.782],[78.3025,289.693],[78.2948,289.603],[78.2948,229.404]]
EXCLUDE_OBJECT_DEFINE NAME=Base_X100.5_Y98.5.stl_id_1_copy_0 CENTER=165,188.148 POLYGON=[[78.2948,158.048],[78.3025,157.958],[78.3254,157.869],[78.3629,157.786],[78.414,157.708],[78.4776,157.639],[78.5521,157.58],[78.6356,157.533],[78.726,157.498],[78.8212,157.477],[78.9188,157.47],[251.081,157.47],[251.179,157.477],[251.274,157.498],[251.364,157.533],[251.448,157.58],[251.522,157.639],[251.586,157.708],[251.637,157.786],[251.675,157.869],[251.697,157.958],[251.705,158.048],[251.705,218.247],[251.697,218.338],[251.675,218.426],[251.637,218.51],[251.586,218.587],[251.522,218.656],[251.448,218.715],[251.364,218.762],[251.274,218.797],[251.179,218.818],[251.081,218.826],[78.9188,218.826],[78.8212,218.818],[78.726,218.797],[78.6356,218.762],[78.5521,218.715],[78.4776,218.656],[78.414,218.587],[78.3629,218.51],[78.3254,218.426],[78.3025,218.338],[78.2948,218.247],[78.2948,158.048]]
EXCLUDE_OBJECT_DEFINE NAME=Base_X100.5_Y98.5.stl_id_2_copy_0 CENTER=165,116.792 POLYGON=[[78.2948,86.6925],[78.3025,86.602],[78.3254,86.5138],[78.3629,86.4299],[78.414,86.3526],[78.4776,86.2836],[78.5521,86.2246],[78.6356,86.1772],[78.726,86.1425],[78.8212,86.1213],[78.9188,86.1142],[251.081,86.1142],[251.179,86.1213],[251.274,86.1425],[251.364,86.1772],[251.448,86.2246],[251.522,86.2836],[251.586,86.3526],[251.637,86.4299],[251.675,86.5138],[251.697,86.602],[251.705,86.6925],[251.705,146.892],[251.697,146.982],[251.675,147.07],[251.637,147.154],[251.586,147.231],[251.522,147.3],[251.448,147.359],[251.364,147.407],[251.274,147.442],[251.179,147.463],[251.081,147.47],[78.9188,147.47],[78.8212,147.463],[78.726,147.442],[78.6356,147.407],[78.5521,147.359],[78.4776,147.3],[78.414,147.231],[78.3629,147.154],[78.3254,147.07],[78.3025,146.982],[78.2948,146.892],[78.2948,86.6925]]
EXCLUDE_OBJECT_DEFINE NAME=Post.stl_id_3_copy_0 CENTER=162.534,69.5404 POLYGON=[[110.692,76.1119],[110.705,63.0812],[110.705,62.9972],[110.705,62.97],[110.705,62.9665],[214.157,62.9665],[214.174,62.9672],[214.195,62.97],[214.21,62.9733],[214.225,62.978],[214.232,62.9804],[214.256,62.9915],[214.266,62.9972],[214.286,63.0103],[214.298,63.0202],[214.312,63.0337],[214.325,63.0484],[214.334,63.061],[214.346,63.0812],[214.352,63.0917],[214.362,63.1174],[214.365,63.125],[214.372,63.156],[214.373,63.16],[214.376,63.1958],[214.376,75.8849],[214.372,75.9247],[214.362,75.9633],[214.346,75.9995],[214.325,76.0323],[214.298,76.0605],[214.266,76.0835],[214.232,76.1004],[214.195,76.1107],[214.157,76.1142],[110.692,76.1142],[110.692,76.1119]]
EXCLUDE_OBJECT_DEFINE NAME=Post.stl_id_4_copy_0 CENTER=163.526,46.3927 POLYGON=[[111.684,52.9642],[111.697,39.9335],[111.697,39.8496],[111.697,39.8223],[111.697,39.8188],[215.149,39.8188],[215.166,39.8195],[215.187,39.8223],[215.202,39.8257],[215.217,39.8303],[215.224,39.8327],[215.248,39.8438],[215.258,39.8496],[215.278,39.8626],[215.29,39.8725],[215.304,39.886],[215.317,39.9008],[215.326,39.9134],[215.338,39.9335],[215.344,39.9441],[215.354,39.9697],[215.357,39.9773],[215.364,40.0083],[215.365,40.0123],[215.368,40.0482],[215.368,52.7372],[215.364,52.777],[215.354,52.8156],[215.338,52.8519],[215.317,52.8846],[215.29,52.9129],[215.258,52.9358],[215.224,52.9527],[215.187,52.963],[215.149,52.9665],[111.684,52.9665],[111.684,52.9642]]
M73 P0 R179
;TYPE:Custom
START_PRINT T_BED=60 T_EXTRUDER=220
G90
G21
M83 ; use relative distances for extrusion
; filament start gcode

    PRESSURE_ADVANCE_SELECT FILAMENT=PLA
M106 S0
;LAYER_CHANGE
;Z:0.2
;HEIGHT:0.2
;BEFORE_LAYER_CHANGE
;0.2
G92 E0

SET_VELOCITY_LIMIT ACCEL=1000 ACCEL_TO_DECEL=500
G1 E-.8 F3000
G1 X90.362 Y64.664 F12000
G1 Z.2
G1 E.8 F1800
;TYPE:Skirt
;WIDTH:0.5
G1 F3000
G1 X109.327 Y38.162 E1.21381
G1 X110.498 Y37.202 E.05638
G1 X111.697 Y36.944 E.0457
G1 X215.16 Y36.945 E3.85358
G1 X215.793 Y37.014 E.02374
G1 X216.492 Y37.252 E.02751
G1 X216.991 Y37.554 E.02171
G1 X217.584 Y38.131 E.03084
G1 X253.875 Y84.563 E2.19497
G1 X254.326 Y85.328 E.03308
G1 X254.592 Y86.357 E.0396
G1 X254.61 Y289.603 E7.57014
G1 X254.509 Y290.423 E.03078
G1 X254.289 Y291.051 E.02477
G1 X253.721 Y291.913 E.03846
G1 X252.882 Y292.598 E.04037
G1 X251.904 Y292.989 E.03923
G1 X251.081 Y293.087 E.03086
G1 X78.919 Y293.087 E6.41239
G1 X78.096 Y292.989 E.03086
G1 X77.201 Y292.645 E.03573
G1 X76.341 Y291.981 E.04045
G1 X75.94 Y291.469 E.02423
G1 X75.513 Y290.51 E.0391
G1 X75.39 Y289.603 E.03409
G1 X75.39 Y86.692 E7.55764
G1 X75.491 Y85.872 E.03077
G1 X75.711 Y85.245 E.02477
G1 X76.052 Y84.662 E.02516
G1 X90.339 Y64.696 E.91442
G1 X90.711 Y64.962 F12000
G1 F3000
G1 X109.699 Y38.428 E1.2153
G1 X110.792 Y37.573 E.05169
G1 X111.697 Y37.401 E.03431
G1 X215.16 Y37.402 E3.85358
G1 X215.702 Y37.462 E.02032
G1 X216.32 Y37.676 E.02437
G1 X216.72 Y37.922 E.01749
G1 X217.224 Y38.413 E.02619
G1 X253.514 Y84.845 E2.19497
G1 X253.909 Y85.514 E.02895
G1 X254.137 Y86.396 E.03391
G1 X254.153 Y289.603 E7.5687
G1 X254.067 Y290.308 E.02647
G1 X253.872 Y290.864 E.02193
G1 X253.385 Y291.603 E.03296
G1 X252.656 Y292.2 E.03512
G1 X251.805 Y292.543 E.03418
G1 X251.081 Y292.63 E.02714
G1 X78.919 Y292.63 E6.41239
G1 X78.195 Y292.543 E.02714
G1 X77.427 Y292.247 E.03069
G1 X76.677 Y291.671 E.0352
G1 X76.321 Y291.217 E.0215
G1 X75.956 Y290.395 E.0335
G1 X75.847 Y289.603 E.02978
G1 X75.847 Y86.692 E7.55764
G1 X75.933 Y85.987 E.02647
G1 X76.128 Y85.431 E.02194
G1 X76.423 Y84.928 E.02175
G1 X90.687 Y64.995 E.91293
; printing object Base X100.5 Y98.5.stl id:0 copy 0
G1 E-.8
EXCLUDE_OBJECT_START NAME=Base_X100.5_Y98.5.stl_id_0_copy_0
G1 X78.725 Y289.746 F12000
G1 E.8 F1800
;TYPE:Outer wall
G1 F3000
G3 X78.654 Y289.588 I.183 J-.177 E.00659
G1 X78.654 Y229.419 E2.24108
G3 X78.932 Y229.184 I.254 J.019 E.01507
G1 X79.418 Y229.184 E.01811
G1 X251.075 Y229.185 E6.39356
G3 X251.346 Y229.419 I.019 J.252 E.01483
G1 X251.346 Y289.588 E2.24108
G3 X251.068 Y289.823 I-.254 J-.019 E.01507
G1 X78.932 Y289.823 E6.41144
G3 X78.755 Y289.773 I-.024 J-.253 E.00699
G1 X79.111 Y289.366 F12000
;TYPE:Inner wall
G1 F3000
G1 X79.111 Y229.641 E2.22451
G1 X79.418 Y229.641 E.01143
G1 X250.889 Y229.642 E6.38664
G1 X250.889 Y289.366 E2.22449
G1 X79.151 Y289.366 E6.39658
G1 X79.568 Y288.908 F12000
G1 F3000
G1 X79.568 Y230.098 E2.19046
M73 P0 R178
G1 X250.432 Y230.099 E6.36402
G1 X250.432 Y288.908 E2.19044
G1 X79.608 Y288.908 E6.36253
G1 E-.8
G1 X250.295 Y231.161 F12000
G1 E.8 F1800
;TYPE:Internal solid infill
;WIDTH:0.500774
G1 F3000
G1 X249.575 Y230.441 E.03799
G1 X248.927 Y230.441 E.02416
G1 X250.089 Y231.603 E.0613
G1 X250.089 Y232.251 E.02416
G1 X248.28 Y230.441 E.09546
G1 X247.632 Y230.441 E.02416
G1 X250.089 Y232.898 E.12963
G1 X250.089 Y233.546 E.02416
G1 X246.985 Y230.441 E.16379
G1 X246.337 Y230.441 E.02416
G1 X250.089 Y234.193 E.19796
G1 X250.089 Y234.841 E.02416
G1 X245.69 Y230.441 E.23212
G1 X245.042 Y230.441 E.02416
G1 X250.089 Y235.488 E.26629
G1 X250.089 Y236.136 E.02416
G1 X244.395 Y230.441 E.30045
G1 X243.747 Y230.441 E.02416
G1 X250.089 Y236.783 E.33461
G1 X250.089 Y237.431 E.02416
G1 X243.1 Y230.441 E.36878
G1 X242.452 Y230.441 E.02416
G1 X250.089 Y238.078 E.40294
G1 X250.089 Y238.726 E.02416
G1 X241.805 Y230.441 E.43711
G1 X241.157 Y230.441 E.02416
G1 X250.089 Y239.373 E.47127
G1 X250.089 Y240.021 E.02416
G1 X240.51 Y230.441 E.50544
G1 X239.862 Y230.441 E.02416
G1 X250.089 Y240.668 E.5396
G1 X250.089 Y241.316 E.02416
G1 X239.215 Y230.441 E.57377
G1 X238.567 Y230.441 E.02416
G1 X250.089 Y241.963 E.60793
G1 X250.089 Y242.611 E.02416
G1 X237.92 Y230.441 E.64209
G1 X237.272 Y230.441 E.02416
G1 X250.089 Y243.258 E.67626
G1 X250.089 Y243.906 E.02416
G1 X236.625 Y230.441 E.71042
G1 X235.977 Y230.441 E.02416
G1 X250.089 Y244.553 E.74459
G1 X250.089 Y245.201 E.02416
G1 X235.33 Y230.441 E.77875
G1 X234.682 Y230.441 E.02416
G1 X250.089 Y245.848 E.81292
G1 X250.089 Y246.496 E.02416
G1 X234.035 Y230.441 E.84708
G1 X233.387 Y230.441 E.02416
G1 X250.089 Y247.143 E.88125
G1 X250.089 Y247.791 E.02416
G1 X232.74 Y230.441 E.91541
G1 X232.092 Y230.441 E.02416
G1 X250.089 Y248.438 E.94958
G1 X250.089 Y249.086 E.02416
G1 X231.445 Y230.441 E.98374
G1 X230.797 Y230.441 E.02416
G1 X250.089 Y249.733 E1.0179
G1 X250.089 Y250.381 E.02416
G1 X230.15 Y230.441 E1.05207
G1 X229.502 Y230.441 E.02416
G1 X250.089 Y251.028 E1.08623
G1 X250.089 Y251.676 E.02416
G1 X228.855 Y230.441 E1.1204
G1 X228.207 Y230.441 E.02416
G1 X250.089 Y252.323 E1.15456
G1 X250.089 Y252.971 E.02416
G1 X227.56 Y230.441 E1.18873
G1 X226.912 Y230.441 E.02416
G1 X250.089 Y253.618 E1.22289
G1 X250.089 Y254.266 E.02416
G1 X226.265 Y230.441 E1.25706
G1 X225.617 Y230.441 E.02416
G1 X250.089 Y254.913 E1.29122
G1 X250.089 Y255.561 E.02416
G1 X224.97 Y230.441 E1.32539
G1 X224.322 Y230.441 E.02416
G1 X250.089 Y256.208 E1.35955
G1 X250.089 Y256.856 E.02416
G1 X223.675 Y230.441 E1.39371
G1 X223.027 Y230.441 E.02416
G1 X250.089 Y257.503 E1.42788
G1 X250.089 Y258.151 E.02416
G1 X222.38 Y230.441 E1.46204
G1 X221.732 Y230.441 E.02416
G1 X250.089 Y258.798 E1.49621
G1 X250.089 Y259.446 E.02416
G1 X221.085 Y230.441 E1.53037
G1 X220.437 Y230.441 E.02416
G1 X250.089 Y260.093 E1.56454
G1 X250.089 Y260.741 E.02416
G1 X219.79 Y230.441 E1.5987
G1 X219.142 Y230.441 E.02416
G1 X250.089 Y261.388 E1.63287
G1 X250.089 Y262.036 E.02416
G1 X218.495 Y230.441 E1.66703
G1 X217.847 Y230.441 E.02416
G1 X250.089 Y262.683 E1.70119
G1 X250.089 Y263.331 E.02416
G1 X217.199 Y230.441 E1.73536
G1 X216.552 Y230.441 E.02416
G1 X250.089 Y263.978 E1.76952
G1 X250.089 Y264.626 E.02416
G1 X215.904 Y230.441 E1.80369
G1 X215.257 Y230.441 E.02416
G1 X250.089 Y265.273 E1.83785
G1 X250.089 Y265.921 E.02416
G1 X214.609 Y230.441 E1.87202
G1 X213.962 Y230.441 E.02416
G1 X250.089 Y266.568 E1.90618
G1 X250.089 Y267.216 E.02416
G1 X213.314 Y230.441 E1.94035
G1 X212.667 Y230.441 E.02416
G1 X250.089 Y267.863 E1.97451
G1 X250.089 Y268.511 E.02416
G1 X212.019 Y230.441 E2.00868
G1 X211.372 Y230.441 E.02416
G1 X250.089 Y269.158 E2.04284
G1 X250.089 Y269.806 E.02416
G1 X210.724 Y230.441 E2.077
G1 X210.077 Y230.441 E.02416
G1 X250.089 Y270.453 E2.11117
G1 X250.089 Y271.101 E.02416
G1 X209.429 Y230.441 E2.14533
G1 X208.782 Y230.441 E.02416
G1 X250.089 Y271.748 E2.1795
G1 X250.089 Y272.396 E.02416
G1 X208.134 Y230.441 E2.21366
G1 X207.487 Y230.441 E.02416
G1 X250.089 Y273.043 E2.24783
M73 P1 R178
G1 X250.089 Y273.691 E.02416
G1 X206.839 Y230.441 E2.28199
G1 X206.192 Y230.441 E.02416
G1 X250.089 Y274.338 E2.31616
G1 X250.089 Y274.986 E.02416
G1 X205.544 Y230.441 E2.35032
G1 X204.897 Y230.441 E.02416
G1 X250.089 Y275.633 E2.38448
G1 X250.089 Y276.281 E.02416
G1 X204.249 Y230.441 E2.41865
M73 P1 R177
G1 X203.602 Y230.441 E.02416
G1 X250.089 Y276.928 E2.45281
G1 X250.089 Y277.576 E.02416
G1 X202.954 Y230.441 E2.48698
G1 X202.307 Y230.441 E.02416
G1 X250.089 Y278.223 E2.52114
G1 X250.089 Y278.871 E.02416
G1 X201.659 Y230.441 E2.55531
G1 X201.012 Y230.441 E.02416
G1 X250.089 Y279.518 E2.58947
G1 X250.089 Y280.166 E.02416
G1 X200.364 Y230.441 E2.62364
G1 X199.717 Y230.441 E.02416
G1 X250.089 Y280.813 E2.6578
G1 X250.089 Y281.461 E.02416
G1 X199.069 Y230.441 E2.69197
G1 X198.422 Y230.441 E.02416
G1 X250.089 Y282.108 E2.72613
G1 X250.089 Y282.756 E.02416
G1 X197.774 Y230.441 E2.76029
G1 X197.127 Y230.441 E.02416
G1 X250.089 Y283.403 E2.79446
G1 X250.089 Y284.051 E.02416
G1 X196.479 Y230.441 E2.82862
G1 X195.832 Y230.441 E.02416
G1 X250.089 Y284.698 E2.86279
G1 X250.089 Y285.346 E.02416
G1 X195.184 Y230.441 E2.89695
G1 X194.537 Y230.441 E.02416
G1 X250.089 Y285.993 E2.93112
G1 X250.089 Y286.641 E.02416
G1 X193.889 Y230.441 E2.96528
G1 X193.242 Y230.441 E.02416
G1 X250.089 Y287.288 E2.99945
G1 X250.089 Y287.936 E.02416
G1 X192.594 Y230.441 E3.03361
G1 X191.947 Y230.441 E.02416
G1 X250.071 Y288.566 E3.06683
G1 X249.424 Y288.566 E.02416
G1 X191.299 Y230.441 E3.06683
G1 X190.652 Y230.441 E.02416
G1 X248.776 Y288.566 E3.06683
G1 X248.129 Y288.566 E.02416
G1 X190.004 Y230.441 E3.06683
G1 X189.357 Y230.441 E.02416
G1 X247.481 Y288.566 E3.06683
G1 X246.834 Y288.566 E.02416
G1 X188.709 Y230.441 E3.06683
G1 X188.062 Y230.441 E.02416
G1 X246.186 Y288.566 E3.06683
G1 X245.539 Y288.566 E.02416
G1 X187.414 Y230.441 E3.06684
G1 X186.767 Y230.441 E.02416
G1 X244.891 Y288.566 E3.06684
G1 X244.244 Y288.566 E.02416
G1 X186.119 Y230.441 E3.06684
G1 X185.472 Y230.441 E.02416
G1 X243.596 Y288.566 E3.06684
G1 X242.949 Y288.566 E.02416
G1 X184.824 Y230.441 E3.06684
G1 X184.177 Y230.441 E.02416
G1 X242.301 Y288.566 E3.06684
G1 X241.654 Y288.566 E.02416
G1 X183.529 Y230.441 E3.06684
G1 X182.882 Y230.441 E.02416
G1 X241.006 Y288.566 E3.06684
G1 X240.359 Y288.566 E.02416
G1 X182.234 Y230.441 E3.06684
G1 X181.587 Y230.441 E.02416
G1 X239.711 Y288.566 E3.06684
G1 X239.064 Y288.566 E.02416
G1 X180.939 Y230.441 E3.06684
G1 X180.292 Y230.441 E.02416
G1 X238.416 Y288.566 E3.06684
M73 P1 R176
G1 X237.769 Y288.566 E.02416
G1 X179.644 Y230.441 E3.06684
G1 X178.997 Y230.441 E.02416
G1 X237.121 Y288.566 E3.06684
G1 X236.474 Y288.566 E.02416
G1 X178.349 Y230.441 E3.06684
G1 X177.702 Y230.441 E.02416
G1 X235.826 Y288.566 E3.06684
G1 X235.179 Y288.566 E.02416
G1 X177.054 Y230.441 E3.06684
G1 X176.407 Y230.441 E.02416
G1 X234.531 Y288.566 E3.06684
G1 X233.884 Y288.566 E.02416
G1 X175.759 Y230.441 E3.06684
G1 X175.112 Y230.441 E.02416
G1 X233.236 Y288.566 E3.06684
G1 X232.589 Y288.566 E.02416
G1 X174.464 Y230.441 E3.06684
G1 X173.817 Y230.441 E.02416
G1 X231.941 Y288.566 E3.06684
G1 X231.294 Y288.566 E.02416
G1 X173.169 Y230.441 E3.06684
G1 X172.522 Y230.441 E.02416
G1 X230.646 Y288.566 E3.06684
G1 X229.999 Y288.566 E.02416
G1 X171.874 Y230.441 E3.06684
G1 X171.227 Y230.441 E.02416
