; HEADER_BLOCK_START
; generated by OrcaSlicer 1.6.3 on 2023-06-27 at 10:08:17
; total layer number: 49
; HEADER_BLOCK_END

; THUMBNAIL_BLOCK_START
; THUMBNAIL_BLOCK_END

; external perimeters extrusion width = 0.40mm
; perimeters extrusion width = 0.45mm
; infill extrusion width = 0.45mm
; solid infill extrusion width = 0.40mm
; top infill extrusion width = 0.40mm
; first layer extrusion width = 0.50mm

; external perimeters extrusion width = 0.40mm
; perimeters extrusion width = 0.45mm
; infill extrusion width = 0.45mm
; solid infill extrusion width = 0.40mm
; top infill extrusion width = 0.40mm
; first layer extrusion width = 0.50mm

; EXECUTABLE_BLOCK_START
EXCLUDE_OBJECT_DEFINE NAME=Base_X100.5_Y98.5.stl_id_0_copy_0 CENTER=165,198.178 POLYGON=[[78.2948,168.078],[78.3025,167.988],[78.3254,167.9],[78.3629,167.816],[78.414,167.738],[78.4776,167.669],[78.5521,167.61],[78.6356,167.563],[78.726,167.528],[78.8212,167.507],[78.9188,167.5],[251.081,167.5],[251.179,167.507],[251.274,167.528],[251.364,167.563],[251.448,167.61],[251.522,167.669],[251.586,167.738],[251.637,167.816],[251.675,167.9],[251.697,167.988],[251.705,168.078],[251.705,228.277],[251.697,228.368],[251.675,228.456],[251.637,228.54],[251.586,228.617],[251.522,228.686],[251.448,228.745],[251.364,228.793],[251.274,228.827],[251.179,228.849],[251.081,228.856],[78.9188,228.856],[78.8212,228.849],[78.726,228.827],[78.6356,228.793],[78.5521,228.745],[78.4776,228.686],[78.414,228.617],[78.3629,228.54],[78.3254,228.456],[78.3025,228.368],[78.2948,228.277],[78.2948,168.078]]
EXCLUDE_OBJECT_DEFINE NAME=Base_X100.5_Y98.5.stl_id_1_copy_0 CENTER=165,131.822 POLYGON=[[78.2948,101.723],[78.3025,101.632],[78.3254,101.544],[78.3629,101.46],[78.414,101.383],[78.4776,101.314],[78.5521,101.255],[78.6356,101.207],[78.726,101.173],[78.8212,101.151],[78.9188,101.144],[251.081,101.144],[251.179,101.151],[251.274,101.173],[251.364,101.207],[251.448,101.255],[251.522,101.314],[251.586,101.383],[251.637,101.46],[251.675,101.544],[251.697,101.632],[251.705,101.723],[251.705,161.922],[251.697,162.012],[251.675,162.1],[251.637,162.184],[251.586,162.262],[251.522,162.331],[251.448,162.39],[251.364,162.437],[251.274,162.472],[251.179,162.493],[251.081,162.5],[78.9188,162.5],[78.8212,162.493],[78.726,162.472],[78.6356,162.437],[78.5521,162.39],[78.4776,162.331],[78.414,162.262],[78.3629,162.184],[78.3254,162.1],[78.3025,162.012],[78.2948,161.922],[78.2948,101.723]]
M73 P0 R93
M73 C70
;TYPE:Custom
START_PRINT T_BED=60 T_EXTRUDER=200
G90
G21
M83 ; use relative distances for extrusion
; filament start gcode

    PRESSURE_ADVANCE_SELECT FILAMENT=PLA
M106 S0
;LAYER_CHANGE
;Z:0.2
;HEIGHT:0.2
M204 S1000
G1 E-.5 F3600
G1 X76.749 Y98.977 F9000
G1 Z.2
G1 E.5 F3600
;TYPE:Skirt
;WIDTH:0.5
G1 F3000
G1 X77.684 Y98.46 E.03982
G1 X78.19 Y98.315 E.01958
G1 X78.919 Y98.239 E.0273
G1 X251.087 Y98.239 E6.41262
G1 X251.81 Y98.315 E.02707
G1 X252.405 Y98.494 E.02312
G1 X253.251 Y98.977 E.03629
G1 X253.659 Y99.345 E.02045
G1 X254.06 Y99.857 E.02422
G1 X254.326 Y100.358 E.02114
G1 X254.509 Y100.902 E.0214
G1 X254.61 Y101.723 E.03078
G1 X254.61 Y228.277 E4.71368
G1 X254.509 Y229.097 E.03078
G1 X254.289 Y229.725 E.02477
G1 X253.721 Y230.587 E.03846
G1 X253.251 Y231.023 E.02389
G1 X252.316 Y231.54 E.03979
G1 X251.81 Y231.685 E.01959
G1 X251.081 Y231.761 E.0273
G1 X78.919 Y231.761 E6.41239
G1 X78.096 Y231.664 E.03086
G1 X77.201 Y231.319 E.03573
G1 X76.675 Y230.965 E.0236
G1 X75.991 Y230.219 E.03771
G1 X75.513 Y229.184 E.04246
G1 X75.39 Y228.277 E.03409
G1 X75.39 Y101.723 E4.71368
G1 X75.491 Y100.903 E.03077
G1 X75.711 Y100.275 E.02477
G1 X76.279 Y99.413 E.03846
G1 X76.705 Y99.018 E.02163
G1 X77.014 Y99.352 F9000
G1 F3000
G1 X77.032 Y99.335 E.00091
G1 X77.848 Y98.887 E.03468
G1 X78.919 Y98.696 E.0405
G1 X251.087 Y98.696 E6.41262
M73 P0 R92
G1 X251.711 Y98.761 E.02335
G1 X252.241 Y98.921 E.02061
G1 X252.967 Y99.335 E.03115
G1 X253.323 Y99.655 E.01779
G1 X253.909 Y100.544 E.03969
G1 X254.067 Y101.017 E.01857
G1 X254.153 Y101.723 E.02647
G1 X254.153 Y228.277 E4.71368
G1 X254.067 Y228.983 E.02647
G1 X253.872 Y229.539 E.02193
G1 X253.385 Y230.277 E.03296
G1 X252.967 Y230.665 E.02122
G1 X252.152 Y231.113 E.03466
G1 X251.081 Y231.304 E.04051
G1 X78.919 Y231.304 E6.41239
G1 X78.195 Y231.218 E.02714
G1 X77.427 Y230.922 E.03069
G1 X76.959 Y230.607 E.021
G1 X76.372 Y229.967 E.03233
G1 X75.956 Y229.07 E.03686
G1 X75.847 Y228.277 E.02978
G1 X75.847 Y101.723 E4.71368
G1 X75.933 Y101.017 E.02647
G1 X76.128 Y100.461 E.02194
G1 X76.615 Y99.722 E.03296
G1 X76.97 Y99.393 E.01806
; printing object Base X100.5 Y98.5.stl id:0 copy 0
EXCLUDE_OBJECT_START NAME=Base_X100.5_Y98.5.stl_id_0_copy_0
G1 E-.5 F3600
G1 X78.756 Y167.921 F9000
G1 E.5 F3600
;TYPE:Outer wall
;WIDTH:0.499999
G1 F3000
G1 X78.948 Y167.859 E.00751
G1 X250.997 Y167.859 E6.40816
G1 X251.161 Y167.893 E.00622
G1 X251.29 Y167.981 E.00584
G1 X251.346 Y168.12 E.00557
G1 X251.346 Y228.179 E2.23699
G1 X251.292 Y228.39 E.0081
G1 X251.208 Y228.446 E.00373
G1 X251.059 Y228.497 E.00586
G1 X79.009 Y228.497 E6.40823
G1 X78.76 Y228.439 E.0095
G1 X78.654 Y228.252 E.008
G1 X78.654 Y168.123 E2.23959
G1 X78.729 Y167.975 E.00619
G1 X78.795 Y167.933
G1 X79.111 Y168.316 F9000
;TYPE:Inner wall
G1 F3000
G1 X250.889 Y168.316 E6.39806
G1 X250.889 Y228.04 E2.22449
G1 X79.111 Y228.04 E6.39806
M73 C69
G1 X79.111 Y168.376 E2.22227
G1 X79.568 Y168.773 F9000
G1 F3000
G1 X250.432 Y168.773 E6.36401
G1 X250.432 Y227.583 E2.19044
G1 X79.568 Y227.583 E6.36401
G1 X79.568 Y168.833 E2.18822
G1 X80.025 Y169.23 F9000
G1 F3000
G1 X249.975 Y169.23 E6.32996
M73 P1 R92
G1 X249.975 Y227.126 E2.15639
G1 X80.025 Y227.126 E6.32996
G1 X80.025 Y169.29 E2.15417
G1 E-.5 F3600
G1 X249.838 Y170.293 F9000
G1 E.5 F3600
;TYPE:Bottom surface
;WIDTH:0.501004
G1 F6300
G1 X249.117 Y169.573 E.03803
G1 X248.469 Y169.573 E.02418
G1 X249.632 Y170.736 E.06137
G1 X249.632 Y171.383 E.02418
G1 X247.822 Y169.573 E.09557
G1 X247.174 Y169.573 E.02418
G1 X249.632 Y172.031 E.12977
G1 X249.632 Y172.679 E.02418
G1 X246.526 Y169.573 E.16397
G1 X245.878 Y169.573 E.02418
G1 X249.632 Y173.327 E.19817
G1 X249.632 Y173.975 E.02418
G1 X245.23 Y169.573 E.23237
G1 X244.582 Y169.573 E.02418
G1 X249.632 Y174.623 E.26656
G1 X249.632 Y175.27 E.02418
G1 X243.935 Y169.573 E.30076
G1 X243.287 Y169.573 E.02418
G1 X249.632 Y175.918 E.33496
G1 X249.632 Y176.566 E.02418
G1 X242.639 Y169.573 E.36916
G1 X241.991 Y169.573 E.02418
G1 X249.632 Y177.214 E.40336
G1 X249.632 Y177.862 E.02418
G1 X241.343 Y169.573 E.43756
G1 X240.695 Y169.573 E.02418
G1 X249.632 Y178.51 E.47176
G1 X249.632 Y179.157 E.02418
G1 X240.048 Y169.573 E.50596
G1 X239.4 Y169.573 E.02418
G1 X249.632 Y179.805 E.54016
G1 X249.632 Y180.453 E.02418
G1 X238.752 Y169.573 E.57435
G1 X238.104 Y169.573 E.02418
G1 X249.632 Y181.101 E.60855
G1 X249.632 Y181.749 E.02418
G1 X237.456 Y169.573 E.64275
G1 X236.808 Y169.573 E.02418
G1 X249.632 Y182.397 E.67695
G1 X249.632 Y183.044 E.02418
G1 X236.161 Y169.573 E.71115
G1 X235.513 Y169.573 E.02418
G1 X249.632 Y183.692 E.74535
G1 X249.632 Y184.34 E.02418
G1 X234.865 Y169.573 E.77955
G1 X234.217 Y169.573 E.02418
G1 X249.632 Y184.988 E.81375
G1 X249.632 Y185.636 E.02418
G1 X233.569 Y169.573 E.84795
G1 X232.921 Y169.573 E.02418
G1 X249.632 Y186.283 E.88214
G1 X249.632 Y186.931 E.02418
G1 X232.274 Y169.573 E.91634
G1 X231.626 Y169.573 E.02418
G1 X249.632 Y187.579 E.95054
G1 X249.632 Y188.227 E.02418
G1 X230.978 Y169.573 E.98474
G1 X230.33 Y169.573 E.02418
G1 X249.632 Y188.875 E1.01894
G1 X249.632 Y189.523 E.02418
G1 X229.682 Y169.573 E1.05314
G1 X229.034 Y169.573 E.02418
G1 X249.632 Y190.17 E1.08734
G1 X249.632 Y190.818 E.02418
G1 X228.387 Y169.573 E1.12154
G1 X227.739 Y169.573 E.02418
G1 X249.632 Y191.466 E1.15573
G1 X249.632 Y192.114 E.02418
G1 X227.091 Y169.573 E1.18993
G1 X226.443 Y169.573 E.02418
G1 X249.632 Y192.762 E1.22413
G1 X249.632 Y193.41 E.02418
G1 X225.795 Y169.573 E1.25833
G1 X225.147 Y169.573 E.02418
G1 X249.632 Y194.057 E1.29253
M73 P1 R91
G1 X249.632 Y194.705 E.02418
G1 X224.5 Y169.573 E1.32673
G1 X223.852 Y169.573 E.02418
G1 X249.632 Y195.353 E1.36093
G1 X249.632 Y196.001 E.02418
G1 X223.204 Y169.573 E1.39513
G1 X222.556 Y169.573 E.02418
G1 X249.632 Y196.649 E1.42933
G1 X249.632 Y197.297 E.02418
G1 X221.908 Y169.573 E1.46352
G1 X221.26 Y169.573 E.02418
G1 X249.632 Y197.944 E1.49772
G1 X249.632 Y198.592 E.02418
G1 X220.613 Y169.573 E1.53192
G1 X219.965 Y169.573 E.02418
G1 X249.632 Y199.24 E1.56612
G1 X249.632 Y199.888 E.02418
G1 X219.317 Y169.573 E1.60032
G1 X218.669 Y169.573 E.02418
G1 X249.632 Y200.536 E1.63452
G1 X249.632 Y201.184 E.02418
G1 X218.021 Y169.573 E1.66872
G1 X217.373 Y169.573 E.02418
G1 X249.632 Y201.831 E1.70292
G1 X249.632 Y202.479 E.02418
G1 X216.726 Y169.573 E1.73712
G1 X216.078 Y169.573 E.02418
G1 X249.632 Y203.127 E1.77131
G1 X249.632 Y203.775 E.02418
G1 X215.43 Y169.573 E1.80551
G1 X214.782 Y169.573 E.02418
G1 X249.632 Y204.423 E1.83971
G1 X249.632 Y205.071 E.02418
G1 X214.134 Y169.573 E1.87391
G1 X213.487 Y169.573 E.02418
G1 X249.632 Y205.718 E1.90811
G1 X249.632 Y206.366 E.02418
G1 X212.839 Y169.573 E1.94231
G1 X212.191 Y169.573 E.02418
G1 X249.632 Y207.014 E1.97651
G1 X249.632 Y207.662 E.02418
G1 X211.543 Y169.573 E2.01071
G1 X210.895 Y169.573 E.02418
G1 X249.632 Y208.31 E2.0449
G1 X249.632 Y208.957 E.02418
G1 X210.247 Y169.573 E2.0791
G1 X209.6 Y169.573 E.02418
G1 X249.632 Y209.605 E2.1133
G1 X249.632 Y210.253 E.02418
G1 X208.952 Y169.573 E2.1475
G1 X208.304 Y169.573 E.02418
G1 X249.632 Y210.901 E2.1817
G1 X249.632 Y211.549 E.02418
G1 X207.656 Y169.573 E2.2159
G1 X207.008 Y169.573 E.02418
G1 X249.632 Y212.197 E2.2501
G1 X249.632 Y212.844 E.02418
G1 X206.36 Y169.573 E2.2843
G1 X205.713 Y169.573 E.02418
G1 X249.632 Y213.492 E2.3185
G1 X249.632 Y214.14 E.02418
G1 X205.065 Y169.573 E2.35269
G1 X204.417 Y169.573 E.02418
G1 X249.632 Y214.788 E2.38689
G1 X249.632 Y215.436 E.02418
G1 X203.769 Y169.573 E2.42109
G1 X203.121 Y169.573 E.02418
G1 X249.632 Y216.084 E2.45529
G1 X249.632 Y216.731 E.02418
G1 X202.473 Y169.573 E2.48949
G1 X201.826 Y169.573 E.02418
G1 X249.632 Y217.379 E2.52369
G1 X249.632 Y218.027 E.02418
G1 X201.178 Y169.573 E2.55789
G1 X200.53 Y169.573 E.02418
G1 X249.632 Y218.675 E2.59209
G1 X249.632 Y219.323 E.02418
G1 X199.882 Y169.573 E2.62629
G1 X199.234 Y169.573 E.02418
G1 X249.632 Y219.971 E2.66048
G1 X249.632 Y220.618 E.02418
G1 X198.586 Y169.573 E2.69468
G1 X197.939 Y169.573 E.02418
G1 X249.632 Y221.266 E2.72888
G1 X249.632 Y221.914 E.02418
G1 X197.291 Y169.573 E2.76308
G1 X196.643 Y169.573 E.02418
G1 X249.632 Y222.562 E2.79728
M73 C68
G1 X249.632 Y223.21 E.02418
G1 X195.995 Y169.573 E2.83148
G1 X195.347 Y169.573 E.02418
G1 X249.632 Y223.858 E2.86568
G1 X249.632 Y224.505 E.02418
G1 X194.699 Y169.573 E2.89988
G1 X194.052 Y169.573 E.02418
G1 X249.632 Y225.153 E2.93407
G1 X249.632 Y225.801 E.02418
G1 X193.404 Y169.573 E2.96827
G1 X192.756 Y169.573 E.02418
G1 X249.632 Y226.449 E3.00247
G1 X249.632 Y226.783 E.01248
G1 X249.318 Y226.783 E.01171
G1 X192.108 Y169.573 E3.02012
G1 X191.46 Y169.573 E.02418
G1 X248.67 Y226.783 E3.02012
G1 X248.023 Y226.783 E.02418
G1 X190.812 Y169.573 E3.02012
M73 P2 R91
G1 X190.165 Y169.573 E.02418
G1 X247.375 Y226.783 E3.02012
G1 X246.727 Y226.783 E.02418
G1 X189.517 Y169.573 E3.02012
G1 X188.869 Y169.573 E.02418
G1 X246.079 Y226.783 E3.02012
G1 X245.431 Y226.783 E.02418
G1 X188.221 Y169.573 E3.02012
G1 X187.573 Y169.573 E.02418
G1 X244.784 Y226.783 E3.02012
G1 X244.136 Y226.783 E.02418
G1 X186.925 Y169.573 E3.02012
G1 X186.278 Y169.573 E.02418
G1 X243.488 Y226.783 E3.02012
G1 X242.84 Y226.783 E.02418
G1 X185.63 Y169.573 E3.02012
G1 X184.982 Y169.573 E.02418
G1 X242.192 Y226.783 E3.02012
G1 X241.544 Y226.783 E.02418
G1 X184.334 Y169.573 E3.02012
G1 X183.686 Y169.573 E.02418
G1 X240.897 Y226.783 E3.02012
G1 X240.249 Y226.783 E.02418
G1 X183.038 Y169.573 E3.02012
G1 X182.391 Y169.573 E.02418
G1 X239.601 Y226.783 E3.02012
G1 X238.953 Y226.783 E.02418
G1 X181.743 Y169.573 E3.02012
G1 X181.095 Y169.573 E.02418
G1 X238.305 Y226.783 E3.02012
G1 X237.657 Y226.783 E.02418
G1 X180.447 Y169.573 E3.02012
G1 X179.799 Y169.573 E.02418
G1 X237.01 Y226.783 E3.02012
G1 X236.362 Y226.783 E.02418
G1 X179.152 Y169.573 E3.02012
G1 X178.504 Y169.573 E.02418
G1 X235.714 Y226.783 E3.02012
G1 X235.066 Y226.783 E.02418
G1 X177.856 Y169.573 E3.02012
G1 X177.208 Y169.573 E.02418
G1 X234.418 Y226.783 E3.02012
G1 X233.77 Y226.783 E.02418
G1 X176.56 Y169.573 E3.02012
G1 X175.912 Y169.573 E.02418
G1 X233.123 Y226.783 E3.02012
G1 X232.475 Y226.783 E.02418
G1 X175.265 Y169.573 E3.02012
G1 X174.617 Y169.573 E.02418
G1 X231.827 Y226.783 E3.02012
G1 X231.179 Y226.783 E.02418
G1 X173.969 Y169.573 E3.02012
G1 X173.321 Y169.573 E.02418
G1 X230.531 Y226.783 E3.02012
M73 P2 R90
G1 X229.883 Y226.783 E.02418
G1 X172.673 Y169.573 E3.02012
G1 X172.025 Y169.573 E.02418
G1 X229.236 Y226.783 E3.02012
G1 X228.588 Y226.783 E.02418
G1 X171.378 Y169.573 E3.02012
G1 X170.73 Y169.573 E.02418
G1 X227.94 Y226.783 E3.02012
G1 X227.292 Y226.783 E.02418
G1 X170.082 Y169.573 E3.02012
G1 X169.434 Y169.573 E.02418
G1 X226.644 Y226.783 E3.02012
G1 X225.996 Y226.783 E.02418
G1 X168.786 Y169.573 E3.02012
G1 X168.138 Y169.573 E.02418
G1 X225.349 Y226.783 E3.02012
G1 X224.701 Y226.783 E.02418
G1 X167.491 Y169.573 E3.02012
G1 X166.843 Y169.573 E.02418
G1 X224.053 Y226.783 E3.02012
G1 X223.405 Y226.783 E.02418
G1 X166.195 Y169.573 E3.02012
G1 X165.547 Y169.573 E.02418
G1 X222.757 Y226.783 E3.02012
G1 X222.11 Y226.783 E.02418
G1 X164.899 Y169.573 E3.02012
G1 X164.251 Y169.573 E.02418
G1 X221.462 Y226.783 E3.02012
G1 X220.814 Y226.783 E.02418
G1 X163.604 Y169.573 E3.02012
G1 X162.956 Y169.573 E.02418
G1 X220.166 Y226.783 E3.02012
G1 X219.518 Y226.783 E.02418
G1 X162.308 Y169.573 E3.02012
G1 X161.66 Y169.573 E.02418
G1 X218.87 Y226.783 E3.02012
G1 X218.223 Y226.783 E.02418
G1 X161.012 Y169.573 E3.02012
G1 X160.364 Y169.573 E.02418
G1 X217.575 Y226.783 E3.02012
G1 X216.927 Y226.783 E.02418
G1 X159.717 Y169.573 E3.02012
G1 X159.069 Y169.573 E.02418
G1 X216.279 Y226.783 E3.02012
G1 X215.631 Y226.783 E.02418
G1 X158.421 Y169.573 E3.02012
G1 X157.773 Y169.573 E.02418
G1 X214.983 Y226.783 E3.02012
G1 X214.336 Y226.783 E.02418
G1 X157.125 Y169.573 E3.02012
G1 X156.477 Y169.573 E.02418
G1 X213.688 Y226.783 E3.02012
G1 X213.04 Y226.783 E.02418
G1 X155.83 Y169.573 E3.02012
G1 X155.182 Y169.573 E.02418
G1 X212.392 Y226.783 E3.02012
G1 X211.744 Y226.783 E.02418
G1 X154.534 Y169.573 E3.02012
G1 X153.886 Y169.573 E.02418
G1 X211.096 Y226.783 E3.02012
G1 X210.449 Y226.783 E.02418
G1 X153.238 Y169.573 E3.02012
M73 C67
G1 X152.59 Y169.573 E.02418
G1 X209.801 Y226.783 E3.02012
G1 X209.153 Y226.783 E.02418
G1 X151.943 Y169.573 E3.02012
G1 X151.295 Y169.573 E.02418
G1 X208.505 Y226.783 E3.02012
G1 X207.857 Y226.783 E.02418
G1 X150.647 Y169.573 E3.02012
M73 P3 R90
G1 X149.999 Y169.573 E.02418
G1 X207.209 Y226.783 E3.02012
G1 X206.562 Y226.783 E.02418
G1 X149.351 Y169.573 E3.02012
G1 X148.703 Y169.573 E.02418
G1 X205.914 Y226.783 E3.02012
G1 X205.266 Y226.783 E.02418
G1 X148.056 Y169.573 E3.02012
G1 X147.408 Y169.573 E.02418
G1 X204.618 Y226.783 E3.02012
G1 X203.97 Y226.783 E.02418
G1 X146.76 Y169.573 E3.02012
G1 X146.112 Y169.573 E.02418
G1 X203.322 Y226.783 E3.02012
G1 X202.675 Y226.783 E.02418
G1 X145.464 Y169.573 E3.02012
G1 X144.816 Y169.573 E.02418
G1 X202.027 Y226.783 E3.02012
G1 X201.379 Y226.783 E.02418
G1 X144.169 Y169.573 E3.02012
G1 X143.521 Y169.573 E.02418
G1 X200.731 Y226.783 E3.02012
G1 X200.083 Y226.783 E.02418
G1 X142.873 Y169.573 E3.02012
G1 X142.225 Y169.573 E.02418
G1 X199.436 Y226.783 E3.02012
G1 X198.788 Y226.783 E.02418
G1 X141.577 Y169.573 E3.02012
G1 X140.93 Y169.573 E.02418
G1 X198.14 Y226.783 E3.02012
G1 X197.492 Y226.783 E.02418
G1 X140.282 Y169.573 E3.02012
G1 X139.634 Y169.573 E.02418
G1 X196.844 Y226.783 E3.02012
G1 X196.196 Y226.783 E.02418
G1 X138.986 Y169.573 E3.02012
G1 X138.338 Y169.573 E.02418
G1 X195.549 Y226.783 E3.02012
G1 X194.901 Y226.783 E.02418
G1 X137.69 Y169.573 E3.02012
G1 X137.043 Y169.573 E.02418
