; HEADER_BLOCK_START
; generated by OrcaSlicer 1.6.6 on 2023-08-31 at 20:07:02
; total layer number: 49
; HEADER_BLOCK_END

; THUMBNAIL_BLOCK_START
; THUMBNAIL_BLOCK_END

; external perimeters extrusion width = 0.40mm
; perimeters extrusion width = 0.46mm
; infill extrusion width = 0.64mm
; solid infill extrusion width = 0.56mm
; top infill extrusion width = 0.40mm
; support material extrusion width = 0.46mm
; first layer extrusion width = 0.50mm

; external perimeters extrusion width = 0.40mm
; perimeters extrusion width = 0.46mm
; infill extrusion width = 0.64mm
; solid infill extrusion width = 0.56mm
; top infill extrusion width = 0.40mm
; support material extrusion width = 0.46mm
; first layer extrusion width = 0.50mm

; external perimeters extrusion width = 0.40mm
; perimeters extrusion width = 0.46mm
; infill extrusion width = 0.64mm
; solid infill extrusion width = 0.56mm
; top infill extrusion width = 0.40mm
; support material extrusion width = 0.46mm
; first layer extrusion width = 0.50mm

; EXECUTABLE_BLOCK_START
EXCLUDE_OBJECT_DEFINE NAME=Base_X100.5_Y98.5.stl_id_0_copy_0 CENTER=236.356,165 POLYGON=[[205.678,78.9188],[205.685,78.8212],[205.706,78.726],[205.741,78.6356],[205.788,78.5521],[205.847,78.4776],[205.916,78.414],[205.994,78.3629],[206.077,78.3254],[206.166,78.3025],[206.256,78.2948],[266.455,78.2948],[266.546,78.3025],[266.634,78.3254],[266.718,78.3629],[266.795,78.414],[266.864,78.4776],[266.923,78.5521],[266.97,78.6356],[267.005,78.726],[267.026,78.8212],[267.033,78.9188],[267.033,251.081],[267.026,251.179],[267.005,251.274],[266.97,251.364],[266.923,251.448],[266.864,251.522],[266.795,251.586],[266.718,251.637],[266.634,251.675],[266.546,251.697],[266.455,251.705],[206.256,251.705],[206.166,251.697],[206.077,251.675],[205.994,251.637],[205.916,251.586],[205.847,251.522],[205.788,251.448],[205.741,251.364],[205.706,251.274],[205.685,251.179],[205.678,251.081],[205.678,78.9188]]
EXCLUDE_OBJECT_DEFINE NAME=Base_X100.5_Y98.5.stl_id_1_copy_0 CENTER=165,165 POLYGON=[[134.322,78.9188],[134.329,78.8212],[134.35,78.726],[134.385,78.6356],[134.433,78.5521],[134.492,78.4776],[134.561,78.414],[134.638,78.3629],[134.722,78.3254],[134.81,78.3025],[134.9,78.2948],[195.1,78.2948],[195.19,78.3025],[195.278,78.3254],[195.362,78.3629],[195.439,78.414],[195.508,78.4776],[195.567,78.5521],[195.615,78.6356],[195.65,78.726],[195.671,78.8212],[195.678,78.9188],[195.678,251.081],[195.671,251.179],[195.65,251.274],[195.615,251.364],[195.567,251.448],[195.508,251.522],[195.439,251.586],[195.362,251.637],[195.278,251.675],[195.19,251.697],[195.1,251.705],[134.9,251.705],[134.81,251.697],[134.722,251.675],[134.638,251.637],[134.561,251.586],[134.492,251.522],[134.433,251.448],[134.385,251.364],[134.35,251.274],[134.329,251.179],[134.322,251.081],[134.322,78.9188]]
EXCLUDE_OBJECT_DEFINE NAME=Base_X100.5_Y98.5.stl_id_2_copy_0 CENTER=93.6443,165 POLYGON=[[62.9665,78.9188],[62.9736,78.8212],[62.9948,78.726],[63.0295,78.6356],[63.077,78.5521],[63.1359,78.4776],[63.2049,78.414],[63.2823,78.3629],[63.3661,78.3254],[63.4543,78.3025],[63.5448,78.2948],[123.744,78.2948],[123.834,78.3025],[123.923,78.3254],[124.006,78.3629],[124.084,78.414],[124.153,78.4776],[124.212,78.5521],[124.259,78.6356],[124.294,78.726],[124.315,78.8212],[124.322,78.9188],[124.322,251.081],[124.315,251.179],[124.294,251.274],[124.259,251.364],[124.212,251.448],[124.153,251.522],[124.084,251.586],[124.006,251.637],[123.923,251.675],[123.834,251.697],[123.744,251.705],[63.5448,251.705],[63.4543,251.697],[63.3661,251.675],[63.2823,251.637],[63.2049,251.586],[63.1359,251.522],[63.077,251.448],[63.0295,251.364],[62.9948,251.274],[62.9736,251.179],[62.9665,251.081],[62.9665,78.9188]]
M73 P0 R142
;TYPE:Custom
START_PRINT T_BED=60 T_EXTRUDER=220
G90
G21
M83 ; use relative distances for extrusion
; filament start gcode

    PRESSURE_ADVANCE_SELECT FILAMENT=PLA
M106 S0
;LAYER_CHANGE
;Z:0.2
;HEIGHT:0.2
;BEFORE_LAYER_CHANGE
;0.2
G92 E0

SET_VELOCITY_LIMIT ACCEL=5000 ACCEL_TO_DECEL=2500
G1 E-.8 F1800
G1 X60.137 Y78.19 F12000
G1 Z.2
G1 E.8 F1800
;TYPE:Skirt
;WIDTH:0.5
G1 F3000
G1 X60.317 Y77.595 E.02314
G1 X60.799 Y76.749 E.03629
G1 X61.235 Y76.279 E.02387
G1 X62.18 Y75.674 E.04179
G1 X62.725 Y75.491 E.02143
G1 X63.545 Y75.39 E.03077
G1 X266.461 Y75.39 E7.55786
G1 X267.275 Y75.491 E.03056
G1 X267.82 Y75.674 E.02142
G1 X268.321 Y75.94 E.02113
G1 X268.833 Y76.341 E.02423
G1 X269.201 Y76.749 E.02044
G1 X269.686 Y77.601 E.03653
G1 X269.863 Y78.19 E.02289
G1 X269.939 Y78.919 E.0273
G1 X269.939 Y251.081 E6.41239
M73 P0 R141
G1 X269.863 Y251.81 E.0273
G1 X269.683 Y252.405 E.02312
G1 X269.201 Y253.251 E.03629
G1 X268.765 Y253.721 E.02389
G1 X267.82 Y254.326 E.04179
G1 X267.275 Y254.509 E.0214
G1 X266.455 Y254.61 E.03078
G1 X63.545 Y254.61 E7.55764
G1 X62.725 Y254.509 E.03078
G1 X62.097 Y254.29 E.02477
G1 X61.603 Y254.009 E.02117
G1 X60.857 Y253.324 E.03771
G1 X60.282 Y252.316 E.04323
G1 X60.137 Y251.81 E.01959
G1 X60.061 Y251.081 E.0273
G1 X60.061 Y78.919 E6.41239
G1 X60.133 Y78.23 E.02581
G1 X60.584 Y78.289 F12000
G1 F3000
G1 X60.743 Y77.759 E.02062
G1 X61.157 Y77.032 E.03115
G1 X61.545 Y76.615 E.02121
G1 X62.366 Y76.091 E.03629
G1 X62.84 Y75.933 E.01859
G1 X63.545 Y75.847 E.02646
G1 X266.461 Y75.847 E7.55786
G1 X267.161 Y75.933 E.02625
G1 X267.634 Y76.091 E.01858
G1 X268.523 Y76.677 E.03969
G1 X268.843 Y77.032 E.01778
G1 X269.259 Y77.765 E.03139
G1 X269.416 Y78.289 E.02038
G1 X269.482 Y78.919 E.02358
G1 X269.482 Y251.081 E6.41239
G1 X269.416 Y251.711 E.02358
G1 X269.257 Y252.241 E.02061
G1 X268.843 Y252.967 E.03115
G1 X268.455 Y253.385 E.02122
G1 X267.634 Y253.909 E.03629
G1 X267.161 Y254.067 E.01857
G1 X266.455 Y254.153 E.02647
G1 X63.545 Y254.153 E7.55764
G1 X62.839 Y254.067 E.02647
G1 X62.284 Y253.872 E.02193
G1 X61.855 Y253.628 E.01838
G1 X61.215 Y253.041 E.03234
G1 X60.709 Y252.152 E.0381
G1 X60.518 Y251.081 E.04051
G1 X60.518 Y78.919 E6.41239
G1 X60.579 Y78.329 E.02209
; printing object Base X100.5 Y98.5.stl id:0 copy 0
G1 E-.8 F1800
EXCLUDE_OBJECT_START NAME=Base_X100.5_Y98.5.stl_id_0_copy_0
G1 X206.198 Y251.33 F12000
G1 E.8 F1800
;TYPE:Outer wall
G1 F3000
G3 X206.036 Y251.068 I.092 J-.237 E.01228
G1 X206.036 Y78.932 E6.41144
G3 X206.271 Y78.654 I.253 J-.024 E.01507
G1 X206.754 Y78.654 E.01798
G1 X266.446 Y78.655 E2.22332
G3 X266.675 Y78.932 I-.024 J.253 E.01486
G1 X266.675 Y251.068 E6.41144
G3 X266.44 Y251.346 I-.253 J.024 E.01507
G1 X206.271 Y251.346 E2.24108
G3 X206.236 Y251.341 I.019 J-.254 E.0013
G1 X206.493 Y250.889 F12000
;TYPE:Inner wall
G1 F3000
G1 X206.493 Y79.111 E6.39807
G1 X206.754 Y79.111 E.00969
G1 X266.218 Y79.112 E2.21482
G1 X266.218 Y250.889 E6.39805
G1 X206.533 Y250.889 E2.22302
G1 X206.951 Y250.432 F12000
G1 F3000
G1 X206.951 Y79.568 E6.36402
G1 X265.761 Y79.569 E2.19046
G1 X265.761 Y250.432 E6.364
G1 X206.991 Y250.432 E2.18897
G1 X207.408 Y249.975 F12000
G1 F3000
G1 X207.408 Y80.025 E6.32997
G1 X265.304 Y80.026 E2.15641
M73 P0 R140
G1 X265.304 Y249.975 E6.32995
G1 X207.448 Y249.975 E2.15492
G1 E-.8 F1800
G1 X264.24 Y80.163 F12000
G1 E.8 F1800
;TYPE:Bottom surface
;WIDTH:0.501004
G1 F6300
G1 X264.961 Y80.883 E.03803
G1 X264.961 Y81.531 E.02418
G1 X263.798 Y80.369 E.06137
G1 X263.15 Y80.369 E.02418
G1 X264.961 Y82.179 E.09557
G1 X264.961 Y82.827 E.02418
G1 X262.503 Y80.369 E.12977
G1 X261.855 Y80.369 E.02418
G1 X264.961 Y83.475 E.16397
G1 X264.961 Y84.122 E.02418
G1 X261.207 Y80.369 E.19817
G1 X260.559 Y80.369 E.02418
G1 X264.961 Y84.77 E.23237
G1 X264.961 Y85.418 E.02418
G1 X259.911 Y80.369 E.26657
G1 X259.263 Y80.369 E.02418
G1 X264.961 Y86.066 E.30077
G1 X264.961 Y86.714 E.02418
G1 X258.616 Y80.369 E.33496
G1 X257.968 Y80.369 E.02418
G1 X264.961 Y87.362 E.36916
G1 X264.961 Y88.009 E.02418
G1 X257.32 Y80.368 E.40336
G1 X256.672 Y80.368 E.02418
G1 X264.961 Y88.657 E.43756
G1 X264.961 Y89.305 E.02418
G1 X256.024 Y80.368 E.47176
G1 X255.376 Y80.368 E.02418
G1 X264.961 Y89.953 E.50596
G1 X264.961 Y90.601 E.02418
G1 X254.729 Y80.368 E.54016
G1 X254.081 Y80.368 E.02418
G1 X264.961 Y91.249 E.57436
G1 X264.961 Y91.896 E.02418
G1 X253.433 Y80.368 E.60856
G1 X252.785 Y80.368 E.02418
G1 X264.961 Y92.544 E.64276
G1 X264.961 Y93.192 E.02418
G1 X252.137 Y80.368 E.67695
G1 X251.489 Y80.368 E.02418
G1 X264.961 Y93.84 E.71115
G1 X264.961 Y94.488 E.02418
G1 X250.842 Y80.368 E.74535
G1 X250.194 Y80.368 E.02418
G1 X264.961 Y95.136 E.77955
G1 X264.961 Y95.783 E.02418
G1 X249.546 Y80.368 E.81375
G1 X248.898 Y80.368 E.02418
G1 X264.961 Y96.431 E.84795
G1 X264.961 Y97.079 E.02418
G1 X248.25 Y80.368 E.88215
G1 X247.602 Y80.368 E.02418
G1 X264.961 Y97.727 E.91635
G1 X264.961 Y98.375 E.02418
G1 X246.955 Y80.368 E.95055
G1 X246.307 Y80.368 E.02418
G1 X264.961 Y99.022 E.98475
G1 X264.961 Y99.67 E.02418
G1 X245.659 Y80.368 E1.01895
G1 X245.011 Y80.368 E.02418
G1 X264.961 Y100.318 E1.05314
G1 X264.961 Y100.966 E.02418
G1 X244.363 Y80.368 E1.08734
G1 X243.715 Y80.368 E.02418
G1 X264.961 Y101.614 E1.12154
G1 X264.961 Y102.262 E.02418
G1 X243.068 Y80.368 E1.15574
G1 X242.42 Y80.368 E.02418
G1 X264.961 Y102.909 E1.18994
G1 X264.961 Y103.557 E.02418
G1 X241.772 Y80.368 E1.22414
G1 X241.124 Y80.368 E.02418
G1 X264.961 Y104.205 E1.25834
G1 X264.961 Y104.853 E.02418
G1 X240.476 Y80.368 E1.29254
G1 X239.828 Y80.368 E.02418
G1 X264.961 Y105.501 E1.32674
G1 X264.961 Y106.149 E.02418
G1 X239.181 Y80.368 E1.36094
G1 X238.533 Y80.368 E.02418
G1 X264.961 Y106.796 E1.39513
G1 X264.961 Y107.444 E.02418
G1 X237.885 Y80.368 E1.42933
G1 X237.237 Y80.368 E.02418
G1 X264.961 Y108.092 E1.46353
G1 X264.961 Y108.74 E.02418
G1 X236.589 Y80.368 E1.49773
G1 X235.941 Y80.368 E.02418
G1 X264.961 Y109.388 E1.53193
G1 X264.961 Y110.036 E.02418
G1 X235.294 Y80.368 E1.56613
G1 X234.646 Y80.368 E.02418
G1 X264.961 Y110.683 E1.60033
G1 X264.961 Y111.331 E.02418
G1 X233.998 Y80.368 E1.63453
G1 X233.35 Y80.368 E.02418
G1 X264.961 Y111.979 E1.66873
G1 X264.961 Y112.627 E.02418
G1 X232.702 Y80.368 E1.70293
G1 X232.054 Y80.368 E.02418
G1 X264.961 Y113.275 E1.73712
G1 X264.961 Y113.923 E.02418
G1 X231.407 Y80.368 E1.77132
G1 X230.759 Y80.368 E.02418
G1 X264.961 Y114.57 E1.80552
M73 P1 R140
G1 X264.961 Y115.218 E.02418
G1 X230.111 Y80.368 E1.83972
G1 X229.463 Y80.368 E.02418
G1 X264.961 Y115.866 E1.87392
G1 X264.961 Y116.514 E.02418
G1 X228.815 Y80.368 E1.90812
G1 X228.167 Y80.368 E.02418
G1 X264.961 Y117.162 E1.94232
G1 X264.961 Y117.81 E.02418
G1 X227.52 Y80.368 E1.97652
G1 X226.872 Y80.368 E.02418
G1 X264.961 Y118.457 E2.01072
G1 X264.961 Y119.105 E.02418
G1 X226.224 Y80.368 E2.04492
G1 X225.576 Y80.368 E.02418
G1 X264.961 Y119.753 E2.07912
G1 X264.961 Y120.401 E.02418
G1 X224.928 Y80.368 E2.11331
G1 X224.28 Y80.368 E.02418
G1 X264.961 Y121.049 E2.14751
G1 X264.961 Y121.697 E.02418
G1 X223.633 Y80.368 E2.18171
G1 X222.985 Y80.368 E.02418
G1 X264.961 Y122.344 E2.21591
G1 X264.961 Y122.992 E.02418
G1 X222.337 Y80.368 E2.25011
G1 X221.689 Y80.368 E.02418
G1 X264.961 Y123.64 E2.28431
G1 X264.961 Y124.288 E.02418
G1 X221.041 Y80.368 E2.31851
G1 X220.393 Y80.368 E.02418
G1 X264.961 Y124.936 E2.35271
G1 X264.961 Y125.583 E.02418
G1 X219.746 Y80.368 E2.38691
G1 X219.098 Y80.368 E.02418
G1 X264.961 Y126.231 E2.42111
G1 X264.961 Y126.879 E.02418
G1 X218.45 Y80.368 E2.4553
G1 X217.802 Y80.368 E.02418
G1 X264.961 Y127.527 E2.4895
G1 X264.961 Y128.175 E.02418
G1 X217.154 Y80.368 E2.5237
G1 X216.506 Y80.368 E.02418
G1 X264.961 Y128.823 E2.5579
G1 X264.961 Y129.47 E.02418
G1 X215.859 Y80.368 E2.5921
G1 X215.211 Y80.368 E.02418
G1 X264.961 Y130.118 E2.6263
G1 X264.961 Y130.766 E.02418
G1 X214.563 Y80.368 E2.6605
G1 X213.915 Y80.368 E.02418
G1 X264.961 Y131.414 E2.6947
G1 X264.961 Y132.062 E.02418
G1 X213.267 Y80.368 E2.7289
G1 X212.619 Y80.368 E.02418
G1 X264.961 Y132.71 E2.7631
G1 X264.961 Y133.357 E.02418
G1 X211.972 Y80.368 E2.79729
G1 X211.324 Y80.368 E.02418
G1 X264.961 Y134.005 E2.83149
G1 X264.961 Y134.653 E.02418
G1 X210.676 Y80.368 E2.86569
G1 X210.028 Y80.368 E.02418
G1 X264.961 Y135.301 E2.89989
G1 X264.961 Y135.949 E.02418
G1 X209.38 Y80.368 E2.93409
G1 X208.732 Y80.368 E.02418
G1 X264.961 Y136.597 E2.96829
G1 X264.961 Y137.244 E.02418
G1 X208.085 Y80.368 E3.00249
G1 X207.75 Y80.368 E.01248
G1 X207.75 Y80.682 E.01171
G1 X264.961 Y137.892 E3.02013
G1 X264.961 Y138.54 E.02418
G1 X207.75 Y81.33 E3.02013
G1 X207.75 Y81.977 E.02418
G1 X264.961 Y139.188 E3.02013
G1 X264.961 Y139.836 E.02418
G1 X207.75 Y82.625 E3.02013
G1 X207.75 Y83.273 E.02418
G1 X264.961 Y140.484 E3.02013
G1 X264.961 Y141.131 E.02418
G1 X207.75 Y83.921 E3.02013
G1 X207.75 Y84.569 E.02418
G1 X264.961 Y141.779 E3.02013
G1 X264.961 Y142.427 E.02418
G1 X207.75 Y85.217 E3.02013
G1 X207.75 Y85.864 E.02418
G1 X264.961 Y143.075 E3.02013
G1 X264.961 Y143.723 E.02418
G1 X207.75 Y86.512 E3.02013
G1 X207.75 Y87.16 E.02418
G1 X264.961 Y144.371 E3.02013
G1 X264.961 Y145.018 E.02418
G1 X207.75 Y87.808 E3.02013
G1 X207.75 Y88.456 E.02418
G1 X264.961 Y145.666 E3.02013
G1 X264.961 Y146.314 E.02418
G1 X207.75 Y89.103 E3.02013
G1 X207.75 Y89.751 E.02418
G1 X264.961 Y146.962 E3.02013
G1 X264.961 Y147.61 E.02418
G1 X207.75 Y90.399 E3.02013
G1 X207.75 Y91.047 E.02418
G1 X264.961 Y148.257 E3.02013
G1 X264.961 Y148.905 E.02418
G1 X207.75 Y91.695 E3.02013
G1 X207.75 Y92.343 E.02418
G1 X264.961 Y149.553 E3.02013
G1 X264.961 Y150.201 E.02418
G1 X207.75 Y92.99 E3.02013
G1 X207.75 Y93.638 E.02418
G1 X264.961 Y150.849 E3.02013
G1 X264.961 Y151.497 E.02418
G1 X207.75 Y94.286 E3.02013
M73 P1 R139
G1 X207.75 Y94.934 E.02418
G1 X264.961 Y152.144 E3.02013
G1 X264.961 Y152.792 E.02418
G1 X207.75 Y95.582 E3.02013
G1 X207.75 Y96.23 E.02418
G1 X264.961 Y153.44 E3.02013
G1 X264.961 Y154.088 E.02418
G1 X207.75 Y96.877 E3.02013
G1 X207.75 Y97.525 E.02418
G1 X264.961 Y154.736 E3.02013
G1 X264.961 Y155.384 E.02418
G1 X207.75 Y98.173 E3.02013
G1 X207.75 Y98.821 E.02418
G1 X264.961 Y156.031 E3.02013
G1 X264.961 Y156.679 E.02418
G1 X207.75 Y99.469 E3.02013
G1 X207.75 Y100.117 E.02418
G1 X264.961 Y157.327 E3.02013
G1 X264.961 Y157.975 E.02418
G1 X207.75 Y100.764 E3.02013
G1 X207.75 Y101.412 E.02418
G1 X264.961 Y158.623 E3.02013
G1 X264.961 Y159.271 E.02418
G1 X207.75 Y102.06 E3.02013
G1 X207.75 Y102.708 E.02418
G1 X264.961 Y159.918 E3.02013
G1 X264.961 Y160.566 E.02418
G1 X207.75 Y103.356 E3.02013
G1 X207.75 Y104.004 E.02418
G1 X264.961 Y161.214 E3.02013
G1 X264.961 Y161.862 E.02418
G1 X207.75 Y104.651 E3.02013
G1 X207.75 Y105.299 E.02418
G1 X264.961 Y162.51 E3.02013
G1 X264.961 Y163.158 E.02418
G1 X207.75 Y105.947 E3.02013
G1 X207.75 Y106.595 E.02418
G1 X264.961 Y163.805 E3.02013
G1 X264.961 Y164.453 E.02418
G1 X207.75 Y107.243 E3.02013
G1 X207.75 Y107.891 E.02418
G1 X264.961 Y165.101 E3.02013
G1 X264.961 Y165.749 E.02418
G1 X207.75 Y108.538 E3.02013
G1 X207.75 Y109.186 E.02418
G1 X264.961 Y166.397 E3.02013
G1 X264.961 Y167.045 E.02418
G1 X207.75 Y109.834 E3.02013
G1 X207.75 Y110.482 E.02418
G1 X264.961 Y167.692 E3.02013
G1 X264.961 Y168.34 E.02418
G1 X207.75 Y111.13 E3.02013
G1 X207.75 Y111.777 E.02418
G1 X264.961 Y168.988 E3.02013
G1 X264.961 Y169.636 E.02418
G1 X207.75 Y112.425 E3.02013
G1 X207.75 Y113.073 E.02418
G1 X264.961 Y170.284 E3.02013
G1 X264.961 Y170.931 E.02418
G1 X207.75 Y113.721 E3.02013
G1 X207.75 Y114.369 E.02418
G1 X264.961 Y171.579 E3.02013
G1 X264.961 Y172.227 E.02418
G1 X207.75 Y115.017 E3.02013
G1 X207.75 Y115.664 E.02418
G1 X264.961 Y172.875 E3.02013
G1 X264.961 Y173.523 E.02418
G1 X207.75 Y116.312 E3.02013
G1 X207.75 Y116.96 E.02418
G1 X264.961 Y174.171 E3.02013
G1 X264.961 Y174.818 E.02418
G1 X207.75 Y117.608 E3.02013
G1 X207.75 Y118.256 E.02418
G1 X264.961 Y175.466 E3.02013
G1 X264.961 Y176.114 E.02418
G1 X207.75 Y118.904 E3.02013
G1 X207.75 Y119.551 E.02418
G1 X264.961 Y176.762 E3.02013
G1 X264.961 Y177.41 E.02418
G1 X207.75 Y120.199 E3.02013
G1 X207.75 Y120.847 E.02418
G1 X264.961 Y178.058 E3.02013
G1 X264.961 Y178.705 E.02418
G1 X207.75 Y121.495 E3.02013
G1 X207.75 Y122.143 E.02418
G1 X264.961 Y179.353 E3.02013
G1 X264.961 Y180.001 E.02418
G1 X207.75 Y122.791 E3.02013
G1 X207.75 Y123.438 E.02418
G1 X264.961 Y180.649 E3.02013
G1 X264.961 Y181.297 E.02418
