; HEADER_BLOCK_START
; generated by OrcaSlicer 1.6.6 on 2023-09-07 at 08:02:37
; total layer number: 630
; HEADER_BLOCK_END

; THUMBNAIL_BLOCK_START
; THUMBNAIL_BLOCK_END

; external perimeters extrusion width = 0.40mm
; perimeters extrusion width = 0.46mm
; infill extrusion width = 0.64mm
; solid infill extrusion width = 0.56mm
; top infill extrusion width = 0.40mm
; support material extrusion width = 0.46mm
; first layer extrusion width = 0.50mm

; EXECUTABLE_BLOCK_START
EXCLUDE_OBJECT_DEFINE NAME=Base.stl_id_0_copy_0 CENTER=165,165 POLYGON=[[97.4509,165],[97.5841,160.759],[97.9835,156.534],[98.6473,152.343],[99.573,148.201],[100.757,144.126],[102.194,140.133],[103.88,136.239],[105.806,132.458],[107.966,128.805],[110.352,125.296],[112.952,121.943],[115.759,118.759],[118.759,115.759],[121.943,112.952],[125.296,110.352],[128.805,107.966],[132.458,105.806],[136.239,103.88],[140.133,102.194],[144.126,100.757],[148.201,99.573],[152.343,98.6473],[156.534,97.9835],[160.759,97.5841],[165,97.4509],[169.241,97.5841],[173.466,97.9835],[177.657,98.6473],[181.799,99.573],[185.874,100.757],[189.867,102.194],[193.761,103.88],[197.542,105.806],[201.195,107.966],[204.704,110.352],[208.057,112.952],[211.241,115.759],[214.241,118.759],[217.048,121.943],[219.648,125.296],[222.034,128.805],[224.194,132.458],[226.12,136.239],[227.806,140.134],[229.243,144.126],[230.427,148.201],[231.353,152.343],[232.017,156.534],[232.416,160.759],[232.549,165],[232.416,169.241],[232.017,173.466],[231.353,177.657],[230.427,181.799],[229.243,185.874],[227.806,189.867],[226.12,193.761],[224.194,197.542],[222.034,201.195],[219.648,204.704],[217.048,208.057],[214.241,211.241],[211.241,214.241],[208.057,217.048],[204.704,219.648],[201.195,222.034],[197.542,224.194],[193.761,226.12],[189.867,227.806],[185.874,229.243],[181.799,230.427],[177.657,231.353],[173.466,232.017],[169.241,232.416],[165,232.549],[160.759,232.416],[156.534,232.017],[152.343,231.353],[148.201,230.427],[144.126,229.243],[140.133,227.806],[136.239,226.12],[132.458,224.194],[128.805,222.034],[125.296,219.648],[121.943,217.048],[118.759,214.241],[115.759,211.241],[112.952,208.057],[110.352,204.704],[107.966,201.195],[105.806,197.542],[103.88,193.761],[102.194,189.867],[100.757,185.874],[99.573,181.799],[98.6473,177.657],[97.9835,173.466],[97.5841,169.241],[97.4509,165]]
M73 P0 R66
M73 C17
;TYPE:Custom
START_PRINT T_BED=110 T_EXTRUDER=260
G90
G21
M83 ; use relative distances for extrusion
; Filament gcode

    PRESSURE_ADVANCE_SELECT FILAMENT=ABS
M106 S0
;LAYER_CHANGE
;Z:0.2
;HEIGHT:0.2
;BEFORE_LAYER_CHANGE
;0.2
G92 E0

SET_VELOCITY_LIMIT ACCEL=5000 ACCEL_TO_DECEL=2500
G1 E-.5 F2400
G1 X115.203 Y115.202 F12000
G1 Z.2
G1 E.5 F1800
;TYPE:Skirt
;WIDTH:0.5
G1 F3000
G1 X116.832 Y113.573 E.08111
G1 X120.015 Y110.767 E.14935
G1 X123.509 Y108.049 E.15579
G1 X127.322 Y105.458 E.16223
G1 X131.135 Y103.21 E.15579
G1 X134.916 Y101.283 E.14935
G1 X139.146 Y99.453 E.16223
G1 X143.313 Y97.958 E.15579
G1 X147.388 Y96.775 E.14935
G1 X151.887 Y95.769 E.16223
G1 X156.078 Y95.105 E.14935
G1 X160.484 Y94.683 E.15579
G1 X164.908 Y94.538 E.15579
G1 X169.333 Y94.671 E.15579
G1 X173.922 Y95.105 E.16223
G1 X178.113 Y95.769 E.14935
G1 X182.434 Y96.729 E.15579
G1 X186.861 Y98.015 E.16223
G1 X191.024 Y99.52 E.15579
G1 X194.918 Y101.205 E.14935
G1 X199.025 Y103.298 E.16223
G1 X202.833 Y105.556 E.15579
G1 X206.49 Y108.049 E.15579
G1 X209.985 Y110.767 E.15579
G1 X213.168 Y113.573 E.14935
G1 X216.427 Y116.832 E.16223
G1 X219.35 Y120.156 E.15579
G1 X221.951 Y123.51 E.14935
G1 X224.542 Y127.322 E.16223
G1 X226.702 Y130.975 E.14935
G1 X228.717 Y134.916 E.15579
G1 X230.547 Y139.146 E.16223
G1 X231.985 Y143.139 E.14935
G1 X233.225 Y147.388 E.15579
G1 X234.197 Y151.707 E.15579
G1 X234.895 Y156.078 E.15579
G1 X235.329 Y160.667 E.16223
G1 X235.462 Y164.908 E.14935
G1 X235.329 Y169.333 E.15579
G1 X234.895 Y173.922 E.16223
G1 X234.197 Y178.293 E.15579
G1 X233.225 Y182.612 E.15579
G1 X232.042 Y186.687 E.14935
G1 X230.547 Y190.854 E.15579
G1 X228.717 Y195.084 E.16223
G1 X226.79 Y198.865 E.14935
G1 X224.542 Y202.678 E.15579
G1 X221.951 Y206.491 E.16223
G1 X219.35 Y209.844 E.14935
G1 X216.427 Y213.168 E.15579
G1 X213.168 Y216.427 E.16223
G1 X209.844 Y219.35 E.15579
G1 X206.491 Y221.951 E.14935
G1 X202.833 Y224.444 E.15579
G1 X199.025 Y226.702 E.15579
G1 X194.918 Y228.795 E.16223
G1 X191.024 Y230.48 E.14935
G1 X186.861 Y231.985 E.15579
G1 X182.434 Y233.271 E.16223
G1 X178.113 Y234.231 E.15579
G1 X173.922 Y234.895 E.14935
G1 X169.333 Y235.329 E.16223
G1 X165.092 Y235.462 E.14935
G1 X160.667 Y235.329 E.15579
G1 X156.26 Y234.918 E.15579
G1 X151.887 Y234.231 E.15579
G1 X147.388 Y233.225 E.16223
G1 X143.139 Y231.985 E.15579
G1 X139.146 Y230.547 E.14935
G1 X134.916 Y228.717 E.16223
G1 X131.135 Y226.79 E.14935
G1 X127.322 Y224.542 E.15579
G1 X123.509 Y221.951 E.16223
G1 X120.156 Y219.35 E.14935
G1 X116.832 Y216.427 E.15579
G1 X113.573 Y213.168 E.16223
G1 X110.65 Y209.844 E.15579
G1 X108.049 Y206.49 E.14935
G1 X105.458 Y202.678 E.16223
G1 X103.21 Y198.865 E.15579
G1 X101.283 Y195.084 E.14935
G1 X99.453 Y190.854 E.16223
G1 X97.958 Y186.687 E.15579
G1 X96.775 Y182.612 E.14935
G1 X95.803 Y178.293 E.15579
G1 X95.105 Y173.922 E.15579
G1 X94.671 Y169.333 E.16223
G1 X94.538 Y165.092 E.14935
G1 X94.671 Y160.667 E.15579
G1 X95.105 Y156.078 E.16223
G1 X95.803 Y151.707 E.15579
G1 X96.775 Y147.388 E.15579
G1 X97.958 Y143.313 E.14935
G1 X99.453 Y139.146 E.15579
G1 X101.283 Y134.916 E.16223
G1 X103.298 Y130.975 E.15579
G1 X105.458 Y127.322 E.14935
G1 X108.049 Y123.51 E.16223
G1 X110.767 Y120.015 E.15579
G1 X113.573 Y116.832 E.14935
G1 X115.174 Y115.231 E.07971
G1 X115.497 Y115.553 F12000
G1 F3000
G1 X117.135 Y113.916 E.08151
G1 X120.437 Y111.011 E.15478
G1 X123.79 Y108.41 E.14935
G1 X127.555 Y105.851 E.16021
G1 X131.207 Y103.691 E.14935
G1 X135.123 Y101.69 E.15478
G1 X139.301 Y99.883 E.16021
G1 X143.294 Y98.445 E.14935
G1 X147.516 Y97.214 E.15478
G1 X151.958 Y96.22 E.16021
G1 X156.149 Y95.557 E.14935
G1 X160.527 Y95.138 E.15478
G1 X164.923 Y94.995 E.15478
G1 X169.319 Y95.128 E.15478
G1 X173.851 Y95.557 E.16021
G1 X178.193 Y96.249 E.15478
G1 X182.335 Y97.175 E.14935
G1 X186.706 Y98.445 E.16021
G1 X190.842 Y99.939 E.15478
G1 X194.737 Y101.625 E.14935
G1 X198.793 Y103.691 E.16021
G1 X202.576 Y105.934 E.15478
G1 X206.085 Y108.319 E.14935
G1 X209.682 Y111.109 E.16021
G1 X212.978 Y114.021 E.15478
G1 X216.084 Y117.135 E.15478
G1 X218.891 Y120.318 E.14935
G1 X221.59 Y123.79 E.15478
G1 X224.149 Y127.555 E.16021
G1 X226.309 Y131.207 E.14935
G1 X228.31 Y135.123 E.15478
G1 X230.117 Y139.301 E.16021
G1 X231.603 Y143.441 E.15478
G1 X232.825 Y147.665 E.15478
G1 X233.751 Y151.807 E.14935
G1 X234.443 Y156.149 E.15478
G1 X234.872 Y160.681 E.16021
G1 X235.005 Y164.923 E.14935
G1 X234.872 Y169.319 E.15478
G1 X234.443 Y173.851 E.16021
G1 X233.751 Y178.193 E.15478
G1 X232.825 Y182.335 E.14935
G1 X231.555 Y186.706 E.16021
G1 X230.061 Y190.842 E.15478
G1 X228.375 Y194.737 E.14935
G1 X226.309 Y198.793 E.16021
G1 X224.066 Y202.576 E.15478
G1 X221.59 Y206.21 E.15478
G1 X218.891 Y209.682 E.15478
G1 X216.084 Y212.865 E.14935
G1 X212.865 Y216.084 E.16021
G1 X209.563 Y218.989 E.15478
G1 X206.085 Y221.681 E.15478
G1 X202.576 Y224.066 E.14935
G1 X198.793 Y226.309 E.15478
G1 X194.737 Y228.375 E.16021
G1 X190.842 Y230.061 E.14935
G1 X186.706 Y231.555 E.15478
G1 X182.335 Y232.825 E.16021
G1 X178.193 Y233.751 E.14935
G1 X173.851 Y234.443 E.15478
G1 X169.319 Y234.872 E.16021
G1 X165.077 Y235.005 E.14935
G1 X160.681 Y234.872 E.15478
G1 X156.149 Y234.443 E.16021
G1 X151.807 Y233.751 E.15478
G1 X147.665 Y232.825 E.14935
G1 X143.441 Y231.603 E.15478
G1 X139.301 Y230.117 E.15478
G1 X135.123 Y228.31 E.16021
G1 X131.207 Y226.309 E.15478
G1 X127.555 Y224.149 E.14935
G1 X123.79 Y221.59 E.16021
G1 X120.318 Y218.891 E.15478
G1 X117.135 Y216.084 E.14935
G1 X113.916 Y212.865 E.16021
G1 X111.109 Y209.682 E.14935
G1 X108.41 Y206.21 E.15478
G1 X105.851 Y202.445 E.16021
G1 X103.617 Y198.658 E.15478
G1 X101.69 Y194.877 E.14935
G1 X99.883 Y190.699 E.16021
G1 X98.397 Y186.559 E.15478
G1 X97.175 Y182.335 E.15478
G1 X96.249 Y178.193 E.14935
G1 X95.557 Y173.851 E.15478
G1 X95.128 Y169.319 E.16021
G1 X94.995 Y165.077 E.14935
G1 X95.128 Y160.681 E.15478
G1 X95.557 Y156.149 E.16021
G1 X96.249 Y151.807 E.15478
G1 X97.175 Y147.665 E.14935
G1 X98.397 Y143.441 E.15478
G1 X99.883 Y139.301 E.15478
G1 X101.69 Y135.123 E.16021
G1 X103.617 Y131.342 E.14935
G1 X105.851 Y127.555 E.15478
G1 X108.41 Y123.79 E.16021
G1 X111.011 Y120.437 E.14935
G1 X113.916 Y117.135 E.15478
G1 X115.469 Y115.582 E.07729
; printing object Base.stl id:0 copy 0
G1 E-.5 F2400
EXCLUDE_OBJECT_START NAME=Base.stl_id_0_copy_0
G1 X128.993 Y108.262 F12000
G1 E.5 F1800
;TYPE:Outer wall
G1 F3000
G1 X132.627 Y106.113 E.14857
G1 X136.388 Y104.197 E.14857
G1 X140.262 Y102.52 E.14857
G1 X144.234 Y101.09 E.14857
G1 X148.288 Y99.912 E.14857
G1 X152.408 Y98.991 E.14857
G1 X156.578 Y98.331 E.14857
G1 X160.781 Y97.934 E.14857
G1 X165 Y97.801 E.14857
G1 X165.451 Y97.815 E.01589
G1 X169.219 Y97.934 E.13268
G1 X173.422 Y98.331 E.14857
G1 X177.592 Y98.991 E.14857
G1 X181.712 Y99.912 E.14857
G1 X185.766 Y101.09 E.14857
G1 X189.738 Y102.52 E.14857
G1 X193.612 Y104.197 E.14857
G1 X197.373 Y106.113 E.14857
G1 X201.007 Y108.262 E.14857
G1 X204.499 Y110.635 E.14857
G1 X207.834 Y113.222 E.14857
G1 X211.001 Y116.014 E.14857
G1 X213.986 Y118.999 E.14857
G1 X216.778 Y122.166 E.14857
G1 X219.365 Y125.501 E.14857
G1 X221.738 Y128.993 E.14857
G1 X223.887 Y132.627 E.14857
G1 X225.803 Y136.388 E.14857
G1 X227.48 Y140.262 E.14857
G1 X228.91 Y144.234 E.14857
G1 X230.088 Y148.288 E.14857
G1 X231.009 Y152.408 E.14857
G1 X231.669 Y156.578 E.14857
G1 X232.066 Y160.781 E.14857
G1 X232.199 Y165 E.14857
G1 X232.066 Y169.219 E.14857
G1 X231.669 Y173.422 E.14857
G1 X231.009 Y177.592 E.14857
G1 X230.088 Y181.712 E.14857
G1 X228.91 Y185.766 E.14857
G1 X227.48 Y189.738 E.14857
G1 X225.803 Y193.612 E.14857
G1 X223.887 Y197.373 E.14857
G1 X221.738 Y201.007 E.14857
G1 X219.365 Y204.499 E.14857
G1 X216.778 Y207.834 E.14857
G1 X213.986 Y211.001 E.14857
G1 X211.001 Y213.986 E.14857
G1 X207.834 Y216.778 E.14857
G1 X204.499 Y219.365 E.14857
G1 X201.007 Y221.738 E.14857
G1 X197.373 Y223.887 E.14857
G1 X193.612 Y225.803 E.14857
G1 X189.738 Y227.48 E.14857
G1 X185.766 Y228.91 E.14857
G1 X181.712 Y230.088 E.14857
G1 X177.592 Y231.009 E.14857
G1 X173.422 Y231.669 E.14857
G1 X169.219 Y232.066 E.14857
G1 X165 Y232.199 E.14857
G1 X160.781 Y232.066 E.14857
G1 X159.853 Y231.979 E.0328
G1 X156.578 Y231.669 E.11577
G1 X152.408 Y231.009 E.14857
G1 X148.288 Y230.088 E.14857
G1 X144.234 Y228.91 E.14857
G1 X140.262 Y227.48 E.14857
G1 X136.388 Y225.803 E.14857
G1 X132.627 Y223.887 E.14857
G1 X128.993 Y221.738 E.14857
G1 X125.501 Y219.365 E.14857
G1 X122.166 Y216.778 E.14857
G1 X118.999 Y213.986 E.14857
G1 X116.014 Y211.001 E.14857
G1 X113.222 Y207.834 E.14857
G1 X110.635 Y204.499 E.14857
G1 X108.262 Y201.007 E.14857
G1 X106.113 Y197.373 E.14857
G1 X104.197 Y193.612 E.14857
G1 X102.52 Y189.738 E.14857
G1 X101.09 Y185.766 E.14857
G1 X99.912 Y181.712 E.14857
G1 X98.991 Y177.592 E.14857
G1 X98.331 Y173.422 E.14857
G1 X97.934 Y169.219 E.14857
G1 X97.801 Y165 E.14857
G1 X97.934 Y160.781 E.14857
G1 X98.331 Y156.578 E.14857
M73 C16
G1 X98.991 Y152.408 E.14857
G1 X99.912 Y148.288 E.14857
G1 X101.09 Y144.234 E.14857
G1 X102.52 Y140.262 E.14857
G1 X104.197 Y136.388 E.14857
G1 X106.113 Y132.627 E.14857
G1 X108.262 Y128.993 E.14857
G1 X110.635 Y125.501 E.14857
G1 X113.222 Y122.166 E.14857
G1 X116.014 Y118.999 E.14857
G1 X118.999 Y116.014 E.14857
G1 X122.166 Y113.222 E.14857
G1 X125.447 Y110.677 E.14613
G1 X128.96 Y108.285 E.1496
G1 X129.238 Y108.648 F12000
;TYPE:Inner wall
G1 F3000
G1 X132.847 Y106.514 E.14756
G1 X136.583 Y104.61 E.14756
G1 X140.431 Y102.945 E.14756
G1 X144.376 Y101.525 E.14756
G1 X148.402 Y100.355 E.14756
G1 X152.494 Y99.44 E.14756
G1 X156.635 Y98.785 E.14756
G1 X160.809 Y98.39 E.14756
G1 X165 Y98.258 E.14756
G1 X165.437 Y98.272 E.01539
G1 X169.191 Y98.39 E.13217
G1 X173.365 Y98.785 E.14756
G1 X177.506 Y99.441 E.14756
G1 X181.598 Y100.355 E.14756
G1 X185.624 Y101.525 E.14756
G1 X189.569 Y102.945 E.14756
G1 X193.417 Y104.61 E.14756
G1 X197.153 Y106.514 E.14756
G1 X200.762 Y108.648 E.14756
G1 X204.23 Y111.005 E.14756
G1 X207.543 Y113.575 E.14756
G1 X210.688 Y116.347 E.14756
G1 X213.653 Y119.312 E.14756
G1 X216.425 Y122.457 E.14756
G1 X218.995 Y125.77 E.14756
G1 X221.352 Y129.238 E.14756
G1 X223.486 Y132.847 E.14756
G1 X225.39 Y136.583 E.14756
G1 X227.055 Y140.431 E.14756
G1 X228.475 Y144.376 E.14756
G1 X229.645 Y148.402 E.14756
G1 X230.559 Y152.494 E.14756
G1 X231.215 Y156.635 E.14756
G1 X231.61 Y160.809 E.14756
G1 X231.742 Y165 E.14756
G1 X231.61 Y169.191 E.14756
G1 X231.215 Y173.365 E.14756
G1 X230.559 Y177.506 E.14756
G1 X229.645 Y181.598 E.14756
G1 X228.475 Y185.624 E.14756
G1 X227.055 Y189.569 E.14756
G1 X225.39 Y193.417 E.14756
G1 X223.486 Y197.153 E.14756
G1 X221.352 Y200.762 E.14756
G1 X218.995 Y204.23 E.14756
G1 X216.425 Y207.543 E.14756
G1 X213.653 Y210.688 E.14756
G1 X210.688 Y213.653 E.14756
G1 X207.543 Y216.425 E.14756
G1 X204.23 Y218.995 E.14756
G1 X200.762 Y221.352 E.14756
G1 X197.153 Y223.486 E.14756
G1 X193.417 Y225.39 E.14756
G1 X189.569 Y227.055 E.14756
G1 X185.624 Y228.475 E.14756
G1 X181.598 Y229.645 E.14756
G1 X177.506 Y230.559 E.14756
G1 X173.365 Y231.215 E.14756
G1 X169.191 Y231.61 E.14756
G1 X165 Y231.742 E.14756
G1 X160.809 Y231.61 E.14756
G1 X159.896 Y231.524 E.0323
G1 X156.635 Y231.215 E.11527
G1 X152.494 Y230.56 E.14756
G1 X148.402 Y229.645 E.14756
G1 X144.376 Y228.475 E.14756
G1 X140.431 Y227.055 E.14756
G1 X136.583 Y225.39 E.14756
G1 X132.847 Y223.486 E.14756
G1 X129.238 Y221.352 E.14756
G1 X125.77 Y218.995 E.14756
G1 X122.457 Y216.425 E.14756
G1 X119.312 Y213.653 E.14756
G1 X116.347 Y210.688 E.14756
G1 X113.575 Y207.543 E.14756
G1 X111.005 Y204.23 E.14756
G1 X108.648 Y200.762 E.14756
G1 X106.514 Y197.153 E.14756
G1 X104.61 Y193.417 E.14756
G1 X102.945 Y189.569 E.14756
G1 X101.525 Y185.624 E.14756
G1 X101.4 Y185.196 E.0157
G1 X100.355 Y181.598 E.13186
G1 X99.441 Y177.506 E.14756
G1 X98.785 Y173.365 E.14756
G1 X98.39 Y169.191 E.14756
G1 X98.258 Y165 E.14756
G1 X98.39 Y160.809 E.14756
G1 X98.785 Y156.635 E.14756
G1 X99.441 Y152.494 E.14756
G1 X100.355 Y148.402 E.14756
G1 X101.525 Y144.376 E.14756
G1 X102.945 Y140.431 E.14756
G1 X104.61 Y136.583 E.14756
G1 X106.514 Y132.847 E.14756
G1 X108.648 Y129.238 E.14756
G1 X111.005 Y125.77 E.14756
G1 X113.575 Y122.457 E.14756
G1 X116.347 Y119.312 E.14756
G1 X119.312 Y116.347 E.14756
G1 X122.457 Y113.575 E.14756
G1 X125.77 Y111.005 E.14756
G1 X129.205 Y108.671 E.14615
G1 X129.483 Y109.034 F12000
G1 F3000
G1 X133.067 Y106.915 E.14655
G1 X136.777 Y105.024 E.14655
G1 X140.599 Y103.37 E.14655
G1 X144.517 Y101.96 E.14655
G1 X148.516 Y100.798 E.14655
G1 X152.58 Y99.89 E.14655
G1 X156.692 Y99.238 E.14655
G1 X160.838 Y98.846 E.14655
G1 X165 Y98.716 E.14655
G1 X165.423 Y98.729 E.01488
G1 X169.162 Y98.846 E.13167
G1 X173.308 Y99.238 E.14655
G1 X177.42 Y99.89 E.14655
G1 X181.484 Y100.798 E.14655
G1 X185.483 Y101.96 E.14655
G1 X189.401 Y103.37 E.14655
G1 X193.223 Y105.024 E.14655
G1 X196.933 Y106.915 E.14655
G1 X200.517 Y109.034 E.14655
G1 X203.961 Y111.375 E.14655
G1 X207.251 Y113.927 E.14655
G1 X210.375 Y116.681 E.14655
G1 X213.319 Y119.625 E.14655
G1 X216.073 Y122.749 E.14655
G1 X218.625 Y126.039 E.14655
G1 X220.966 Y129.483 E.14655
G1 X223.085 Y133.067 E.14655
G1 X224.976 Y136.778 E.14655
G1 X226.63 Y140.599 E.14655
G1 X228.04 Y144.517 E.14655
G1 X229.202 Y148.516 E.14655
G1 X230.11 Y152.58 E.14655
G1 X230.762 Y156.692 E.14655
G1 X231.154 Y160.838 E.14655
G1 X231.284 Y165 E.14655
G1 X231.154 Y169.162 E.14655
G1 X230.762 Y173.308 E.14655
G1 X230.11 Y177.42 E.14655
G1 X229.202 Y181.484 E.14655
G1 X228.04 Y185.483 E.14655
G1 X226.63 Y189.401 E.14655
G1 X224.976 Y193.223 E.14655
G1 X223.085 Y196.933 E.14655
G1 X220.966 Y200.517 E.14655
G1 X218.625 Y203.961 E.14655
G1 X216.073 Y207.251 E.14655
G1 X213.319 Y210.375 E.14655
G1 X210.375 Y213.319 E.14655
