; HEADER_BLOCK_START
; generated by OrcaSlicer 1.6.2 on 2023-05-16 at 15:08:55
; total layer number: 49
; HEADER_BLOCK_END

; THUMBNAIL_BLOCK_START
; THUMBNAIL_BLOCK_END

; external perimeters extrusion width = 0.40mm
; perimeters extrusion width = 0.45mm
; infill extrusion width = 0.45mm
; solid infill extrusion width = 0.40mm
; top infill extrusion width = 0.40mm
; first layer extrusion width = 0.50mm

; EXECUTABLE_BLOCK_START
EXCLUDE_OBJECT_DEFINE NAME=Base_X100.5_Y98.5.stl_id_0_copy_0 CENTER=165.086,167.284 POLYGON=[[78.3805,137.185],[78.3882,137.094],[78.411,137.006],[78.4485,136.922],[78.4997,136.845],[78.5633,136.776],[78.6377,136.717],[78.7212,136.669],[78.8117,136.635],[78.9069,136.613],[79.0045,136.606],[251.167,136.606],[251.264,136.613],[251.36,136.635],[251.45,136.669],[251.534,136.717],[251.608,136.776],[251.672,136.845],[251.723,136.922],[251.76,137.006],[251.783,137.094],[251.791,137.185],[251.791,197.384],[251.783,197.474],[251.76,197.562],[251.723,197.646],[251.672,197.724],[251.608,197.793],[251.534,197.851],[251.45,197.899],[251.36,197.934],[251.264,197.955],[251.167,197.962],[79.0045,197.962],[78.9069,197.955],[78.8117,197.934],[78.7212,197.899],[78.6377,197.851],[78.5633,197.793],[78.4997,197.724],[78.4485,197.646],[78.411,197.562],[78.3882,197.474],[78.3805,197.384],[78.3805,137.185]]
M73 P0 R57
;TYPE:Custom
START_PRINT T_BED=60 T_EXTRUDER=220
G90
G21
M83 ; use relative distances for extrusion
; filament start gcode

    PRESSURE_ADVANCE_SELECT FILAMENT=PLA
M106 S0
;LAYER_CHANGE
;Z:0.2
;HEIGHT:0.2
M204 S1000
G1 E-.8 F3000
G1 Z.2 F9000
G1 X76.834 Y134.439
G1 E.8 F1800
;TYPE:Skirt
;WIDTH:0.5
G1 X77.77 Y133.922 E.03982
G1 X78.275 Y133.777 E.01958
G1 X79.005 Y133.701 E.0273
G1 X251.173 Y133.701 E6.41262
G1 X251.896 Y133.777 E.02707
G1 X252.49 Y133.956 E.02312
G1 X253.337 Y134.439 E.03629
G1 X253.744 Y134.807 E.02045
G1 X254.145 Y135.318 E.02422
G1 X254.412 Y135.82 E.02114
G1 X254.595 Y136.364 E.0214
G1 X254.696 Y137.185 E.03078
G1 X254.696 Y197.384 E2.24219
G1 X254.572 Y198.291 E.03409
G1 X254.095 Y199.326 E.04246
G1 X253.337 Y200.13 E.04116
G1 X252.401 Y200.646 E.03979
G1 X251.896 Y200.791 E.01959
G1 X251.167 Y200.868 E.0273
G1 X79.004 Y200.868 E6.41239
G1 X78.182 Y200.77 E.03086
G1 X77.204 Y200.379 E.03923
G1 X76.365 Y199.694 E.04036
G1 X75.759 Y198.749 E.04178
G1 X75.576 Y198.203 E.02144
G1 X75.476 Y197.384 E.03076
G1 X75.476 Y137.185 E2.24219
G1 X75.599 Y136.278 E.03408
G1 X76.076 Y135.243 E.04246
G1 X76.793 Y134.482 E.03892
G1 X77.118 Y134.797 F9000
G1 F1800
G1 X77.934 Y134.349 E.03468
G1 X79.004 Y134.158 E.0405
G1 X251.173 Y134.158 E6.41262
G1 X251.797 Y134.223 E.02335
G1 X252.327 Y134.383 E.02061
G1 X253.053 Y134.797 E.03115
G1 X253.408 Y135.116 E.01779
G1 X253.995 Y136.006 E.03969
G1 X254.153 Y136.479 E.01857
G1 X254.239 Y137.185 E.02647
G1 X254.239 Y197.384 E2.24219
G1 X254.13 Y198.176 E.02979
G1 X253.714 Y199.074 E.03686
G1 X253.053 Y199.771 E.03578
G1 X252.238 Y200.219 E.03466
G1 X251.167 Y200.41 E.04051
G1 X79.004 Y200.41 E6.41239
G1 X78.281 Y200.324 E.02714
G1 X77.43 Y199.981 E.03418
G1 X76.701 Y199.384 E.03511
G1 X76.177 Y198.563 E.03629
G1 X76.019 Y198.089 E.0186
G1 X75.933 Y197.384 E.02646
G1 X75.933 Y137.185 E2.24219
G1 X76.041 Y136.392 E.02978
G1 X76.457 Y135.495 E.03686
G1 X77.077 Y134.841 E.03354
; printing object Base X100.5 Y98.5.stl id:0 copy 0
EXCLUDE_OBJECT_START NAME=Base_X100.5_Y98.5.stl_id_0_copy_0
G1 E-.8 F3000
G1 Z.4 F9000
G1 X79.654 Y137.879
G1 Z.2
G1 E.8 F1800
;TYPE:Inner wall
;WIDTH:0.499999
G1 X250.517 Y137.879 E6.36401
M73 P1 R56
G1 X250.517 Y196.689 E2.19044
G1 X79.654 Y196.689 E6.36401
G1 X79.654 Y137.939 E2.18822
G1 X79.197 Y137.422 F9000
G1 F1800
G1 X250.975 Y137.422 E6.39806
G1 X250.975 Y197.146 E2.22449
G1 X79.197 Y197.146 E6.39806
G1 X79.197 Y137.482 E2.22227
G1 X78.842 Y137.027 F9000
;TYPE:Outer wall
G1 F1800
G1 X79.034 Y136.965 E.00751
G1 X251.083 Y136.965 E6.40816
M73 P2 R56
G1 X251.246 Y136.999 E.00622
G1 X251.376 Y137.087 E.00584
G1 X251.432 Y137.226 E.00557
G1 X251.432 Y197.286 E2.23699
G1 X251.377 Y197.496 E.0081
G1 X251.294 Y197.552 E.00373
G1 X251.145 Y197.603 E.00586
G1 X79.094 Y197.603 E6.40823
G1 X78.846 Y197.545 E.0095
G1 X78.74 Y197.358 E.008
G1 X78.74 Y137.229 E2.23959
G1 X78.815 Y137.081 E.00619
G1 X78.88 Y137.04
G1 E-.8 F3000
G1 Z.4 F9000
G1 X250.38 Y138.942
G1 Z.2
G1 E.8 F1800
;TYPE:Bottom surface
;WIDTH:0.500774
G1 F3600
G1 X249.66 Y138.222 E.03799
G1 X249.013 Y138.222 E.02416
G1 X250.175 Y139.384 E.0613
G1 X250.175 Y140.031 E.02416
G1 X248.365 Y138.222 E.09546
G1 X247.718 Y138.222 E.02416
G1 X250.175 Y140.679 E.12963
G1 X250.175 Y141.326 E.02416
G1 X247.07 Y138.222 E.16379
G1 X246.423 Y138.222 E.02416
G1 X250.175 Y141.974 E.19796
G1 X250.175 Y142.621 E.02416
G1 X245.775 Y138.222 E.23212
G1 X245.128 Y138.222 E.02416
G1 X250.175 Y143.269 E.26629
G1 X250.175 Y143.916 E.02416
G1 X244.48 Y138.222 E.30045
G1 X243.833 Y138.222 E.02416
G1 X250.175 Y144.564 E.33461
G1 X250.175 Y145.211 E.02416
G1 X243.185 Y138.222 E.36878
G1 X242.538 Y138.222 E.02416
G1 X250.175 Y145.859 E.40294
G1 X250.175 Y146.507 E.02416
G1 X241.89 Y138.222 E.43711
G1 X241.243 Y138.222 E.02416
G1 X250.175 Y147.154 E.47127
G1 X250.175 Y147.802 E.02416
G1 X240.595 Y138.222 E.50544
G1 X239.948 Y138.222 E.02416
G1 X250.175 Y148.449 E.5396
G1 X250.175 Y149.097 E.02416
G1 X239.3 Y138.222 E.57377
G1 X238.653 Y138.222 E.02416
G1 X250.175 Y149.744 E.60793
G1 X250.175 Y150.392 E.02416
G1 X238.005 Y138.222 E.64209
G1 X237.358 Y138.222 E.02416
G1 X250.175 Y151.039 E.67626
G1 X250.175 Y151.687 E.02416
G1 X236.71 Y138.222 E.71042
G1 X236.063 Y138.222 E.02416
G1 X250.175 Y152.334 E.74459
G1 X250.175 Y152.982 E.02416
G1 X235.415 Y138.222 E.77875
G1 X234.768 Y138.222 E.02416
G1 X250.175 Y153.629 E.81292
G1 X250.175 Y154.277 E.02416
G1 X234.12 Y138.222 E.84708
G1 X233.473 Y138.222 E.02416
G1 X250.175 Y154.924 E.88125
G1 X250.175 Y155.572 E.02416
G1 X232.825 Y138.222 E.91541
G1 X232.178 Y138.222 E.02416
G1 X250.175 Y156.219 E.94958
G1 X250.175 Y156.867 E.02416
G1 X231.53 Y138.222 E.98374
G1 X230.883 Y138.222 E.02416
G1 X250.175 Y157.514 E1.0179
G1 X250.175 Y158.162 E.02416
G1 X230.235 Y138.222 E1.05207
G1 X229.588 Y138.222 E.02416
G1 X250.175 Y158.809 E1.08623
G1 X250.175 Y159.457 E.02416
G1 X228.94 Y138.222 E1.1204
G1 X228.293 Y138.222 E.02416
G1 X250.175 Y160.104 E1.15456
G1 X250.175 Y160.752 E.02416
G1 X227.645 Y138.222 E1.18873
G1 X226.998 Y138.222 E.02416
G1 X250.175 Y161.399 E1.22289
G1 X250.175 Y162.047 E.02416
G1 X226.35 Y138.222 E1.25706
G1 X225.703 Y138.222 E.02416
G1 X250.175 Y162.694 E1.29122
G1 X250.175 Y163.342 E.02416
G1 X225.055 Y138.222 E1.32539
G1 X224.408 Y138.222 E.02416
G1 X250.175 Y163.989 E1.35955
G1 X250.175 Y164.637 E.02416
G1 X223.76 Y138.222 E1.39371
M73 P2 R55
G1 X223.113 Y138.222 E.02416
G1 X250.175 Y165.284 E1.42788
G1 X250.175 Y165.932 E.02416
G1 X222.465 Y138.222 E1.46204
G1 X221.818 Y138.222 E.02416
G1 X250.175 Y166.579 E1.49621
G1 X250.175 Y167.227 E.02416
G1 X221.17 Y138.222 E1.53037
G1 X220.523 Y138.222 E.02416
G1 X250.175 Y167.874 E1.56454
G1 X250.175 Y168.522 E.02416
G1 X219.875 Y138.222 E1.5987
G1 X219.228 Y138.222 E.02416
G1 X250.175 Y169.169 E1.63287
G1 X250.175 Y169.817 E.02416
M73 P3 R55
G1 X218.58 Y138.222 E1.66703
G1 X217.933 Y138.222 E.02416
G1 X250.175 Y170.464 E1.70119
G1 X250.175 Y171.112 E.02416
G1 X217.285 Y138.222 E1.73536
G1 X216.638 Y138.222 E.02416
G1 X250.175 Y171.759 E1.76952
G1 X250.175 Y172.407 E.02416
G1 X215.99 Y138.222 E1.80369
G1 X215.343 Y138.222 E.02416
G1 X250.175 Y173.054 E1.83785
G1 X250.175 Y173.702 E.02416
G1 X214.695 Y138.222 E1.87202
G1 X214.048 Y138.222 E.02416
G1 X250.175 Y174.349 E1.90618
G1 X250.175 Y174.997 E.02416
G1 X213.4 Y138.222 E1.94035
G1 X212.753 Y138.222 E.02416
G1 X250.175 Y175.644 E1.97451
G1 X250.175 Y176.292 E.02416
G1 X212.105 Y138.222 E2.00868
G1 X211.458 Y138.222 E.02416
G1 X250.175 Y176.939 E2.04284
G1 X250.175 Y177.587 E.02416
G1 X210.81 Y138.222 E2.077
G1 X210.163 Y138.222 E.02416
G1 X250.175 Y178.234 E2.11117
G1 X250.175 Y178.882 E.02416
G1 X209.515 Y138.222 E2.14533
G1 X208.868 Y138.222 E.02416
G1 X250.175 Y179.529 E2.1795
G1 X250.175 Y180.177 E.02416
G1 X208.22 Y138.222 E2.21366
G1 X207.573 Y138.222 E.02416
G1 X250.175 Y180.824 E2.24783
G1 X250.175 Y181.472 E.02416
G1 X206.925 Y138.222 E2.28199
G1 X206.278 Y138.222 E.02416
G1 X250.175 Y182.119 E2.31616
G1 X250.175 Y182.767 E.02416
G1 X205.63 Y138.222 E2.35032
G1 X204.983 Y138.222 E.02416
G1 X250.175 Y183.414 E2.38449
G1 X250.175 Y184.062 E.02416
G1 X204.335 Y138.222 E2.41865
G1 X203.688 Y138.222 E.02416
G1 X250.175 Y184.709 E2.45281
G1 X250.175 Y185.357 E.02416
G1 X203.04 Y138.222 E2.48698
G1 X202.393 Y138.222 E.02416
G1 X250.175 Y186.004 E2.52114
G1 X250.175 Y186.652 E.02416
G1 X201.745 Y138.222 E2.55531
G1 X201.098 Y138.222 E.02416
G1 X250.175 Y187.299 E2.58947
G1 X250.175 Y187.947 E.02416
G1 X200.45 Y138.222 E2.62364
G1 X199.803 Y138.222 E.02416
G1 X250.175 Y188.594 E2.6578
G1 X250.175 Y189.242 E.02416
G1 X199.155 Y138.222 E2.69197
G1 X198.507 Y138.222 E.02416
G1 X250.175 Y189.889 E2.72613
G1 X250.175 Y190.537 E.02416
G1 X197.86 Y138.222 E2.76029
M73 P4 R55
G1 X197.212 Y138.222 E.02416
G1 X250.175 Y191.184 E2.79446
G1 X250.175 Y191.832 E.02416
G1 X196.565 Y138.222 E2.82862
G1 X195.917 Y138.222 E.02416
G1 X250.175 Y192.479 E2.86279
G1 X250.175 Y193.127 E.02416
G1 X195.27 Y138.222 E2.89695
G1 X194.622 Y138.222 E.02416
G1 X250.175 Y193.774 E2.93112
G1 X250.175 Y194.422 E.02416
G1 X193.975 Y138.222 E2.96528
G1 X193.327 Y138.222 E.02416
G1 X250.175 Y195.069 E2.99945
G1 X250.175 Y195.717 E.02416
G1 X192.68 Y138.222 E3.03361
G1 X192.032 Y138.222 E.02416
G1 X250.157 Y196.346 E3.06683
G1 X249.509 Y196.346 E.02416
G1 X191.385 Y138.222 E3.06683
G1 X190.737 Y138.222 E.02416
G1 X248.862 Y196.346 E3.06683
G1 X248.214 Y196.346 E.02416
G1 X190.09 Y138.222 E3.06683
G1 X189.442 Y138.222 E.02416
G1 X247.567 Y196.346 E3.06683
G1 X246.919 Y196.346 E.02416
G1 X188.795 Y138.222 E3.06683
M73 P4 R54
G1 X188.147 Y138.222 E.02416
G1 X246.272 Y196.346 E3.06683
G1 X245.624 Y196.346 E.02416
G1 X187.5 Y138.222 E3.06683
G1 X186.852 Y138.222 E.02416
G1 X244.977 Y196.346 E3.06683
G1 X244.329 Y196.346 E.02416
G1 X186.205 Y138.222 E3.06684
G1 X185.557 Y138.222 E.02416
G1 X243.682 Y196.346 E3.06684
G1 X243.034 Y196.346 E.02416
G1 X184.91 Y138.222 E3.06684
G1 X184.262 Y138.222 E.02416
G1 X242.387 Y196.346 E3.06684
G1 X241.739 Y196.346 E.02416
G1 X183.615 Y138.222 E3.06684
G1 X182.967 Y138.222 E.02416
G1 X241.092 Y196.346 E3.06684
G1 X240.444 Y196.346 E.02416
G1 X182.32 Y138.222 E3.06684
M73 P5 R54
G1 X181.672 Y138.222 E.02416
G1 X239.797 Y196.346 E3.06684
G1 X239.149 Y196.346 E.02416
G1 X181.025 Y138.222 E3.06684
G1 X180.377 Y138.222 E.02416
G1 X238.502 Y196.346 E3.06684
G1 X237.854 Y196.346 E.02416
G1 X179.73 Y138.222 E3.06684
G1 X179.082 Y138.222 E.02416
G1 X237.207 Y196.346 E3.06684
G1 X236.559 Y196.346 E.02416
G1 X178.435 Y138.222 E3.06684
G1 X177.787 Y138.222 E.02416
G1 X235.912 Y196.346 E3.06684
G1 X235.264 Y196.346 E.02416
G1 X177.14 Y138.222 E3.06684
G1 X176.492 Y138.222 E.02416
G1 X234.617 Y196.346 E3.06684
G1 X233.969 Y196.346 E.02416
G1 X175.845 Y138.222 E3.06684
G1 X175.197 Y138.222 E.02416
G1 X233.322 Y196.346 E3.06684
G1 X232.674 Y196.346 E.02416
G1 X174.55 Y138.222 E3.06684
G1 X173.902 Y138.222 E.02416
G1 X232.027 Y196.346 E3.06684
G1 X231.379 Y196.346 E.02416
G1 X173.255 Y138.222 E3.06684
G1 X172.607 Y138.222 E.02416
G1 X230.732 Y196.346 E3.06684
G1 X230.084 Y196.346 E.02416
G1 X171.96 Y138.222 E3.06684
G1 X171.312 Y138.222 E.02416
G1 X229.437 Y196.346 E3.06684
G1 X228.789 Y196.346 E.02416
G1 X170.665 Y138.222 E3.06684
G1 X170.017 Y138.222 E.02416
G1 X228.142 Y196.346 E3.06684
G1 X227.494 Y196.346 E.02416
G1 X169.37 Y138.222 E3.06684
G1 X168.722 Y138.222 E.02416
G1 X226.847 Y196.346 E3.06684
G1 X226.199 Y196.346 E.02416
G1 X168.075 Y138.222 E3.06684
G1 X167.427 Y138.222 E.02416
G1 X225.552 Y196.346 E3.06684
G1 X224.904 Y196.346 E.02416
G1 X166.78 Y138.222 E3.06684
M73 P6 R54
G1 X166.132 Y138.222 E.02416
G1 X224.257 Y196.346 E3.06684
G1 X223.609 Y196.346 E.02416
G1 X165.485 Y138.222 E3.06684
G1 X164.837 Y138.222 E.02416
G1 X222.962 Y196.346 E3.06684
G1 X222.314 Y196.346 E.02416
G1 X164.19 Y138.222 E3.06684
G1 X163.542 Y138.222 E.02416
G1 X221.667 Y196.346 E3.06684
G1 X221.019 Y196.346 E.02416
G1 X162.895 Y138.222 E3.06684
G1 X162.247 Y138.222 E.02416
G1 X220.372 Y196.346 E3.06684
G1 X219.724 Y196.346 E.02416
G1 X161.6 Y138.222 E3.06684
M73 P6 R53
G1 X160.952 Y138.222 E.02416
G1 X219.077 Y196.346 E3.06684
G1 X218.429 Y196.346 E.02416
G1 X160.305 Y138.222 E3.06684
G1 X159.657 Y138.222 E.02416
G1 X217.782 Y196.346 E3.06684
G1 X217.134 Y196.346 E.02416
G1 X159.01 Y138.222 E3.06684
G1 X158.362 Y138.222 E.02416
G1 X216.487 Y196.346 E3.06684
G1 X215.839 Y196.346 E.02416
G1 X157.715 Y138.222 E3.06684
G1 X157.067 Y138.222 E.02416
G1 X215.192 Y196.346 E3.06684
G1 X214.544 Y196.346 E.02416
G1 X156.42 Y138.222 E3.06684
G1 X155.772 Y138.222 E.02416
G1 X213.897 Y196.346 E3.06684
G1 X213.249 Y196.346 E.02416
G1 X155.125 Y138.222 E3.06684
G1 X154.477 Y138.222 E.02416
G1 X212.602 Y196.346 E3.06684
G1 X211.954 Y196.346 E.02416
G1 X153.83 Y138.222 E3.06684
G1 X153.182 Y138.222 E.02416
G1 X211.307 Y196.346 E3.06684
G1 X210.659 Y196.346 E.02416
G1 X152.535 Y138.222 E3.06684
G1 X151.887 Y138.222 E.02416
G1 X210.012 Y196.346 E3.06684
G1 X209.364 Y196.346 E.02416
G1 X151.24 Y138.222 E3.06684
M73 P7 R53
G1 X150.592 Y138.222 E.02416
G1 X208.717 Y196.346 E3.06684
G1 X208.069 Y196.346 E.02416
G1 X149.945 Y138.222 E3.06684
G1 X149.297 Y138.222 E.02416
G1 X207.422 Y196.346 E3.06684
G1 X206.774 Y196.346 E.02416
G1 X148.65 Y138.222 E3.06684
G1 X148.002 Y138.222 E.02416
G1 X206.127 Y196.346 E3.06684
G1 X205.479 Y196.346 E.02416
G1 X147.355 Y138.222 E3.06684
G1 X146.707 Y138.222 E.02416
G1 X204.832 Y196.346 E3.06684
G1 X204.184 Y196.346 E.02416
G1 X146.06 Y138.222 E3.06684
G1 X145.412 Y138.222 E.02416
G1 X203.537 Y196.346 E3.06684
G1 X202.889 Y196.346 E.02416
G1 X144.765 Y138.222 E3.06684
G1 X144.117 Y138.222 E.02416
G1 X202.242 Y196.346 E3.06684
G1 X201.594 Y196.346 E.02416
G1 X143.47 Y138.222 E3.06684
G1 X142.822 Y138.222 E.02416
G1 X200.947 Y196.346 E3.06684
G1 X200.299 Y196.346 E.02416
G1 X142.175 Y138.222 E3.06684
G1 X141.527 Y138.222 E.02416
G1 X199.652 Y196.346 E3.06684
G1 X199.004 Y196.346 E.02416
G1 X140.88 Y138.222 E3.06684
G1 X140.232 Y138.222 E.02416
G1 X198.357 Y196.346 E3.06684
G1 X197.709 Y196.346 E.02416
G1 X139.585 Y138.222 E3.06684
G1 X138.937 Y138.222 E.02416
G1 X197.062 Y196.346 E3.06684
G1 X196.414 Y196.346 E.02416
G1 X138.29 Y138.222 E3.06684
G1 X137.642 Y138.222 E.02416
G1 X195.767 Y196.346 E3.06684
G1 X195.119 Y196.346 E.02416
G1 X136.995 Y138.222 E3.06684
G1 X136.347 Y138.222 E.02416
G1 X194.472 Y196.346 E3.06684
G1 X193.824 Y196.346 E.02416
G1 X135.7 Y138.222 E3.06684
M73 P8 R53
G1 X135.052 Y138.222 E.02416
G1 X193.177 Y196.346 E3.06684
M73 P8 R52
G1 X192.529 Y196.346 E.02416
G1 X134.405 Y138.222 E3.06684
G1 X133.757 Y138.222 E.02416
G1 X191.882 Y196.346 E3.06684
G1 X191.234 Y196.346 E.02416
G1 X133.109 Y138.222 E3.06684
G1 X132.462 Y138.222 E.02416
G1 X190.587 Y196.346 E3.06684
G1 X189.939 Y196.346 E.02416
G1 X131.814 Y138.222 E3.06684
G1 X131.167 Y138.222 E.02416
G1 X189.291 Y196.346 E3.06684
G1 X188.644 Y196.346 E.02416
G1 X130.519 Y138.222 E3.06684
G1 X129.872 Y138.222 E.02416
G1 X187.996 Y196.346 E3.06684
G1 X187.349 Y196.346 E.02416
G1 X129.224 Y138.222 E3.06684
G1 X128.577 Y138.222 E.02416
G1 X186.701 Y196.346 E3.06684
G1 X186.054 Y196.346 E.02416
G1 X127.929 Y138.222 E3.06684
G1 X127.282 Y138.222 E.02416
G1 X185.406 Y196.346 E3.06684
G1 X184.759 Y196.346 E.02416
G1 X126.634 Y138.222 E3.06684
G1 X125.987 Y138.222 E.02416
G1 X184.111 Y196.346 E3.06684
G1 X183.464 Y196.346 E.02416
G1 X125.339 Y138.222 E3.06684
G1 X124.692 Y138.222 E.02416
G1 X182.816 Y196.346 E3.06684
G1 X182.169 Y196.346 E.02416
G1 X124.044 Y138.222 E3.06684
G1 X123.397 Y138.222 E.02416
G1 X181.521 Y196.346 E3.06684
G1 X180.874 Y196.346 E.02416
G1 X122.749 Y138.222 E3.06684
