; generated by SuperSlicer 2.5.59 on 2023-09-01 at 02:49:47 UTC


;
;

;
;
; 

; external perimeters extrusion width = 0.40mm
; perimeters extrusion width = 0.46mm
; infill extrusion width = 0.64mm
; solid infill extrusion width = 0.56mm
; top infill extrusion width = 0.40mm
; support material extrusion width = 0.46mm
; first layer extrusion width = 0.50mm

; external perimeters extrusion width = 0.40mm
; perimeters extrusion width = 0.46mm
; infill extrusion width = 0.64mm
; solid infill extrusion width = 0.56mm
; top infill extrusion width = 0.40mm
; support material extrusion width = 0.46mm
; first layer extrusion width = 0.50mm

; external perimeters extrusion width = 0.40mm
; perimeters extrusion width = 0.46mm
; infill extrusion width = 0.64mm
; solid infill extrusion width = 0.56mm
; top infill extrusion width = 0.40mm
; support material extrusion width = 0.46mm
; first layer extrusion width = 0.50mm

; object:{"name":"Base X100","id":"Base X100.5 Y98.5.stl id:0 copy 0","object_center":[165.000001,97.644344,0.000000],"boundingbox_center":[165.000001,97.644344,4.875000],"boundingbox_size":[173.410309,61.355653,9.750000]}
EXCLUDE_OBJECT_DEFINE NAME=Base_X100_5_Y98_5_stl_id_0_copy_0 CENTER=165.000001,97.644344 POLYGON=[[78.294848,67.544800],[78.302520,67.454328],[78.325376,67.366088],[78.362856,67.282256],[78.414016,67.204888],[78.477616,67.135880],[78.552064,67.076952],[78.635560,67.029540],[78.726016,66.994812],[78.821232,66.973632],[78.918840,66.966516],[251.081184,66.966516],[251.178768,66.973632],[251.273984,66.994812],[251.364464,67.029540],[251.447952,67.076952],[251.522400,67.135880],[251.585984,67.204888],[251.637152,67.282256],[251.674624,67.366088],[251.697472,67.454328],[251.705152,67.544800],[251.705152,127.743880],[251.697472,127.834360],[251.674624,127.922576],[251.637152,128.006424],[251.585984,128.083800],[251.522400,128.152800],[251.447952,128.211728],[251.364464,128.259144],[251.273984,128.293872],[251.178768,128.315048],[251.081184,128.322176],[78.918840,128.322176],[78.821232,128.315048],[78.726016,128.293872],[78.635560,128.259144],[78.552064,128.211728],[78.477616,128.152800],[78.414016,128.083800],[78.362856,128.006424],[78.325376,127.922576],[78.302520,127.834360],[78.294848,127.743880],[78.294848,67.544800]]
; object:{"name":"Base X100","id":"Base X100.5 Y98.5.stl id:1 copy 0","object_center":[165.000001,165.000000,0.000000],"boundingbox_center":[165.000001,165.000000,4.875000],"boundingbox_size":[173.410309,61.355653,9.750000]}
EXCLUDE_OBJECT_DEFINE NAME=Base_X100_5_Y98_5_stl_id_1_copy_0 CENTER=165.000001,165.000000 POLYGON=[[78.294848,134.900448],[78.302520,134.810000],[78.325376,134.721760],[78.362856,134.637920],[78.414016,134.560544],[78.477616,134.491552],[78.552064,134.432624],[78.635560,134.385216],[78.726016,134.350480],[78.821232,134.329280],[78.918840,134.322176],[251.081184,134.322176],[251.178768,134.329280],[251.273984,134.350480],[251.364464,134.385216],[251.447952,134.432624],[251.522400,134.491552],[251.585984,134.560544],[251.637152,134.637920],[251.674624,134.721760],[251.697472,134.810000],[251.705152,134.900448],[251.705152,195.099552],[251.697472,195.190016],[251.674624,195.278240],[251.637152,195.362080],[251.585984,195.439456],[251.522400,195.508448],[251.447952,195.567376],[251.364464,195.614800],[251.273984,195.649520],[251.178768,195.670720],[251.081184,195.677824],[78.918840,195.677824],[78.821232,195.670720],[78.726016,195.649520],[78.635560,195.614800],[78.552064,195.567376],[78.477616,195.508448],[78.414016,195.439456],[78.362856,195.362080],[78.325376,195.278240],[78.302520,195.190016],[78.294848,195.099552],[78.294848,134.900448]]
; object:{"name":"Base X100","id":"Base X100.5 Y98.5.stl id:2 copy 0","object_center":[165.000001,232.355656,0.000000],"boundingbox_center":[165.000001,232.355656,4.875000],"boundingbox_size":[173.410309,61.355653,9.750000]}
EXCLUDE_OBJECT_DEFINE NAME=Base_X100_5_Y98_5_stl_id_2_copy_0 CENTER=165.000001,232.355656 POLYGON=[[78.294848,202.256112],[78.302520,202.165648],[78.325376,202.077408],[78.362856,201.993584],[78.414016,201.916192],[78.477616,201.847200],[78.552064,201.788272],[78.635560,201.740864],[78.726016,201.706128],[78.821232,201.684944],[78.918840,201.677824],[251.081184,201.677824],[251.178768,201.684944],[251.273984,201.706128],[251.364464,201.740864],[251.447952,201.788272],[251.522400,201.847200],[251.585984,201.916192],[251.637152,201.993584],[251.674624,202.077408],[251.697472,202.165648],[251.705152,202.256112],[251.705152,262.455200],[251.697472,262.545648],[251.674624,262.633888],[251.637152,262.717744],[251.585984,262.795104],[251.522400,262.864112],[251.447952,262.923040],[251.364464,262.970464],[251.273984,263.005184],[251.178768,263.026368],[251.081184,263.033472],[78.918840,263.033472],[78.821232,263.026368],[78.726016,263.005184],[78.635560,262.970464],[78.552064,262.923040],[78.477616,262.864112],[78.414016,262.795104],[78.362856,262.717744],[78.325376,262.633888],[78.302520,262.545648],[78.294848,262.455200],[78.294848,202.256112]]
; plater:{"center":[165.000001,165.000000,0.000000],"boundingbox_center":[165.000001,165.000000,4.875000],"boundingbox_size":[173.410309,196.066965,9.750000]}

M73 P0 R226
;TYPE:Custom
; custom gcode: start_gcode
START_PRINT T_BED=60 T_EXTRUDER=210
; custom gcode end: start_gcode
M107
G21 ; set units to millimeters
G90 ; use absolute coordinates
M82 ; use absolute distances for extrusion
G92 E0
; custom gcode: start_filament_gcode
; Filament gcode

    PRESSURE_ADVANCE_SELECT FILAMENT=PLA
; custom gcode end: start_filament_gcode
;_TOOLCHANGE 0
M109 S210 ; set temperature and wait for it to be reached
M190 S60 ; set bed temperature and wait for it to be reached
;LAYER_CHANGE
;Z:0.2
;HEIGHT:0.2
G1 Z0.2 F9000
G1 E-0.8 F2400
M204 S1000
G1 X75.976 Y64.547 F9000
G1 E0 F1800
;TYPE:Skirt
;WIDTH:0.52
G1 X75.245 Y65.482 E0.04708
G1 X74.767 Y66.776 E0.10179
G1 X74.688 Y67.553 E0.13278
G1 X74.688 Y262.447 E7.86407
G1 X74.767 Y263.224 E7.89506
G1 X75.174 Y264.388 E7.94397
G1 X76.089 Y265.558 E8.00288
G1 X77.172 Y266.26 E8.05409
G1 X78.219 Y266.577 E8.09747
G1 X78.926 Y266.641 E8.12566
G1 X251.074 Y266.641 E14.95464
G1 X251.781 Y266.577 E14.98283
G1 X252.973 Y266.192 E15.03248
G1 X254.024 Y265.453 E15.08347
G1 X254.755 Y264.518 E15.13054
G1 X255.233 Y263.224 E15.18526
G1 X255.312 Y262.447 E15.21625
G1 X255.312 Y67.553 E22.94754
G1 X255.258 Y66.927 E22.97247
G1 X254.826 Y65.612 E23.02738
G1 X254.024 Y64.547 E23.08027
G1 X252.972 Y63.808 E23.13127
G1 X251.973 Y63.455 E23.1733
G1 X251.167 Y63.366 E23.2055
G1 X223.716 Y63.365 E24.29444
G1 X78.926 Y63.359 E30.03815
G1 X78.219 Y63.423 E30.06635
G1 X77.028 Y63.808 E30.11598
G1 X75.976 Y64.547 E30.16699
G1 X76.3 Y64.897 F9000
G1 F1800
G1 X75.663 Y65.712 E30.20802
G1 X75.238 Y66.857 E30.25646
G1 X75.166 Y67.553 E30.28424
G1 X75.166 Y262.447 E38.01554
G1 X75.238 Y263.143 E38.04332
G1 X75.592 Y264.158 E38.08596
G1 X76.413 Y265.208 E38.13882
G1 X77.375 Y265.829 E38.18425
G1 X78.288 Y266.104 E38.22207
G1 X78.926 Y266.163 E38.2475
G1 X251.074 Y266.163 E45.07649
M73 P0 R225
G1 X251.712 Y266.104 E45.10192
G1 X252.769 Y265.761 E45.14599
G1 X253.7 Y265.103 E45.19121
G1 X254.337 Y264.288 E45.23224
G1 X254.762 Y263.143 E45.28069
G1 X254.834 Y262.447 E45.30847
G1 X254.788 Y67.008 E53.06141
G1 X254.408 Y65.842 E53.11005
G1 X253.587 Y64.792 E53.16291
G1 X252.621 Y64.17 E53.20849
G1 X251.942 Y63.937 E53.23699
G1 X251.166 Y63.844 E53.26797
G1 X223.716 Y63.842 E54.35691
G1 X78.926 Y63.837 E60.10062
G1 X78.288 Y63.896 E60.12606
G1 X77.231 Y64.239 E60.17013
G1 X76.3 Y64.897 E60.21536
G92 E0
G1 E-0.8 F2400
; printing object Base X100.5 Y98.5.stl id:0 copy 0
EXCLUDE_OBJECT_START NAME=Base_X100_5_Y98_5_stl_id_0_copy_0
; acceleration to travel
M204 S3000
G1 X78.198 Y66.73 F9000
; decel to extrusion
M204 S1000
G1 X78.831 Y67.342
; end travel
G1 E0 F1800
;TYPE:External perimeter
;WIDTH:0.5
G1 X78.944 Y67.325 E0.00435
G1 X79.418 Y67.325 E0.02235
G1 X251.157 Y67.336 E6.54952
G1 X251.244 Y67.377 E6.55318
G1 X251.299 Y67.428 E6.55603
G1 X251.331 Y67.486 E6.55852
G1 X251.346 Y67.574 E6.56195
G1 X251.346 Y127.714 E8.84764
G1 X251.331 Y127.803 E8.85106
G1 X251.244 Y127.911 E8.85633
G1 X251.169 Y127.947 E8.8595
G1 X251.056 Y127.964 E8.86385
G1 X78.944 Y127.964 E15.40516
G1 X78.831 Y127.947 E15.40951
G1 X78.701 Y127.861 E15.41546
G1 X78.669 Y127.803 E15.41795
G1 X78.654 Y127.714 E15.42138
G1 X78.654 Y67.574 E17.70707
G1 X78.669 Y67.486 E17.71049
G1 X78.701 Y67.428 E17.71299
G1 X78.831 Y67.342 E17.71893
;WIPE_START
M204 S4000
G1 X79.123 Y67.616 F9000
;WIPE_END
M204 S1000
G1 X79.111 Y67.782
;TYPE:Internal perimeter
G1 F1800
G1 X79.418 Y67.782 E17.7306
G1 X250.889 Y67.793 E24.24757
G1 X250.889 Y127.507 E26.51706
G1 X79.111 Y127.507 E33.0457
G1 X79.111 Y67.782 E35.3156
G1 X79.568 Y68.239 F9000
G1 F1800
G1 X250.432 Y68.25 E41.8095
G1 X250.432 Y127.049 E44.04424
G1 X79.568 Y127.049 E50.53814
M73 P1 R224
G1 X79.568 Y68.239 E52.7733
G92 E0
G1 E-0.8 F2400
; acceleration to travel
M204 S3000
G1 X203.198 Y69.016 F9000
; decel to extrusion
M204 S1000
G1 X250.295 Y69.311
; end travel
G1 E0 F1800
;TYPE:Solid infill
;WIDTH:0.500371
G1 F3600
G1 X249.371 Y68.387 E0.0497
G1 X248.724 Y68.387 F9000
G1 F3600
G1 X250.295 Y69.958 E0.13418
G1 X250.295 Y70.604 F9000
G1 F3600
G1 X248.078 Y68.387 E0.25342
G1 X247.431 Y68.387 F9000
G1 F3600
G1 X250.295 Y71.251 E0.40744
G1 X250.295 Y71.897 F9000
G1 F3600
G1 X246.785 Y68.387 E0.59623
G1 X246.138 Y68.387 F9000
G1 F3600
G1 X250.295 Y72.543 E0.81979
G1 X250.295 Y73.19 F9000
G1 F3600
G1 X245.492 Y68.387 E1.07813
G1 X244.846 Y68.387 F9000
G1 F3600
G1 X250.295 Y73.836 E1.37123
G1 X250.295 Y74.483 F9000
G1 F3600
G1 X244.199 Y68.387 E1.69911
G1 X243.553 Y68.387 F9000
G1 F3600
G1 X250.295 Y75.129 E2.06176
G1 X250.295 Y75.775 F9000
G1 F3600
G1 X242.906 Y68.387 E2.45918
G1 X242.26 Y68.387 F9000
G1 F3600
G1 X250.295 Y76.422 E2.89138
G1 X250.295 Y77.068 F9000
G1 F3600
G1 X241.613 Y68.387 E3.35834
G1 X240.967 Y68.387 F9000
G1 F3600
G1 X250.295 Y77.715 E3.86008
G1 X250.295 Y78.361 F9000
G1 F3600
G1 X240.32 Y68.387 E4.39659
G1 X239.674 Y68.387 F9000
G1 F3600
G1 X250.295 Y79.007 E4.96787
G1 X250.295 Y79.654 F9000
G1 F3600
G1 X239.027 Y68.387 E5.57392
G1 X238.381 Y68.387 F9000
G1 F3600
G1 X250.295 Y80.3 E6.21474
G1 X250.295 Y80.947 F9000
G1 F3600
G1 X237.735 Y68.387 E6.89034
G1 X237.088 Y68.386 F9000
G1 F3600
G1 X250.295 Y81.593 E7.6007
G1 X250.295 Y82.239 F9000
G1 F3600
G1 X236.442 Y68.386 E8.34584
G1 X235.795 Y68.386 F9000
G1 F3600
G1 X250.295 Y82.886 E9.12576
G1 X250.295 Y83.532 F9000
G1 F3600
G1 X235.149 Y68.386 E9.94044
G1 X234.502 Y68.386 F9000
G1 F3600
G1 X250.295 Y84.179 E10.78989
G1 X250.295 Y84.825 F9000
G1 F3600
G1 X233.856 Y68.386 E11.67412
G1 X233.209 Y68.386 F9000
G1 F3600
G1 X250.295 Y85.471 E12.59312
G1 X250.295 Y86.118 F9000
G1 F3600
G1 X232.563 Y68.386 E13.54689
G1 X231.917 Y68.386 F9000
G1 F3600
G1 X250.295 Y86.764 E14.53543
G1 X250.295 Y87.411 F9000
G1 F3600
G1 X231.27 Y68.386 E15.55874
G1 X230.624 Y68.386 F9000
G1 F3600
G1 X250.295 Y88.057 E16.61683
G1 X250.295 Y88.704 F9000
G1 F3600
G1 X229.977 Y68.386 E17.70969
G1 X229.331 Y68.386 F9000
G1 F3600
G1 X250.295 Y89.35 E18.83732
G1 X250.295 Y89.996 F9000
G1 F3600
G1 X228.684 Y68.386 E19.99972
G1 X228.038 Y68.386 F9000
G1 F3600
G1 X250.295 Y90.643 E21.19689
G1 X250.295 Y91.289 F9000
G1 F3600
G1 X227.391 Y68.386 E22.42884
G1 X226.745 Y68.386 F9000
G1 F3600
G1 X250.295 Y91.936 E23.69555
G1 X250.295 Y92.582 F9000
G1 F3600
G1 X226.098 Y68.386 E24.99704
G1 X225.452 Y68.386 F9000
G1 F3600
G1 X250.295 Y93.228 E26.3333
M73 P1 R224
G1 X250.295 Y93.875 F9000
G1 F3600
G1 X224.806 Y68.386 E27.70433
G1 X224.159 Y68.386 F9000
G1 F3600
G1 X250.295 Y94.521 E29.11014
G1 X250.295 Y95.168 F9000
G1 F3600
G1 X223.513 Y68.386 E30.55071
G1 X222.866 Y68.386 F9000
G1 F3600
G1 X250.295 Y95.814 E32.02606
G1 X250.295 Y96.46 F9000
G1 F3600
G1 X222.22 Y68.386 E33.53618
G1 X221.573 Y68.385 F9000
G1 F3600
G1 X250.295 Y97.107 E35.08107
G1 X250.295 Y97.753 F9000
G1 F3600
G1 X220.927 Y68.385 E36.66073
G1 X220.28 Y68.385 F9000
G1 F3600
G1 X250.295 Y98.4 E38.27517
G1 X250.295 Y99.046 F9000
G1 F3600
G1 X219.634 Y68.385 E39.92438
G1 X218.988 Y68.385 F9000
G1 F3600
G1 X250.295 Y99.692 E41.60835
G1 X250.295 Y100.339 F9000
G1 F3600
G1 X218.341 Y68.385 E43.32711
G1 X217.695 Y68.385 F9000
G1 F3600
G1 X250.295 Y100.985 E45.08063
G1 X250.295 Y101.632 F9000
G1 F3600
G1 X217.048 Y68.385 E46.86892
G1 X216.402 Y68.385 F9000
G1 F3600
G1 X250.295 Y102.278 E48.69199
G1 X250.295 Y102.924 F9000
G1 F3600
G1 X215.755 Y68.385 E50.54982
G1 X215.109 Y68.385 F9000
G1 F3600
G1 X250.295 Y103.571 E52.44243
G1 X250.295 Y104.217 F9000
G1 F3600
G1 X214.462 Y68.385 E54.36982
G1 X213.816 Y68.385 F9000
G1 F3600
G1 X250.295 Y104.864 E56.33197
G1 X250.295 Y105.51 F9000
G1 F3600
G1 X213.17 Y68.385 E58.32889
G1 X212.523 Y68.385 F9000
G1 F3600
G1 X250.295 Y106.157 E60.36059
G1 X250.295 Y106.803 F9000
G1 F3600
G1 X211.877 Y68.385 E62.42706
G1 X211.23 Y68.385 F9000
G1 F3600
G1 X250.295 Y107.449 E64.5283
G1 X250.295 Y108.096 F9000
G1 F3600
G1 X210.584 Y68.385 E66.66431
G1 X209.937 Y68.385 F9000
G1 F3600
G1 X250.295 Y108.742 E68.8351
G1 X250.295 Y109.389 F9000
G1 F3600
G1 X209.291 Y68.385 E71.04065
G1 X208.644 Y68.385 F9000
G1 F3600
G1 X250.295 Y110.035 E73.28098
G1 X250.295 Y110.681 F9000
G1 F3600
G1 X207.998 Y68.385 E75.55608
G1 X207.351 Y68.385 F9000
G1 F3600
G1 X250.295 Y111.328 E77.86595
G1 X250.295 Y111.974 F9000
G1 F3600
G1 X206.705 Y68.385 E80.21059
G1 X206.059 Y68.384 F9000
G1 F3600
G1 X250.295 Y112.621 E82.59001
G1 X250.295 Y113.267 F9000
G1 F3600
G1 X205.412 Y68.384 E85.00419
G1 X204.766 Y68.384 F9000
G1 F3600
G1 X250.295 Y113.913 E87.45315
G1 X250.295 Y114.56 F9000
G1 F3600
G1 X204.119 Y68.384 E89.93688
G1 X203.473 Y68.384 F9000
G1 F3600
G1 X250.295 Y115.206 E92.45539
G1 X250.295 Y115.853 F9000
G1 F3600
G1 X202.826 Y68.384 E95.00866
G1 X202.18 Y68.384 F9000
G1 F3600
G1 X250.295 Y116.499 E97.59671
G1 X250.295 Y117.145 F9000
G1 F3600
G1 X201.533 Y68.384 E100.21952
G1 X200.887 Y68.384 F9000
G1 F3600
G1 X250.295 Y117.792 E102.87711
G1 X250.295 Y118.438 F9000
G1 F3600
G1 X200.241 Y68.384 E105.56947
G1 X199.594 Y68.384 F9000
G1 F3600
G1 X250.295 Y119.085 E108.29661
G1 X250.295 Y119.731 F9000
G1 F3600
G1 X198.948 Y68.384 E111.05851
G1 X198.301 Y68.384 F9000
G1 F3600
G1 X250.295 Y120.377 E113.85519
G1 X250.295 Y121.024 F9000
G1 F3600
G1 X197.655 Y68.384 E116.68664
M73 P1 R223
G1 X197.008 Y68.384 F9000
G1 F3600
G1 X250.295 Y121.67 E119.55286
G1 X250.295 Y122.317 F9000
G1 F3600
G1 X196.362 Y68.384 E122.45385
G1 X195.715 Y68.384 F9000
G1 F3600
G1 X250.295 Y122.963 E125.38961
G1 X250.295 Y123.61 F9000
G1 F3600
G1 X195.069 Y68.384 E128.36015
G1 X194.423 Y68.384 F9000
G1 F3600
G1 X250.295 Y124.256 E131.36546
G1 X250.295 Y124.902 F9000
G1 F3600
G1 X193.776 Y68.384 E134.40554
G1 X193.13 Y68.384 F9000
G1 F3600
G1 X250.295 Y125.549 E137.48039
G1 X250.295 Y126.195 F9000
G1 F3600
G1 X192.483 Y68.384 E140.59001
G1 X191.837 Y68.384 F9000
G1 F3600
G1 X250.295 Y126.842 E143.73441
G1 X249.719 Y126.912 F9000
G1 F3600
G1 X191.19 Y68.384 E146.88261
G1 X190.544 Y68.383 F9000
G1 F3600
G1 X249.073 Y126.912 E150.03082
G1 X248.426 Y126.912 F9000
G1 F3600
G1 X189.897 Y68.383 E153.17904
G1 X189.251 Y68.383 F9000
G1 F3600
G1 X247.78 Y126.912 E156.32725
G1 X247.133 Y126.912 F9000
G1 F3600
G1 X188.604 Y68.383 E159.47547
G1 X187.958 Y68.383 F9000
G1 F3600
G1 X246.487 Y126.912 E162.62368
G1 X245.841 Y126.912 F9000
G1 F3600
G1 X187.312 Y68.383 E165.7719
G1 X186.665 Y68.383 F9000
G1 F3600
G1 X245.194 Y126.912 E168.92013
G1 X244.548 Y126.912 F9000
G1 F3600
G1 X186.019 Y68.383 E172.06835
G1 X185.372 Y68.383 F9000
G1 F3600
G1 X243.901 Y126.912 E175.21658
G1 X243.255 Y126.912 F9000
G1 F3600
G1 X184.726 Y68.383 E178.36481
G1 X184.079 Y68.383 F9000
G1 F3600
G1 X242.609 Y126.912 E181.51304
G1 X241.962 Y126.912 F9000
G1 F3600
G1 X183.433 Y68.383 E184.66127
G1 X182.786 Y68.383 F9000
G1 F3600
G1 X241.316 Y126.912 E187.80951
G1 X240.669 Y126.912 F9000
G1 F3600
G1 X182.14 Y68.383 E190.95775
