; HEADER_BLOCK_START
; generated by OrcaSlicer 1.6.2 on 2023-05-15 at 21:48:45
; total layer number: 49
; HEADER_BLOCK_END

; THUMBNAIL_BLOCK_START
; THUMBNAIL_BLOCK_END

; external perimeters extrusion width = 0.40mm
; perimeters extrusion width = 0.45mm
; infill extrusion width = 0.45mm
; solid infill extrusion width = 0.40mm
; top infill extrusion width = 0.40mm
; first layer extrusion width = 0.50mm

; EXECUTABLE_BLOCK_START
EXCLUDE_OBJECT_DEFINE NAME=Base_X100.5_Y98.5.stl_id_0_copy_0 CENTER=170,170 POLYGON=[[83.2948,139.9],[83.3025,139.81],[83.3254,139.722],[83.3629,139.638],[83.414,139.561],[83.4776,139.492],[83.5521,139.433],[83.6356,139.385],[83.726,139.35],[83.8212,139.329],[83.9188,139.322],[256.081,139.322],[256.179,139.329],[256.274,139.35],[256.364,139.385],[256.448,139.433],[256.522,139.492],[256.586,139.561],[256.637,139.638],[256.675,139.722],[256.697,139.81],[256.705,139.9],[256.705,200.1],[256.697,200.19],[256.675,200.278],[256.637,200.362],[256.586,200.439],[256.522,200.508],[256.448,200.567],[256.364,200.615],[256.274,200.65],[256.179,200.671],[256.081,200.678],[83.9188,200.678],[83.8212,200.671],[83.726,200.65],[83.6356,200.615],[83.5521,200.567],[83.4776,200.508],[83.414,200.439],[83.3629,200.362],[83.3254,200.278],[83.3025,200.19],[83.2948,200.1],[83.2948,139.9]]
M73 P0 R48
;TYPE:Custom
START_PRINT T_BED=60 T_EXTRUDER=220
G90
G21
M83 ; use relative distances for extrusion
; filament start gcode

    PRESSURE_ADVANCE_SELECT FILAMENT=PLA
M106 S0
;LAYER_CHANGE
;Z:0.2
;HEIGHT:0.2
SET_VELOCITY_LIMIT ACCEL_TO_DECEL=250
M204 S500
G1 E-.8 F3000
G1 X81.749 Y137.155 Z.2 F9000
G1 E.8 F1800
;TYPE:Skirt
;WIDTH:0.5
G1 F3000
G1 X82.684 Y136.638 E.03982
G1 X83.19 Y136.493 E.01958
G1 X83.919 Y136.417 E.0273
G1 X256.087 Y136.417 E6.41262
G1 X256.81 Y136.493 E.02707
G1 X257.405 Y136.672 E.02312
G1 X258.251 Y137.155 E.03629
G1 X258.659 Y137.523 E.02045
G1 X259.06 Y138.034 E.02422
G1 X259.326 Y138.536 E.02114
G1 X259.509 Y139.08 E.0214
G1 X259.61 Y139.9 E.03078
G1 X259.61 Y200.1 E2.24219
G1 X259.487 Y201.007 E.03409
G1 X259.009 Y202.042 E.04246
G1 X258.251 Y202.846 E.04116
G1 X257.316 Y203.362 E.03979
G1 X256.81 Y203.507 E.01959
G1 X256.081 Y203.583 E.0273
G1 X83.919 Y203.583 E6.41239
G1 X83.096 Y203.486 E.03086
G1 X82.119 Y203.095 E.03922
G1 X81.279 Y202.41 E.04037
G1 X80.674 Y201.465 E.04179
G1 X80.491 Y200.919 E.02143
G1 X80.39 Y200.1 E.03077
G1 X80.39 Y139.9 E2.24219
G1 X80.513 Y138.994 E.03409
G1 X80.991 Y137.958 E.04246
G1 X81.707 Y137.198 E.03891
G1 X82.032 Y137.513 F9000
G1 F3000
G1 X82.848 Y137.065 E.03468
G1 X83.919 Y136.874 E.0405
G1 X256.087 Y136.874 E6.41262
G1 X256.711 Y136.939 E.02335
G1 X257.241 Y137.099 E.02061
G1 X257.967 Y137.513 E.03115
G1 X258.323 Y137.832 E.01779
G1 X258.909 Y138.722 E.03969
G1 X259.067 Y139.195 E.01857
G1 X259.153 Y139.9 E.02647
G1 X259.153 Y200.1 E2.24219
G1 X259.044 Y200.892 E.02979
G1 X258.628 Y201.79 E.03686
G1 X257.967 Y202.487 E.03578
G1 X257.152 Y202.935 E.03466
G1 X256.081 Y203.126 E.04051
G1 X83.919 Y203.126 E6.41239
G1 X83.195 Y203.04 E.02714
G1 X82.344 Y202.697 E.03417
G1 X81.615 Y202.1 E.03512
G1 X81.091 Y201.278 E.03629
G1 X80.933 Y200.805 E.01859
G1 X80.847 Y200.1 E.02646
G1 X80.847 Y139.9 E2.24219
G1 X80.956 Y139.108 E.02979
G1 X81.372 Y138.21 E.03686
G1 X81.991 Y137.557 E.03354
; printing object Base X100.5 Y98.5.stl id:0 copy 0
EXCLUDE_OBJECT_START NAME=Base_X100.5_Y98.5.stl_id_0_copy_0
G1 E-.8
G1 X84.468 Y140.495 F9000
G1 E.8 F1800
;TYPE:Inner wall
;WIDTH:0.499999
G1 F3000
G1 X255.532 Y140.495 E6.37146
M73 P0 R47
G1 X255.532 Y199.505 E2.19789
G1 X84.468 Y199.505 E6.37146
M73 P1 R47
G1 X84.468 Y140.555 E2.19567
G1 X84.011 Y140.038 F9000
G1 F3000
G1 X255.989 Y140.038 E6.40551
G1 X255.989 Y199.962 E2.23194
G1 X84.011 Y199.962 E6.40551
G1 X84.011 Y140.098 E2.22972
G1 X83.699 Y139.649 F9000
;TYPE:Outer wall
G1 F3000
G1 X83.937 Y139.581 E.00922
G1 X256.012 Y139.581 E6.40914
G1 X256.258 Y139.626 E.00931
G1 X256.401 Y139.756 E.00718
G1 X256.446 Y139.98 E.00853
G1 X256.446 Y200.006 E2.23573
G1 X256.427 Y200.192 E.00696
G1 X256.301 Y200.351 E.00754
G1 X256.063 Y200.419 E.00922
G1 X83.967 Y200.419 E6.4099
G1 X83.802 Y200.399 E.0062
G1 X83.621 Y200.279 E.0081
G1 X83.554 Y200.078 E.00786
G1 X83.554 Y139.994 E2.23791
G1 X83.573 Y139.808 E.00696
G1 X83.662 Y139.696 E.00531
G1 X83.743 Y139.672
G1 E-.8
G1 X255.395 Y141.557 F9000
G1 E.8 F1800
;TYPE:Bottom surface
;WIDTH:0.500281
G1 F6300
G1 X254.676 Y140.838 E.03789
G1 X254.029 Y140.838 E.02411
G1 X255.189 Y141.998 E.06114
G1 X255.189 Y142.645 E.02411
G1 X253.382 Y140.838 E.09523
G1 X252.735 Y140.838 E.02411
G1 X255.189 Y143.292 E.12932
G1 X255.189 Y143.939 E.02411
G1 X252.089 Y140.838 E.16341
G1 X251.442 Y140.838 E.02411
G1 X255.189 Y144.585 E.1975
G1 X255.189 Y145.232 E.02411
G1 X250.795 Y140.838 E.23159
G1 X250.148 Y140.838 E.02411
G1 X255.189 Y145.879 E.26569
G1 X255.189 Y146.526 E.02411
G1 X249.501 Y140.838 E.29978
G1 X248.855 Y140.838 E.02411
G1 X255.189 Y147.173 E.33387
G1 X255.189 Y147.819 E.02411
G1 X248.208 Y140.838 E.36796
G1 X247.561 Y140.838 E.02411
G1 X255.189 Y148.466 E.40205
G1 X255.189 Y149.113 E.02411
G1 X246.914 Y140.838 E.43614
G1 X246.267 Y140.838 E.02411
G1 X255.189 Y149.76 E.47023
G1 X255.189 Y150.407 E.02411
G1 X245.62 Y140.838 E.50432
G1 X244.974 Y140.838 E.02411
G1 X255.189 Y151.053 E.53841
G1 X255.189 Y151.7 E.02411
G1 X244.327 Y140.838 E.5725
G1 X243.68 Y140.838 E.02411
G1 X255.189 Y152.347 E.6066
G1 X255.189 Y152.994 E.02411
G1 X243.033 Y140.838 E.64069
G1 X242.386 Y140.838 E.02411
G1 X255.189 Y153.641 E.67478
G1 X255.189 Y154.287 E.02411
G1 X241.74 Y140.838 E.70887
G1 X241.093 Y140.838 E.02411
G1 X255.189 Y154.934 E.74296
G1 X255.189 Y155.581 E.02411
M73 P2 R47
G1 X240.446 Y140.838 E.77705
G1 X239.799 Y140.838 E.02411
G1 X255.189 Y156.228 E.81114
G1 X255.189 Y156.875 E.02411
G1 X239.152 Y140.838 E.84523
G1 X238.506 Y140.838 E.02411
G1 X255.189 Y157.521 E.87932
G1 X255.189 Y158.168 E.02411
G1 X237.859 Y140.838 E.91341
G1 X237.212 Y140.838 E.02411
G1 X255.189 Y158.815 E.94751
G1 X255.189 Y159.462 E.02411
G1 X236.565 Y140.838 E.9816
G1 X235.918 Y140.838 E.02411
G1 X255.189 Y160.109 E1.01569
G1 X255.189 Y160.756 E.02411
G1 X235.272 Y140.838 E1.04978
G1 X234.625 Y140.838 E.02411
G1 X255.189 Y161.402 E1.08387
G1 X255.189 Y162.049 E.02411
G1 X233.978 Y140.838 E1.11796
G1 X233.331 Y140.838 E.02411
G1 X255.189 Y162.696 E1.15205
G1 X255.189 Y163.343 E.02411
G1 X232.684 Y140.838 E1.18614
G1 X232.038 Y140.838 E.02411
G1 X255.189 Y163.99 E1.22023
G1 X255.189 Y164.636 E.02411
G1 X231.391 Y140.838 E1.25432
G1 X230.744 Y140.838 E.02411
G1 X255.189 Y165.283 E1.28842
G1 X255.189 Y165.93 E.02411
G1 X230.097 Y140.838 E1.32251
G1 X229.45 Y140.838 E.02411
G1 X255.189 Y166.577 E1.3566
G1 X255.189 Y167.224 E.02411
G1 X228.803 Y140.838 E1.39069
G1 X228.157 Y140.838 E.02411
G1 X255.189 Y167.87 E1.42478
G1 X255.189 Y168.517 E.02411
G1 X227.51 Y140.838 E1.45887
G1 X226.863 Y140.838 E.02411
G1 X255.189 Y169.164 E1.49296
G1 X255.189 Y169.811 E.02411
G1 X226.216 Y140.838 E1.52705
G1 X225.569 Y140.838 E.02411
G1 X255.189 Y170.458 E1.56114
G1 X255.189 Y171.104 E.02411
G1 X224.923 Y140.838 E1.59523
G1 X224.276 Y140.838 E.02411
G1 X255.189 Y171.751 E1.62933
G1 X255.189 Y172.398 E.02411
G1 X223.629 Y140.838 E1.66342
G1 X222.982 Y140.838 E.02411
G1 X255.189 Y173.045 E1.69751
G1 X255.189 Y173.692 E.02411
G1 X222.335 Y140.838 E1.7316
G1 X221.689 Y140.838 E.02411
G1 X255.189 Y174.338 E1.76569
G1 X255.189 Y174.985 E.02411
G1 X221.042 Y140.838 E1.79978
G1 X220.395 Y140.838 E.02411
G1 X255.189 Y175.632 E1.83387
G1 X255.189 Y176.279 E.02411
G1 X219.748 Y140.838 E1.86796
G1 X219.101 Y140.838 E.02411
G1 X255.189 Y176.926 E1.90205
G1 X255.189 Y177.572 E.02411
G1 X218.455 Y140.838 E1.93614
G1 X217.808 Y140.838 E.02411
G1 X255.189 Y178.219 E1.97023
G1 X255.189 Y178.866 E.02411
G1 X217.161 Y140.838 E2.00433
G1 X216.514 Y140.838 E.02411
G1 X255.189 Y179.513 E2.03842
G1 X255.189 Y180.16 E.02411
G1 X215.867 Y140.838 E2.07251
G1 X215.221 Y140.838 E.02411
G1 X255.189 Y180.806 E2.1066
G1 X255.189 Y181.453 E.02411
G1 X214.574 Y140.838 E2.14069
M73 P2 R46
G1 X213.927 Y140.838 E.02411
G1 X255.189 Y182.1 E2.17478
G1 X255.189 Y182.747 E.02411
G1 X213.28 Y140.838 E2.20887
G1 X212.633 Y140.838 E.02411
G1 X255.189 Y183.394 E2.24296
G1 X255.189 Y184.041 E.02411
G1 X211.986 Y140.838 E2.27705
G1 X211.34 Y140.838 E.02411
G1 X255.189 Y184.687 E2.31114
G1 X255.189 Y185.334 E.02411
G1 X210.693 Y140.838 E2.34524
G1 X210.046 Y140.838 E.02411
G1 X255.189 Y185.981 E2.37933
M73 P3 R46
G1 X255.189 Y186.628 E.02411
G1 X209.399 Y140.838 E2.41342
G1 X208.752 Y140.838 E.02411
G1 X255.189 Y187.275 E2.44751
G1 X255.189 Y187.921 E.02411
G1 X208.106 Y140.838 E2.4816
G1 X207.459 Y140.838 E.02411
G1 X255.189 Y188.568 E2.51569
G1 X255.189 Y189.215 E.02411
G1 X206.812 Y140.838 E2.54978
G1 X206.165 Y140.838 E.02411
G1 X255.189 Y189.862 E2.58387
G1 X255.189 Y190.509 E.02411
G1 X205.518 Y140.838 E2.61796
G1 X204.872 Y140.838 E.02411
G1 X255.189 Y191.155 E2.65205
G1 X255.189 Y191.802 E.02411
G1 X204.225 Y140.838 E2.68615
G1 X203.578 Y140.838 E.02411
G1 X255.189 Y192.449 E2.72024
G1 X255.189 Y193.096 E.02411
G1 X202.931 Y140.838 E2.75433
G1 X202.284 Y140.838 E.02411
G1 X255.189 Y193.743 E2.78842
G1 X255.189 Y194.389 E.02411
G1 X201.638 Y140.838 E2.82251
G1 X200.991 Y140.838 E.02411
G1 X255.189 Y195.036 E2.8566
G1 X255.189 Y195.683 E.02411
G1 X200.344 Y140.838 E2.89069
G1 X199.697 Y140.838 E.02411
G1 X255.189 Y196.33 E2.92478
G1 X255.189 Y196.977 E.02411
G1 X199.05 Y140.838 E2.95887
G1 X198.404 Y140.838 E.02411
G1 X255.189 Y197.623 E2.99296
G1 X255.189 Y198.27 E.02411
G1 X197.757 Y140.838 E3.02706
G1 X197.11 Y140.838 E.02411
G1 X255.189 Y198.917 E3.06115
G1 X255.189 Y199.162 E.00914
G1 X254.787 Y199.162 E.01497
G1 X196.463 Y140.838 E3.07407
G1 X195.816 Y140.838 E.02411
G1 X254.141 Y199.162 E3.07407
G1 X253.494 Y199.162 E.02411
G1 X195.169 Y140.838 E3.07407
G1 X194.523 Y140.838 E.02411
G1 X252.847 Y199.162 E3.07407
G1 X252.2 Y199.162 E.02411
G1 X193.876 Y140.838 E3.07407
G1 X193.229 Y140.838 E.02411
G1 X251.553 Y199.162 E3.07407
G1 X250.907 Y199.162 E.02411
G1 X192.582 Y140.838 E3.07407
G1 X191.935 Y140.838 E.02411
G1 X250.26 Y199.162 E3.07407
G1 X249.613 Y199.162 E.02411
G1 X191.289 Y140.838 E3.07407
G1 X190.642 Y140.838 E.02411
G1 X248.966 Y199.162 E3.07407
M73 P4 R46
G1 X248.319 Y199.162 E.02411
G1 X189.995 Y140.838 E3.07407
G1 X189.348 Y140.838 E.02411
G1 X247.673 Y199.162 E3.07407
G1 X247.026 Y199.162 E.02411
G1 X188.701 Y140.838 E3.07407
G1 X188.055 Y140.838 E.02411
G1 X246.379 Y199.162 E3.07407
G1 X245.732 Y199.162 E.02411
G1 X187.408 Y140.838 E3.07407
G1 X186.761 Y140.838 E.02411
G1 X245.085 Y199.162 E3.07407
G1 X244.439 Y199.162 E.02411
G1 X186.114 Y140.838 E3.07407
G1 X185.467 Y140.838 E.02411
G1 X243.792 Y199.162 E3.07407
G1 X243.145 Y199.162 E.02411
G1 X184.821 Y140.838 E3.07407
G1 X184.174 Y140.838 E.02411
G1 X242.498 Y199.162 E3.07407
G1 X241.851 Y199.162 E.02411
G1 X183.527 Y140.838 E3.07407
G1 X182.88 Y140.838 E.02411
G1 X241.205 Y199.162 E3.07408
G1 X240.558 Y199.162 E.02411
G1 X182.233 Y140.838 E3.07408
G1 X181.587 Y140.838 E.02411
G1 X239.911 Y199.162 E3.07408
G1 X239.264 Y199.162 E.02411
G1 X180.94 Y140.838 E3.07408
G1 X180.293 Y140.838 E.02411
G1 X238.617 Y199.162 E3.07408
G1 X237.97 Y199.162 E.02411
G1 X179.646 Y140.838 E3.07408
G1 X178.999 Y140.838 E.02411
G1 X237.324 Y199.162 E3.07408
G1 X236.677 Y199.162 E.02411
G1 X178.352 Y140.838 E3.07408
G1 X177.706 Y140.838 E.02411
G1 X236.03 Y199.162 E3.07408
G1 X235.383 Y199.162 E.02411
G1 X177.059 Y140.838 E3.07408
G1 X176.412 Y140.838 E.02411
G1 X234.736 Y199.162 E3.07408
G1 X234.09 Y199.162 E.02411
G1 X175.765 Y140.838 E3.07408
G1 X175.118 Y140.838 E.02411
G1 X233.443 Y199.162 E3.07408
G1 X232.796 Y199.162 E.02411
G1 X174.472 Y140.838 E3.07408
G1 X173.825 Y140.838 E.02411
G1 X232.149 Y199.162 E3.07408
M73 P4 R45
G1 X231.502 Y199.162 E.02411
G1 X173.178 Y140.838 E3.07408
G1 X172.531 Y140.838 E.02411
G1 X230.856 Y199.162 E3.07408
G1 X230.209 Y199.162 E.02411
G1 X171.884 Y140.838 E3.07408
M73 P5 R45
G1 X171.238 Y140.838 E.02411
G1 X229.562 Y199.162 E3.07408
G1 X228.915 Y199.162 E.02411
G1 X170.591 Y140.838 E3.07408
G1 X169.944 Y140.838 E.02411
G1 X228.268 Y199.162 E3.07408
G1 X227.622 Y199.162 E.02411
G1 X169.297 Y140.838 E3.07408
G1 X168.65 Y140.838 E.02411
G1 X226.975 Y199.162 E3.07408
G1 X226.328 Y199.162 E.02411
G1 X168.004 Y140.838 E3.07408
G1 X167.357 Y140.838 E.02411
G1 X225.681 Y199.162 E3.07408
G1 X225.034 Y199.162 E.02411
G1 X166.71 Y140.838 E3.07408
G1 X166.063 Y140.838 E.02411
G1 X224.388 Y199.162 E3.07408
G1 X223.741 Y199.162 E.02411
G1 X165.416 Y140.838 E3.07408
G1 X164.77 Y140.838 E.02411
G1 X223.094 Y199.162 E3.07408
G1 X222.447 Y199.162 E.02411
G1 X164.123 Y140.838 E3.07408
G1 X163.476 Y140.838 E.02411
G1 X221.8 Y199.162 E3.07408
G1 X221.154 Y199.162 E.02411
G1 X162.829 Y140.838 E3.07408
G1 X162.182 Y140.838 E.02411
G1 X220.507 Y199.162 E3.07408
G1 X219.86 Y199.162 E.02411
G1 X161.535 Y140.838 E3.07408
G1 X160.889 Y140.838 E.02411
G1 X219.213 Y199.162 E3.07408
G1 X218.566 Y199.162 E.02411
G1 X160.242 Y140.838 E3.07408
G1 X159.595 Y140.838 E.02411
G1 X217.919 Y199.162 E3.07408
G1 X217.273 Y199.162 E.02411
G1 X158.948 Y140.838 E3.07408
G1 X158.301 Y140.838 E.02411
G1 X216.626 Y199.162 E3.07408
G1 X215.979 Y199.162 E.02411
G1 X157.655 Y140.838 E3.07408
G1 X157.008 Y140.838 E.02411
G1 X215.332 Y199.162 E3.07408
G1 X214.685 Y199.162 E.02411
G1 X156.361 Y140.838 E3.07408
G1 X155.714 Y140.838 E.02411
G1 X214.039 Y199.162 E3.07408
G1 X213.392 Y199.162 E.02411
G1 X155.067 Y140.838 E3.07408
G1 X154.421 Y140.838 E.02411
G1 X212.745 Y199.162 E3.07408
G1 X212.098 Y199.162 E.02411
G1 X153.774 Y140.838 E3.07408
G1 X153.127 Y140.838 E.02411
G1 X211.451 Y199.162 E3.07408
M73 P6 R45
G1 X210.805 Y199.162 E.02411
G1 X152.48 Y140.838 E3.07408
G1 X151.833 Y140.838 E.02411
G1 X210.158 Y199.162 E3.07408
G1 X209.511 Y199.162 E.02411
G1 X151.187 Y140.838 E3.07408
G1 X150.54 Y140.838 E.02411
G1 X208.864 Y199.162 E3.07408
G1 X208.217 Y199.162 E.02411
G1 X149.893 Y140.838 E3.07408
G1 X149.246 Y140.838 E.02411
G1 X207.571 Y199.162 E3.07408
G1 X206.924 Y199.162 E.02411
G1 X148.599 Y140.838 E3.07408
G1 X147.952 Y140.838 E.02411
G1 X206.277 Y199.162 E3.07408
G1 X205.63 Y199.162 E.02411
G1 X147.306 Y140.838 E3.07408
G1 X146.659 Y140.838 E.02411
G1 X204.983 Y199.162 E3.07408
G1 X204.337 Y199.162 E.02411
G1 X146.012 Y140.838 E3.07408
G1 X145.365 Y140.838 E.02411
G1 X203.69 Y199.162 E3.07408
G1 X203.043 Y199.162 E.02411
G1 X144.718 Y140.838 E3.07408
G1 X144.072 Y140.838 E.02411
G1 X202.396 Y199.162 E3.07408
G1 X201.749 Y199.162 E.02411
G1 X143.425 Y140.838 E3.07408
G1 X142.778 Y140.838 E.02411
G1 X201.103 Y199.162 E3.07408
G1 X200.456 Y199.162 E.02411
G1 X142.131 Y140.838 E3.07408
G1 X141.484 Y140.838 E.02411
G1 X199.809 Y199.162 E3.07408
G1 X199.162 Y199.162 E.02411
G1 X140.838 Y140.838 E3.07408
G1 X140.191 Y140.838 E.02411
G1 X198.515 Y199.162 E3.07408
G1 X197.869 Y199.162 E.02411
G1 X139.544 Y140.838 E3.07408
G1 X138.897 Y140.838 E.02411
G1 X197.222 Y199.162 E3.07408
G1 X196.575 Y199.162 E.02411
G1 X138.25 Y140.838 E3.07408
G1 X137.604 Y140.838 E.02411
G1 X195.928 Y199.162 E3.07408
G1 X195.281 Y199.162 E.02411
G1 X136.957 Y140.838 E3.07408
G1 X136.31 Y140.838 E.02411
G1 X194.634 Y199.162 E3.07408
G1 X193.988 Y199.162 E.02411
G1 X135.663 Y140.838 E3.07408
G1 X135.016 Y140.838 E.02411
G1 X193.341 Y199.162 E3.07408
M73 P6 R44
G1 X192.694 Y199.162 E.02411
G1 X134.37 Y140.838 E3.07408
M73 P7 R44
G1 X133.723 Y140.838 E.02411
G1 X192.047 Y199.162 E3.07408
G1 X191.4 Y199.162 E.02411
G1 X133.076 Y140.838 E3.07408
G1 X132.429 Y140.838 E.02411
G1 X190.754 Y199.162 E3.07408
G1 X190.107 Y199.162 E.02411
G1 X131.782 Y140.838 E3.07408
G1 X131.135 Y140.838 E.02411
G1 X189.46 Y199.162 E3.07408
G1 X188.813 Y199.162 E.02411
G1 X130.489 Y140.838 E3.07408
G1 X129.842 Y140.838 E.02411
G1 X188.166 Y199.162 E3.07408
G1 X187.52 Y199.162 E.02411
G1 X129.195 Y140.838 E3.07408
G1 X128.548 Y140.838 E.02411
G1 X186.873 Y199.162 E3.07408
