; generated by SuperSlicer 2.5.59 on 2023-02-23 at 01:37:03 UTC


;
;

;
;
; 

; external perimeters extrusion width = 0.40mm
; perimeters extrusion width = 0.46mm
; infill extrusion width = 0.64mm
; solid infill extrusion width = 0.56mm
; top infill extrusion width = 0.40mm
; support material extrusion width = 0.46mm
; first layer extrusion width = 0.50mm

; object:{"name":"(Unsaved)","id":"(Unsaved).stl id:0 copy 0","object_center":[165.000000,165.000000,0.000000],"boundingbox_center":[165.000000,165.000000,14.375000],"boundingbox_size":[54.745001,66.574997,28.750000]}
; plater:{"center":[165.000000,165.000000,0.000000],"boundingbox_center":[165.000000,165.000000,14.375000],"boundingbox_size":[54.745001,66.574997,28.750000]}

M73 P0 R72


; Pre-Processed for Cancel-Object support by preprocess_cancellation v0.2.0
; 1 known objects
EXCLUDE_OBJECT_DEFINE NAME=Unsaved_stl_id_0_copy_0 CENTER=164.935,164.989 POLYGON=[[137.827,131.913],[137.827,198.087],[192.173,198.087],[192.173,131.913]]
;TYPE:Custom
; custom gcode: start_gcode
START_PRINT T_BED=70 T_EXTRUDER=245
; custom gcode end: start_gcode
M107
G21 ; set units to millimeters
G90 ; use absolute coordinates
M82 ; use absolute distances for extrusion
G92 E0
; custom gcode: start_filament_gcode
; Filament gcode
PRESSURE_ADVANCE_SELECT FILAMENT=PETG
; custom gcode end: start_filament_gcode
;_TOOLCHANGE 0
M104 S245 ; set temperature
M109 S245 ; set temperature and wait for it to be reached
M190 S70 ; set bed temperature and wait for it to be reached
;LAYER_CHANGE
;Z:0.2
;HEIGHT:0.2
G1 Z0.2 F9000
G1 E-1 F3000
M204 S1000
G1 X136.918 Y131.062 F9000
G1 E0 F1800
;TYPE:Skirt
;WIDTH:0.52
G1 X136.288 Y131.72 E0.03612
G1 X135.45 Y132.84 E0.09163
G1 X134.752 Y134.053 E0.14714
G1 X134.385 Y134.868 E0.18258
G1 X133.94 Y136.194 E0.23809
G1 X133.658 Y137.565 E0.2936
G1 X133.542 Y138.962 E0.34923
G1 X133.542 Y191.038 E2.41502
G1 X133.658 Y192.435 E2.47065
G1 X133.94 Y193.806 E2.52616
G1 X134.385 Y195.132 E2.58167
G1 X134.987 Y196.395 E2.63718
G1 X135.737 Y197.577 E2.69269
G1 X136.624 Y198.659 E2.74819
G1 X137.635 Y199.627 E2.8037
G1 X138.755 Y200.465 E2.85921
G1 X139.968 Y201.163 E2.91472
M73 P0 R72
G1 X140.783 Y201.53 E2.95017
G1 X142.109 Y201.975 E3.00568
G1 X143.48 Y202.257 E3.06118
G1 X144.877 Y202.373 E3.11682
G1 X185.123 Y202.373 E4.71332
G1 X186.52 Y202.257 E4.76895
G1 X187.891 Y201.975 E4.82445
G1 X189.217 Y201.53 E4.87996
G1 X190.48 Y200.928 E4.93547
G1 X191.662 Y200.178 E4.99098
G1 X192.744 Y199.291 E5.04649
G1 X193.712 Y198.28 E5.102
G1 X194.55 Y197.16 E5.15751
G1 X195.248 Y195.947 E5.21302
G1 X195.615 Y195.132 E5.24846
G1 X196.06 Y193.806 E5.30397
G1 X196.342 Y192.435 E5.35948
G1 X196.465 Y190.784 E5.42515
G1 X196.465 Y139.216 E7.47085
G1 X196.342 Y137.565 E7.53652
G1 X196.181 Y136.686 E7.57196
G1 X195.794 Y135.341 E7.62747
G1 X195.013 Y133.605 E7.70302
G1 X194.263 Y132.423 E7.75852
G1 X193.712 Y131.72 E7.79397
G1 X192.365 Y130.373 E7.86952
G1 X191.245 Y129.535 E7.92502
G1 X190.48 Y129.072 E7.96047
G1 X188.744 Y128.291 E8.03602
G1 X187.891 Y128.025 E8.07146
G1 X186.52 Y127.743 E8.12697
G1 X185.123 Y127.627 E8.1826
G1 X145.131 Y127.62 E9.76906
G1 X143.982 Y127.682 E9.81467
G1 X142.601 Y127.904 E9.87018
G1 X141.256 Y128.291 E9.92569
G1 X139.52 Y129.072 E10.00123
G1 X138.338 Y129.822 E10.05674
G1 X137.256 Y130.709 E10.11225
G1 X136.918 Y131.062 E10.13164
G1 X137.261 Y131.392 F9000
G1 F1800
G1 X136.664 Y132.014 E10.16586
G1 X135.858 Y133.087 E10.21908
G1 X135.187 Y134.249 E10.27231
G1 X134.82 Y135.064 E10.30776
G1 X134.395 Y136.336 E10.36098
G1 X134.127 Y137.651 E10.41421
G1 X134.019 Y138.991 E10.46755
G1 X134.019 Y191.009 E12.53106
G1 X134.127 Y192.349 E12.5844
G1 X134.395 Y193.664 E12.63763
G1 X134.82 Y194.936 E12.69085
G1 X135.396 Y196.149 E12.74408
G1 X136.113 Y197.283 E12.7973
G1 X136.961 Y198.322 E12.85053
G1 X137.929 Y199.251 E12.90375
G1 X139.002 Y200.057 E12.95698
G1 X140.164 Y200.728 E13.0102
G1 X140.979 Y201.095 E13.04565
G1 X142.251 Y201.52 E13.09888
G1 X143.566 Y201.788 E13.1521
G1 X144.906 Y201.896 E13.20545
G1 X185.094 Y201.896 E14.79966
G1 X186.434 Y201.788 E14.85301
G1 X187.749 Y201.52 E14.90623
G1 X189.021 Y201.095 E14.95946
G1 X190.234 Y200.519 E15.01269
G1 X191.368 Y199.802 E15.06591
G1 X192.407 Y198.954 E15.11913
G1 X193.336 Y197.986 E15.17236
G1 X194.142 Y196.913 E15.22559
G1 X194.813 Y195.751 E15.27881
G1 X195.339 Y194.517 E15.33204
G1 X195.605 Y193.664 E15.36748
G1 X195.873 Y192.349 E15.42071
G1 X195.988 Y190.784 E15.48295
G1 X195.988 Y139.216 E17.52865
G1 X195.873 Y137.651 E17.59089
G1 X195.605 Y136.336 E17.64412
G1 X195.339 Y135.483 E17.67957
G1 X194.604 Y133.851 E17.75055
G1 X194.142 Y133.087 E17.78599
G1 X193.336 Y132.014 E17.83922
G1 X192.071 Y130.749 E17.9102
G1 X191.368 Y130.198 E17.94565
G1 X190.234 Y129.481 E17.99887
G1 X188.602 Y128.746 E18.06986
G1 X187.313 Y128.373 E18.12308
G1 X186.434 Y128.212 E18.15853
G1 X185.094 Y128.104 E18.21187
G1 X145.131 Y128.097 E19.79719
G1 X144.011 Y128.158 E19.84166
G1 X142.687 Y128.373 E19.89488
G1 X141.398 Y128.746 E19.94811
G1 X139.766 Y129.481 E20.01909
G1 X138.632 Y130.198 E20.07232
G1 X137.593 Y131.046 E20.12554
G1 X137.261 Y131.392 E20.14455
G1 X137.604 Y131.722 F9000
G1 F1800
G1 X137.039 Y132.308 E20.17683
G1 X136.266 Y133.334 E20.22777
G1 X135.622 Y134.444 E20.27871
G1 X135.255 Y135.259 E20.31416
G1 X134.851 Y136.478 E20.3651
G1 X134.596 Y137.737 E20.41604
G1 X134.495 Y139.02 E20.46711
G1 X134.495 Y190.98 E22.52833
M73 P0 R72
G1 X134.596 Y192.263 E22.57939
G1 X134.851 Y193.522 E22.63033
G1 X135.255 Y194.741 E22.68127
G1 X135.804 Y195.902 E22.73221
G1 X136.488 Y196.988 E22.78316
G1 X137.299 Y197.984 E22.8341
G1 X138.223 Y198.876 E22.88504
G1 X139.248 Y199.649 E22.93598
G1 X140.359 Y200.293 E22.98692
G1 X141.54 Y200.798 E23.03786
G1 X142.393 Y201.064 E23.07331
G1 X143.652 Y201.319 E23.12425
G1 X144.935 Y201.42 E23.17532
G1 X185.065 Y201.42 E24.76725
G1 X186.348 Y201.319 E24.81831
G1 X187.607 Y201.064 E24.86925
G1 X188.826 Y200.66 E24.92019
G1 X189.987 Y200.111 E24.97114
G1 X191.073 Y199.427 E25.02208
G1 X192.069 Y198.616 E25.07302
G1 X192.961 Y197.692 E25.12396
G1 X193.734 Y196.666 E25.1749
G1 X194.378 Y195.556 E25.22584
G1 X194.883 Y194.375 E25.27678
G1 X195.149 Y193.522 E25.31223
G1 X195.404 Y192.263 E25.36317
G1 X195.511 Y190.784 E25.42199
G1 X195.511 Y139.216 E27.46769
G1 X195.404 Y137.737 E27.52651
G1 X195.149 Y136.478 E27.57745
G1 X194.883 Y135.625 E27.6129
G1 X194.196 Y134.098 E27.67932
G1 X193.734 Y133.334 E27.71476
G1 X192.961 Y132.308 E27.76571
G1 X191.777 Y131.124 E27.83213
G1 X191.073 Y130.573 E27.86757
G1 X189.987 Y129.889 E27.91851
G1 X188.46 Y129.202 E27.98493
G1 X187.227 Y128.842 E28.03587
G1 X186.348 Y128.681 E28.07132
G1 X185.065 Y128.58 E28.12239
G1 X145.131 Y128.574 E29.70656
G1 X144.04 Y128.634 E29.74988
G1 X142.773 Y128.842 E29.80083
G1 X141.54 Y129.202 E29.85177
G1 X140.013 Y129.889 E29.91819
G1 X138.927 Y130.573 E29.96913
G1 X137.931 Y131.384 E30.02007
G1 X137.604 Y131.722 E30.03873
G92 E0
G1 E-1 F3000
; printing object (Unsaved).stl id:0 copy 0
EXCLUDE_OBJECT_START NAME=Unsaved_stl_id_0_copy_0
; acceleration to travel
M204 S3000
G1 X148.508 Y142.88 F9000
; decel to extrusion
M204 S1000
G1 X152.142 Y146.6
; end travel
G1 E0 F1800
;TYPE:Internal perimeter
;WIDTH:0.5
G1 X152.069 Y146.672 E0.00391
G1 X151.679 Y147.293 E0.03176
G1 X151.437 Y147.984 E0.05961
G1 X151.363 Y148.642 E0.08474
G1 X151.363 Y181.358 E1.3282
G1 X151.437 Y182.016 E1.35333
G1 X151.679 Y182.707 E1.38118
G1 X152.069 Y183.328 E1.40903
G1 X152.587 Y183.846 E1.43688
G1 X153.208 Y184.236 E1.46472
G1 X153.899 Y184.478 E1.49257
G1 X154.557 Y184.552 E1.51771
G1 X175.443 Y184.552 E2.31154
G1 X176.101 Y184.478 E2.33668
G1 X176.792 Y184.236 E2.36452
G1 X177.413 Y183.846 E2.39237
G1 X177.931 Y183.328 E2.42022
G1 X178.321 Y182.707 E2.44807
G1 X178.563 Y182.016 E2.47592
G1 X178.637 Y181.358 E2.50105
G1 X178.637 Y148.642 E3.7445
G1 X178.563 Y147.984 E3.76964
G1 X178.321 Y147.293 E3.79749
G1 X177.931 Y146.672 E3.82533
G1 X177.413 Y146.154 E3.85318
G1 X176.792 Y145.764 E3.88103
G1 X176.101 Y145.522 E3.90888
G1 X175.443 Y145.448 E3.93401
G1 X154.557 Y145.448 E4.72785
G1 X153.899 Y145.522 E4.75298
G1 X153.208 Y145.764 E4.78083
G1 X152.587 Y146.154 E4.80868
G1 X152.142 Y146.6 E4.83261
G1 X152.401 Y147.003 F9000
G1 F1800
G1 X152.094 Y147.492 E4.85459
G1 X151.886 Y148.087 E4.87852
G1 X151.82 Y148.667 E4.90072
G1 X151.82 Y181.333 E6.14222
G1 X151.886 Y181.913 E6.16443
G1 X152.094 Y182.508 E6.18836
G1 X152.429 Y183.041 E6.21229
G1 X152.874 Y183.486 E6.23623
G1 X153.407 Y183.821 E6.26016
G1 X154.002 Y184.029 E6.28409
G1 X154.582 Y184.095 E6.30629
G1 X175.418 Y184.095 E7.09818
G1 X175.998 Y184.029 E7.12038
G1 X176.593 Y183.821 E7.14431
G1 X177.126 Y183.486 E7.16825
G1 X177.571 Y183.041 E7.19218
G1 X177.906 Y182.508 E7.21612
G1 X178.114 Y181.913 E7.24005
G1 X178.18 Y181.333 E7.26225
G1 X178.18 Y148.667 E8.50375
G1 X178.114 Y148.087 E8.52595
G1 X177.906 Y147.492 E8.54988
G1 X177.571 Y146.959 E8.57382
G1 X177.126 Y146.514 E8.59775
G1 X176.593 Y146.179 E8.62169
G1 X175.998 Y145.971 E8.64562
G1 X175.418 Y145.905 E8.66782
G1 X154.582 Y145.905 E9.45971
G1 X154.002 Y145.971 E9.48191
G1 X153.407 Y146.179 E9.50584
G1 X152.874 Y146.514 E9.52977
G1 X152.429 Y146.959 E9.55371
G1 X152.401 Y147.003 E9.55566
G1 X152.788 Y147.246 F9000
;TYPE:External perimeter
G1 F1800
G1 X152.508 Y147.692 E9.57568
G1 X152.334 Y148.189 E9.5957
G1 X152.278 Y148.693 E9.61497
G1 X152.278 Y181.307 E10.85452
G1 X152.334 Y181.811 E10.87379
G1 X152.508 Y182.308 E10.89381
G1 X152.788 Y182.754 E10.91383
G1 X153.161 Y183.127 E10.93384
G1 X153.607 Y183.407 E10.95386
G1 X154.104 Y183.581 E10.97388
G1 X154.608 Y183.637 E10.99315
G1 X175.392 Y183.637 E11.78308
G1 X175.896 Y183.581 E11.80235
G1 X176.393 Y183.407 E11.82237
G1 X176.839 Y183.127 E11.84239
G1 X177.212 Y182.754 E11.86241
G1 X177.492 Y182.308 E11.88243
G1 X177.666 Y181.811 E11.90245
G1 X177.722 Y181.307 E11.92171
G1 X177.722 Y148.693 E13.16126
G1 X177.666 Y148.189 E13.18053
G1 X177.492 Y147.692 E13.20055
G1 X177.212 Y147.246 E13.22057
G1 X176.839 Y146.873 E13.24059
G1 X176.393 Y146.593 E13.26061
G1 X175.896 Y146.419 E13.28063
G1 X175.392 Y146.363 E13.29989
G1 X154.608 Y146.363 E14.08983
G1 X154.104 Y146.419 E14.1091
G1 X153.607 Y146.593 E14.12912
G1 X153.161 Y146.873 E14.14914
G1 X152.788 Y147.246 E14.16915
;WIPE_START
M204 S4000
G1 X152.391 Y147.201 F9000
;WIPE_END
G92 E0
G1 E-1 F3000
; acceleration to travel
M204 S3000
G1 X142.266 Y147.235 F9000
; decel to extrusion
M204 S1000
G1 X138.892 Y147.246
; end travel
G1 E0 F1800
;TYPE:Internal perimeter
G1 X138.892 Y139.251 E0.30387
G1 X138.939 Y138.461 E0.33393
G1 X139.075 Y137.721 E0.36254
G1 X139.299 Y137.002 E0.39115
G1 X139.608 Y136.316 E0.41976
G1 X139.997 Y135.671 E0.44837
G1 X140.462 Y135.079 E0.47698
G1 X140.994 Y134.547 E0.50559
G1 X141.586 Y134.082 E0.5342
G1 X142.231 Y133.693 E0.5628
G1 X142.917 Y133.384 E0.59141
G1 X143.636 Y133.16 E0.62002
G1 X144.376 Y133.024 E0.64863
G1 X145.166 Y132.977 E0.67869
G1 X184.834 Y132.977 E2.18635
G1 X185.248 Y133.002 E2.20211
G1 X185.624 Y133.024 E2.21642
G1 X186.364 Y133.16 E2.24502
G1 X187.083 Y133.384 E2.27363
G1 X187.769 Y133.693 E2.30224
G1 X188.414 Y134.082 E2.33085
G1 X189.006 Y134.547 E2.35946
G1 X189.538 Y135.079 E2.38807
G1 X190.003 Y135.671 E2.41668
G1 X190.392 Y136.316 E2.44529
G1 X190.701 Y137.002 E2.4739
G1 X190.925 Y137.721 E2.50251
G1 X191.061 Y138.461 E2.53111
G1 X191.108 Y139.251 E2.56118
G1 X191.108 Y190.749 E4.51845
G1 X191.061 Y191.539 E4.54851
G1 X190.925 Y192.279 E4.57712
G1 X190.701 Y192.998 E4.60573
G1 X190.392 Y193.684 E4.63434
G1 X190.003 Y194.329 E4.66295
G1 X189.538 Y194.921 E4.69156
G1 X189.006 Y195.453 E4.72017
G1 X188.414 Y195.918 E4.74878
G1 X187.769 Y196.307 E4.77739
G1 X187.083 Y196.616 E4.80599
G1 X186.364 Y196.84 E4.8346
G1 X185.624 Y196.976 E4.86321
G1 X184.834 Y197.023 E4.89328
G1 X145.166 Y197.023 E6.40093
G1 X144.376 Y196.976 E6.431
G1 X143.636 Y196.84 E6.45961
G1 X142.917 Y196.616 E6.48822
G1 X142.231 Y196.307 E6.51682
G1 X141.586 Y195.918 E6.54543
G1 X140.994 Y195.453 E6.57404
G1 X140.462 Y194.921 E6.60265
G1 X139.997 Y194.329 E6.63126
G1 X139.608 Y193.684 E6.65987
G1 X139.299 Y192.998 E6.68848
G1 X139.075 Y192.279 E6.71709
G1 X138.939 Y191.539 E6.7457
G1 X138.892 Y190.749 E6.77576
G1 X138.892 Y147.246 E8.42916
G1 X138.435 Y147.246 F9000
G1 F1800
G1 X138.435 Y139.237 E8.73356
G1 X138.485 Y138.406 E8.7652
G1 X138.63 Y137.611 E8.79591
G1 X138.871 Y136.84 E8.82662
G1 X139.203 Y136.103 E8.85733
G1 X139.621 Y135.411 E8.88804
G1 X140.119 Y134.775 E8.91875
G1 X140.69 Y134.204 E8.94946
G1 X141.326 Y133.706 E8.98017
G1 X142.018 Y133.288 E9.01088
G1 X142.755 Y132.956 E9.04159
G1 X143.526 Y132.715 E9.0723
G1 X144.321 Y132.57 E9.10301
G1 X145.152 Y132.52 E9.13465
G1 X184.848 Y132.52 E10.64336
G1 X185.276 Y132.545 E10.65964
G1 X185.679 Y132.57 E10.675
G1 X186.474 Y132.715 E10.70571
G1 X187.245 Y132.956 E10.73642
G1 X187.982 Y133.288 E10.76713
G1 X188.674 Y133.706 E10.79784
G1 X189.31 Y134.204 E10.82855
G1 X189.881 Y134.775 E10.85926
G1 X190.379 Y135.411 E10.88997
G1 X190.797 Y136.103 E10.92068
G1 X191.129 Y136.84 E10.95139
G1 X191.37 Y137.611 E10.98211
G1 X191.515 Y138.406 E11.01282
G1 X191.565 Y139.237 E11.04445
G1 X191.565 Y190.763 E13.00278
G1 X191.515 Y191.594 E13.03442
G1 X191.37 Y192.389 E13.06513
G1 X191.129 Y193.16 E13.09584
G1 X190.797 Y193.897 E13.12655
G1 X190.379 Y194.589 E13.15726
G1 X189.881 Y195.225 E13.18797
G1 X189.31 Y195.796 E13.21868
G1 X188.674 Y196.294 E13.24939
G1 X187.982 Y196.712 E13.2801
G1 X187.245 Y197.044 E13.31081
G1 X186.474 Y197.285 E13.34152
G1 X185.679 Y197.43 E13.37223
G1 X184.848 Y197.48 E13.40387
G1 X145.152 Y197.48 E14.91258
G1 X144.321 Y197.43 E14.94422
G1 X143.526 Y197.285 E14.97493
G1 X142.755 Y197.044 E15.00564
G1 X142.018 Y196.712 E15.03635
G1 X141.326 Y196.294 E15.06706
G1 X140.69 Y195.796 E15.09777
G1 X140.119 Y195.225 E15.12848
G1 X139.621 Y194.589 E15.15919
G1 X139.203 Y193.897 E15.1899
G1 X138.871 Y193.16 E15.22061
G1 X138.63 Y192.389 E15.25133
G1 X138.485 Y191.594 E15.28204
G1 X138.435 Y190.763 E15.31367
G1 X138.435 Y147.246 E16.9676
G1 X137.977 Y147.246 F9000
;TYPE:External perimeter
G1 F1800
G1 X137.977 Y139.223 E17.27252
G1 X138.03 Y138.351 E17.30574
G1 X138.186 Y137.502 E17.33855
G1 X138.443 Y136.677 E17.37136
G1 X138.797 Y135.89 E17.40417
G1 X139.244 Y135.151 E17.43699
G1 X139.776 Y134.472 E17.4698
G1 X140.387 Y133.861 E17.50261
G1 X141.066 Y133.329 E17.53542
G1 X141.805 Y132.882 E17.56823
G1 X142.592 Y132.528 E17.60105
G1 X143.417 Y132.271 E17.63386
G1 X144.266 Y132.115 E17.66667
G1 X145.138 Y132.063 E17.69989
G1 X184.862 Y132.063 E19.20964
G1 X185.303 Y132.089 E19.22645
G1 X185.734 Y132.115 E19.24286
G1 X186.583 Y132.271 E19.27567
G1 X187.408 Y132.528 E19.30848
G1 X188.195 Y132.882 E19.3413
G1 X188.934 Y133.329 E19.37411
G1 X189.613 Y133.861 E19.40692
G1 X190.224 Y134.472 E19.43973
G1 X190.756 Y135.151 E19.47254
G1 X191.203 Y135.89 E19.50536
G1 X191.557 Y136.677 E19.53817
G1 X191.814 Y137.502 E19.57098
G1 X191.97 Y138.351 E19.60379
G1 X192.023 Y139.223 E19.63701
G1 X192.023 Y190.777 E21.59638
G1 X191.97 Y191.649 E21.6296
G1 X191.814 Y192.498 E21.66241
G1 X191.557 Y193.323 E21.69522
G1 X191.203 Y194.11 E21.72803
G1 X190.756 Y194.849 E21.76084
G1 X190.224 Y195.528 E21.79366
G1 X189.613 Y196.139 E21.82647
G1 X188.934 Y196.671 E21.85928
G1 X188.195 Y197.118 E21.89209
G1 X187.408 Y197.472 E21.92491
G1 X186.583 Y197.729 E21.95772
G1 X185.734 Y197.885 E21.99053
G1 X184.862 Y197.937 E22.02374
G1 X145.138 Y197.937 E23.5335
G1 X144.266 Y197.885 E23.56672
G1 X143.417 Y197.729 E23.59953
G1 X142.592 Y197.472 E23.63234
G1 X141.805 Y197.118 E23.66515
G1 X141.066 Y196.671 E23.69797
M73 P1 R71
G1 X140.387 Y196.139 E23.73078
G1 X139.776 Y195.528 E23.76359
G1 X139.244 Y194.849 E23.7964
G1 X138.797 Y194.11 E23.82921
G1 X138.443 Y193.323 E23.86203
G1 X138.186 Y192.498 E23.89484
G1 X138.03 Y191.649 E23.92765
G1 X137.977 Y190.777 E23.96087
G1 X137.977 Y147.246 E25.61532
;WIPE_START
M204 S4000
G1 X138.324 Y147.046 F9000
;WIPE_END
G92 E0
G1 E-1 F3000
