; HEADER_BLOCK_START
; generated by OrcaSlicer 1.6.4-beta3 on 2023-08-18 at 17:17:19
; total layer number: 129
; HEADER_BLOCK_END

; THUMBNAIL_BLOCK_START
; THUMBNAIL_BLOCK_END

; external perimeters extrusion width = 0.40mm
; perimeters extrusion width = 0.46mm
; infill extrusion width = 0.64mm
; solid infill extrusion width = 0.56mm
; top infill extrusion width = 0.40mm
; support material extrusion width = 0.46mm
; first layer extrusion width = 0.50mm

; EXECUTABLE_BLOCK_START
EXCLUDE_OBJECT_DEFINE NAME=Body9.stl_id_0_copy_0 CENTER=165,164.938 POLYGON=[[139.53,152.123],[139.57,151.589],[139.691,151.067],[139.888,150.568],[140.159,150.106],[144.946,142.808],[145.186,142.523],[159.315,127.123],[175.315,127.123],[188.425,142.123],[189.044,143.72],[189.554,145.354],[189.953,147.02],[190.24,148.708],[190.412,150.412],[190.47,152.123],[190.42,152.718],[190.271,153.296],[173.001,199.9],[158.001,202.754],[158.001,202.754],[141.472,161.877],[140.884,160.316],[140.399,158.72],[140.02,157.096],[139.748,155.45],[139.585,153.79],[139.53,152.123]]
M73 P0 R33
;TYPE:Custom
START_PRINT T_BED=110 T_EXTRUDER=260
G90
G21
M83 ; use relative distances for extrusion
; Filament gcode
M106 S0
;LAYER_CHANGE
;Z:0.2
;HEIGHT:0.2
;BEFORE_LAYER_CHANGE
;0.2
G92 E0

SET_VELOCITY_LIMIT ACCEL=1000 ACCEL_TO_DECEL=500
G1 E-.5 F3000
G1 X154.751 Y123.49 F12000
G1 Z.2
G1 E.5 F1800
;TYPE:Skirt
;WIDTH:0.5
G1 F3000
G1 X155.868 Y122.47 E.0535
G1 X157.207 Y122.144 E.04871
G1 X175.71 Y122.144 E.65398
G1 X177.171 Y122.537 E.0535
G1 X178.119 Y123.418 E.04574
G1 X190.061 Y140.967 E.75028
G1 X190.375 Y141.568 E.02394
G1 X191.018 Y143.272 E.06438
G1 X191.497 Y144.828 E.05756
G1 X191.922 Y146.599 E.06438
G1 X192.229 Y148.395 E.06438
G1 X192.416 Y150.206 E.06438
G1 X192.482 Y152.027 E.06438
G1 X192.314 Y153.463 E.05111
G1 X174.317 Y200.052 E1.76534
G1 X173.423 Y201.273 E.0535
G1 X171.6 Y201.914 E.06828
G1 X158.4 Y201.914 E.46657
G1 X156.938 Y201.521 E.0535
G1 X155.722 Y200.15 E.06476
G1 X139.626 Y162.683 E1.44136
G1 X139.009 Y161.054 E.06156
G1 X138.48 Y159.334 E.06362
G1 X138.028 Y157.395 E.07036
G1 X137.74 Y155.618 E.06362
G1 X137.57 Y153.827 E.06362
G1 X137.517 Y152.219 E.05687
G1 X137.651 Y150.913 E.04637
G1 X137.933 Y150.012 E.0334
G1 X138.426 Y149.075 E.03741
G1 X154.729 Y123.524 E1.0713
G1 X155.114 Y123.77 F12000
G1 F3000
G1 X155.136 Y123.736 E.00141
G1 X156.182 Y122.825 E.04905
G1 X157.207 Y122.601 E.03708
G1 X175.71 Y122.601 E.65398
G1 X177.041 Y122.993 E.04905
G1 X177.741 Y123.676 E.03457
G1 X189.683 Y141.224 E.75028
G1 X189.948 Y141.731 E.02019
G1 X190.528 Y143.252 E.05756
G1 X191.06 Y144.962 E.06331
G1 X191.477 Y146.704 E.06331
G1 X191.778 Y148.47 E.06331
G1 X191.961 Y150.252 E.06331
G1 X192.026 Y152.042 E.06331
G1 X191.876 Y153.332 E.04592
G1 X173.891 Y199.887 E1.76405
G1 X173.045 Y200.987 E.04905
G1 X171.6 Y201.457 E.0537
G1 X158.4 Y201.457 E.46657
G1 X157.069 Y201.065 E.04905
G1 X156.142 Y199.97 E.0507
G1 X140.004 Y162.399 E1.44531
G1 X139.385 Y160.741 E.06256
G1 X138.917 Y159.201 E.05687
G1 X138.479 Y157.321 E.06824
G1 X138.195 Y155.574 E.06256
G1 X138.027 Y153.812 E.06256
G1 X137.974 Y152.204 E.05687
G1 X138.096 Y151.016 E.0422
G1 X138.358 Y150.18 E.03096
G1 X138.811 Y149.321 E.03435
G1 X155.093 Y123.804 E1.06989
; printing object Body9.stl id:0 copy 0
G1 E-.5
EXCLUDE_OBJECT_START NAME=Body9.stl_id_0_copy_0
G1 X175.71 Y128.03 F12000
G1 E.5 F1800
;TYPE:Support
G1 F3000
G1 X175.273 Y127.53 E.02346
G1 X175.036 Y127.423 E.00918
G1 X173.067 Y127.423 E.06962
G1 X172.715 Y127.775 E.01757
G1 X172.715 Y137.266 E.33547
G3 X172.284 Y138.306 I-1.837 J-.151 E.04045
G1 X169.212 Y141.378 E.15358
G3 X168.862 Y141.523 I-.354 J-.359 E.01373
G1 X165.767 Y141.523 E.10941
G3 X165.417 Y141.378 I.004 J-.504 E.01372
G1 X162.346 Y138.306 E.15353
G3 X161.915 Y137.266 I1.406 J-1.192 E.04045
G1 X161.915 Y127.775 E.33547
G1 X161.564 Y127.423 E.01757
G1 X159.594 Y127.423 E.06962
G1 X159.358 Y127.53 E.00918
G1 X157.207 Y129.991 E.1155
G1 X157.207 Y125.058 E.17436
G1 X175.71 Y125.058 E.65398
G1 X175.71 Y127.962 E.10264
G1 E-.5
G1 X174.884 Y128.909 F12000
G1 X173.915 Y130.341
G1 X165.793 Y141.112
G1 E.5 F1800
G1 F3000
G3 X165.688 Y141.068 I-.015 J-.113 E.00421
G1 X162.651 Y138.029 E.15186
G3 X162.327 Y137.245 I.985 J-.867 E.03054
G1 X162.327 Y127.604 E.34078
G1 X161.734 Y127.012 E.02961
G1 X159.505 Y127.012 E.07879
G1 X159.106 Y127.193 E.01547
G1 X157.619 Y128.895 E.07991
G1 X157.619 Y125.469 E.12108
G1 X175.298 Y125.469 E.6249
G1 X175.298 Y127.09 E.05729
G1 X175.125 Y127.012 E.00671
G1 X172.896 Y127.012 E.07879
G1 X172.304 Y127.604 E.02961
G1 X172.304 Y137.245 E.34078
G3 X171.979 Y138.029 I-1.31 J-.083 E.03054
G1 X168.94 Y141.068 E.15191
G3 X168.835 Y141.112 I-.09 J-.069 E.00421
G1 X165.793 Y141.112 E.1075
G1 X165.942 Y140.604 F12000
G1 F3000
G1 X163.028 Y137.688 E.14571
G3 X162.834 Y137.22 I.487 J-.476 E.01833
G1 X162.834 Y127.394 E.34733
G1 X161.944 Y126.504 E.04449
G1 X159.395 Y126.504 E.09011
G1 X158.796 Y126.776 E.02324
G1 X158.127 Y127.542 E.03598
G1 X158.127 Y125.977 E.05532
G1 X174.79 Y125.977 E.589
G1 X174.79 Y126.504 E.01862
G1 X172.686 Y126.504 E.07438
G1 X171.796 Y127.394 E.04449
G1 X171.796 Y137.22 E.34733
G3 X171.602 Y137.688 I-.681 J-.008 E.01832
G1 X168.686 Y140.604 E.14577
G1 X165.942 Y140.604 E.09698
G1 X166.153 Y140.096 F12000
G1 F3000
G1 X163.405 Y137.347 E.1374
G3 X163.342 Y137.196 I.082 J-.122 E.00613
G1 X163.342 Y127.183 E.35389
G1 X162.644 Y126.485 E.03491
G1 X171.986 Y126.485 E.33022
G1 X171.288 Y127.183 E.03491
G1 X171.288 Y137.196 E.35389
G3 X171.226 Y137.346 I-.144 J.029 E.00612
G1 X168.476 Y140.096 E.13745
G1 X166.153 Y140.096 E.08211
G1 X166.363 Y139.588 F12000
G1 F3000
G1 X163.85 Y137.074 E.12566
G1 X163.85 Y126.993 E.35631
G1 X170.78 Y126.993 E.24495
G1 X170.78 Y137.074 E.35631
G1 X168.265 Y139.588 E.1257
G1 X166.363 Y139.588 E.06723
G1 X166.574 Y139.08 F12000
G1 F3000
G1 X164.358 Y136.863 E.11079
G1 X164.358 Y127.501 E.33093
G1 X170.272 Y127.501 E.20905
G1 X170.272 Y136.863 E.33092
G1 X168.055 Y139.08 E.11083
G1 X166.574 Y139.08 E.05236
G1 X166.784 Y138.572 F12000
G1 F3000
G1 X164.866 Y136.653 E.09592
G1 X164.866 Y128.009 E.30554
G1 X169.765 Y128.009 E.17315
G1 X169.765 Y136.653 E.30553
G1 X167.845 Y138.572 E.09596
G1 X166.784 Y138.572 E.03749
G1 X166.995 Y138.065 F12000
G1 F3000
G1 X165.374 Y136.443 E.08104
G1 X165.374 Y128.517 E.28016
G1 X169.257 Y128.517 E.13724
G1 X169.257 Y136.442 E.28015
G1 X167.634 Y138.065 E.08109
G1 X166.995 Y138.065 E.02261
G1 X167.205 Y137.557 F12000
G1 F3000
G1 X165.882 Y136.232 E.06617
G1 X165.882 Y129.024 E.25478
M73 P1 R33
G1 X168.749 Y129.024 E.10134
G1 X168.749 Y136.232 E.25476
G1 X167.424 Y137.557 E.06622
G1 X167.205 Y137.557 E.00774
G1 X167.315 Y136.948 F12000
G1 F3000
G1 X166.389 Y136.022 E.04626
G1 X166.389 Y129.532 E.22939
G1 X168.241 Y129.532 E.06544
G1 X168.241 Y136.022 E.22937
G1 X167.315 Y136.948 E.0463
G1 X167.315 Y136.23 F12000
G1 F3000
G1 X166.897 Y135.812 E.02087
G1 X166.897 Y130.04 E.20401
G1 X167.733 Y130.04 E.02954
G1 X167.733 Y135.811 E.20399
G1 X167.315 Y136.23 E.02091
G1 E-.5
G1 X169.459 Y142.406 F12000
G1 X169.876 Y143.606
G1 X170.251 Y144.686
G1 E.5 F1800
G1 F3000
G3 X170.975 Y145.658 I-.29 J.972 E.0459
G1 X170.975 Y146.477 E.02898
G1 X160.124 Y146.477 E.38352
G1 X160.124 Y144.648 E.06466
G1 X170.183 Y144.677 E.35554
G1 X160.536 Y146.066 F12000
G1 F3000
G1 X160.536 Y145.059 E.03557
G1 X169.939 Y145.059 E.33235
G3 X170.564 Y146.066 I-.077 J.745 E.04831
G1 X160.536 Y146.066 E.35444
G1 E-.5
G1 X170.975 Y152.089 F12000
G1 E.5 F1800
G1 F3000
G3 X169.965 Y153.098 I-1.07 J-.06 E.05522
G1 X168.797 Y153.098 E.04131
G1 X168.504 Y153.283 E.01226
G3 X161.496 Y153.283 I-3.504 J-1.203 E.32474
G1 X161.203 Y153.098 E.01226
G3 X159.749 Y153.06 I-.584 J-5.541 E.05157
G3 X159.025 Y152.087 I.29 J-.972 E.04594
G1 X159.025 Y151.312 E.02742
G1 X170.975 Y151.312 E.42238
G1 X170.975 Y152.02 E.02504
G1 X165.262 Y155.373 F12000
G1 F3000
G3 X161.816 Y152.999 I-.125 J-3.506 E.15847
G1 X161.322 Y152.687 E.02066
G3 X159.856 Y152.66 I-.63 J-5.579 E.05197
G3 X159.436 Y151.723 I.314 J-.703 E.03971
G1 X170.564 Y151.723 E.3933
G3 X169.939 Y152.687 I-.688 J.238 E.04678
G1 X168.678 Y152.687 E.04456
G1 X168.184 Y152.999 E.02066
G3 X165.262 Y155.373 I-3.264 J-1.031 E.14091
G1 X165.221 Y154.865 F12000
G1 F3000
G3 X162.211 Y152.647 I-.084 J-3.036 E.14234
G1 X162.075 Y152.561 E.00571
G1 X162.17 Y152.231 E.01215
G1 X167.83 Y152.231 E.20004
G1 X167.925 Y152.561 E.01215
G1 X167.789 Y152.647 E.00571
G3 X165.221 Y154.865 I-2.933 J-.8 E.12724
G1 X165.18 Y154.357 F12000
G1 F3000
G3 X162.818 Y152.739 I-.087 J-2.406 E.10839
G1 X167.182 Y152.739 E.15425
G3 X165.18 Y154.357 I-2.235 J-.717 E.09632
G1 X165.139 Y153.85 F12000
G1 F3000
G3 X164.088 Y153.595 I-.001 J-2.289 E.03858
G1 X164.174 Y153.247 E.01266
G1 X165.826 Y153.247 E.0584
G1 X165.912 Y153.595 E.01266
G3 X165.139 Y153.85 I-.977 J-1.662 E.02898
G1 E-.5
G1 X166.604 Y156.081 F12000
G1 X166.911 Y156.548
G1 X169.875 Y161.063
G1 E.5 F1800
G1 F3000
G1 X160.124 Y161.063 E.34466
G1 X160.124 Y157.148 E.13837
G1 X169.875 Y157.148 E.34466
G1 X169.875 Y160.994 E.13594
G1 X160.536 Y160.651 F12000
G1 F3000
G1 X160.536 Y157.559 E.10928
G1 X169.464 Y157.559 E.31558
G1 X169.464 Y160.651 E.10928
G1 X160.536 Y160.651 E.31558
G1 X161.044 Y160.143 F12000
G1 F3000
G1 X161.044 Y158.067 E.07338
G1 X168.956 Y158.067 E.27968
G1 X168.956 Y160.143 E.07338
G1 X161.044 Y160.143 E.27968
G1 X161.551 Y159.636 F12000
G1 F3000
G1 X161.551 Y158.575 E.03748
G1 X168.448 Y158.575 E.24378
G1 X168.448 Y159.636 E.03748
G1 X161.551 Y159.636 E.24378
G1 E-.5
G1 X161.033 Y168.306 F12000
G1 X160.05 Y183.05
G1 X160.151 Y183.05
G1 E.5 F1800
;TYPE:Outer wall
G1 F3000
G1 X160.151 Y198.65 E.55139
G1 X158.75 Y198.65 E.04952
G1 X158.75 Y171.505 E.95944
G2 X158.484 Y170.787 I-7.577 J2.393 E.0271
G2 X157.163 Y169.178 I-4.201 J2.104 E.0742
G2 X155.783 Y168.505 I-2.57 J3.522 E.05453
G1 X155.147 Y168.375 E.02296
G1 X154.421 Y168.35 E.02566
G1 X153.702 Y168.449 E.02568
G1 X153.023 Y168.664 E.02515
G1 X150.407 Y169.75 E.10014
G3 X147.877 Y169.251 I-.893 J-2.136 E.09667
G1 X146.799 Y168.102 E.05567
G1 X145.792 Y166.877 E.05606
G1 X144.868 Y165.588 E.05606
G1 X144.03 Y164.241 E.05606
G1 X143.282 Y162.843 E.05606
G1 X142.627 Y161.398 E.05606
G1 X142.067 Y159.914 E.05606
G1 X141.607 Y158.396 E.05606
G1 X141.246 Y156.852 E.05607
G1 X140.984 Y155.284 E.05618
G2 X140.777 Y154.168 I-8.137 J.936 E.04015
G3 X140.721 Y153.369 I6.064 J-.826 E.02834
G1 X140.987 Y153.792 E.01767
G3 X141.357 Y154.231 I-1.14 J1.338 E.02037
G2 X141.877 Y154.615 I4.121 J-5.035 E.02285
G2 X142.461 Y154.83 I5.653 J-14.416 E.02202
G1 X143.08 Y154.901 E.02201
G1 X143.698 Y154.831 E.02199
G1 X144.285 Y154.626 E.02198
G1 X144.812 Y154.295 E.02199
G1 X145.252 Y153.855 E.02201
G1 X145.585 Y153.322 E.02221
G1 X145.788 Y152.741 E.02174
G1 X145.858 Y152.123 E.02199
G1 X145.788 Y151.505 E.02199
G1 X145.583 Y150.918 E.02198
G1 X145.252 Y150.391 E.02199
G1 X144.812 Y149.951 E.02199
G1 X144.285 Y149.62 E.022
G1 X143.693 Y149.416 E.02211
G2 X143.054 Y149.372 I-1.087 J10.93 E.02266
G2 X141.918 Y149.711 I1.245 J6.232 E.04196
G1 X141.805 Y149.782 E.00474
G1 X142.198 Y149.175 E.02557
G2 X143.084 Y147.989 I-6.684 J-5.916 E.0524
G1 X145.984 Y143.506 E.18872
G3 X146.312 Y143.4 I.231 J.154 E.01316
G1 X146.582 Y143.592 E.01169
G1 X159.883 Y128.373 E.71443
G1 X160.965 Y128.373 E.03826
G1 X160.965 Y137.312 E.31596
G2 X161.641 Y138.945 I2.322 J-.006 E.06406
G1 X164.789 Y142.094 E.15738
G2 X165.704 Y142.473 I.991 J-1.098 E.03571
G1 X168.924 Y142.473 E.11381
G2 X169.84 Y142.094 I-.076 J-1.477 E.03571
G1 X172.989 Y138.945 E.15743
G2 X173.665 Y137.312 I-1.646 J-1.638 E.06406
G1 X173.665 Y128.373 E.31596
G1 X174.748 Y128.373 E.03826
G1 X187.347 Y142.79 E.67676
G1 X187.902 Y144.242 E.05493
G1 X188.373 Y145.776 E.05674
G1 X188.742 Y147.339 E.05674
G1 X189.01 Y148.927 E.05694
G2 X189.228 Y150.132 I8.814 J-.976 E.04331
G3 X189.278 Y150.877 I-5.584 J.749 E.0264
G1 X189.013 Y150.454 E.01764
G3 X188.643 Y150.016 I1.137 J-1.335 E.02035
G2 X188.13 Y149.634 I-4.1 J4.978 E.02263
G2 X187.538 Y149.416 I-5.61 J14.278 E.02229
G1 X186.913 Y149.346 E.02223
G1 X186.302 Y149.415 E.02174
G1 X185.715 Y149.62 E.02198
G1 X185.188 Y149.951 E.02199
G1 X184.748 Y150.392 E.02201
G1 X184.415 Y150.925 E.02221
G1 X184.212 Y151.505 E.02174
G1 X184.142 Y152.123 E.02199
G1 X184.212 Y152.741 E.02199
G1 X184.417 Y153.328 E.02199
G1 X184.75 Y153.855 E.02201
G2 X185.204 Y154.293 I9.018 J-8.928 E.0223
G2 X185.78 Y154.582 I2.201 J-3.652 E.02278
G3 X186.324 Y154.733 I-.297 J2.131 E.02003
G1 X186.769 Y154.783 E.01582
G1 X186.082 Y155.068 E.02627
G2 X184.701 Y155.532 I2.054 J8.402 E.05158
G1 X181.013 Y157.058 E.14106
G3 X180.487 Y158.503 I-29.477 J-9.923 E.05436
G3 X179.911 Y159.752 I-29.931 J-13.027 E.04862
G2 X179.294 Y161.01 I8.556 J4.978 E.04956
G3 X177.673 Y163.208 I-13.488 J-8.254 E.09663
G1 X176.704 Y164.198 E.04899
G3 X173.796 Y166.444 I-12.407 J-13.064 E.13009
G1 X172.876 Y167.007 E.03814
G2 X171.443 Y169.042 I2.408 J3.217 E.08943
G1 X171.298 Y169.668 E.02271
G1 X171.25 Y170.296 E.02228
G1 X171.25 Y198.65 E1.00217
G1 X169.851 Y198.65 E.04945
G1 X169.851 Y183.05 E.5514
G1 X160.191 Y183.05 E.34146
G1 E-.5
G1 X160.166 Y182.926 F12000
G1 X174.097 Y165.365
G1 X174.348 Y165.201
G1 X175.378 Y164.399
G1 X176.366 Y163.491
G1 X178.143 Y161.714
G1 X178.39 Y161.392
G1 X178.547 Y161.012
G1 X178.601 Y160.604
G1 X179.066 Y156.06
G1 X179.033 Y155.812
G1 E.5 F1800
G1 F3000
G1 X178.61 Y155.867 E.01509
G1 X178.111 Y155.802 E.0178
G1 X177.646 Y155.609 E.0178
G1 X177.268 Y155.32 E.0168
G1 X174.619 Y152.67 E.13243
G1 X174.33 Y152.293 E.0168
G1 X174.137 Y151.828 E.0178
G1 X174.075 Y151.357 E.0168
G1 X174.075 Y145.595 E.20364
G1 X174.137 Y145.124 E.0168
G1 X174.33 Y144.659 E.0178
G1 X174.636 Y144.259 E.01779
G1 X175.029 Y143.958 E.01752
G1 X175.5 Y143.76 E.01803
G1 X175.972 Y143.698 E.01684
G1 X181.248 Y143.698 E.18647
G1 X181.719 Y143.76 E.0168
G1 X182.184 Y143.953 E.0178
G1 X182.584 Y144.259 E.0178
G1 X182.89 Y144.659 E.0178
G1 X183.083 Y145.124 E.0178
G1 X183.145 Y145.595 E.0168
G1 X183.145 Y151.357 E.20364
G1 X183.083 Y151.828 E.0168
G1 X182.89 Y152.293 E.0178
G1 X182.601 Y152.67 E.0168
G1 X179.951 Y155.32 E.13243
G1 X179.574 Y155.609 E.0168
G1 X179.109 Y155.802 E.0178
G1 X179.073 Y155.807 E.00129
G1 E-.5
G1 X179.105 Y156.054 F12000
G1 X178.61 Y156.12
G1 X167.52 Y155.56
G1 X167.28 Y155.739
G1 X166.672 Y156.058
G1 X166.021 Y156.275
G1 X165.343 Y156.385
G1 X164.657 Y156.385
G1 X163.979 Y156.275
G1 X163.328 Y156.058
G1 X158.909 Y154.012
G1 X158.458 Y153.665
G1 X158.111 Y153.214
G1 X157.897 Y152.695
G1 X156.107 Y145.059
G1 X155.889 Y144.533
G1 X155.542 Y144.081
G1 X155.09 Y143.734
G1 X154.564 Y143.516
G1 X154.044 Y143.448
G1 X149.075 Y143.448
G1 X148.739 Y143.497
G1 X148.262 Y143.696
G1 X146.801 Y144.31
G1 E.5 F1800
;TYPE:Inner wall
G1 F3000
G1 X146.71 Y144.428 E.00526
G1 X146.472 Y145.005 E.02205
G1 X146.398 Y145.565 E.01999
G1 X146.398 Y151.173 E.1982
G1 X146.17 Y151.212 E.00819
G1 X145.997 Y150.718 E.01847
G1 X145.611 Y150.104 E.02563
G1 X145.099 Y149.592 E.02563
G1 X144.483 Y149.205 E.02568
G1 X143.789 Y148.966 E.02597
G2 X143.004 Y148.911 I-1.328 J13.404 E.02779
G2 X143.466 Y148.239 I-6.98 J-5.292 E.02884
G1 X146.258 Y143.923 E.18168
G1 X146.768 Y144.287 E.02215
G1 E-.5
G1 X143.842 Y148.5 F12000
G1 E.5 F1800
G1 F3000
G1 X145.744 Y145.559 E.12381
G1 X145.941 Y145.617 E.00725
G1 X145.941 Y149.788 E.1474
G1 X145.385 Y149.232 E.02777
G1 X144.682 Y148.79 E.02936
G1 X143.879 Y148.513 E.03001
G1 X144.542 Y148.259 F12000
G1 F3000
G1 X145.287 Y147.107 E.04847
G1 X145.484 Y147.165 E.00725
G1 X145.484 Y148.754 E.05616
G1 X144.881 Y148.375 E.02517
G1 X144.58 Y148.272 E.01124
G1 E-.5
G1 X147.356 Y144.338 F12000
M73 P1 R32
G1 E.5 F1800
;TYPE:Outer wall
G1 F3000
G1 X147.416 Y144.259 E.00349
G1 X147.809 Y143.958 E.01752
G1 X148.28 Y143.76 E.01803
G1 X148.752 Y143.698 E.01684
G1 X154.028 Y143.698 E.18647
G1 X154.499 Y143.76 E.0168
G1 X154.964 Y143.953 E.0178
G1 X155.364 Y144.259 E.0178
G1 X155.67 Y144.659 E.0178
G1 X155.863 Y145.124 E.0178
