; HEADER_BLOCK_START
; generated by OrcaSlicer 1.6.4-beta2 on 2023-08-08 at 21:23:17
; total layer number: 134
; HEADER_BLOCK_END

; THUMBNAIL_BLOCK_START
; THUMBNAIL_BLOCK_END

; external perimeters extrusion width = 0.40mm
; perimeters extrusion width = 0.42mm
; infill extrusion width = 0.64mm
; solid infill extrusion width = 0.56mm
; top infill extrusion width = 0.42mm
; support material extrusion width = 0.46mm
; first layer extrusion width = 0.50mm

; external perimeters extrusion width = 0.40mm
; perimeters extrusion width = 0.42mm
; infill extrusion width = 0.64mm
; solid infill extrusion width = 0.56mm
; top infill extrusion width = 0.42mm
; support material extrusion width = 0.46mm
; first layer extrusion width = 0.50mm

; external perimeters extrusion width = 0.40mm
; perimeters extrusion width = 0.42mm
; infill extrusion width = 0.64mm
; solid infill extrusion width = 0.56mm
; top infill extrusion width = 0.42mm
; support material extrusion width = 0.46mm
; first layer extrusion width = 0.50mm

; EXECUTABLE_BLOCK_START
EXCLUDE_OBJECT_DEFINE NAME=Body9.stl_id_0_copy_0 CENTER=173.3,164.877 POLYGON=[[147.83,152.062],[147.871,151.527],[147.991,151.005],[148.189,150.507],[148.459,150.044],[153.246,142.747],[153.486,142.461],[167.615,127.062],[183.615,127.062],[196.725,142.062],[197.344,143.658],[197.854,145.293],[198.254,146.958],[198.54,148.646],[198.713,150.35],[198.77,152.062],[198.72,152.656],[198.571,153.234],[181.301,199.838],[166.301,202.692],[166.301,202.692],[149.772,161.816],[149.184,160.255],[148.699,158.659],[148.32,157.034],[148.048,155.389],[147.885,153.729],[147.83,152.062]]
EXCLUDE_OBJECT_DEFINE NAME=Spacer.stl_id_1_copy_0 CENTER=140.242,174.392 POLYGON=[[136.692,174.392],[136.699,174.178],[136.718,173.965],[136.75,173.753],[136.795,173.543],[136.853,173.336],[136.923,173.134],[137.005,172.936],[137.099,172.743],[137.204,172.556],[137.32,172.376],[137.448,172.203],[137.585,172.038],[137.732,171.882],[137.888,171.735],[138.053,171.598],[138.225,171.471],[138.405,171.354],[138.592,171.249],[138.785,171.155],[138.983,171.073],[139.186,171.003],[139.392,170.946],[139.602,170.901],[139.814,170.868],[140.028,170.849],[140.242,170.842],[140.456,170.849],[140.67,170.868],[140.882,170.901],[141.092,170.946],[141.298,171.003],[141.501,171.073],[141.699,171.155],[141.892,171.249],[142.079,171.354],[142.259,171.471],[142.431,171.598],[142.596,171.735],[142.752,171.882],[142.899,172.038],[143.037,172.203],[143.164,172.376],[143.28,172.556],[143.385,172.743],[143.479,172.936],[143.561,173.134],[143.631,173.336],[143.689,173.543],[143.734,173.753],[143.766,173.965],[143.786,174.178],[143.792,174.392],[143.786,174.607],[143.766,174.82],[143.734,175.032],[143.689,175.242],[143.631,175.449],[143.561,175.651],[143.479,175.849],[143.385,176.042],[143.28,176.229],[143.164,176.409],[143.037,176.582],[142.899,176.747],[142.752,176.903],[142.596,177.05],[142.431,177.187],[142.259,177.314],[142.079,177.43],[141.892,177.536],[141.699,177.63],[141.501,177.712],[141.298,177.782],[141.092,177.839],[140.882,177.884],[140.67,177.917],[140.456,177.936],[140.242,177.942],[140.028,177.936],[139.814,177.917],[139.602,177.884],[139.392,177.839],[139.186,177.782],[138.983,177.712],[138.785,177.63],[138.592,177.536],[138.405,177.43],[138.225,177.314],[138.053,177.187],[137.888,177.05],[137.732,176.903],[137.585,176.747],[137.448,176.582],[137.32,176.409],[137.204,176.229],[137.099,176.042],[137.005,175.849],[136.923,175.651],[136.853,175.449],[136.795,175.242],[136.75,175.032],[136.718,174.82],[136.699,174.607],[136.692,174.392]]
EXCLUDE_OBJECT_DEFINE NAME=Spacer.stl_id_2_copy_0 CENTER=134.778,158.192 POLYGON=[[131.228,158.192],[131.234,157.978],[131.254,157.764],[131.286,157.552],[131.331,157.342],[131.389,157.136],[131.458,156.933],[131.541,156.735],[131.634,156.542],[131.74,156.355],[131.856,156.175],[131.983,156.003],[132.121,155.838],[132.268,155.682],[132.424,155.535],[132.588,155.397],[132.761,155.27],[132.941,155.154],[133.128,155.049],[133.321,154.955],[133.519,154.873],[133.722,154.803],[133.928,154.745],[134.138,154.7],[134.35,154.668],[134.563,154.648],[134.778,154.642],[134.992,154.648],[135.206,154.668],[135.418,154.7],[135.627,154.745],[135.834,154.803],[136.037,154.873],[136.235,154.955],[136.428,155.049],[136.614,155.154],[136.794,155.27],[136.967,155.397],[137.132,155.535],[137.288,155.682],[137.435,155.838],[137.572,156.003],[137.699,156.175],[137.816,156.355],[137.921,156.542],[138.015,156.735],[138.097,156.933],[138.167,157.136],[138.225,157.342],[138.27,157.552],[138.302,157.764],[138.321,157.978],[138.328,158.192],[138.321,158.406],[138.302,158.62],[138.27,158.832],[138.225,159.042],[138.167,159.248],[138.097,159.451],[138.015,159.649],[137.921,159.842],[137.816,160.029],[137.699,160.209],[137.572,160.381],[137.435,160.546],[137.288,160.702],[137.132,160.849],[136.967,160.986],[136.794,161.114],[136.614,161.23],[136.428,161.335],[136.235,161.429],[136.037,161.511],[135.834,161.581],[135.627,161.639],[135.418,161.684],[135.206,161.716],[134.992,161.736],[134.778,161.742],[134.563,161.736],[134.35,161.716],[134.138,161.684],[133.928,161.639],[133.722,161.581],[133.519,161.511],[133.321,161.429],[133.128,161.335],[132.941,161.23],[132.761,161.114],[132.588,160.986],[132.424,160.849],[132.268,160.702],[132.121,160.546],[131.983,160.381],[131.856,160.209],[131.74,160.029],[131.634,159.842],[131.541,159.649],[131.458,159.451],[131.389,159.248],[131.331,159.042],[131.286,158.832],[131.254,158.62],[131.234,158.406],[131.228,158.192]]
M73 P0 R26
;TYPE:Custom
START_PRINT T_BED=110 T_EXTRUDER=260
G90
G21
M83 ; use relative distances for extrusion
; Filament gcode
M106 S0
;LAYER_CHANGE
;Z:0.2
;HEIGHT:0.2
;BEFORE_LAYER_CHANGE
;0.2
G92 E0

SET_VELOCITY_LIMIT ACCEL=1000 ACCEL_TO_DECEL=500
G1 E-.5 F3000
G1 X136.473 Y147.834 F12000
G1 Z.2
G1 E.5 F1800
;TYPE:Skirt
;WIDTH:0.5
G1 F3000
G1 X163.531 Y122.855 E1.3016
G1 X165.507 Y122.082 E.07501
G1 X185.66 Y122.082 E.71232
G1 X187.122 Y122.475 E.0535
G1 X188.105 Y123.411 E.04798
G1 X199.17 Y140.476 E.71887
G1 X199.442 Y141.008 E.02112
G1 X200.126 Y142.79 E.06745
G1 X200.636 Y144.424 E.06053
G1 X201.087 Y146.278 E.06745
G1 X201.413 Y148.159 E.06745
G1 X201.612 Y150.057 E.06745
G1 X201.683 Y151.964 E.06745
G1 X201.624 Y152.901 E.03321
G1 X201.362 Y154.07 E.04235
G1 X186.801 Y202.677 E1.79346
G1 X186.005 Y203.964 E.0535
G1 X184.01 Y204.754 E.07586
G1 X162.59 Y204.754 E.75709
G1 X160.527 Y203.898 E.07899
G1 X135.668 Y178.96 E1.24457
G1 X134.973 Y178.136 E.03809
G1 X134.479 Y177.318 E.0338
G1 X134.168 Y176.602 E.02759
G1 X128.581 Y160.031 E.61812
G1 X128.373 Y159.058 E.03515
G1 X128.315 Y158.104 E.03379
G1 X128.373 Y157.326 E.02759
G1 X128.581 Y156.353 E.03515
G1 X129.202 Y154.924 E.05508
G1 X129.648 Y154.261 E.02826
G1 X130.27 Y153.56 E.03312
G1 X136.444 Y147.861 E.29698
G1 X136.754 Y148.196 F12000
G1 F3000
G1 X163.841 Y123.191 E1.30301
G1 X165.507 Y122.539 E.06325
G1 X185.66 Y122.539 E.71232
G1 X186.991 Y122.931 E.04905
G1 X187.722 Y123.66 E.03646
G1 X198.787 Y140.725 E.71887
G1 X199.016 Y141.173 E.01781
G1 X199.689 Y142.926 E.06636
G1 X200.2 Y144.561 E.06053
G1 X200.676 Y146.547 E.0722
G1 X200.963 Y148.235 E.06053
G1 X201.157 Y150.103 E.06636
G1 X201.226 Y151.979 E.06636
G1 X201.168 Y152.863 E.03131
G1 X200.925 Y153.939 E.03901
G1 X186.363 Y202.545 E1.79346
G1 X185.606 Y203.708 E.04905
G1 X184.01 Y204.297 E.06014
G1 X162.59 Y204.297 E.75709
G1 X160.85 Y203.575 E.0666
G1 X135.992 Y178.637 E1.24457
G1 X135.341 Y177.865 E.03568
G1 X134.89 Y177.118 E.03087
G1 X134.6 Y176.453 E.02564
G1 X129.022 Y159.908 E.61714
G1 X128.825 Y158.99 E.0332
G1 X128.772 Y158.266 E.02564
G1 X128.825 Y157.394 E.03087
G1 X129.022 Y156.476 E.0332
G1 X129.271 Y155.795 E.02564
G1 X129.676 Y155.021 E.03087
G1 X130.583 Y153.893 E.05118
G1 X136.724 Y148.224 E.29541
; printing object Body9.stl id:0 copy 0
EXCLUDE_OBJECT_START NAME=Body9.stl_id_0_copy_0
G1 E-.5
G1 X170.34 Y153.209 F12000
G1 E.5 F1800
;TYPE:Support interface
G1 F3000
G1 X170.039 Y153.209 E.01064
G2 X170.549 Y154.105 I2.874 J-1.041 E.03662
G1 X170.549 Y153.209 E.03169
G1 X171.466 Y153.209 E.03241
G1 X171.466 Y154.958 E.06184
G2 X172.383 Y155.364 I2.399 J-4.181 E.03551
G1 X172.383 Y153.209 E.07619
G1 X173.3 Y153.209 E.03241
G1 X173.3 Y155.501 E.08103
G2 X174.217 Y155.364 I.059 J-2.748 E.03293
G1 X174.217 Y153.209 E.07619
G1 X175.134 Y153.209 E.03241
G1 X175.134 Y154.958 E.06184
G2 X176.051 Y154.105 I-1.864 J-2.923 E.04452
G1 X176.051 Y153.209 E.03169
G1 X176.561 Y153.209 E.01801
G3 X176.176 Y153.938 I-2.323 J-.761 E.02929
G1 E-.5
G1 X178.703 Y152.75 F12000
G1 E.5 F1800
;TYPE:Support
G1 F3000
G1 X175.065 Y152.75 E.12856
G1 X175.403 Y152.083 E.02643
G1 X176.415 Y151.462 E.04195
G1 X178.33 Y151.462 E.06771
G1 X178.684 Y152.684 E.04498
G1 X175.773 Y152.339 F12000
G1 F3000
G1 X176.531 Y151.873 E.03144
G1 X178.021 Y151.873 E.05266
G1 X178.156 Y152.339 E.01713
G1 X175.773 Y152.339 E.08421
G1 E-.5
G1 X171.197 Y152.083 F12000
G1 E.5 F1800
G1 F3000
G1 X171.535 Y152.75 E.02643
G1 X167.898 Y152.75 E.12856
G1 X168.27 Y151.462 E.0474
G1 X170.185 Y151.462 E.06771
G1 X171.138 Y152.047 E.03953
G1 X170.827 Y152.339 F12000
G1 F3000
G1 X168.445 Y152.339 E.08421
G1 X168.579 Y151.873 E.01713
G1 X170.069 Y151.873 E.05266
G1 X170.827 Y152.339 E.03144
G1 E-.5
G1 X175.283 Y143.661 F12000
G1 X178.27 Y142.18
G1 X178.545 Y141.981
G1 X181.475 Y139.051
G1 X181.78 Y138.68
G1 X182.02 Y138.23
G1 X182.168 Y137.741
G1 X183.41 Y127.739
G1 X184.031 Y126.626
G1 E.5 F1800
G1 F3000
G2 X183.745 Y126.462 I-.324 J.233 E.01201
G1 X181.367 Y126.462 E.08407
G1 X181.015 Y126.813 E.01757
G1 X181.015 Y137.204 E.36728
G3 X180.584 Y138.244 I-1.837 J-.151 E.04045
G1 X177.512 Y141.317 E.15358
G3 X177.162 Y141.462 I-.354 J-.359 E.01373
G1 X174.067 Y141.462 E.10941
G3 X173.717 Y141.317 I.004 J-.504 E.01372
G1 X170.646 Y138.244 E.15353
G3 X170.215 Y137.204 I1.406 J-1.192 E.04045
G1 X170.215 Y126.813 E.36728
G1 X169.864 Y126.462 E.01757
G1 X167.486 Y126.462 E.08407
G1 X167.249 Y126.569 E.00918
G1 X165.507 Y128.562 E.09354
M73 P1 R26
G1 X165.507 Y124.996 E.12602
G1 X185.66 Y124.996 E.71232
G1 X184.08 Y126.577 E.07901
G1 E-.5
G1 X183.331 Y127.662 F12000
G1 X182.215 Y129.279
G1 X174.094 Y141.05
G1 E.5 F1800
G1 F3000
G3 X173.989 Y141.007 I-.015 J-.113 E.00421
G1 X170.952 Y137.968 E.15186
G3 X170.627 Y137.184 I.985 J-.867 E.03054
G1 X170.627 Y126.643 E.37259
G1 X170.034 Y126.05 E.02961
G1 X167.396 Y126.05 E.09324
G1 X166.998 Y126.231 E.01547
G1 X165.919 Y127.466 E.05796
G1 X165.919 Y125.408 E.07274
G1 X184.667 Y125.408 E.66268
G1 X183.965 Y126.11 E.03509
G1 X183.834 Y126.05 E.00509
G1 X181.196 Y126.05 E.09324
G1 X180.604 Y126.643 E.02961
G1 X180.604 Y137.184 E.37259
G3 X180.279 Y137.968 I-1.31 J-.083 E.03054
G1 X177.24 Y141.007 E.15191
G3 X177.135 Y141.05 I-.09 J-.069 E.00421
G1 X174.094 Y141.05 E.1075
G1 X174.243 Y140.542 F12000
G1 F3000
G1 X171.328 Y137.626 E.14571
G3 X171.135 Y137.159 I.487 J-.476 E.01833
G1 X171.135 Y126.432 E.37914
G1 X170.618 Y125.916 E.02582
G1 X180.613 Y125.916 E.35327
G1 X180.096 Y126.432 E.02582
G1 X180.096 Y137.159 E.37914
G3 X179.903 Y137.626 I-.681 J-.008 E.01832
G1 X176.986 Y140.542 E.14577
G1 X174.243 Y140.542 E.09698
G1 X174.453 Y140.034 F12000
G1 F3000
G1 X171.705 Y137.285 E.1374
G3 X171.642 Y137.134 I.082 J-.122 E.00613
G1 X171.642 Y126.423 E.37857
G1 X179.588 Y126.423 E.28085
G1 X179.588 Y137.134 E.37857
G3 X179.526 Y137.285 I-.144 J.029 E.00612
G1 X176.776 Y140.034 E.13745
G1 X174.453 Y140.034 E.08211
G1 X174.663 Y139.527 F12000
G1 F3000
G1 X172.15 Y137.012 E.12566
G1 X172.15 Y126.931 E.35631
G1 X179.08 Y126.931 E.24495
G1 X179.08 Y137.012 E.35631
G1 X176.566 Y139.527 E.1257
G1 X174.663 Y139.527 E.06723
G1 X174.874 Y139.019 F12000
G1 F3000
G1 X172.658 Y136.802 E.11079
G1 X172.658 Y127.439 E.33093
G1 X178.573 Y127.439 E.20905
G1 X178.573 Y136.802 E.33092
G1 X176.355 Y139.019 E.11083
G1 X174.874 Y139.019 E.05236
G1 X175.084 Y138.511 F12000
G1 F3000
G1 X173.166 Y136.591 E.09592
G1 X173.166 Y127.947 E.30554
G1 X178.065 Y127.947 E.17315
G1 X178.065 Y136.591 E.30553
G1 X176.145 Y138.511 E.09596
G1 X175.084 Y138.511 E.03749
G1 X175.295 Y138.003 F12000
G1 F3000
G1 X173.674 Y136.381 E.08104
G1 X173.674 Y128.455 E.28016
G1 X177.557 Y128.455 E.13724
G1 X177.557 Y136.381 E.28015
G1 X175.935 Y138.003 E.08109
G1 X175.295 Y138.003 E.02261
G1 X175.505 Y137.495 F12000
G1 F3000
G1 X174.182 Y136.171 E.06617
G1 X174.182 Y128.963 E.25478
G1 X177.049 Y128.963 E.10134
G1 X177.049 Y136.17 E.25476
G1 X175.724 Y137.495 E.06622
G1 X175.505 Y137.495 E.00774
G1 X175.615 Y136.886 F12000
G1 F3000
G1 X174.69 Y135.961 E.04626
G1 X174.69 Y129.471 E.22939
G1 X176.541 Y129.471 E.06544
G1 X176.541 Y135.96 E.22937
G1 X175.615 Y136.886 E.0463
G1 X175.615 Y136.168 F12000
G1 F3000
G1 X175.198 Y135.75 E.02087
G1 X175.198 Y129.979 E.20401
G1 X176.033 Y129.979 E.02954
G1 X176.033 Y135.75 E.20399
G1 X175.615 Y136.168 E.02091
G1 E-.5
G1 X174.589 Y142.462 F12000
G1 X153.587 Y143.325
G1 X158.964 Y170.286
G1 X161.584 Y169.198
G1 X162.191 Y169.01
G1 X162.85 Y168.933
G1 X163.512 Y168.977
G1 X164.154 Y169.143
G1 X164.755 Y169.423
G1 X165.295 Y169.809
G1 X165.754 Y170.287
G1 X166.118 Y170.841
G1 X166.4 Y171.513
G1 X166.4 Y192.722
G1 X165.2 Y200.087
G1 E.5 F1800
G1 F3000
G1 X165.552 Y200.438 E.01757
G1 X169.049 Y200.438 E.12364
G1 X169.401 Y200.087 E.01757
G1 X169.401 Y183.938 E.57078
G1 X172.341 Y183.938 E.10394
G1 X172.341 Y201.84 E.63277
G1 X162.59 Y201.84 E.34466
G1 X162.59 Y180.421 E.75709
G1 X165.2 Y180.421 E.09224
G1 X165.2 Y200.018 E.69268
G1 X164.789 Y180.832 F12000
G1 F3000
G1 X164.789 Y200.257 E.68658
G1 X165.381 Y200.849 E.02961
G1 X169.22 Y200.849 E.13568
G1 X169.812 Y200.257 E.02961
G1 X169.812 Y184.35 E.56226
G1 X171.93 Y184.35 E.07486
M73 P1 R25
G1 X171.93 Y201.429 E.60369
G1 X163.002 Y201.429 E.31558
G1 X163.002 Y180.832 E.72801
G1 X164.789 Y180.832 E.06316
G1 X164.281 Y181.34 F12000
G1 F3000
G1 X164.281 Y200.467 E.67607
M73 P2 R25
G1 X164.735 Y200.921 E.02268
G1 X163.51 Y200.921 E.04329
G1 X163.51 Y181.34 E.6921
G1 X164.281 Y181.34 E.02726
G1 E-.5
G1 X166.4 Y182.574 F12000
G1 X168.201 Y183.623
G1 X170.32 Y184.857
G1 E.5 F1800
G1 F3000
G1 X171.422 Y184.857 E.03896
G1 X171.422 Y200.921 E.56778
G1 X169.867 Y200.921 E.05499
G1 X170.32 Y200.467 E.02268
G1 X170.32 Y184.857 E.55175
G1 E-.5
G1 X178.401 Y194.883 F12000
G1 X180.199 Y197.114
G1 X184.01 Y201.84
G1 E.5 F1800
G1 F3000
G1 X174.259 Y201.84 E.34466
G1 X174.259 Y183.938 E.63277
G1 X177.201 Y183.938 E.10401
G1 X177.201 Y200.087 E.57078
G1 X177.553 Y200.438 E.01757
G1 X181.048 Y200.438 E.12355
G1 X181.4 Y200.087 E.01757
G1 X181.4 Y180.421 E.6951
G1 X184.01 Y180.421 E.09225
G1 X184.01 Y201.772 E.75466
G1 X181.811 Y180.832 F12000
G1 F3000
G1 X183.598 Y180.832 E.06317
G1 X183.598 Y201.429 E.72801
G1 X174.67 Y201.429 E.31558
G1 X174.67 Y184.349 E.60369
G1 X176.79 Y184.349 E.07493
G1 X176.79 Y200.257 E.56227
G1 X177.382 Y200.849 E.02961
G1 X181.218 Y200.849 E.1356
G1 X181.811 Y200.257 E.02961
G1 X181.811 Y180.832 E.68658
G1 E-.5
G1 X180.2 Y182.005 F12000
G1 X178.401 Y183.315
G1 X176.282 Y184.857
G1 E.5 F1800
G1 F3000
G1 X176.282 Y200.467 E.55175
G1 X176.736 Y200.921 E.02268
G1 X175.178 Y200.921 E.05505
G1 X175.178 Y184.857 E.56778
G1 X176.282 Y184.857 E.03903
G1 E-.5
G1 X178.401 Y183.623 F12000
G1 X180.2 Y182.575
G1 X182.319 Y181.34
G1 E.5 F1800
G1 F3000
G1 X183.091 Y181.34 E.02727
G1 X183.091 Y200.921 E.6921
G1 X181.865 Y200.921 E.04331
G1 X182.319 Y200.467 E.02268
G1 X182.319 Y181.34 E.67607
G1 E-.5
G1 X180.2 Y181.592 F12000
G1 X168.201 Y182.738
G1 X168.201 Y182.988
G1 X168.451 Y182.988
G1 E.5 F1800
;TYPE:Outer wall
G1 F3000
G1 X168.451 Y199.488 E.5832
G1 X166.15 Y199.488 E.08133
G1 X166.15 Y171.563 E.98703
G1 X165.897 Y170.959 E.02315
G1 X165.558 Y170.443 E.02181
G1 X165.13 Y169.999 E.02181
G1 X164.628 Y169.64 E.02181
G1 X164.349 Y169.509 E.0109
G1 X164.069 Y169.379 E.0109
G1 X163.472 Y169.225 E.02181
G1 X162.856 Y169.184 E.02181
G1 X162.243 Y169.255 E.02181
G1 X161.669 Y169.434 E.02124
G1 X159.05 Y170.521 E.10025
