; HEADER_BLOCK_START
; generated by OrcaSlicer 1.6.4-beta3 on 2023-08-18 at 12:56:39
; total layer number: 75
; HEADER_BLOCK_END

; THUMBNAIL_BLOCK_START
; THUMBNAIL_BLOCK_END

; external perimeters extrusion width = 0.40mm
; perimeters extrusion width = 0.46mm
; infill extrusion width = 0.64mm
; solid infill extrusion width = 0.56mm
; top infill extrusion width = 0.40mm
; first layer extrusion width = 0.50mm

; EXECUTABLE_BLOCK_START
EXCLUDE_OBJECT_DEFINE NAME=Body1.stl_id_0_copy_0 CENTER=165,165 POLYGON=[[92.967,94.967],[94.967,92.967],[102.967,92.967],[106.381,94.3812],[235.619,223.619],[237.033,227.033],[237.033,235.033],[235.033,237.033],[201.033,237.033],[197.619,235.619],[179.284,217.284],[94.3812,132.381],[92.967,128.967],[92.967,94.967]]
M73 P0 R73
;TYPE:Custom
START_PRINT T_BED=110 T_EXTRUDER=260
G90
G21
M83 ; use relative distances for extrusion
; Filament gcode
M106 S0
;LAYER_CHANGE
;Z:0.2
;HEIGHT:0.2
;BEFORE_LAYER_CHANGE
;0.2
G92 E0

SET_VELOCITY_LIMIT ACCEL=1000 ACCEL_TO_DECEL=500
G1 E-.5 F3000
G1 X92.543 Y92.543 F12000
G1 Z.2
G1 E.5 F1800
;TYPE:Skirt
;WIDTH:0.5
G1 F3000
G1 X93.279 Y91.806 E.03681
G1 X95.34 Y90.953 E.07884
G1 X102.788 Y90.953 E.26326
G1 X103.903 Y91.175 E.04019
G1 X106.987 Y92.452 E.11797
G1 X107.932 Y93.084 E.04019
G1 X236.916 Y222.068 E6.4475
G1 X237.548 Y223.013 E.04019
G1 X238.825 Y226.097 E.11797
G1 X239.047 Y227.212 E.04019
G1 X239.047 Y234.66 E.26326
G1 X238.194 Y236.721 E.07884
G1 X236.721 Y238.194 E.07362
G1 X234.66 Y239.047 E.07884
G1 X201.212 Y239.047 E1.18226
G1 X200.097 Y238.825 E.04019
G1 X197.013 Y237.548 E.11797
G1 X196.068 Y236.916 E.04019
G1 X91.806 Y132.655 E5.21169
G1 X90.953 Y130.594 E.07884
G1 X90.953 Y95.34 E1.2461
G1 X91.806 Y93.279 E.07884
G1 X92.514 Y92.571 E.0354
G1 X92.838 Y92.894 F12000
G1 F3000
G1 X93.602 Y92.13 E.03822
G1 X95.34 Y91.41 E.06647
G1 X102.788 Y91.41 E.26326
G1 X103.728 Y91.597 E.03389
G1 X106.812 Y92.874 E.11797
G1 X107.609 Y93.407 E.03389
G1 X236.593 Y222.391 E6.4475
G1 X237.126 Y223.188 E.03389
G1 X238.403 Y226.272 E.11797
G1 X238.59 Y227.212 E.03389
G1 X238.59 Y234.66 E.26326
G1 X237.87 Y236.398 E.06647
G1 X236.398 Y237.87 E.07362
G1 X234.66 Y238.59 E.06647
G1 X201.212 Y238.59 E1.18226
G1 X200.272 Y238.403 E.03389
G1 X197.188 Y237.126 E.11797
G1 X196.391 Y236.593 E.03389
G1 X92.13 Y132.332 E5.21169
M73 P0 R72
G1 X91.41 Y130.594 E.06647
G1 X91.41 Y95.34 E1.2461
G1 X92.13 Y93.602 E.06647
G1 X92.809 Y92.923 E.03398
; printing object Body1.stl id:0 copy 0
G1 E-.5
EXCLUDE_OBJECT_START NAME=Body1.stl_id_0_copy_0
G1 X235.783 Y234.515 F12000
G1 E.5 F1800
;TYPE:Outer wall
G1 F3000
G1 X234.515 Y235.783 E.06337
G1 X201.282 Y235.783 E1.17467
G1 X198.327 Y234.559 E.11304
G1 X180.18 Y216.413 E.90708
G1 X179.703 Y215.831 E.02658
G1 X179.357 Y215.183 E.02597
G1 X179.144 Y214.48 E.02597
G1 X179.07 Y213.732 E.02658
G1 X179.07 Y210.803 E.10353
G1 X178.951 Y209.6 E.04271
G1 X178.596 Y208.427 E.04332
G1 X178.018 Y207.347 E.04332
G1 X177.251 Y206.413 E.04271
G1 X144.42 Y173.581 E1.64112
G1 X123.587 Y152.749 E1.04136
G1 X122.653 Y151.982 E.04271
G1 X121.573 Y151.404 E.04332
G1 X120.4 Y151.049 E.04332
G1 X119.197 Y150.93 E.04271
G1 X116.268 Y150.93 E.10353
G1 X115.52 Y150.856 E.02658
G1 X114.817 Y150.643 E.02597
G1 X114.169 Y150.297 E.02597
G1 X113.587 Y149.82 E.02658
G1 X94.217 Y130.449 E.96826
G1 X94.217 Y95.485 E1.23585
G1 X95.485 Y94.217 E.06337
G1 X102.718 Y94.217 E.25568
G1 X103.568 Y94.569 E.03251
G1 X105.673 Y95.441 E.08054
G1 X136.82 Y126.587 E1.55691
G1 X137.297 Y127.169 E.02658
G1 X137.643 Y127.817 E.02597
G1 X137.856 Y128.52 E.02597
G1 X137.93 Y129.268 E.02658
G1 X137.93 Y132.197 E.10353
G1 X138.049 Y133.4 E.04271
G1 X138.404 Y134.573 E.04332
G1 X138.982 Y135.653 E.04332
G1 X139.749 Y136.587 E.04271
G1 X166.479 Y163.318 E1.33617
G1 X166.408 Y163.389 E.00353
G1 X167.54 Y164.52 E.05656
G1 X167.611 Y164.449 E.00353
G1 X193.413 Y190.251 E1.28975
G1 X194.347 Y191.018 E.04271
G1 X195.427 Y191.596 E.04332
G1 X196.6 Y191.951 E.04332
G1 X197.803 Y192.07 E.04271
G1 X200.732 Y192.07 E.10353
G1 X201.48 Y192.144 E.02658
G1 X202.183 Y192.357 E.02597
G1 X202.831 Y192.703 E.02597
G1 X203.413 Y193.18 E.02658
G1 X234.559 Y224.327 E1.55691
G1 X235.783 Y227.282 E.11304
G1 X235.783 Y234.475 E.25426
G1 X235.326 Y234.326 F12000
;TYPE:Inner wall
G1 F3000
G1 X234.326 Y235.326 E.04999
G1 X201.373 Y235.326 E1.16477
G1 X198.586 Y234.172 E.10662
G1 X180.519 Y216.105 E.90308
G1 X180.085 Y215.576 E.0242
G1 X179.781 Y215.007 E.02279
G1 X179.594 Y214.39 E.02279
G1 X179.527 Y213.709 E.0242
G1 X179.527 Y210.78 E.10353
G1 X179.402 Y209.511 E.04509
G1 X179.02 Y208.252 E.0465
G1 X178.4 Y207.091 E.0465
G1 X177.59 Y206.105 E.04509
G1 X144.743 Y173.258 E1.64191
G1 X123.895 Y152.41 E1.04215
G1 X122.909 Y151.6 E.04509
G1 X121.748 Y150.98 E.0465
G1 X120.489 Y150.598 E.0465
G1 X119.22 Y150.473 E.04509
G1 X116.291 Y150.473 E.10353
G1 X115.61 Y150.406 E.0242
G1 X114.993 Y150.219 E.02279
G1 X114.424 Y149.915 E.02279
G1 X113.895 Y149.481 E.0242
G1 X94.674 Y130.26 E.96078
G1 X94.674 Y95.674 E1.22247
G1 X95.674 Y94.674 E.04999
G1 X102.627 Y94.674 E.24577
G1 X103.393 Y94.991 E.02929
G1 X105.414 Y95.828 E.07732
G1 X136.481 Y126.895 E1.5529
G1 X136.915 Y127.424 E.0242
G1 X137.219 Y127.993 E.02279
G1 X137.406 Y128.61 E.02279
G1 X137.473 Y129.291 E.0242
G1 X137.473 Y132.22 E.10353
G1 X137.598 Y133.489 E.04509
G1 X137.98 Y134.748 E.0465
G1 X138.6 Y135.909 E.0465
G1 X139.41 Y136.895 E.04509
G1 X165.833 Y163.318 E1.32081
G1 X165.762 Y163.389 E.00353
G1 X167.54 Y165.167 E.08887
G1 X167.611 Y165.096 E.00353
G1 X193.105 Y190.59 E1.27439
G1 X194.091 Y191.4 E.04509
G1 X195.252 Y192.02 E.0465
G1 X196.511 Y192.402 E.0465
G1 X197.78 Y192.527 E.04509
G1 X200.709 Y192.527 E.10353
G1 X201.39 Y192.594 E.0242
G1 X202.007 Y192.781 E.02279
G1 X202.576 Y193.085 E.02279
G1 X203.105 Y193.519 E.0242
G1 X234.172 Y224.586 E1.5529
G1 X235.326 Y227.373 E.10662
G1 X235.326 Y234.286 E.24436
G1 X234.869 Y234.137 F12000
G1 F3000
G1 X234.137 Y234.869 E.0366
G1 X201.463 Y234.869 E1.15486
G1 X198.845 Y233.784 E.10019
G1 X180.858 Y215.798 E.89907
G1 X180.467 Y215.321 E.02181
G1 X180.205 Y214.832 E.01961
G1 X180.044 Y214.301 E.01961
G1 X179.984 Y213.687 E.02181
G1 X179.984 Y210.758 E.10353
G1 X179.852 Y209.421 E.04748
G1 X179.444 Y208.076 E.04968
G1 X178.782 Y206.836 E.04968
G1 X177.93 Y205.798 E.04748
G1 X145.067 Y172.935 E1.6427
G1 X124.202 Y152.07 E1.04295
G1 X123.164 Y151.218 E.04748
G1 X121.924 Y150.556 E.04968
G1 X120.579 Y150.148 E.04968
G1 X119.242 Y150.016 E.04748
G1 X116.313 Y150.016 E.10353
G1 X115.699 Y149.956 E.02181
G1 X115.168 Y149.795 E.01961
G1 X114.679 Y149.533 E.01961
G1 X114.202 Y149.142 E.02181
G1 X95.131 Y130.071 E.95329
G1 X95.131 Y95.863 E1.20908
G1 X95.863 Y95.131 E.0366
G1 X102.537 Y95.131 E.23587
G1 X103.218 Y95.414 E.02608
G1 X105.155 Y96.216 E.07411
G1 X136.142 Y127.202 E1.5489
G1 X136.533 Y127.679 E.02181
G1 X136.795 Y128.168 E.01961
G1 X136.956 Y128.699 E.01961
G1 X137.016 Y129.313 E.02181
G1 X137.016 Y132.242 E.10353
G1 X137.148 Y133.579 E.04748
G1 X137.556 Y134.924 E.04968
G1 X138.218 Y136.164 E.04968
G1 X139.07 Y137.202 E.04748
G1 X165.186 Y163.318 E1.30544
M73 P1 R72
G1 X165.116 Y163.389 E.00353
G1 X167.54 Y165.813 E.12118
G1 X167.611 Y165.742 E.00353
G1 X192.798 Y190.93 E1.25903
G1 X193.836 Y191.782 E.04748
G1 X195.076 Y192.444 E.04968
G1 X196.421 Y192.852 E.04968
G1 X197.758 Y192.984 E.04748
G1 X200.687 Y192.984 E.10353
G1 X201.301 Y193.044 E.02181
G1 X201.832 Y193.205 E.01961
G1 X202.321 Y193.467 E.01961
G1 X202.798 Y193.858 E.02181
G1 X233.784 Y224.845 E1.5489
G1 X234.869 Y227.463 E.10019
G1 X234.869 Y234.097 E.23445
G1 X234.412 Y233.947 F12000
G1 F3000
G1 X233.947 Y234.412 E.02322
G1 X201.554 Y234.412 E1.14495
G1 X199.104 Y233.397 E.09376
G1 X181.198 Y215.491 E.89506
G1 X180.849 Y215.066 E.01943
G3 X180.441 Y213.664 I2.337 J-1.44 E.05222
G1 X180.441 Y210.735 E.10353
G1 X180.303 Y209.331 E.04986
G1 X179.869 Y207.9 E.05287
G1 X179.164 Y206.581 E.05286
G1 X178.269 Y205.491 E.04986
G1 X124.509 Y151.731 E2.68724
G1 X123.419 Y150.836 E.04986
G1 X122.1 Y150.131 E.05286
G1 X120.669 Y149.697 E.05287
G1 X119.265 Y149.559 E.04986
G1 X116.336 Y149.559 E.10353
G1 X115.789 Y149.505 E.01943
G3 X114.509 Y148.802 I.634 J-2.671 E.05222
G1 X95.588 Y129.881 E.94581
G1 X95.588 Y96.053 E1.1957
G1 X96.053 Y95.588 E.02322
G1 X102.446 Y95.588 E.22596
G1 X103.043 Y95.836 E.02287
G1 X104.896 Y96.603 E.0709
G1 X135.802 Y127.509 E1.54489
G1 X136.151 Y127.934 E.01943
G3 X136.559 Y129.336 I-2.337 J1.44 E.05222
G1 X136.559 Y132.265 E.10353
G1 X136.697 Y133.669 E.04986
G1 X137.131 Y135.1 E.05287
G1 X137.836 Y136.419 E.05287
G1 X138.731 Y137.509 E.04986
G1 X164.54 Y163.318 E1.29008
G1 X164.469 Y163.389 E.00353
G1 X167.54 Y166.459 E.15349
G1 X167.611 Y166.389 E.00353
G1 X192.491 Y191.269 E1.24367
G1 X193.581 Y192.164 E.04986
G1 X194.9 Y192.869 E.05286
G1 X196.331 Y193.303 E.05287
G1 X197.735 Y193.441 E.04986
G1 X200.664 Y193.441 E.10353
G1 X201.211 Y193.495 E.01943
G3 X202.491 Y194.198 I-.634 J2.671 E.05222
G1 X233.397 Y225.104 E1.54489
G1 X234.412 Y227.554 E.09376
G1 X234.412 Y233.907 E.22455
G1 E-.5
G1 X225.905 Y226.033 F12000
G1 E.5 F1800
;TYPE:Outer wall
G1 F3000
G1 X225.789 Y226.92 E.03164
G1 X225.446 Y227.747 E.03164
G1 X224.901 Y228.457 E.03164
G1 X224.191 Y229.002 E.03164
G1 X223.364 Y229.345 E.03164
G1 X222.505 Y229.458 E.03064
G1 X203.562 Y229.458 E.66956
G1 X202.702 Y229.345 E.03064
G1 X201.875 Y229.002 E.03164
G1 X201.187 Y228.475 E.03064
G1 X186.378 Y213.666 E.74025
G1 X185.85 Y212.978 E.03064
G1 X185.508 Y212.151 E.03164
G1 X185.395 Y211.291 E.03064
G1 X185.395 Y206.65 E.16406
G1 X185.508 Y205.79 E.03064
G1 X185.851 Y204.963 E.03164
G1 X186.378 Y204.276 E.03064
G1 X191.276 Y199.378 E.2448
G1 X191.963 Y198.85 E.03064
G1 X192.79 Y198.508 E.03164
G1 X193.65 Y198.395 E.03064
G1 X198.291 Y198.395 E.16406
G1 X199.151 Y198.508 E.03064
G1 X199.978 Y198.85 E.03164
G1 X200.666 Y199.378 E.03064
G1 X224.918 Y223.631 E1.21231
G1 X225.446 Y224.319 E.03064
G1 X225.789 Y225.146 E.03164
G1 X225.9 Y225.993 E.03022
G1 X226.36 Y226.082 F12000
;TYPE:Inner wall
G1 F3000
G1 X226.234 Y227.04 E.03416
G1 X225.845 Y227.978 E.03589
G1 X225.227 Y228.783 E.03589
G1 X224.422 Y229.402 E.03589
G1 X223.483 Y229.79 E.03589
G1 X222.534 Y229.915 E.03383
G1 X203.532 Y229.915 E.67168
G1 X202.583 Y229.79 E.03383
G1 X201.645 Y229.402 E.03589
G1 X200.885 Y228.819 E.03383
G1 X186.034 Y213.968 E.74237
G1 X185.451 Y213.208 E.03383
G1 X185.063 Y212.27 E.03589
G1 X184.938 Y211.321 E.03383
G1 X184.938 Y206.62 E.16618
G1 X185.063 Y205.671 E.03383
G1 X185.451 Y204.733 E.03589
G1 X186.034 Y203.974 E.03383
G1 X190.974 Y199.034 E.24692
G1 X191.733 Y198.451 E.03383
G1 X192.671 Y198.063 E.03589
G1 X193.62 Y197.938 E.03383
G1 X198.321 Y197.938 E.16618
G1 X199.27 Y198.063 E.03383
G1 X200.208 Y198.451 E.03589
G1 X200.968 Y199.034 E.03383
G1 X225.263 Y223.329 E1.21442
G1 X225.845 Y224.088 E.03383
G1 X226.234 Y225.026 E.03589
G1 X226.366 Y226.033 E.03589
G1 X226.365 Y226.042 E.00032
G1 X226.815 Y226.13 F12000
G1 F3000
G1 X226.679 Y227.159 E.03668
G1 X226.244 Y228.208 E.04014
G1 X225.553 Y229.109 E.04014
G1 X224.652 Y229.801 E.04014
G1 X223.603 Y230.235 E.04014
G1 X222.564 Y230.372 E.03702
G1 X203.502 Y230.372 E.67379
G1 X202.463 Y230.235 E.03702
G1 X201.414 Y229.801 E.04014
G1 X200.583 Y229.163 E.03702
G1 X185.69 Y214.27 E.74448
G1 X185.052 Y213.439 E.03702
G1 X184.617 Y212.39 E.04014
G1 X184.481 Y211.351 E.03701
G1 X184.481 Y206.59 E.16829
G1 X184.617 Y205.552 E.03701
G1 X185.052 Y204.502 E.04015
G1 X185.689 Y203.671 E.03701
G1 X190.671 Y198.69 E.24903
G1 X191.502 Y198.052 E.03702
G1 X192.552 Y197.617 E.04015
G1 X193.59 Y197.481 E.03701
G1 X198.351 Y197.481 E.16829
G1 X199.39 Y197.617 E.03701
G1 X200.439 Y198.052 E.04015
G1 X201.27 Y198.69 E.03702
G1 X225.607 Y223.027 E1.21654
G1 X226.244 Y223.858 E.03702
G1 X226.679 Y224.907 E.04014
G1 X226.827 Y226.033 E.04014
G1 X226.82 Y226.091 E.00205
G1 X227.269 Y226.179 F12000
G1 F3000
G1 X227.124 Y227.278 E.0392
G1 X226.644 Y228.439 E.0444
G1 X225.879 Y229.435 E.0444
G1 X224.883 Y230.2 E.0444
G1 X223.722 Y230.681 E.0444
G1 X222.594 Y230.829 E.0402
G1 X203.472 Y230.829 E.67591
G1 X202.344 Y230.681 E.0402
G1 X201.184 Y230.2 E.0444
G1 X200.281 Y229.508 E.0402
G1 X185.345 Y214.572 E.7466
G1 X184.653 Y213.669 E.0402
G1 X184.172 Y212.509 E.0444
G1 X184.024 Y211.381 E.0402
G1 X184.024 Y206.56 E.17041
G1 X184.172 Y205.432 E.0402
G1 X184.653 Y204.272 E.0444
G1 X185.345 Y203.369 E.0402
G1 X190.369 Y198.345 E.25115
G1 X191.272 Y197.653 E.0402
G1 X192.432 Y197.172 E.0444
G1 X193.56 Y197.024 E.0402
G1 X198.381 Y197.024 E.17041
G1 X199.509 Y197.172 E.0402
G1 X200.669 Y197.653 E.0444
G1 X201.572 Y198.345 E.0402
G1 X225.951 Y222.725 E1.21866
G1 X226.644 Y223.627 E.0402
G1 X227.124 Y224.788 E.0444
G1 X227.288 Y226.033 E.0444
G1 X227.274 Y226.139 E.00379
G1 E-.5
G1 X225.171 Y223.409 F12000
G1 X200.887 Y199.125
G1 X131.825 Y137.254
G1 X131.492 Y137.21
G1 E.5 F1800
;TYPE:Outer wall
G1 F3000
G1 X131.15 Y138.037 E.03164
G1 X130.622 Y138.724 E.03064
G1 X126.088 Y143.258 E.22662
G1 X125.724 Y143.622 E.01818
G1 X125.037 Y144.15 E.03064
G1 X124.21 Y144.492 E.03164
G1 X123.35 Y144.605 E.03064
G1 X118.709 Y144.605 E.16406
G1 X117.849 Y144.492 E.03064
G1 X117.022 Y144.15 E.03164
G1 X116.334 Y143.622 E.03064
G1 X115.263 Y142.55 E.05357
G1 X101.525 Y128.813 E.68668
G1 X100.998 Y128.125 E.03064
G1 X100.655 Y127.298 E.03164
G1 X100.542 Y126.439 E.03064
G1 X100.542 Y107.495 E.66956
G1 X100.655 Y106.636 E.03064
G1 X100.998 Y105.809 E.03164
G1 X101.543 Y105.099 E.03164
G1 X102.253 Y104.554 E.03164
G1 X103.08 Y104.212 E.03164
G1 X103.523 Y104.153 E.01582
G1 X103.967 Y104.095 E.01582
G1 X104.854 Y104.212 E.03164
G1 X105.681 Y104.554 E.03164
G1 X106.369 Y105.082 E.03064
G1 X130.622 Y129.334 E1.21231
G1 X131.15 Y130.022 E.03064
G1 X131.492 Y130.849 E.03164
G1 X131.605 Y131.709 E.03064
G1 X131.605 Y136.35 E.16406
G1 X131.497 Y137.17 E.02923
G1 X131.919 Y137.374 F12000
;TYPE:Inner wall
G1 F3000
G1 X131.549 Y138.267 E.03416
G1 X130.966 Y139.026 E.03383
G1 X126.411 Y143.581 E.22768
G1 X126.026 Y143.966 E.01924
G1 X125.267 Y144.549 E.03383
G1 X124.329 Y144.937 E.03589
G1 X123.38 Y145.062 E.03383
G1 X118.679 Y145.062 E.16618
G1 X117.73 Y144.937 E.03383
G1 X116.792 Y144.549 E.03589
G1 X116.032 Y143.966 E.03383
G1 X101.181 Y129.115 E.74237
G1 X100.598 Y128.355 E.03383
G1 X100.21 Y127.417 E.03589
G1 X100.085 Y126.468 E.03383
G1 X100.085 Y107.466 E.67168
G1 X100.21 Y106.517 E.03383
G1 X100.598 Y105.578 E.03589
G1 X101.217 Y104.773 E.03589
G1 X102.022 Y104.155 E.03589
G1 X102.96 Y103.766 E.03589
G1 X103.464 Y103.7 E.01794
G1 X103.967 Y103.634 E.01795
G1 X104.974 Y103.766 E.03589
G1 X105.912 Y104.155 E.03589
G1 X106.671 Y104.737 E.03383
G1 X130.966 Y129.032 E1.21442
G1 X131.549 Y129.792 E.03383
G1 X131.937 Y130.73 E.03589
G1 X132.062 Y131.679 E.03383
G1 X132.062 Y136.38 E.16618
G1 X131.937 Y137.329 E.03383
G1 X131.934 Y137.337 E.00032
G1 X132.345 Y137.539 F12000
G1 F3000
G1 X131.948 Y138.498 E.03668
G1 X131.311 Y139.329 E.03702
G1 X126.735 Y143.904 E.22873
G1 X126.329 Y144.311 E.0203
G1 X125.498 Y144.948 E.03702
G1 X124.448 Y145.383 E.04014
G1 X123.41 Y145.519 E.03701
G1 X118.649 Y145.519 E.16829
G1 X117.611 Y145.383 E.03701
G1 X116.561 Y144.948 E.04014
G1 X115.73 Y144.311 E.03702
G1 X100.837 Y129.417 E.74449
G1 X100.199 Y128.586 E.03702
G1 X99.765 Y127.537 E.04014
G1 X99.628 Y126.498 E.03702
G1 X99.628 Y107.436 E.67379
G1 X99.765 Y106.397 E.03702
G1 X100.199 Y105.348 E.04014
G1 X100.891 Y104.447 E.04014
G1 X101.792 Y103.756 E.04014
G1 X102.841 Y103.321 E.04014
G1 X103.404 Y103.247 E.02007
G1 X103.967 Y103.173 E.02007
G1 X105.093 Y103.321 E.04015
G1 X106.142 Y103.756 E.04014
G1 X106.973 Y104.393 E.03702
G1 X131.311 Y128.73 E1.21654
G1 X131.948 Y129.561 E.03702
G1 X132.383 Y130.611 E.04014
G1 X132.519 Y131.649 E.03701
G1 X132.519 Y136.41 E.16829
G1 X132.383 Y137.448 E.03702
G1 X132.36 Y137.502 E.00205
G1 X132.772 Y137.704 F12000
G1 F3000
G1 X132.347 Y138.728 E.0392
G1 X131.655 Y139.631 E.0402
G1 X126.631 Y144.655 E.25115
G1 X125.728 Y145.347 E.0402
