; HEADER_BLOCK_START
; generated by OrcaSlicer 1.7.0-beta on 2023-09-13 at 11:58:16
; total layer number: 50
; HEADER_BLOCK_END

; THUMBNAIL_BLOCK_START
; THUMBNAIL_BLOCK_END

; external perimeters extrusion width = 0.40mm
; perimeters extrusion width = 0.46mm
; infill extrusion width = 0.64mm
; solid infill extrusion width = 0.56mm
; top infill extrusion width = 0.40mm
; support material extrusion width = 0.46mm
; first layer extrusion width = 0.50mm

; EXECUTABLE_BLOCK_START
EXCLUDE_OBJECT_DEFINE NAME=bottle.stl_id_0_copy_0 CENTER=165,165 POLYGON=[[140.158,215.084],[140.189,214.522],[140.219,214.283],[152.629,119.341],[152.737,118.708],[152.84,118.236],[153.032,117.526],[153.15,117.154],[153.44,116.377],[153.556,116.104],[153.957,115.274],[154.054,115.096],[154.58,114.227],[154.641,114.136],[155.302,113.245],[155.312,113.232],[156.062,112.393],[156.116,112.338],[156.884,111.625],[157.015,111.515],[157.772,110.933],[157.989,110.783],[158.719,110.324],[159.03,110.149],[159.716,109.803],[160.128,109.62],[160.756,109.374],[161.272,109.2],[161.831,109.04],[162.452,108.894],[162.931,108.804],[163.655,108.704],[164.048,108.668],[164.872,108.632],[165.173,108.633],[166.09,108.679],[166.296,108.699],[167.297,108.844],[167.409,108.866],[168.483,109.126],[168.503,109.132],[169.568,109.496],[169.635,109.522],[170.596,109.954],[170.744,110.029],[171.578,110.502],[171.798,110.641],[172.508,111.137],[172.787,111.353],[173.376,111.852],[173.702,112.157],[174.177,112.643],[174.534,113.047],[174.903,113.503],[175.276,114.014],[175.549,114.424],[175.921,115.049],[176.109,115.4],[176.461,116.141],[176.58,116.423],[176.892,117.281],[176.956,117.483],[177.211,118.457],[177.236,118.573],[177.413,119.659],[189.798,214.406],[189.836,214.866],[189.842,215.117],[189.835,215.429],[189.802,215.828],[189.781,215.989],[189.677,216.529],[189.674,216.542],[189.516,217.082],[189.471,217.21],[189.309,217.605],[189.185,217.863],[189.053,218.106],[188.823,218.476],[188.751,218.581],[188.406,219.026],[188.392,219.043],[188.021,219.437],[187.896,219.555],[187.6,219.809],[187.344,220.004],[187.145,220.141],[186.742,220.384],[186.661,220.428],[186.152,220.669],[186.099,220.691],[185.624,220.861],[185.424,220.919],[185.079,221.002],[184.727,221.066],[184.523,221.093],[184.018,221.127],[183.962,221.128],[181.71,221.182],[177.648,221.261],[172.705,221.328],[171.28,221.342],[165,221.368],[163.702,221.367],[158.721,221.342],[154.699,221.297],[152.44,221.263],[146.158,221.131],[145.694,221.113],[145.567,221.102],[145.135,221.044],[144.982,221.015],[144.586,220.922],[144.408,220.87],[144.05,220.749],[143.851,220.67],[143.533,220.527],[143.317,220.416],[143.039,220.257],[142.81,220.11],[142.573,219.942],[142.336,219.756],[142.138,219.585],[141.899,219.357],[141.738,219.189],[141.503,218.917],[141.378,218.757],[141.153,218.44],[141.059,218.293],[140.851,217.931],[140.785,217.801],[140.601,217.394],[140.559,217.286],[140.406,216.836],[140.381,216.752],[140.266,216.261],[140.255,216.204],[140.183,215.675],[140.18,215.646],[140.158,215.084]]
M73 P0 R28
;TYPE:Custom
START_PRINT T_BED=110 T_EXTRUDER=260
G90
G21
M83 ; use relative distances for extrusion
; Filament gcode

    PRESSURE_ADVANCE_SELECT FILAMENT=ABS
M106 S0
;LAYER_CHANGE
;Z:0.2
;HEIGHT:0.2
;BEFORE_LAYER_CHANGE
;0.2
G92 E0

;_SET_FAN_SPEED_CHANGING_LAYER
SET_VELOCITY_LIMIT ACCEL=5000 ACCEL_TO_DECEL=2500
G1 E-.5 F2400
G1 X152.3 Y112.401 F12000
G1 Z.2
G1 E.5 F1800
;TYPE:Skirt
;WIDTH:0.5
G1 F3000
G1 X153.139 Y111.291 E.04895
G1 X154.074 Y110.262 E.04896
G1 X155.099 Y109.321 E.04896
G1 X156.204 Y108.476 E.04895
G1 X157.381 Y107.735 E.04895
G1 X158.62 Y107.103 E.04895
G1 X159.907 Y106.586 E.0488
G1 X161.199 Y106.196 E.04749
G1 X162.561 Y105.914 E.04895
G1 X163.943 Y105.756 E.04895
G1 X165.276 Y105.721 E.04694
G1 X166.462 Y105.789 E.04179
G1 X167.837 Y105.983 E.04889
G1 X169.191 Y106.3 E.04895
G1 X170.511 Y106.739 E.04896
G1 X172.022 Y107.412 E.0582
G1 X173.23 Y108.101 E.04896
G1 X174.369 Y108.894 E.04885
G1 X175.405 Y109.763 E.04757
G1 X176.414 Y110.775 E.05028
G1 X177.279 Y111.817 E.04767
G1 X178.087 Y112.992 E.05019
G1 X178.75 Y114.169 E.04754
G1 X179.321 Y115.437 E.04895
G1 X179.777 Y116.751 E.04895
G1 X180.057 Y117.844 E.0397
G1 X180.306 Y119.305 E.05217
G1 X192.675 Y213.931 E3.35858
G1 X192.749 Y215.421 E.05248
G1 X192.639 Y216.557 E.04018
G1 X192.312 Y217.904 E.04879
G1 X191.653 Y219.423 E.05829
G1 X191.043 Y220.381 E.03994
G1 X190.142 Y221.435 E.04881
G1 X188.867 Y222.491 E.05827
G1 X187.891 Y223.07 E.03993
G1 X186.61 Y223.603 E.04883
G1 X185.005 Y223.968 E.05795
G1 X181.656 Y224.098 E.11792
G1 X172.902 Y224.24 E.30814
G1 X163.719 Y224.281 E.3232
G1 X154.608 Y224.21 E.32066
G1 X145.648 Y224.027 E.3154
G1 X144.497 Y223.887 E.04081
G1 X142.89 Y223.422 E.05885
G1 X141.632 Y222.808 E.04927
G1 X140.298 Y221.845 E.05791
G1 X139.147 Y220.632 E.05886
G1 X138.242 Y219.225 E.05886
G1 X137.795 Y218.209 E.03908
G1 X137.367 Y216.592 E.05886
G1 X137.249 Y214.924 E.05886
G1 X149.77 Y118.776 E3.41238
G1 X150.035 Y117.452 E.04753
G1 X150.427 Y116.117 E.04895
G1 X150.939 Y114.824 E.04895
G1 X151.565 Y113.581 E.04896
G1 X152.279 Y112.435 E.04755
G1 X152.666 Y112.675 F12000
G1 F3000
G1 X152.667 Y112.673 E.00008
G1 X153.48 Y111.596 E.0475
G1 X154.386 Y110.596 E.0475
G1 X155.38 Y109.682 E.0475
G1 X156.451 Y108.861 E.0475
G1 X157.592 Y108.14 E.0475
G1 X158.794 Y107.525 E.0475
G1 X160.042 Y107.022 E.04737
G1 X161.295 Y106.643 E.04607
G1 X162.617 Y106.368 E.0475
G1 X163.957 Y106.213 E.0475
G1 X165.258 Y106.177 E.04581
G1 X166.435 Y106.245 E.04146
G1 X167.769 Y106.435 E.04745
G1 X169.083 Y106.744 E.0475
G1 X170.364 Y107.171 E.0475
G1 X171.799 Y107.811 E.0553
G1 X172.972 Y108.478 E.0475
G1 X174.079 Y109.247 E.04741
G1 X175.084 Y110.088 E.04614
G1 X176.064 Y111.07 E.04883
G1 X176.904 Y112.08 E.04622
G1 X177.691 Y113.22 E.04875
G1 X178.335 Y114.361 E.04611
G1 X178.891 Y115.59 E.0475
G1 X179.334 Y116.865 E.0475
G1 X179.615 Y117.958 E.0397
G1 X179.853 Y119.365 E.05021
G1 X192.222 Y213.991 E3.35858
G1 X192.292 Y215.42 E.05039
G1 X192.19 Y216.47 E.03713
G1 X191.873 Y217.776 E.04727
G1 X191.245 Y219.216 E.05529
G1 X190.682 Y220.101 E.03692
G1 X189.809 Y221.122 E.04729
G1 X188.598 Y222.122 E.05527
G1 X187.696 Y222.657 E.03692
G1 X186.454 Y223.173 E.0473
G1 X184.93 Y223.517 E.055
G1 X181.646 Y223.641 E.11567
G1 X172.895 Y223.783 E.30802
G1 X163.722 Y223.824 E.32281
G1 X154.58 Y223.753 E.32176
G1 X145.657 Y223.57 E.3141
G1 X144.596 Y223.441 E.03762
G1 X143.071 Y223.003 E.05584
G1 X141.852 Y222.407 E.04776
G1 X140.588 Y221.492 E.05495
G1 X139.497 Y220.339 E.05584
G1 X138.641 Y219.003 E.05585
G1 X138.228 Y218.065 E.03607
G1 X137.82 Y216.531 E.05585
G1 X137.705 Y214.949 E.05584
G1 X150.219 Y118.862 E3.41023
G1 X150.474 Y117.577 E.0461
G1 X150.854 Y116.282 E.0475
G1 X151.349 Y115.026 E.0475
G1 X151.955 Y113.82 E.0475
G1 X152.645 Y112.709 E.04602
; printing object bottle.stl id:0 copy 0
G1 E-.5 F2400
EXCLUDE_OBJECT_START NAME=bottle.stl_id_0_copy_0
G1 X158.208 Y196.129 F12000
G1 E.5 F1800
;TYPE:Support
G1 F3000
G1 X153.498 Y196.129 E.16574
G3 X154.618 Y194.488 I3.02 J.857 E.07116
G3 X156.897 Y194.299 I1.659 J6.184 E.0809
G1 X158.208 Y194.261 E.04616
G1 X158.208 Y196.061 E.06335
G1 X157.796 Y194.689 F12000
G1 F3000
G1 X157.796 Y195.718 E.03621
G1 X154.13 Y195.718 E.12903
G3 X155.287 Y194.731 I1.276 J.324 E.05707
G2 X157.796 Y194.689 I-.676 J-115.218 E.08831
G1 E-.5 F2400
G1 X160.502 Y192.907 F12000
G1 X177.123 Y181.845
G1 X177.445 Y181.751
G1 E.5 F1800
;TYPE:Outer wall
G1 F3000
G1 X177.739 Y182.755 E.03682
G2 X178.167 Y183.949 I19.387 J-6.274 E.04467
G2 X181.283 Y192.29 I403.586 J-145.987 E.31336
G3 X187.676 Y209.058 I-927.782 J363.338 E.63157
G1 X189.19 Y213.315 E.159
G3 X183.948 Y220.778 I-5.346 J1.818 E.37363
G1 X181.581 Y220.834 E.08336
G1 X172.851 Y220.976 E.30727
G1 X163.742 Y221.017 E.32059
G1 X154.636 Y220.946 E.3205
G1 X145.733 Y220.764 E.31339
G3 X140.929 Y212.972 I.443 J-5.65 E.37496
G3 X143.184 Y206.728 I282.928 J98.631 E.23366
G1 X146.363 Y198.39 E.31405
G1 X149.673 Y189.785 E.32449
G2 X152.377 Y182.412 I-291.469 J-111.082 E.2764
G1 X152.652 Y181.329 E.03931
G1 X152.817 Y180.152 E.04185
G2 X152.93 Y172.237 I-289.839 J-8.069 E.27857
M73 P1 R28
G1 X152.937 Y163.23 E.317
G1 X152.805 Y145.08 E.6388
G3 X152.826 Y122.67 I1172.005 J-10.097 E.78869
G1 X152.868 Y120.502 E.07631
G1 X152.979 Y119.372 E.03996
G1 X153.178 Y118.331 E.0373
G1 X153.479 Y117.277 E.0386
G1 X153.873 Y116.253 E.03859
G1 X154.358 Y115.27 E.03859
G1 X154.93 Y114.334 E.03859
G1 X155.584 Y113.454 E.03859
G1 X156.314 Y112.636 E.03859
G1 X157.116 Y111.888 E.03859
G1 X157.981 Y111.215 E.03859
G1 X158.904 Y110.622 E.03859
G1 X159.876 Y110.115 E.03859
G1 X160.891 Y109.698 E.0386
G1 X161.903 Y109.384 E.03731
G1 X162.975 Y109.152 E.0386
G1 X164.063 Y109.018 E.03858
G1 X165.192 Y108.984 E.03976
G1 X166.254 Y109.047 E.03743
G1 X167.339 Y109.209 E.0386
G1 X168.404 Y109.468 E.03859
G1 X169.442 Y109.823 E.03859
G1 X170.443 Y110.269 E.03859
G1 X171.4 Y110.804 E.03859
G1 X172.305 Y111.423 E.0386
G1 X173.123 Y112.097 E.03731
G1 X173.93 Y112.894 E.03989
G1 X174.614 Y113.703 E.03729
G1 X175.264 Y114.631 E.03989
G1 X175.792 Y115.551 E.03731
G1 X176.251 Y116.546 E.0386
G1 X176.619 Y117.579 E.03859
G1 X176.892 Y118.641 E.03859
G1 X177.068 Y119.723 E.03858
G1 X177.144 Y120.822 E.03877
G1 X177.241 Y129.84 E.31739
G3 X177.171 Y148.183 I-1444.99 J3.667 E.64556
G1 X177.057 Y165.827 E.62097
G1 X177.091 Y174.835 E.31703
G1 X177.151 Y179.347 E.15881
G1 X177.22 Y180.515 E.04118
G1 X177.417 Y181.654 E.04069
G1 X177.434 Y181.712 E.00213
G1 X176.967 Y181.735 F12000
;TYPE:Inner wall
G1 F3000
G1 X176.971 Y181.758 E.00082
G2 X177.738 Y184.105 I20.158 J-5.284 E.08696
G2 X180.856 Y192.454 I403.944 J-146.116 E.31364
G3 X187.246 Y209.214 I-927.424 J363.2 E.63131
G1 X188.755 Y213.455 E.15842
G3 X183.929 Y220.322 I-4.912 J1.677 E.34399
G1 X181.571 Y220.377 E.08298
G1 X172.846 Y220.519 E.30711
G1 X163.743 Y220.56 E.32039
G1 X154.642 Y220.489 E.3203
G1 X145.765 Y220.307 E.31247
G3 X141.361 Y213.122 I.414 J-5.196 E.34543
G3 X143.612 Y206.888 I282.44 J98.462 E.23326
G1 X146.79 Y198.554 E.31391
G1 X150.1 Y189.947 E.32454
G2 X152.815 Y182.544 I-291.531 J-111.108 E.27751
G1 X153.098 Y181.428 E.0405
G1 X153.274 Y180.19 E.04401
G2 X153.387 Y172.239 I-289.044 J-8.094 E.27986
G1 X153.394 Y163.229 E.31713
G1 X153.262 Y145.076 E.63887
G3 X153.283 Y122.677 I1171.541 J-10.093 E.78833
G1 X153.325 Y120.529 E.0756
G1 X153.432 Y119.438 E.03859
G3 X164.098 Y109.474 I11.604 J1.732 E.55438
G1 X165.186 Y109.442 E.0383
G1 X166.207 Y109.502 E.03599
G3 X172.817 Y112.437 I-1.305 J11.849 E.25863
G1 X173.594 Y113.204 E.03844
G1 X174.251 Y113.982 E.03583
G1 X174.878 Y114.877 E.03844
G3 X176.687 Y120.841 I-9.853 J6.245 E.22203
G1 X176.784 Y129.843 E.31684
G3 X176.714 Y148.18 I-1444.559 J3.665 E.64537
G1 X176.6 Y165.827 E.62106
G1 X176.634 Y174.839 E.31719
G1 X176.694 Y179.364 E.15925
G1 X176.765 Y180.568 E.04245
G1 X176.96 Y181.696 E.04029
G1 X176.517 Y181.815 F12000
G1 F3000
G1 X176.525 Y181.861 E.00166
G2 X177.308 Y184.261 I20.607 J-5.395 E.08889
G2 X180.429 Y192.617 I404.301 J-146.245 E.31391
G3 X186.817 Y209.371 I-927.089 J363.071 E.63104
G1 X188.32 Y213.596 E.15785
G3 X183.909 Y219.865 I-4.478 J1.535 E.31436
G1 X181.562 Y219.92 E.0826
G1 X172.842 Y220.062 E.30696
G1 X163.744 Y220.103 E.3202
G1 X154.648 Y220.032 E.3201
G1 X145.798 Y219.851 E.31155
G3 X141.793 Y213.271 I.384 J-4.742 E.31589
G3 X144.04 Y207.048 I281.952 J98.293 E.23286
G1 X147.217 Y198.717 E.31378
G1 X150.528 Y190.109 E.32459
G2 X153.253 Y182.676 I-291.616 J-111.143 E.27863
G1 X153.545 Y181.528 E.04169
G1 X153.73 Y180.229 E.04617
G2 X153.844 Y172.242 I-288.317 J-8.121 E.28115
G1 X153.851 Y163.227 E.31726
G1 X153.719 Y145.073 E.63894
G3 X153.74 Y122.684 I1171.1 J-10.09 E.78796
G1 X153.781 Y120.556 E.0749
G1 X153.885 Y119.503 E.03723
G3 X166.159 Y109.957 I11.14 J1.66 E.60401
G3 X172.511 Y112.777 I-1.254 J11.385 E.24849
G1 X173.259 Y113.515 E.03699
G1 X173.889 Y114.261 E.03438
G1 X174.492 Y115.122 E.03699
G3 X176.23 Y120.859 I-9.47 J6.001 E.21356
G1 X176.327 Y129.845 E.31628
G3 X176.257 Y148.177 I-1444.129 J3.663 E.64518
G1 X176.143 Y165.826 E.62115
G1 X176.177 Y174.843 E.31734
G1 X176.237 Y179.38 E.15969
G1 X176.31 Y180.62 E.04373
G1 X176.51 Y181.776 E.04127
G1 X176.067 Y181.895 F12000
G1 F3000
G1 X176.079 Y181.965 E.0025
G2 X176.878 Y184.417 I21.056 J-5.506 E.09082
G2 X180.002 Y192.78 I404.659 J-146.374 E.31419
G3 X186.387 Y209.527 I-926.736 J362.935 E.63077
G1 X187.885 Y213.737 E.15728
G3 X183.889 Y219.408 I-4.045 J1.393 E.28471
G1 X181.553 Y219.463 E.08222
G1 X172.837 Y219.605 E.3068
G1 X163.744 Y219.646 E.32001
G1 X154.655 Y219.575 E.3199
G1 X145.83 Y219.394 E.31063
G3 X142.062 Y213.905 I.336 J-4.269 E.26845
G3 X144.468 Y207.208 I257.715 J88.839 E.25046
G1 X147.644 Y198.881 E.31365
G1 X150.955 Y190.271 E.32465
G2 X153.691 Y182.808 I-291.723 J-111.186 E.27974
G1 X153.991 Y181.627 E.04288
G1 X154.186 Y180.268 E.04832
G2 X154.301 Y172.244 I-287.653 J-8.148 E.28244
G1 X154.308 Y163.226 E.31738
M73 P2 R28
G1 X154.176 Y145.069 E.63901
G3 X154.197 Y122.691 I1170.636 J-10.086 E.7876
G1 X154.238 Y120.583 E.0742
G3 X154.78 Y117.712 I11.976 J.776 E.10308
G3 X166.112 Y110.412 I10.247 J3.462 E.51216
G3 X175.773 Y120.877 I-1.113 J10.72 E.5476
G1 X175.87 Y129.847 E.31572
G3 X175.8 Y148.174 I-1443.698 J3.661 E.64499
G1 X175.686 Y165.825 E.62123
G1 X175.72 Y174.847 E.3175
G1 X175.78 Y179.397 E.16014
G1 X175.855 Y180.673 E.045
G1 X176.06 Y181.856 E.04225
G1 X175.617 Y181.975 F12000
G1 F3000
G1 X175.633 Y182.069 E.00334
G2 X176.449 Y184.573 I21.505 J-5.617 E.09275
G2 X179.575 Y192.943 I405.017 J-146.503 E.31447
G3 X185.957 Y209.683 I-926.396 J362.804 E.63051
G1 X187.45 Y213.878 E.1567
G3 X183.869 Y218.951 I-3.614 J1.25 E.25503
G1 X181.544 Y219.006 E.08184
G1 X172.832 Y219.148 E.30665
G1 X163.745 Y219.189 E.31981
G1 X154.661 Y219.118 E.3197
G1 X145.863 Y218.938 E.30971
G3 X142.501 Y214.033 I.303 J-3.812 E.23974
G3 X144.897 Y207.367 I258.843 J89.28 E.24929
G1 X148.071 Y199.044 E.31351
G1 X151.383 Y190.433 E.3247
G2 X154.129 Y182.94 I-291.86 J-111.239 E.28086
G1 X154.438 Y181.727 E.04407
G1 X154.642 Y180.307 E.05048
G2 X154.758 Y172.246 I-287.049 J-8.176 E.28372
G1 X154.765 Y163.224 E.31751
G1 X154.633 Y145.066 E.63909
G3 X154.654 Y122.698 I1170.194 J-10.083 E.78723
G1 X154.694 Y120.61 E.07349
G3 X166.065 Y110.867 I10.314 J.531 E.58949
G3 X175.316 Y120.895 I-1.066 J10.265 E.52462
G1 X175.413 Y129.85 E.31516
G3 X175.343 Y148.171 I-1443.268 J3.66 E.64479
G1 X175.229 Y165.825 E.62132
G1 X175.263 Y174.851 E.31766
G1 X175.323 Y179.413 E.16058
G1 X175.401 Y180.726 E.04627
G1 X175.61 Y181.936 E.04323
G1 E-.5 F2400
G1 X175.573 Y193.557 F12000
G1 E.5 F1800
;TYPE:Outer wall
G1 F3000
G1 X175.714 Y193.62 E.00541
G3 X176.324 Y194.013 I-1.206 J2.545 E.02561
G3 X177.38 Y195.716 I-3.413 J3.296 E.07108
G1 X178.009 Y197.32 E.06061
G3 X181.813 Y207.226 I-188.886 J78.224 E.3735
G2 X182.852 Y210.208 I277.598 J-95.091 E.11114
G3 X183.55 Y212.353 I-12.04 J5.102 E.07949
G3 X183.277 Y214.202 I-2.482 J.578 E.06735
G3 X181.817 Y215.118 I-2.046 J-1.639 E.06179
G3 X179.441 Y215.388 I-2.23 J-9.047 E.08439
G3 X150.336 Y215.382 I-14.467 J-418.163 E1.02453
M73 P2 R27
G1 X150.055 Y215.369 E.00991
G3 X148.747 Y215.248 I.418 J-11.644 E.04626
G3 X147.706 Y214.987 I.747 J-5.181 E.03783
G3 X147.119 Y214.657 I.53 J-1.63 E.02386
G3 X146.482 Y213.746 I1.127 J-1.465 E.03972
G3 X146.449 Y212.4 I2.861 J-.744 E.04781
G1 X146.646 Y211.693 E.02584
G3 X147.67 Y208.982 I1790.623 J674.796 E.10198
G3 X152.364 Y196.394 I358.837 J126.653 E.47286
G3 X153.071 Y194.796 I20.422 J8.073 E.06148
G1 X153.451 Y194.227 E.02411
G3 X154.191 Y193.634 I2.341 J2.166 E.03348
G3 X155.118 Y193.376 I1.362 J3.097 E.034
G3 X156.895 Y193.349 I1.164 J18.106 E.06257
G3 X164.712 Y193.202 I7.617 J197.756 E.27518
G2 X169.57 Y193.239 I6.444 J-538.448 E.17098
G2 X172.83 Y193.339 I13.907 J-398.328 E.11478
G3 X174.824 Y193.366 I.756 J17.591 E.07021
G3 X175.384 Y193.488 I-.317 J2.798 E.0202
G1 X175.536 Y193.544 E.00568
G1 X175.881 Y193.184 F12000
