; generated by SuperSlicer 2.5.59 on 2023-07-19 at 03:04:43 UTC


;
;

;
;
; 

; external perimeters extrusion width = 0.60mm
; perimeters extrusion width = 0.69mm
; infill extrusion width = 0.96mm
; solid infill extrusion width = 0.84mm
; top infill extrusion width = 0.60mm
; support material extrusion width = 0.69mm
; first layer extrusion width = 0.75mm

; object:{"name":"BoxwithSliding_lid","id":"BoxwithSliding_lid.stl_1 id:0 copy 0","object_center":[165.000000,165.000000,0.000000],"boundingbox_center":[165.000000,165.000000,76.500000],"boundingbox_size":[140.100006,105.099998,153.000000]}
EXCLUDE_OBJECT_DEFINE NAME=BoxwithSliding_lid_stl_1_id_0_copy_0 CENTER=165.000000,165.000000 POLYGON=[[94.950000,116.450000],[95.145768,115.213928],[95.713928,114.098864],[96.598864,113.213928],[97.713928,112.645768],[98.950000,112.450000],[231.050000,112.450000],[232.286064,112.645768],[233.401136,113.213928],[234.286064,114.098864],[234.854224,115.213928],[234.907456,115.550000],[235.050000,116.450000],[235.050000,213.550000],[234.854224,214.786080],[234.286064,215.901136],[233.401136,216.786080],[232.286064,217.354224],[231.050000,217.550000],[98.950000,217.550000],[97.713928,217.354224],[96.598864,216.786080],[95.713928,215.901136],[95.145768,214.786080],[94.950000,213.550000],[94.950000,116.450000]]
; plater:{"center":[165.000000,165.000000,0.000000],"boundingbox_center":[165.000000,165.000000,76.500000],"boundingbox_size":[140.100006,105.099998,153.000000]}

M73 P0 R422
;TYPE:Custom
; custom gcode: start_gcode
START_PRINT T_BED=60 T_EXTRUDER=220
; custom gcode end: start_gcode
M107
G21 ; set units to millimeters
G90 ; use absolute coordinates
M82 ; use absolute distances for extrusion
G92 E0
; custom gcode: start_filament_gcode
; Filament gcode

    PRESSURE_ADVANCE_SELECT FILAMENT=PLA
; custom gcode end: start_filament_gcode
;_TOOLCHANGE 0
M104 S220 ; set temperature
M109 S220 ; set temperature and wait for it to be reached
M190 S60 ; set bed temperature and wait for it to be reached
;LAYER_CHANGE
;Z:0.3
;HEIGHT:0.3
G1 Z0.3 F9000
G1 E-0.8 F2400
G1 Z0.5 F9000
M204 S1000
G1 X93.778 Y110.415
G1 Z0.3
G1 E0 F1800
;TYPE:Skirt
;WIDTH:0.78
G1 X92.916 Y111.278 E0.10888
G1 X92.166 Y112.309 E0.22263
G1 X91.613 Y113.396 E0.3315
G1 X91.219 Y114.608 E0.44526
G1 X90.977 Y116.458 E0.61178
G1 X90.977 Y213.542 E9.27713
G1 X91.219 Y215.392 E9.44365
G1 X91.613 Y216.604 E9.55741
G1 X92.166 Y217.691 E9.66628
G1 X92.916 Y218.722 E9.78004
G1 X93.778 Y219.585 E9.88891
G1 X94.809 Y220.334 E10.00266
G1 X95.896 Y220.887 E10.11153
G1 X97.108 Y221.281 E10.22529
G1 X98.958 Y221.523 E10.39181
G1 X231.042 Y221.523 E22.18112
G1 X232.892 Y221.281 E22.34764
G1 X234.104 Y220.887 E22.46139
G1 X235.191 Y220.334 E22.57027
G1 X236.222 Y219.584 E22.68402
G1 X237.085 Y218.722 E22.7929
G1 X237.834 Y217.691 E22.90665
G1 X238.387 Y216.604 E23.01552
G1 X238.781 Y215.392 E23.12927
G1 X239.023 Y213.542 E23.2958
G1 X239.023 Y116.458 E31.96115
G1 X238.781 Y114.608 E32.12767
G1 X238.387 Y113.396 E32.24142
G1 X237.834 Y112.309 E32.3503
G1 X237.085 Y111.278 E32.46405
G1 X236.222 Y110.416 E32.57292
G1 X235.191 Y109.666 E32.68668
G1 X234.104 Y109.113 E32.79555
G1 X232.892 Y108.719 E32.9093
G1 X231.679 Y108.527 E33.01889
G1 X98.958 Y108.477 E44.86508
G1 X97.108 Y108.719 E45.0316
G1 X95.896 Y109.113 E45.14536
G1 X94.809 Y109.666 E45.25423
G1 X93.778 Y110.415 E45.36798
G1 X94.284 Y110.921 F9000
G1 F1800
G1 X93.422 Y111.784 E45.47685
G1 X92.804 Y112.634 E45.57062
G1 X92.25 Y113.721 E45.6795
G1 X91.926 Y114.72 E45.77327
G1 X91.692 Y116.458 E45.92978
G1 X91.692 Y213.542 E54.59513
G1 X91.926 Y215.28 E54.75164
G1 X92.25 Y216.279 E54.84541
G1 X92.804 Y217.366 E54.95429
G1 X93.422 Y218.216 E55.04806
G1 X94.284 Y219.079 E55.15693
G1 X95.134 Y219.696 E55.2507
G1 X96.221 Y220.25 E55.35957
G1 X97.22 Y220.574 E55.45334
G1 X98.958 Y220.808 E55.60985
G1 X231.042 Y220.808 E67.39917
G1 X232.78 Y220.574 E67.55568
G1 X233.779 Y220.25 E67.64945
G1 X234.866 Y219.696 E67.75832
G1 X235.716 Y219.078 E67.85209
G1 X236.578 Y218.216 E67.96097
G1 X237.196 Y217.366 E68.05473
G1 X237.75 Y216.279 E68.16361
G1 X238.074 Y215.28 E68.25737
G1 X238.308 Y213.542 E68.41389
G1 X238.308 Y116.458 E77.07924
G1 X238.074 Y114.72 E77.23576
G1 X237.75 Y113.721 E77.32953
G1 X237.196 Y112.634 E77.4384
G1 X236.578 Y111.784 E77.53217
G1 X235.716 Y110.922 E77.64104
G1 X234.866 Y110.304 E77.73481
G1 X233.779 Y109.75 E77.84369
G1 X232.78 Y109.426 E77.93745
G1 X231.567 Y109.234 E78.04704
G1 X98.958 Y109.192 E89.88324
M73 P0 R422
G1 X97.22 Y109.426 E90.03975
G1 X96.221 Y109.75 E90.13352
G1 X95.134 Y110.304 E90.24239
G1 X94.284 Y110.921 E90.33616
G92 E0
G1 E-0.8 F2400
M204 S4000
G1 Z0.5 F9000
; printing object BoxwithSliding_lid.stl_1 id:0 copy 0
EXCLUDE_OBJECT_START NAME=BoxwithSliding_lid_stl_1_id_0_copy_0
; acceleration to travel
M204 S3000
G1 X95.273 Y114.252
; decel to extrusion
M204 S1000
G1 X95.603 Y115.363
; end travel
G1 Z0.3
G1 E0 F1800
;TYPE:External perimeter
;WIDTH:0.75
G1 X96.103 Y114.382 E0.09415
G1 X96.882 Y113.603 E0.1883
G1 X97.863 Y113.103 E0.28246
G1 X98.987 Y112.925 E0.37985
G1 X231.013 Y112.925 E11.66988
G1 X231.388 Y112.984 E11.70236
G1 X232.137 Y113.103 E11.76727
G1 X233.118 Y113.603 E11.86142
G1 X233.897 Y114.382 E11.95557
G1 X234.397 Y115.363 E12.04973
G1 X234.575 Y116.487 E12.14712
G1 X234.575 Y213.513 E20.44415
G1 X234.397 Y214.637 E20.54154
G1 X233.897 Y215.618 E20.6357
G1 X233.118 Y216.397 E20.72985
G1 X232.137 Y216.897 E20.824
G1 X231.013 Y217.075 E20.92139
G1 X98.987 Y217.075 E32.21142
G1 X97.863 Y216.897 E32.30881
G1 X96.882 Y216.397 E32.40296
G1 X96.103 Y215.618 E32.49712
G1 X95.603 Y214.637 E32.59127
G1 X95.425 Y213.513 E32.68866
G1 X95.425 Y116.487 E40.9857
G1 X95.603 Y115.363 E41.08308
;WIPE_START
M204 S4000
G1 X96.196 Y115.269 F9000
;WIPE_END
M204 S1000
G1 X96.263 Y115.577
;TYPE:Internal perimeter
G1 F1800
G1 X96.665 Y114.79 E41.15866
G1 X97.29 Y114.165 E41.23425
G1 X98.077 Y113.763 E41.30982
G1 X99.041 Y113.611 E41.39331
G1 X230.959 Y113.611 E52.67412
G1 X231.28 Y113.662 E52.70198
G1 X231.923 Y113.763 E52.75761
G1 X232.71 Y114.165 E52.83319
G1 X233.335 Y114.79 E52.90877
G1 X233.737 Y115.577 E52.98435
G1 X233.889 Y116.541 E53.06784
G1 X233.889 Y213.459 E61.35565
G1 X233.737 Y214.423 E61.43914
G1 X233.335 Y215.21 E61.51472
G1 X232.71 Y215.835 E61.59029
G1 X231.923 Y216.237 E61.66588
G1 X230.959 Y216.389 E61.74936
G1 X99.041 Y216.389 E73.03017
G1 X98.077 Y216.237 E73.11366
G1 X97.29 Y215.835 E73.18924
G1 X96.665 Y215.21 E73.26482
G1 X96.263 Y214.423 E73.3404
G1 X96.111 Y213.459 E73.42389
G1 X96.111 Y116.541 E81.7117
G1 X96.263 Y115.577 E81.79519
G1 X96.924 Y115.792 F9000
G1 F1800
G1 X97.226 Y115.198 E81.85219
G1 X97.698 Y114.726 E81.9092
G1 X98.292 Y114.424 E81.96621
G1 X99.095 Y114.296 E82.0358
G1 X230.905 Y114.296 E93.30738
G1 X231.173 Y114.339 E93.33062
G1 X231.708 Y114.424 E93.37696
G1 X232.302 Y114.726 E93.43397
G1 X232.774 Y115.198 E93.49098
G1 X233.076 Y115.792 E93.54799
G1 X233.204 Y116.595 E93.61758
G1 X233.204 Y213.405 E101.89616
G1 X233.076 Y214.208 E101.96574
G1 X232.774 Y214.802 E102.02275
G1 X232.302 Y215.274 E102.07976
G1 X231.708 Y215.576 E102.13677
G1 X230.905 Y215.704 E102.20636
G1 X99.095 Y215.704 E113.47793
G1 X98.292 Y215.576 E113.54752
G1 X97.698 Y215.274 E113.60453
G1 X97.226 Y214.802 E113.66154
G1 X96.924 Y214.208 E113.71855
G1 X96.796 Y213.405 E113.78813
G1 X96.796 Y116.595 E122.06672
G1 X96.924 Y115.792 E122.1363
G92 E0
G1 E-0.8 F2400
M204 S4000
G1 Z0.5 F9000
; acceleration to travel
M204 S3000
G1 X194.597 Y114.918
; decel to extrusion
M204 S1000
G1 X231.438 Y114.589
; end travel
G1 Z0.3
G1 E0 F1800
;TYPE:Solid infill
;WIDTH:0.749216
G1 F3504.1487
G1 X232.911 Y116.062 E0.17797
; acceleration to travel
M204 S3000
G1 X232.976 Y116.855 F9000
; decel to extrusion
M204 S1000
G1 X232.998 Y117.119
; end travel
G1 F3504.1487
G1 X230.381 Y114.502 E0.49411
; acceleration to travel
M204 S3000
G1 X229.654 Y114.502 F9000
; decel to extrusion
M204 S1000
G1 X229.412 Y114.502
; end travel
G1 F3504.1487
G1 X232.998 Y118.088 E0.92738
; acceleration to travel
M204 S3000
G1 X232.998 Y118.816 F9000
; decel to extrusion
M204 S1000
G1 X232.998 Y119.058
; end travel
G1 F3504.1487
G1 X228.442 Y114.502 E1.4778
; acceleration to travel
M204 S3000
G1 X227.715 Y114.502 F9000
; decel to extrusion
M204 S1000
G1 X227.472 Y114.502
; end travel
G1 F3504.1487
G1 X232.998 Y120.028 E2.14535
; acceleration to travel
M204 S3000
G1 X232.998 Y120.755 F9000
; decel to extrusion
M204 S1000
G1 X232.998 Y120.997
; end travel
G1 F3504.1487
G1 X226.503 Y114.502 E2.93003
; acceleration to travel
M204 S3000
G1 X225.776 Y114.502 F9000
; decel to extrusion
M204 S1000
G1 X225.533 Y114.502
; end travel
G1 F3504.1487
G1 X232.998 Y121.967 E3.83186
; acceleration to travel
M204 S3000
G1 X232.998 Y122.694 F9000
; decel to extrusion
M204 S1000
G1 X232.998 Y122.936
; end travel
G1 F3504.1487
G1 X224.564 Y114.502 E4.85082
; acceleration to travel
M204 S3000
G1 X223.836 Y114.502 F9000
; decel to extrusion
M204 S1000
G1 X223.594 Y114.502
; end travel
G1 F3504.1487
G1 X232.998 Y123.906 E5.98692
; acceleration to travel
M204 S3000
G1 X232.998 Y124.633 F9000
; decel to extrusion
M204 S1000
G1 X232.998 Y124.876
; end travel
G1 F3504.1487
G1 X222.624 Y114.502 E7.24016
; acceleration to travel
M204 S3000
G1 X221.897 Y114.502 F9000
; decel to extrusion
M204 S1000
G1 X221.655 Y114.502
; end travel
G1 F3504.1487
G1 X232.998 Y125.845 E8.61053
; acceleration to travel
M204 S3000
G1 X232.998 Y126.572 F9000
; decel to extrusion
M204 S1000
G1 X232.998 Y126.815
; end travel
G1 F3504.1487
G1 X220.685 Y114.502 E10.09805
; acceleration to travel
M204 S3000
G1 X219.958 Y114.502 F9000
; decel to extrusion
M204 S1000
G1 X219.716 Y114.502
; end travel
G1 F3504.1487
G1 X232.998 Y127.784 E11.7027
; acceleration to travel
M204 S3000
G1 X232.998 Y128.512 F9000
; decel to extrusion
M204 S1000
G1 X232.998 Y128.754
; end travel
G1 F3504.1487
G1 X218.746 Y114.502 E13.42449
; acceleration to travel
M204 S3000
G1 X218.019 Y114.502 F9000
; decel to extrusion
M204 S1000
G1 X217.776 Y114.502
; end travel
G1 F3504.1487
G1 X232.998 Y129.724 E15.26341
; acceleration to travel
M204 S3000
G1 X232.998 Y130.451 F9000
; decel to extrusion
M204 S1000
G1 X232.998 Y130.693
; end travel
G1 F3504.1487
G1 X216.807 Y114.502 E17.21948
; acceleration to travel
M204 S3000
G1 X216.079 Y114.502 F9000
; decel to extrusion
M204 S1000
G1 X215.837 Y114.502
; end travel
G1 F3504.1487
G1 X232.998 Y131.663 E19.29268
; acceleration to travel
M204 S3000
G1 X232.998 Y132.39 F9000
; decel to extrusion
M204 S1000
G1 X232.998 Y132.633
; end travel
G1 F3504.1487
G1 X214.867 Y114.502 E21.48302
; acceleration to travel
M204 S3000
G1 X214.14 Y114.502 F9000
; decel to extrusion
M204 S1000
G1 X213.898 Y114.502
; end travel
G1 F3504.1487
G1 X232.998 Y133.602 E23.7905
; acceleration to travel
M204 S3000
G1 X232.998 Y134.329 F9000
; decel to extrusion
M204 S1000
G1 X232.998 Y134.572
; end travel
G1 F3504.1487
G1 X212.928 Y114.502 E26.21511
; acceleration to travel
M204 S3000
G1 X212.201 Y114.502 F9000
; decel to extrusion
M204 S1000
G1 X211.959 Y114.502
; end travel
G1 F3504.1487
G1 X232.998 Y135.541 E28.75687
; acceleration to travel
M204 S3000
M73 P0 R421
G1 X232.998 Y136.269 F9000
; decel to extrusion
M204 S1000
G1 X232.998 Y136.511
; end travel
G1 F3504.1487
G1 X210.989 Y114.502 E31.41576
; acceleration to travel
M204 S3000
G1 X210.262 Y114.502 F9000
; decel to extrusion
M204 S1000
G1 X210.019 Y114.502
; end travel
G1 F3504.1487
G1 X232.998 Y137.481 E34.19179
; acceleration to travel
M204 S3000
G1 X232.998 Y138.208 F9000
; decel to extrusion
M204 S1000
G1 X232.998 Y138.45
; end travel
G1 F3504.1487
G1 X209.05 Y114.502 E37.08495
; acceleration to travel
M204 S3000
G1 X208.323 Y114.502 F9000
; decel to extrusion
M204 S1000
G1 X208.08 Y114.502
; end travel
G1 F3504.1487
G1 X232.998 Y139.42 E40.09526
; acceleration to travel
M204 S3000
G1 X232.998 Y140.147 F9000
; decel to extrusion
M204 S1000
G1 X232.998 Y140.389
; end travel
G1 F3504.1487
G1 X207.111 Y114.502 E43.2227
; acceleration to travel
M204 S3000
G1 X206.383 Y114.502 F9000
; decel to extrusion
M204 S1000
G1 X206.141 Y114.502
; end travel
G1 F3504.1487
G1 X232.998 Y141.359 E46.46728
; acceleration to travel
M204 S3000
G1 X232.998 Y142.086 F9000
; decel to extrusion
M204 S1000
G1 X232.998 Y142.329
; end travel
G1 F3504.1487
G1 X205.171 Y114.502 E49.82899
; acceleration to travel
M204 S3000
G1 X204.444 Y114.502 F9000
; decel to extrusion
M204 S1000
G1 X204.202 Y114.502
; end travel
G1 F3504.1487
G1 X232.998 Y143.298 E53.30785
; acceleration to travel
M204 S3000
G1 X232.998 Y144.025 F9000
; decel to extrusion
M204 S1000
G1 X232.998 Y144.268
; end travel
G1 F3504.1487
G1 X203.232 Y114.502 E56.90384
; acceleration to travel
M204 S3000
G1 X202.505 Y114.502 F9000
; decel to extrusion
M204 S1000
G1 X202.263 Y114.502
; end travel
G1 F3504.1487
G1 X232.998 Y145.237 E60.61697
; acceleration to travel
M204 S3000
G1 X232.998 Y145.965 F9000
; decel to extrusion
M204 S1000
G1 X232.998 Y146.207
; end travel
G1 F3504.1487
G1 X201.293 Y114.502 E64.44724
; acceleration to travel
M204 S3000
G1 X200.566 Y114.502 F9000
; decel to extrusion
M204 S1000
G1 X200.323 Y114.502
; end travel
G1 F3504.1487
G1 X232.998 Y147.177 E68.39465
; acceleration to travel
M204 S3000
G1 X232.998 Y147.904 F9000
; decel to extrusion
M204 S1000
G1 X232.998 Y148.146
; end travel
G1 F3504.1487
G1 X199.354 Y114.502 E72.45919
; acceleration to travel
M204 S3000
G1 X198.626 Y114.502 F9000
; decel to extrusion
M204 S1000
G1 X198.384 Y114.502
; end travel
G1 F3504.1487
G1 X232.998 Y149.116 E76.64087
; acceleration to travel
M204 S3000
G1 X232.998 Y149.843 F9000
; decel to extrusion
M204 S1000
G1 X232.998 Y150.086
; end travel
G1 F3504.1487
G1 X197.414 Y114.502 E80.93969
; acceleration to travel
M204 S3000
G1 X196.687 Y114.502 F9000
; decel to extrusion
M204 S1000
G1 X196.445 Y114.502
; end travel
G1 F3504.1487
G1 X232.998 Y151.055 E85.35565
; acceleration to travel
M204 S3000
G1 X232.998 Y151.782 F9000
; decel to extrusion
M204 S1000
G1 X232.998 Y152.025
; end travel
G1 F3504.1487
G1 X195.475 Y114.502 E89.88874
; acceleration to travel
M204 S3000
G1 X194.748 Y114.502 F9000
; decel to extrusion
M204 S1000
G1 X194.506 Y114.502
; end travel
G1 F3504.1487
G1 X232.998 Y152.994 E94.53898
; acceleration to travel
M204 S3000
G1 X232.998 Y153.722 F9000
; decel to extrusion
M204 S1000
G1 X232.998 Y153.964
; end travel
G1 F3504.1487
G1 X193.536 Y114.502 E99.30635
; acceleration to travel
M204 S3000
G1 X192.809 Y114.502 F9000
; decel to extrusion
M204 S1000
G1 X192.566 Y114.502
; end travel
G1 F3504.1487
G1 X232.998 Y154.934 E104.19085
; acceleration to travel
M204 S3000
G1 X232.998 Y155.661 F9000
; decel to extrusion
M204 S1000
G1 X232.998 Y155.903
; end travel
G1 F3504.1487
G1 X191.597 Y114.502 E109.1925
; acceleration to travel
M204 S3000
G1 X190.87 Y114.502 F9000
; decel to extrusion
M204 S1000
G1 X190.627 Y114.502
; end travel
G1 F3504.1487
G1 X232.998 Y156.873 E114.31128
; acceleration to travel
M204 S3000
G1 X232.998 Y157.6 F9000
; decel to extrusion
M204 S1000
G1 X232.998 Y157.842
; end travel
G1 F3504.1487
G1 X189.658 Y114.502 E119.5472
; acceleration to travel
M204 S3000
G1 X188.93 Y114.502 F9000
; decel to extrusion
M204 S1000
G1 X188.688 Y114.502
; end travel
G1 F3504.1487
G1 X232.998 Y158.812 E124.90026
; acceleration to travel
M204 S3000
G1 X232.998 Y159.539 F9000
; decel to extrusion
M204 S1000
G1 X232.998 Y159.782
; end travel
G1 F3504.1487
G1 X187.718 Y114.502 E130.37046
; acceleration to travel
M204 S3000
G1 X186.991 Y114.502 F9000
; decel to extrusion
M204 S1000
G1 X186.749 Y114.502
; end travel
G1 F3504.1487
G1 X232.998 Y160.751 E135.95779
; acceleration to travel
M204 S3000
G1 X232.998 Y161.478 F9000
; decel to extrusion
M204 S1000
G1 X232.998 Y161.721
; end travel
G1 F3504.1487
G1 X185.779 Y114.502 E141.66227
; acceleration to travel
M204 S3000
G1 X185.052 Y114.502 F9000
; decel to extrusion
M204 S1000
G1 X184.81 Y114.502
; end travel
G1 F3504.1487
