; HEADER_BLOCK_START
; generated by OrcaSlicer 1.6.3 on 2023-07-16 at 20:46:07
; total layer number: 65
; HEADER_BLOCK_END

; THUMBNAIL_BLOCK_START
; THUMBNAIL_BLOCK_END

; external perimeters extrusion width = 0.40mm
; perimeters extrusion width = 0.45mm
; infill extrusion width = 0.45mm
; solid infill extrusion width = 0.40mm
; top infill extrusion width = 0.40mm
; first layer extrusion width = 0.50mm

; EXECUTABLE_BLOCK_START
EXCLUDE_OBJECT_DEFINE NAME=BoxwithSliding_lid.stl_id_0_copy_0 CENTER=165,165 POLYGON=[[29.95,113.95],[30.1458,112.714],[30.7139,111.599],[31.5989,110.714],[32.7139,110.146],[33.95,109.95],[161.05,109.95],[298.05,111.15],[298.668,111.248],[299.226,111.532],[299.668,111.974],[299.952,112.532],[300.05,113.15],[300.05,216.05],[299.952,216.668],[299.668,217.226],[299.226,217.668],[298.668,217.952],[298.05,218.05],[161.05,220.05],[33.95,220.05],[32.7139,219.854],[31.5989,219.286],[30.7139,218.401],[30.1458,217.286],[29.95,216.05],[29.95,113.95]]
M73 P0 R118
;TYPE:Custom
START_PRINT T_BED=60 T_EXTRUDER=220
G90
G21
M83 ; use relative distances for extrusion
; filament start gcode

    PRESSURE_ADVANCE_SELECT FILAMENT=PLA
M106 S0
;LAYER_CHANGE
;Z:0.2
;HEIGHT:0.2
;BEFORE_LAYER_CHANGE
;0.2
G92 E0

M204 S1000
G1 E-.8 F3000
G1 X32.258 Y107.267 F9000
G1 Z.2
G1 E.8 F1800
;TYPE:Skirt
;WIDTH:0.5
G1 F3000
G1 X33.95 Y107.036 E.06361
G1 X161.076 Y107.036 E4.73497
G1 X298.087 Y108.271 E5.10332
G1 X299.114 Y108.401 E.03856
G1 X299.981 Y108.683 E.03396
G1 X300.529 Y108.962 E.02292
G1 X301.267 Y109.498 E.03396
G1 X301.702 Y109.933 E.02292
G1 X302.238 Y110.671 E.03396
G1 X302.517 Y111.219 E.02292
G1 X302.799 Y112.086 E.03395
G1 X302.931 Y113.15 E.03992
G1 X302.931 Y216.05 E3.83263
G1 X302.799 Y217.114 E.03992
G1 X302.517 Y217.981 E.03395
G1 X302.238 Y218.529 E.02292
G1 X301.702 Y219.267 E.03397
G1 X301.267 Y219.702 E.02292
G1 X300.529 Y220.238 E.03395
G1 X299.981 Y220.517 E.02292
G1 X299.114 Y220.799 E.03396
G1 X298.093 Y220.931 E.03832
G1 X161.05 Y222.964 E5.1049
G1 X33.95 Y222.964 E4.73399
G1 X32.258 Y222.733 E.06361
G1 X31.391 Y222.451 E.03396
G1 X30.276 Y221.883 E.04661
G1 X29.538 Y221.347 E.03396
G1 X28.653 Y220.462 E.04661
G1 X28.117 Y219.724 E.03396
G1 X27.549 Y218.609 E.04661
G1 X27.267 Y217.742 E.03396
G1 X27.036 Y216.05 E.06361
G1 X27.036 Y113.95 E3.80284
G1 X27.267 Y112.258 E.0636
G1 X27.549 Y111.391 E.03396
G1 X28.117 Y110.276 E.04661
G1 X28.653 Y109.538 E.03396
G1 X29.538 Y108.653 E.04661
G1 X30.276 Y108.117 E.03396
G1 X31.391 Y107.549 E.04661
G1 X32.201 Y107.286 E.03173
G1 X32.33 Y107.719 F9000
G1 F3000
G1 X33.95 Y107.493 E.06094
G1 X161.072 Y107.493 E4.73482
G1 X298.082 Y108.728 E5.10332
G1 X299.042 Y108.853 E.03605
G1 X299.773 Y109.09 E.02863
G1 X300.321 Y109.37 E.02292
G1 X300.943 Y109.821 E.02863
G1 X301.378 Y110.257 E.02292
G1 X301.83 Y110.879 E.02864
G1 X302.11 Y111.427 E.02292
G1 X302.347 Y112.158 E.02863
G1 X302.474 Y113.15 E.03725
G1 X302.474 Y216.05 E3.83263
G1 X302.347 Y217.042 E.03725
G1 X302.11 Y217.773 E.02863
G1 X301.83 Y218.321 E.02292
G1 X301.378 Y218.943 E.02864
G1 X300.943 Y219.379 E.02292
G1 X300.322 Y219.83 E.02863
G1 X299.773 Y220.11 E.02292
G1 X299.042 Y220.347 E.02864
G1 X298.086 Y220.473 E.0359
G1 X161.05 Y222.507 E5.10465
G1 X33.95 Y222.507 E4.73399
G1 X32.33 Y222.281 E.06094
G1 X31.598 Y222.043 E.02863
G1 X30.483 Y221.475 E.04661
G1 X29.861 Y221.023 E.02863
G1 X28.977 Y220.139 E.04661
G1 X28.525 Y219.517 E.02863
G1 X27.956 Y218.402 E.04661
G1 X27.719 Y217.67 E.02863
G1 X27.493 Y216.05 E.06094
G1 X27.493 Y113.95 E3.80284
G1 X27.719 Y112.33 E.06094
G1 X27.956 Y111.598 E.02863
G1 X28.525 Y110.483 E.04661
G1 X28.977 Y109.861 E.02863
G1 X29.861 Y108.977 E.04661
G1 X30.483 Y108.525 E.02863
G1 X31.598 Y107.957 E.04661
G1 X32.272 Y107.737 E.0264
; printing object BoxwithSliding_lid.stl id:0 copy 0
EXCLUDE_OBJECT_START NAME=BoxwithSliding_lid.stl_id_0_copy_0
G1 E-.8
G1 X164.602 Y113.359 F9000
G1 E.8 F1800
;TYPE:Outer wall
;WIDTH:0.499999
G1 F3000
G1 X164.651 Y113.667 E.01162
G3 X164.7 Y114.292 I-9.37 J1.052 E.02334
G1 X164.7 Y216.022 E3.78908
M73 P0 R117
G1 X164.517 Y217.177 E.04352
G1 X163.999 Y218.193 E.04248
G1 X163.193 Y218.999 E.04248
G1 X162.177 Y219.517 E.04248
G1 X161.022 Y219.7 E.04352
G1 X33.978 Y219.7 E4.73193
G1 X32.823 Y219.517 E.04352
G1 X31.807 Y218.999 E.04248
G1 X31.001 Y218.193 E.04248
G1 X30.483 Y217.177 E.04248
G1 X30.3 Y216.022 E.04352
G1 X30.3 Y113.978 E3.80078
G1 X30.483 Y112.823 E.04352
G1 X31.001 Y111.807 E.04248
G1 X31.807 Y111.001 E.04248
G1 X32.823 Y110.483 E.04248
G1 X33.978 Y110.3 E.04352
G1 X161.022 Y110.3 E4.73193
G1 X162.177 Y110.483 E.04352
G1 X163.193 Y111.001 E.04248
G1 X163.999 Y111.807 E.04248
G1 X164.517 Y112.823 E.04248
G1 X164.593 Y113.3 E.01796
G1 X164.556 Y113.402
G1 X164.151 Y113.43 F9000
;TYPE:Inner wall
G1 F3000
G1 X164.199 Y113.739 E.01162
G3 X164.243 Y114.292 I-8.459 J.944 E.02066
G1 X164.243 Y215.986 E3.78774
G1 X164.077 Y217.034 E.03949
G1 X163.625 Y217.921 E.03709
G1 X162.921 Y218.625 E.03709
G1 X162.034 Y219.077 E.03709
G1 X160.986 Y219.243 E.03949
G1 X34.014 Y219.243 E4.72925
G1 X32.966 Y219.077 E.03949
G1 X32.079 Y218.625 E.03709
G1 X31.375 Y217.921 E.03709
G1 X30.923 Y217.034 E.03709
G1 X30.757 Y215.986 E.03949
G1 X30.757 Y114.014 E3.7981
G1 X30.923 Y112.966 E.03949
G1 X31.375 Y112.079 E.03709
G1 X32.079 Y111.375 E.03709
G1 X32.966 Y110.923 E.03709
G1 X34.014 Y110.757 E.03949
G1 X160.986 Y110.757 E4.72925
G1 X162.034 Y110.923 E.03949
G1 X162.921 Y111.375 E.03709
G1 X163.625 Y112.079 E.03709
G1 X164.077 Y112.966 E.03709
G1 X164.141 Y113.371 E.01526
G1 X163.699 Y113.502 F9000
G1 F3000
G1 X163.748 Y113.81 E.01162
G3 X163.786 Y114.292 I-7.548 J.836 E.01799
G1 X163.786 Y215.951 E3.7864
G1 X163.637 Y216.891 E.03545
G1 X163.251 Y217.649 E.0317
G1 X162.649 Y218.251 E.0317
G1 X161.891 Y218.637 E.0317
G1 X160.951 Y218.786 E.03545
G1 X34.049 Y218.786 E4.72657
G1 X33.109 Y218.637 E.03545
G1 X32.351 Y218.251 E.0317
G1 X31.749 Y217.649 E.0317
G1 X31.363 Y216.891 E.0317
G1 X31.214 Y215.951 E.03545
G1 X31.214 Y114.049 E3.79542
G1 X31.363 Y113.109 E.03545
G1 X31.749 Y112.351 E.0317
G1 X32.351 Y111.749 E.0317
G1 X33.109 Y111.363 E.0317
G1 X34.049 Y111.214 E.03545
G1 X160.951 Y111.214 E4.72657
G1 X161.891 Y111.363 E.03545
G1 X162.649 Y111.749 E.0317
G1 X163.251 Y112.351 E.0317
G1 X163.637 Y113.109 E.0317
G1 X163.69 Y113.443 E.01257
G1 X163.233 Y113.536 F9000
G1 F3000
G1 X163.329 Y114.292 E.02836
G1 X163.329 Y215.915 E3.78506
G1 X163.197 Y216.748 E.03141
G1 X162.876 Y217.377 E.02631
G1 X162.377 Y217.876 E.0263
G1 X161.748 Y218.197 E.0263
G1 X160.915 Y218.329 E.03141
G1 X34.085 Y218.329 E4.72389
G1 X33.252 Y218.197 E.03141
G1 X32.623 Y217.876 E.0263
G1 X32.124 Y217.377 E.02631
G1 X31.803 Y216.748 E.02631
G1 X31.671 Y215.915 E.03141
G1 X31.671 Y114.085 E3.79274
G1 X31.803 Y113.252 E.03141
G1 X32.124 Y112.623 E.02631
G1 X32.623 Y112.124 E.02631
G1 X33.252 Y111.803 E.0263
G1 X34.085 Y111.671 E.03141
G1 X160.915 Y111.671 E4.72389
M73 P1 R117
G1 X161.748 Y111.803 E.03141
G1 X162.377 Y112.124 E.02631
G1 X162.876 Y112.623 E.0263
G1 X163.197 Y113.252 E.02631
G1 X163.225 Y113.477 E.00842
G1 E-.8
G1 X161.702 Y111.935 F9000
G1 E.8 F1800
;TYPE:Bottom surface
;WIDTH:0.501045
G1 F6300
G1 X162.596 Y112.829 E.0472
G1 X162.867 Y113.36 E.02224
G1 X162.94 Y113.82 E.0174
G1 X161.18 Y112.06 E.09291
G1 X161.065 Y112.042 E.00436
G2 X160.486 Y112.014 I-.378 J1.814 E.02173
G1 X162.986 Y114.514 E.132
G1 X162.986 Y115.162 E.02419
G1 X159.838 Y112.014 E.16621
G1 X159.19 Y112.014 E.02419
G1 X162.986 Y115.81 E.20041
G1 X162.986 Y116.458 E.02419
G1 X158.542 Y112.014 E.23462
G1 X157.894 Y112.014 E.02419
G1 X162.986 Y117.106 E.26882
G1 X162.986 Y117.754 E.02419
G1 X157.246 Y112.014 E.30303
G1 X156.598 Y112.014 E.02419
G1 X162.986 Y118.402 E.33723
G1 X162.986 Y119.05 E.02419
G1 X155.95 Y112.014 E.37144
G1 X155.303 Y112.014 E.02419
G1 X162.986 Y119.697 E.40564
G1 X162.986 Y120.345 E.02419
G1 X154.655 Y112.014 E.43985
G1 X154.007 Y112.014 E.02419
G1 X162.986 Y120.993 E.47405
G1 X162.986 Y121.641 E.02419
G1 X153.359 Y112.014 E.50826
G1 X152.711 Y112.014 E.02419
G1 X162.986 Y122.289 E.54246
G1 X162.986 Y122.937 E.02419
G1 X152.063 Y112.014 E.57667
G1 X151.415 Y112.014 E.02419
G1 X162.986 Y123.585 E.61087
G1 X162.986 Y124.233 E.02419
G1 X150.767 Y112.014 E.64508
G1 X150.119 Y112.014 E.02419
G1 X162.986 Y124.881 E.67928
G1 X162.986 Y125.528 E.02419
G1 X149.472 Y112.014 E.71349
G1 X148.824 Y112.014 E.02419
G1 X162.986 Y126.176 E.74769
G1 X162.986 Y126.824 E.02419
G1 X148.176 Y112.014 E.7819
G1 X147.528 Y112.014 E.02419
G1 X162.986 Y127.472 E.8161
G1 X162.986 Y128.12 E.02419
G1 X146.88 Y112.014 E.8503
G1 X146.232 Y112.014 E.02419
G1 X162.986 Y128.768 E.88451
G1 X162.986 Y129.416 E.02419
G1 X145.584 Y112.014 E.91871
G1 X144.936 Y112.014 E.02419
G1 X162.986 Y130.064 E.95292
G1 X162.986 Y130.711 E.02419
G1 X144.289 Y112.014 E.98712
G1 X143.641 Y112.014 E.02419
G1 X162.986 Y131.359 E1.02133
G1 X162.986 Y132.007 E.02419
G1 X142.993 Y112.014 E1.05553
G1 X142.345 Y112.014 E.02419
G1 X162.986 Y132.655 E1.08974
G1 X162.986 Y133.303 E.02419
G1 X141.697 Y112.014 E1.12394
G1 X141.049 Y112.014 E.02419
G1 X162.986 Y133.951 E1.15815
G1 X162.986 Y134.599 E.02419
G1 X140.401 Y112.014 E1.19235
G1 X139.753 Y112.014 E.02419
G1 X162.986 Y135.247 E1.22656
G1 X162.986 Y135.895 E.02419
G1 X139.105 Y112.014 E1.26076
G1 X138.458 Y112.014 E.02419
G1 X162.986 Y136.542 E1.29497
G1 X162.986 Y137.19 E.02419
G1 X137.81 Y112.014 E1.32917
G1 X137.162 Y112.014 E.02419
G1 X162.986 Y137.838 E1.36338
G1 X162.986 Y138.486 E.02419
G1 X136.514 Y112.014 E1.39758
G1 X135.866 Y112.014 E.02419
G1 X162.986 Y139.134 E1.43179
G1 X162.986 Y139.782 E.02419
G1 X135.218 Y112.014 E1.46599
G1 X134.57 Y112.014 E.02419
G1 X162.986 Y140.43 E1.5002
G1 X162.986 Y141.078 E.02419
G1 X133.922 Y112.014 E1.5344
G1 X133.274 Y112.014 E.02419
G1 X162.986 Y141.726 E1.56861
G1 X162.986 Y142.373 E.02419
G1 X132.627 Y112.014 E1.60281
G1 X131.979 Y112.014 E.02419
G1 X162.986 Y143.021 E1.63702
G1 X162.986 Y143.669 E.02419
G1 X131.331 Y112.014 E1.67122
G1 X130.683 Y112.014 E.02419
G1 X162.986 Y144.317 E1.70543
G1 X162.986 Y144.965 E.02419
G1 X130.035 Y112.014 E1.73963
G1 X129.387 Y112.014 E.02419
G1 X162.986 Y145.613 E1.77384
G1 X162.986 Y146.261 E.02419
G1 X128.739 Y112.014 E1.80804
G1 X128.091 Y112.014 E.02419
G1 X162.986 Y146.909 E1.84225
G1 X162.986 Y147.557 E.02419
G1 X127.443 Y112.014 E1.87645
G1 X126.796 Y112.014 E.02419
G1 X162.986 Y148.204 E1.91066
G1 X162.986 Y148.852 E.02419
G1 X126.148 Y112.014 E1.94486
G1 X125.5 Y112.014 E.02419
G1 X162.986 Y149.5 E1.97907
G1 X162.986 Y150.148 E.02419
G1 X124.852 Y112.014 E2.01327
M73 P1 R116
G1 X124.204 Y112.014 E.02419
G1 X162.986 Y150.796 E2.04748
G1 X162.986 Y151.444 E.02419
G1 X123.556 Y112.014 E2.08168
G1 X122.908 Y112.014 E.02419
G1 X162.986 Y152.092 E2.11589
G1 X162.986 Y152.74 E.02419
G1 X122.26 Y112.014 E2.15009
G1 X121.612 Y112.014 E.02419
G1 X162.986 Y153.388 E2.1843
G1 X162.986 Y154.035 E.02419
G1 X120.965 Y112.014 E2.2185
G1 X120.317 Y112.014 E.02419
G1 X162.986 Y154.683 E2.2527
G1 X162.986 Y155.331 E.02419
G1 X119.669 Y112.014 E2.28691
G1 X119.021 Y112.014 E.02419
G1 X162.986 Y155.979 E2.32111
G1 X162.986 Y156.627 E.02419
G1 X118.373 Y112.014 E2.35532
G1 X117.725 Y112.014 E.02419
G1 X162.986 Y157.275 E2.38952
G1 X162.986 Y157.923 E.02419
G1 X117.077 Y112.014 E2.42373
G1 X116.429 Y112.014 E.02419
G1 X162.986 Y158.571 E2.45793
G1 X162.986 Y159.219 E.02419
G1 X115.781 Y112.014 E2.49214
G1 X115.134 Y112.014 E.02419
G1 X162.986 Y159.866 E2.52634
G1 X162.986 Y160.514 E.02419
G1 X114.486 Y112.014 E2.56055
G1 X113.838 Y112.014 E.02419
G1 X162.986 Y161.162 E2.59475
G1 X162.986 Y161.81 E.02419
G1 X113.19 Y112.014 E2.62896
G1 X112.542 Y112.014 E.02419
G1 X162.986 Y162.458 E2.66316
G1 X162.986 Y163.106 E.02419
G1 X111.894 Y112.014 E2.69737
G1 X111.246 Y112.014 E.02419
G1 X162.986 Y163.754 E2.73157
G1 X162.986 Y164.402 E.02419
G1 X110.598 Y112.014 E2.76578
G1 X109.951 Y112.014 E.02419
G1 X162.986 Y165.049 E2.79998
G1 X162.986 Y165.697 E.02419
G1 X109.303 Y112.014 E2.83419
G1 X108.655 Y112.014 E.02419
G1 X162.986 Y166.345 E2.86839
G1 X162.986 Y166.993 E.02419
G1 X108.007 Y112.014 E2.9026
G1 X107.359 Y112.014 E.02419
G1 X162.986 Y167.641 E2.9368
G1 X162.986 Y168.289 E.02419
G1 X106.711 Y112.014 E2.97101
G1 X106.063 Y112.014 E.02419
G1 X162.986 Y168.937 E3.00521
G1 X162.986 Y169.585 E.02419
G1 X105.415 Y112.014 E3.03942
G1 X104.767 Y112.014 E.02419
G1 X162.986 Y170.233 E3.07362
G1 X162.986 Y170.88 E.02419
G1 X104.12 Y112.014 E3.10783
G1 X103.472 Y112.014 E.02419
G1 X162.986 Y171.528 E3.14203
G1 X162.986 Y172.176 E.02419
G1 X102.824 Y112.014 E3.17624
G1 X102.176 Y112.014 E.02419
G1 X162.986 Y172.824 E3.21044
G1 X162.986 Y173.472 E.02419
G1 X101.528 Y112.014 E3.24465
G1 X100.88 Y112.014 E.02419
G1 X162.986 Y174.12 E3.27885
G1 X162.986 Y174.768 E.02419
G1 X100.232 Y112.014 E3.31306
G1 X99.584 Y112.014 E.02419
G1 X162.986 Y175.416 E3.34726
G1 X162.986 Y176.064 E.02419
G1 X98.936 Y112.014 E3.38147
G1 X98.289 Y112.014 E.02419
G1 X162.986 Y176.711 E3.41567
G1 X162.986 Y177.359 E.02419
G1 X97.641 Y112.014 E3.44988
G1 X96.993 Y112.014 E.02419
G1 X162.986 Y178.007 E3.48408
G1 X162.986 Y178.655 E.02419
G1 X96.345 Y112.014 E3.51829
G1 X95.697 Y112.014 E.02419
G1 X162.986 Y179.303 E3.55249
G1 X162.986 Y179.951 E.02419
G1 X95.049 Y112.014 E3.5867
G1 X94.401 Y112.014 E.02419
G1 X162.986 Y180.599 E3.6209
G1 X162.986 Y181.247 E.02419
G1 X93.753 Y112.014 E3.6551
G1 X93.105 Y112.014 E.02419
G1 X162.986 Y181.895 E3.68931
G1 X162.986 Y182.542 E.02419
G1 X92.458 Y112.014 E3.72351
G1 X91.81 Y112.014 E.02419
G1 X162.986 Y183.19 E3.75772
G1 X162.986 Y183.838 E.02419
G1 X91.162 Y112.014 E3.79192
G1 X90.514 Y112.014 E.02419
G1 X162.986 Y184.486 E3.82613
G1 X162.986 Y185.134 E.02419
G1 X89.866 Y112.014 E3.86033
G1 X89.218 Y112.014 E.02419
G1 X162.986 Y185.782 E3.89454
M73 P2 R116
G1 X162.986 Y186.43 E.02419
G1 X88.57 Y112.014 E3.92874
G1 X87.922 Y112.014 E.02419
G1 X162.986 Y187.078 E3.96295
G1 X162.986 Y187.726 E.02419
G1 X87.274 Y112.014 E3.99715
G1 X86.627 Y112.014 E.02419
G1 X162.986 Y188.373 E4.03136
G1 X162.986 Y189.021 E.02419
G1 X85.979 Y112.014 E4.06556
G1 X85.331 Y112.014 E.02419
G1 X162.986 Y189.669 E4.09977
G1 X162.986 Y190.317 E.02419
G1 X84.683 Y112.014 E4.13397
G1 X84.035 Y112.014 E.02419
G1 X162.986 Y190.965 E4.16818
G1 X162.986 Y191.613 E.02419
G1 X83.387 Y112.014 E4.20238
G1 X82.739 Y112.014 E.02419
G1 X162.986 Y192.261 E4.23659
M73 P2 R115
G1 X162.986 Y192.909 E.02419
G1 X82.091 Y112.014 E4.27079
G1 X81.444 Y112.014 E.02419
G1 X162.986 Y193.556 E4.305
G1 X162.986 Y194.204 E.02419
G1 X80.796 Y112.014 E4.3392
G1 X80.148 Y112.014 E.02419
G1 X162.986 Y194.852 E4.37341
G1 X162.986 Y195.5 E.02419
G1 X79.5 Y112.014 E4.40761
G1 X78.852 Y112.014 E.02419
G1 X162.986 Y196.148 E4.44182
G1 X162.986 Y196.796 E.02419
G1 X78.204 Y112.014 E4.47602
G1 X77.556 Y112.014 E.02419
G1 X162.986 Y197.444 E4.51023
G1 X162.986 Y198.092 E.02419
G1 X76.908 Y112.014 E4.54443
G1 X76.26 Y112.014 E.02419
G1 X162.986 Y198.74 E4.57864
G1 X162.986 Y199.387 E.02419
G1 X75.613 Y112.014 E4.61284
G1 X74.965 Y112.014 E.02419
G1 X162.986 Y200.035 E4.64705
G1 X162.986 Y200.683 E.02419
G1 X74.317 Y112.014 E4.68125
G1 X73.669 Y112.014 E.02419
G1 X162.986 Y201.331 E4.71546
G1 X162.986 Y201.979 E.02419
G1 X73.021 Y112.014 E4.74966
G1 X72.373 Y112.014 E.02419
G1 X162.986 Y202.627 E4.78387
G1 X162.986 Y203.275 E.02419
G1 X71.725 Y112.014 E4.81807
G1 X71.077 Y112.014 E.02419
G1 X162.986 Y203.923 E4.85228
G1 X162.986 Y204.571 E.02419
G1 X70.429 Y112.014 E4.88648
G1 X69.782 Y112.014 E.02419
G1 X162.986 Y205.218 E4.92069
G1 X162.986 Y205.866 E.02419
G1 X69.134 Y112.014 E4.95489
G1 X68.486 Y112.014 E.02419
G1 X162.986 Y206.514 E4.9891
G1 X162.986 Y207.162 E.02419
G1 X67.838 Y112.014 E5.0233
G1 X67.19 Y112.014 E.02419
G1 X162.986 Y207.81 E5.0575
G1 X162.986 Y208.458 E.02419
G1 X66.542 Y112.014 E5.09171
G1 X65.894 Y112.014 E.02419
G1 X162.986 Y209.106 E5.12591
G1 X162.986 Y209.754 E.02419
G1 X65.246 Y112.014 E5.16012
G1 X64.598 Y112.014 E.02419
