; HEADER_BLOCK_START
; generated by OrcaSlicer 1.6.3 on 2023-07-16 at 20:31:10
; total layer number: 65
; HEADER_BLOCK_END

; THUMBNAIL_BLOCK_START
; THUMBNAIL_BLOCK_END

; external perimeters extrusion width = 0.40mm
; perimeters extrusion width = 0.45mm
; infill extrusion width = 0.45mm
; solid infill extrusion width = 0.40mm
; top infill extrusion width = 0.40mm
; first layer extrusion width = 0.50mm

; EXECUTABLE_BLOCK_START
EXCLUDE_OBJECT_DEFINE NAME=BoxwithSliding_lid.stl_id_0_copy_0 CENTER=165,165 POLYGON=[[109.95,33.95],[110.146,32.7139],[110.714,31.5989],[111.599,30.7139],[112.714,30.1458],[113.95,29.95],[216.05,29.95],[217.286,30.1458],[218.401,30.7139],[219.286,31.5989],[219.854,32.7139],[220.05,33.95],[220.05,161.05],[218.85,298.05],[218.752,298.668],[218.468,299.226],[218.026,299.668],[217.468,299.952],[216.85,300.05],[113.95,300.05],[113.332,299.952],[112.774,299.668],[112.332,299.226],[112.048,298.668],[111.95,298.05],[109.95,161.05],[109.95,33.95]]
M73 P0 R117
;TYPE:Custom
START_PRINT T_BED=60 T_EXTRUDER=220
G90
G21
M83 ; use relative distances for extrusion
; filament start gcode

    PRESSURE_ADVANCE_SELECT FILAMENT=PLA
M106 S0
;LAYER_CHANGE
;Z:0.2
;HEIGHT:0.2
;BEFORE_LAYER_CHANGE
;0.2
G92 E0

M204 S1000
G1 E-.8 F3000
G1 X107.267 Y32.258 F9000
G1 Z.2
G1 E.8 F1800
;TYPE:Skirt
;WIDTH:0.5
G1 F3000
G1 X107.549 Y31.391 E.03396
G1 X108.117 Y30.276 E.04661
G1 X108.653 Y29.538 E.03396
G1 X109.538 Y28.653 E.04661
G1 X110.276 Y28.117 E.03396
G1 X111.391 Y27.549 E.04661
G1 X112.258 Y27.267 E.03396
G1 X113.95 Y27.036 E.06361
G1 X216.059 Y27.037 E3.80317
G1 X217.742 Y27.267 E.06327
G1 X218.609 Y27.549 E.03396
G1 X219.724 Y28.117 E.04661
G1 X220.462 Y28.653 E.03396
G1 X221.347 Y29.538 E.04661
G1 X221.883 Y30.276 E.03396
G1 X222.451 Y31.391 E.04661
G1 X222.733 Y32.258 E.03396
G1 X222.964 Y33.95 E.06361
G1 X222.964 Y161.076 E4.73497
G1 X221.731 Y298.076 E5.10294
G1 X221.599 Y299.114 E.03895
G1 X221.317 Y299.981 E.03396
G1 X221.038 Y300.529 E.02292
G1 X220.502 Y301.267 E.03396
G1 X220.067 Y301.702 E.02292
G1 X219.329 Y302.238 E.03396
G1 X218.781 Y302.517 E.02292
G1 X217.914 Y302.799 E.03395
G1 X216.85 Y302.931 E.03992
G1 X113.95 Y302.931 E3.83263
G1 X112.886 Y302.799 E.03992
G1 X112.019 Y302.517 E.03395
G1 X111.471 Y302.238 E.02292
G1 X110.733 Y301.702 E.03397
G1 X110.298 Y301.267 E.02292
G1 X109.762 Y300.529 E.03395
G1 X109.483 Y299.981 E.02292
G1 X109.201 Y299.114 E.03396
G1 X109.069 Y298.093 E.03832
G1 X107.036 Y161.05 E5.1049
G1 X107.036 Y33.95 E4.73399
G1 X107.259 Y32.317 E.06137
G1 X107.712 Y32.381 F9000
G1 F3000
G1 X107.719 Y32.33 E.00192
G1 X107.957 Y31.598 E.02863
G1 X108.525 Y30.483 E.04661
G1 X108.977 Y29.861 E.02863
G1 X109.861 Y28.977 E.04661
G1 X110.483 Y28.525 E.02863
G1 X111.598 Y27.956 E.04661
G1 X112.33 Y27.719 E.02863
G1 X113.95 Y27.493 E.06094
G1 X216.059 Y27.494 E3.80317
G1 X217.67 Y27.719 E.0606
G1 X218.402 Y27.956 E.02863
G1 X219.517 Y28.525 E.04661
G1 X220.139 Y28.977 E.02863
G1 X221.023 Y29.861 E.04661
G1 X221.475 Y30.483 E.02863
G1 X222.043 Y31.598 E.04661
G1 X222.281 Y32.33 E.02863
G1 X222.507 Y33.95 E.06094
G1 X222.507 Y161.072 E4.73482
G1 X221.274 Y298.072 E5.10294
G1 X221.147 Y299.042 E.03644
G1 X220.91 Y299.773 E.02863
G1 X220.63 Y300.321 E.02292
G1 X220.179 Y300.943 E.02863
G1 X219.743 Y301.378 E.02292
G1 X219.121 Y301.83 E.02864
G1 X218.573 Y302.11 E.02292
G1 X217.842 Y302.347 E.02863
G1 X216.85 Y302.474 E.03725
G1 X113.95 Y302.474 E3.83263
G1 X112.958 Y302.347 E.03725
G1 X112.227 Y302.11 E.02863
G1 X111.679 Y301.83 E.02292
G1 X111.057 Y301.378 E.02864
G1 X110.621 Y300.943 E.02292
G1 X110.17 Y300.322 E.02863
G1 X109.89 Y299.773 E.02292
G1 X109.653 Y299.042 E.02864
G1 X109.527 Y298.086 E.0359
G1 X107.493 Y161.05 E5.10465
G1 X107.493 Y33.95 E4.73399
G1 X107.704 Y32.44 E.05679
; printing object BoxwithSliding_lid.stl id:0 copy 0
EXCLUDE_OBJECT_START NAME=BoxwithSliding_lid.stl_id_0_copy_0
G1 E-.8
G1 X217.348 Y169.417 F9000
G1 E.8 F1800
;TYPE:Outer wall
;WIDTH:0.499999
G1 F3000
G1 X217.798 Y169.646 E.01879
G1 X218.154 Y170.002 E.01879
G1 X218.383 Y170.452 E.01879
G1 X218.467 Y171.118 E.025
G1 X218.467 Y298.022 E4.72671
M73 P0 R116
G1 X218.383 Y298.548 E.01983
G1 X218.154 Y298.998 E.01879
G1 X217.798 Y299.354 E.01879
G1 X217.348 Y299.583 E.01879
G1 X216.822 Y299.667 E.01983
G1 X113.978 Y299.667 E3.83058
G1 X113.452 Y299.583 E.01983
G1 X113.002 Y299.354 E.01879
G1 X112.646 Y298.998 E.01879
G1 X112.417 Y298.548 E.01879
G1 X112.333 Y298.022 E.01983
G1 X112.333 Y170.978 E4.73193
G1 X112.417 Y170.452 E.01983
G1 X112.646 Y170.002 E.01879
G1 X113.002 Y169.646 E.01879
G1 X113.452 Y169.417 E.01879
G1 X113.978 Y169.333 E.01983
G1 X216.833 Y169.335 E3.83096
G1 X217.289 Y169.407 E.0172
G1 X217.365 Y169.495
G1 X217.205 Y169.857 F9000
;TYPE:Inner wall
G1 F3000
G1 X217.526 Y170.02 E.0134
G1 X217.78 Y170.274 E.0134
G1 X217.943 Y170.595 E.0134
G1 X218.01 Y171.118 E.01964
G1 X218.01 Y297.882 E4.72147
G1 X217.943 Y298.405 E.01964
G1 X217.78 Y298.726 E.0134
G1 X217.526 Y298.98 E.0134
G1 X217.205 Y299.143 E.0134
G1 X216.786 Y299.21 E.01579
G1 X114.118 Y299.21 E3.824
G1 X113.595 Y299.143 E.01965
G1 X113.274 Y298.98 E.0134
G1 X113.02 Y298.726 E.0134
G1 X112.857 Y298.405 E.0134
G1 X112.79 Y297.986 E.01579
G1 X112.79 Y171.118 E4.72536
G1 X112.857 Y170.595 E.01964
G1 X113.02 Y170.274 E.0134
G1 X113.274 Y170.02 E.0134
G1 X113.595 Y169.857 E.0134
G1 X114.014 Y169.79 E.01579
G1 X216.693 Y169.792 E3.82443
G1 X217.146 Y169.849 E.01698
G1 X217.062 Y170.297 F9000
G1 F3000
G1 X217.33 Y170.47 E.01187
G1 X217.503 Y170.738 E.01187
G1 X217.553 Y171.118 E.01428
G1 X217.553 Y297.882 E4.72147
G3 X217.406 Y298.454 I-1.199 J-.003 E.02221
G1 X217.158 Y298.654 E.01187
G1 X216.75 Y298.753 E.01561
G1 X114.118 Y298.753 E3.82266
G1 X113.738 Y298.703 E.01428
G1 X113.47 Y298.53 E.01187
G1 X113.297 Y298.262 E.01187
G1 X113.247 Y297.951 E.01175
G1 X113.247 Y171.118 E4.72402
G3 X113.394 Y170.546 I1.199 J.003 E.02221
G1 X113.642 Y170.346 E.01187
G1 X114.049 Y170.247 E.01561
G1 X216.684 Y170.249 E3.82273
G1 X217.003 Y170.289 E.01197
G1 X216.885 Y170.732 F9000
G1 F3000
G3 X217.031 Y170.818 I-.156 J.431 E.00638
G1 X217.095 Y171.118 E.01141
G1 X217.095 Y297.882 E4.72147
G3 X216.982 Y298.231 I-.467 J.041 E.01406
G1 X216.715 Y298.295 E.01023
G1 X114.118 Y298.295 E3.82132
G3 X113.769 Y298.182 I-.041 J-.467 E.01406
G1 X113.705 Y297.915 E.01023
G1 X113.705 Y171.118 E4.72268
G3 X113.818 Y170.769 I.467 J-.041 E.01406
G1 X114.085 Y170.705 E.01023
G1 X216.684 Y170.706 E3.82139
M73 P1 R116
G3 X216.827 Y170.715 I.045 J.456 E.00537
G1 X216.958 Y171.842 F9000
;TYPE:Bottom surface
;WIDTH:0.500501
G1 F6300
G1 X216.165 Y171.049 E.04182
G1 X215.518 Y171.049 E.02413
G1 X216.753 Y172.284 E.0651
G1 X216.753 Y172.931 E.02413
G1 X214.871 Y171.049 E.09922
G1 X214.224 Y171.049 E.02413
G1 X216.753 Y173.578 E.13335
G1 X216.753 Y174.225 E.02413
G1 X213.577 Y171.049 E.16747
G1 X212.93 Y171.049 E.02413
G1 X216.753 Y174.872 E.2016
G1 X216.753 Y175.519 E.02413
G1 X212.282 Y171.049 E.23572
G1 X211.635 Y171.049 E.02413
G1 X216.753 Y176.166 E.26985
G1 X216.753 Y176.813 E.02413
G1 X210.988 Y171.049 E.30397
G1 X210.341 Y171.049 E.02413
G1 X216.753 Y177.46 E.33809
G1 X216.753 Y178.108 E.02413
G1 X209.694 Y171.049 E.37222
G1 X209.047 Y171.049 E.02413
G1 X216.753 Y178.755 E.40634
G1 X216.753 Y179.402 E.02413
G1 X208.4 Y171.049 E.44047
G1 X207.753 Y171.049 E.02413
G1 X216.753 Y180.049 E.47459
G1 X216.753 Y180.696 E.02413
G1 X207.105 Y171.049 E.50872
G1 X206.458 Y171.049 E.02413
G1 X216.753 Y181.343 E.54284
G1 X216.753 Y181.99 E.02413
G1 X205.811 Y171.049 E.57696
G1 X205.164 Y171.049 E.02413
G1 X216.753 Y182.637 E.61109
G1 X216.753 Y183.285 E.02413
G1 X204.517 Y171.049 E.64521
G1 X203.87 Y171.049 E.02413
G1 X216.753 Y183.932 E.67934
G1 X216.753 Y184.579 E.02413
G1 X203.223 Y171.049 E.71346
G1 X202.576 Y171.049 E.02413
G1 X216.753 Y185.226 E.74759
G1 X216.753 Y185.873 E.02413
G1 X201.928 Y171.049 E.78171
G1 X201.281 Y171.049 E.02413
G1 X216.753 Y186.52 E.81583
G1 X216.753 Y187.167 E.02413
G1 X200.634 Y171.049 E.84996
G1 X199.987 Y171.049 E.02413
G1 X216.753 Y187.814 E.88408
G1 X216.753 Y188.461 E.02413
G1 X199.34 Y171.049 E.91821
G1 X198.693 Y171.049 E.02413
G1 X216.753 Y189.109 E.95233
G1 X216.753 Y189.756 E.02413
G1 X198.046 Y171.049 E.98645
G1 X197.399 Y171.049 E.02413
G1 X216.753 Y190.403 E1.02058
G1 X216.753 Y191.05 E.02413
G1 X196.751 Y171.049 E1.0547
G1 X196.104 Y171.049 E.02413
G1 X216.753 Y191.697 E1.08883
G1 X216.753 Y192.344 E.02413
G1 X195.457 Y171.049 E1.12295
G1 X194.81 Y171.049 E.02413
G1 X216.753 Y192.991 E1.15708
G1 X216.753 Y193.638 E.02413
G1 X194.163 Y171.049 E1.1912
G1 X193.516 Y171.049 E.02413
G1 X216.753 Y194.286 E1.22532
G1 X216.753 Y194.933 E.02413
G1 X192.869 Y171.049 E1.25945
G1 X192.222 Y171.049 E.02413
G1 X216.753 Y195.58 E1.29357
G1 X216.753 Y196.227 E.02413
G1 X191.574 Y171.049 E1.3277
G1 X190.927 Y171.049 E.02413
G1 X216.753 Y196.874 E1.36182
G1 X216.753 Y197.521 E.02413
G1 X190.28 Y171.049 E1.39595
G1 X189.633 Y171.049 E.02413
G1 X216.753 Y198.168 E1.43007
G1 X216.753 Y198.815 E.02413
G1 X188.986 Y171.049 E1.46419
G1 X188.339 Y171.049 E.02413
G1 X216.753 Y199.462 E1.49832
G1 X216.753 Y200.11 E.02413
G1 X187.692 Y171.049 E1.53244
G1 X187.044 Y171.049 E.02413
G1 X216.753 Y200.757 E1.56657
G1 X216.753 Y201.404 E.02413
G1 X186.397 Y171.049 E1.60069
G1 X185.75 Y171.048 E.02413
G1 X216.753 Y202.051 E1.63482
G1 X216.753 Y202.698 E.02413
G1 X185.103 Y171.048 E1.66894
G1 X184.456 Y171.048 E.02413
G1 X216.753 Y203.345 E1.70306
G1 X216.753 Y203.992 E.02413
G1 X183.809 Y171.048 E1.73719
G1 X183.162 Y171.048 E.02413
G1 X216.753 Y204.639 E1.77131
G1 X216.753 Y205.287 E.02413
G1 X182.515 Y171.048 E1.80544
G1 X181.867 Y171.048 E.02413
G1 X216.753 Y205.934 E1.83956
G1 X216.753 Y206.581 E.02413
G1 X181.22 Y171.048 E1.87368
G1 X180.573 Y171.048 E.02413
G1 X216.753 Y207.228 E1.90781
G1 X216.753 Y207.875 E.02413
G1 X179.926 Y171.048 E1.94193
G1 X179.279 Y171.048 E.02413
G1 X216.753 Y208.522 E1.97606
G1 X216.753 Y209.169 E.02413
G1 X178.632 Y171.048 E2.01018
G1 X177.985 Y171.048 E.02413
G1 X216.753 Y209.816 E2.04431
M73 P1 R115
G1 X216.753 Y210.463 E.02413
G1 X177.338 Y171.048 E2.07843
G1 X176.69 Y171.048 E.02413
G1 X216.753 Y211.111 E2.11255
G1 X216.753 Y211.758 E.02413
G1 X176.043 Y171.048 E2.14668
G1 X175.396 Y171.048 E.02413
G1 X216.753 Y212.405 E2.1808
G1 X216.753 Y213.052 E.02413
G1 X174.749 Y171.048 E2.21493
G1 X174.102 Y171.048 E.02413
G1 X216.753 Y213.699 E2.24905
G1 X216.753 Y214.346 E.02413
G1 X173.455 Y171.048 E2.28318
G1 X172.808 Y171.048 E.02413
G1 X216.753 Y214.993 E2.3173
G1 X216.753 Y215.64 E.02413
G1 X172.161 Y171.048 E2.35142
G1 X171.513 Y171.048 E.02413
G1 X216.753 Y216.287 E2.38555
G1 X216.753 Y216.935 E.02413
G1 X170.866 Y171.048 E2.41967
G1 X170.219 Y171.048 E.02413
G1 X216.753 Y217.582 E2.4538
G1 X216.753 Y218.229 E.02413
G1 X169.572 Y171.048 E2.48792
G1 X168.925 Y171.048 E.02413
G1 X216.753 Y218.876 E2.52205
G1 X216.753 Y219.523 E.02413
G1 X168.278 Y171.048 E2.55617
G1 X167.631 Y171.048 E.02413
G1 X216.753 Y220.17 E2.59029
G1 X216.753 Y220.817 E.02413
G1 X166.984 Y171.048 E2.62442
G1 X166.336 Y171.048 E.02413
G1 X216.753 Y221.464 E2.65854
G1 X216.753 Y222.112 E.02413
G1 X165.689 Y171.048 E2.69267
G1 X165.042 Y171.048 E.02413
G1 X216.753 Y222.759 E2.72679
G1 X216.753 Y223.406 E.02413
G1 X164.395 Y171.048 E2.76092
G1 X163.748 Y171.048 E.02413
G1 X216.753 Y224.053 E2.79504
G1 X216.753 Y224.7 E.02413
G1 X163.101 Y171.048 E2.82916
G1 X162.454 Y171.048 E.02413
G1 X216.753 Y225.347 E2.86329
G1 X216.753 Y225.994 E.02413
G1 X161.807 Y171.048 E2.89741
G1 X161.159 Y171.048 E.02413
G1 X216.753 Y226.641 E2.93154
G1 X216.753 Y227.288 E.02413
G1 X160.512 Y171.048 E2.96566
G1 X159.865 Y171.048 E.02413
G1 X216.753 Y227.936 E2.99978
G1 X216.753 Y228.583 E.02413
G1 X159.218 Y171.048 E3.03391
G1 X158.571 Y171.048 E.02413
G1 X216.753 Y229.23 E3.06803
G1 X216.753 Y229.877 E.02413
G1 X157.924 Y171.048 E3.10216
G1 X157.277 Y171.048 E.02413
G1 X216.753 Y230.524 E3.13628
G1 X216.753 Y231.171 E.02413
G1 X156.629 Y171.048 E3.17041
G1 X155.982 Y171.048 E.02413
G1 X216.753 Y231.818 E3.20453
G1 X216.753 Y232.465 E.02413
G1 X155.335 Y171.048 E3.23865
G1 X154.688 Y171.048 E.02413
G1 X216.753 Y233.113 E3.27278
G1 X216.753 Y233.76 E.02413
G1 X154.041 Y171.048 E3.3069
G1 X153.394 Y171.048 E.02413
G1 X216.753 Y234.407 E3.34103
G1 X216.753 Y235.054 E.02413
G1 X152.747 Y171.048 E3.37515
G1 X152.1 Y171.048 E.02413
G1 X216.753 Y235.701 E3.40928
G1 X216.753 Y236.348 E.02413
G1 X151.452 Y171.048 E3.4434
G1 X150.805 Y171.048 E.02413
G1 X216.753 Y236.995 E3.47752
G1 X216.753 Y237.642 E.02413
G1 X150.158 Y171.048 E3.51165
G1 X149.511 Y171.048 E.02413
G1 X216.753 Y238.289 E3.54577
G1 X216.753 Y238.937 E.02413
G1 X148.864 Y171.048 E3.5799
G1 X148.217 Y171.048 E.02413
G1 X216.753 Y239.584 E3.61402
G1 X216.753 Y240.231 E.02413
G1 X147.57 Y171.048 E3.64815
G1 X146.923 Y171.048 E.02413
G1 X216.753 Y240.878 E3.68227
G1 X216.753 Y241.525 E.02413
G1 X146.275 Y171.048 E3.71639
G1 X145.628 Y171.048 E.02413
G1 X216.753 Y242.172 E3.75052
G1 X216.753 Y242.819 E.02413
G1 X144.981 Y171.048 E3.78464
G1 X144.334 Y171.048 E.02413
G1 X216.753 Y243.466 E3.81877
G1 X216.753 Y244.114 E.02413
G1 X143.687 Y171.048 E3.85289
G1 X143.04 Y171.048 E.02413
G1 X216.753 Y244.761 E3.88702
M73 P2 R115
G1 X216.753 Y245.408 E.02413
G1 X142.393 Y171.048 E3.92114
G1 X141.746 Y171.048 E.02413
G1 X216.753 Y246.055 E3.95526
G1 X216.753 Y246.702 E.02413
G1 X141.098 Y171.048 E3.98939
G1 X140.451 Y171.048 E.02413
G1 X216.753 Y247.349 E4.02351
G1 X216.753 Y247.996 E.02413
G1 X139.804 Y171.048 E4.05764
G1 X139.157 Y171.048 E.02413
G1 X216.753 Y248.643 E4.09176
G1 X216.753 Y249.29 E.02413
G1 X138.51 Y171.048 E4.12588
G1 X137.863 Y171.048 E.02413
G1 X216.753 Y249.938 E4.16001
G1 X216.753 Y250.585 E.02413
G1 X137.216 Y171.048 E4.19413
G1 X136.569 Y171.048 E.02413
G1 X216.753 Y251.232 E4.22826
G1 X216.753 Y251.879 E.02413
G1 X135.921 Y171.048 E4.26238
M73 P2 R114
G1 X135.274 Y171.048 E.02413
G1 X216.753 Y252.526 E4.29651
G1 X216.753 Y253.173 E.02413
G1 X134.627 Y171.048 E4.33063
G1 X133.98 Y171.048 E.02413
G1 X216.753 Y253.82 E4.36475
G1 X216.753 Y254.467 E.02413
G1 X133.333 Y171.048 E4.39888
G1 X132.686 Y171.048 E.02413
G1 X216.753 Y255.115 E4.433
G1 X216.753 Y255.762 E.02413
G1 X132.039 Y171.048 E4.46713
G1 X131.392 Y171.048 E.02413
G1 X216.753 Y256.409 E4.50125
G1 X216.753 Y257.056 E.02413
G1 X130.744 Y171.048 E4.53538
G1 X130.097 Y171.048 E.02413
G1 X216.753 Y257.703 E4.5695
G1 X216.753 Y258.35 E.02413
G1 X129.45 Y171.048 E4.60362
G1 X128.803 Y171.048 E.02413
G1 X216.753 Y258.997 E4.63775
G1 X216.753 Y259.644 E.02413
G1 X128.156 Y171.048 E4.67187
G1 X127.509 Y171.048 E.02413
G1 X216.753 Y260.291 E4.706
G1 X216.753 Y260.939 E.02413
G1 X126.862 Y171.048 E4.74012
G1 X126.214 Y171.048 E.02413
G1 X216.753 Y261.586 E4.77425
G1 X216.753 Y262.233 E.02413
G1 X125.567 Y171.048 E4.80837
G1 X124.92 Y171.048 E.02413
G1 X216.753 Y262.88 E4.84249
G1 X216.753 Y263.527 E.02413
G1 X124.273 Y171.048 E4.87662
G1 X123.626 Y171.048 E.02413
G1 X216.753 Y264.174 E4.91074
G1 X216.753 Y264.821 E.02413
G1 X122.979 Y171.047 E4.94487
G1 X122.332 Y171.047 E.02413
G1 X216.753 Y265.468 E4.97899
G1 X216.753 Y266.116 E.02413
G1 X121.685 Y171.047 E5.01311
G1 X121.037 Y171.047 E.02413
G1 X216.753 Y266.763 E5.04724
G1 X216.753 Y267.41 E.02413
G1 X120.39 Y171.047 E5.08136
G1 X119.743 Y171.047 E.02413
G1 X216.753 Y268.057 E5.11549
G1 X216.753 Y268.704 E.02413
G1 X119.096 Y171.047 E5.14961
G1 X118.449 Y171.047 E.02413
G1 X216.753 Y269.351 E5.18374
G1 X216.753 Y269.998 E.02413
G1 X117.802 Y171.047 E5.21786
G1 X117.155 Y171.047 E.02413
G1 X216.753 Y270.645 E5.25198
G1 X216.753 Y271.292 E.02413
G1 X116.508 Y171.047 E5.28611
G1 X115.86 Y171.047 E.02413
G1 X216.753 Y271.94 E5.32023
G1 X216.753 Y272.587 E.02413
G1 X115.213 Y171.047 E5.35436
G1 X114.566 Y171.047 E.02413
G1 X216.753 Y273.234 E5.38848
G1 X216.753 Y273.881 E.02413
G1 X114.047 Y171.176 E5.41584
G1 X114.047 Y171.823 E.02413
G1 X216.753 Y274.528 E5.41584
G1 X216.753 Y275.175 E.02413
