; HEADER_BLOCK_START
; generated by OrcaSlicer 1.7.0-beta on 2023-09-30 at 17:36:35
; total layer number: 195
; HEADER_BLOCK_END

; THUMBNAIL_BLOCK_START
; THUMBNAIL_BLOCK_END

; external perimeters extrusion width = 0.40mm
; perimeters extrusion width = 0.46mm
; infill extrusion width = 0.64mm
; solid infill extrusion width = 0.56mm
; top infill extrusion width = 0.40mm
; first layer extrusion width = 0.50mm

; external perimeters extrusion width = 0.40mm
; perimeters extrusion width = 0.46mm
; infill extrusion width = 0.64mm
; solid infill extrusion width = 0.56mm
; top infill extrusion width = 0.40mm
; first layer extrusion width = 0.50mm

; external perimeters extrusion width = 0.40mm
; perimeters extrusion width = 0.46mm
; infill extrusion width = 0.64mm
; solid infill extrusion width = 0.56mm
; top infill extrusion width = 0.40mm
; first layer extrusion width = 0.50mm

; external perimeters extrusion width = 0.40mm
; perimeters extrusion width = 0.46mm
; infill extrusion width = 0.64mm
; solid infill extrusion width = 0.56mm
; top infill extrusion width = 0.40mm
; first layer extrusion width = 0.50mm

; EXECUTABLE_BLOCK_START
EXCLUDE_OBJECT_DEFINE NAME=Brush_Holder_id_0_copy_0 CENTER=161,170.5 POLYGON=[[139.5,164],[139.515,163.759],[139.558,163.521],[139.63,163.291],[139.729,163.071],[139.854,162.864],[140.003,162.674],[140.174,162.503],[140.364,162.354],[140.571,162.229],[140.791,162.13],[141.021,162.058],[141.259,162.015],[141.5,162],[180.5,162],[180.741,162.015],[180.979,162.058],[181.209,162.13],[181.429,162.229],[181.636,162.354],[181.826,162.503],[181.997,162.674],[182.146,162.864],[182.271,163.071],[182.37,163.291],[182.442,163.521],[182.485,163.759],[182.5,164],[182.5,177],[182.485,177.241],[182.442,177.479],[182.37,177.709],[182.271,177.929],[182.146,178.136],[181.997,178.326],[181.826,178.497],[181.636,178.646],[181.429,178.771],[181.209,178.87],[180.979,178.942],[180.741,178.985],[180.5,179],[139.5,179],[139.5,164]]
EXCLUDE_OBJECT_DEFINE NAME=Purge_id_1_copy_0 CENTER=161,143.5 POLYGON=[[150,137],[150.017,136.739],[150.02,136.715],[150.068,136.482],[150.081,136.437],[150.152,136.235],[150.181,136.169],[150.268,136],[150.317,135.919],[150.413,135.782],[150.489,135.69],[150.586,135.586],[150.69,135.489],[150.782,135.413],[150.919,135.317],[151,135.268],[151.169,135.181],[151.235,135.152],[151.437,135.081],[151.482,135.068],[151.715,135.02],[151.739,135.017],[152,135],[172,135],[172,152],[152,152],[151.739,151.983],[151.715,151.98],[151.482,151.932],[151.437,151.919],[151.235,151.848],[151.169,151.819],[151,151.732],[150.919,151.683],[150.782,151.587],[150.69,151.511],[150.586,151.414],[150.489,151.31],[150.413,151.218],[150.317,151.081],[150.268,151],[150.181,150.831],[150.152,150.765],[150.081,150.563],[150.068,150.518],[150.02,150.285],[150.017,150.261],[150,150],[150,137]]
EXCLUDE_OBJECT_DEFINE NAME=Serial_plate_bottom-100-999.stl_id_2_copy_0 CENTER=112.765,148.887 POLYGON=[[87.2653,139.787],[88.8653,138.987],[135.665,138.987],[138.265,139.787],[138.265,153.958],[138.263,154.056],[138.256,154.154],[138.244,154.252],[138.227,154.349],[138.205,154.444],[138.179,154.539],[138.148,154.632],[138.113,154.724],[138.073,154.813],[138.029,154.901],[137.981,154.987],[137.928,155.069],[137.872,155.15],[137.811,155.227],[137.747,155.301],[137.68,155.373],[135.644,157.408],[134.851,158.201],[134.706,158.333],[134.548,158.45],[134.38,158.551],[134.202,158.635],[134.017,158.701],[133.827,158.748],[133.633,158.777],[133.437,158.787],[92.0938,158.787],[91.8977,158.777],[91.7036,158.748],[91.5132,158.701],[91.3284,158.635],[91.151,158.551],[90.9826,158.45],[90.825,158.333],[90.6795,158.201],[89.0533,156.575],[87.8511,155.373],[87.7834,155.301],[87.7193,155.227],[87.6589,155.15],[87.6024,155.069],[87.5499,154.987],[87.5015,154.901],[87.4574,154.813],[87.4176,154.724],[87.3822,154.632],[87.3515,154.539],[87.3253,154.444],[87.3038,154.349],[87.287,154.252],[87.275,154.154],[87.2677,154.056],[87.2653,153.958],[87.2653,139.787]]
EXCLUDE_OBJECT_DEFINE NAME=228.stl_id_3_copy_0 CENTER=125.577,112.037 POLYGON=[[92.5771,116.94],[92.5899,116.745],[92.6282,116.552],[92.6912,116.366],[92.778,116.19],[92.887,116.027],[93.0164,115.88],[108.138,100.758],[108.285,100.629],[108.448,100.52],[108.624,100.433],[108.81,100.37],[109.003,100.332],[109.198,100.319],[154.956,100.319],[155.152,100.332],[155.344,100.37],[155.53,100.433],[155.706,100.52],[155.869,100.629],[156.016,100.758],[158.138,102.88],[158.267,103.027],[158.376,103.19],[158.463,103.366],[158.526,103.552],[158.564,103.745],[158.577,103.94],[158.577,117.541],[158.564,117.737],[158.526,117.929],[158.463,118.115],[158.376,118.291],[158.267,118.454],[158.138,118.601],[153.423,123.317],[153.275,123.446],[153.112,123.555],[152.936,123.642],[152.75,123.705],[152.558,123.743],[152.362,123.756],[96.1984,123.756],[96.0026,123.743],[95.8102,123.705],[95.6244,123.642],[95.4484,123.555],[95.2852,123.446],[95.1377,123.317],[93.0164,121.195],[92.887,121.048],[92.778,120.885],[92.6912,120.709],[92.6282,120.523],[92.5899,120.33],[92.5771,120.135],[92.5771,116.94]]
M73 P0 R51
;TYPE:Custom
START_PRINT T_BED=110 T_EXTRUDER=260
G90
G21
M83 ; use relative distances for extrusion
; Filament gcode
PRESSURE_ADVANCE_SELECT FILAMENT=ASA
M106 S0
;LAYER_CHANGE
;Z:0.2
;HEIGHT:0.2
;BEFORE_LAYER_CHANGE
;0.2
G92 E0

;_SET_FAN_SPEED_CHANGING_LAYER
SET_VELOCITY_LIMIT ACCEL=5000 ACCEL_TO_DECEL=2500
G1 E-.5 F2400
G1 X102.361 Y102.42 F12000
G1 Z.2
G1 E.5 F1800
;TYPE:Skirt
;WIDTH:0.5
G1 F3000
G1 X106.216 Y98.567 E.19265
G1 X106.829 Y98.097 E.02731
G1 X107.688 Y97.674 E.03383
G1 X108.434 Y97.474 E.02731
G1 X109.198 Y97.405 E.02713
G1 X154.969 Y97.406 E1.6178
G1 X156.281 Y97.611 E.04693
G1 X156.84 Y97.83 E.02124
G1 X157.488 Y98.206 E.02648
G1 X158.077 Y98.698 E.02712
G1 X160.329 Y100.958 E.11278
G1 X160.799 Y101.571 E.02731
G1 X161.077 Y102.077 E.0204
G1 X174.679 Y133.854 E1.22174
G1 X185.106 Y162.288 E1.07048
G1 X185.352 Y163.234 E.03454
G1 X185.414 Y164 E.02718
G1 X185.394 Y177.417 E.47424
G1 X185.224 Y178.346 E.03339
G1 X184.928 Y179.125 E.02946
G1 X184.44 Y179.933 E.03337
G1 X183.887 Y180.558 E.02948
G1 X183.144 Y181.14 E.03337
G1 X182.405 Y181.527 E.02948
G1 X181.504 Y181.808 E.03337
G1 X180.5 Y181.914 E.03568
G1 X139.5 Y181.914 E1.44918
G1 X138.365 Y181.684 E.04093
G1 X90.194 Y161.319 E1.84858
G1 X89.484 Y160.949 E.02826
G1 X88.868 Y160.492 E.02713
G1 X87.292 Y158.934 E.07833
G1 X86.438 Y156.879 E.07867
G1 X86.439 Y139.786 E.60415
G1 X89.704 Y116.339 E.83675
G1 X89.869 Y115.615 E.02624
G1 X90.336 Y114.603 E.03942
G1 X90.956 Y113.819 E.03532
G1 X102.333 Y102.449 E.56853
G1 X102.655 Y102.771 F12000
G1 F3000
G1 X106.518 Y98.911 E.19301
G1 X107.083 Y98.477 E.0252
G1 X107.835 Y98.106 E.02961
G1 X108.523 Y97.922 E.0252
G1 X109.198 Y97.862 E.02396
G1 X154.969 Y97.863 E1.6178
G1 X155.631 Y97.922 E.02349
G1 X156.32 Y98.106 E.0252
G1 X156.821 Y98.332 E.01945
G1 X157.489 Y98.782 E.02844
G1 X159.985 Y101.26 E.12432
G1 X160.419 Y101.825 E.0252
G1 X160.722 Y102.4 E.02295
G1 X174.259 Y134.033 E1.2162
G1 X184.677 Y162.445 E1.06963
G1 X184.902 Y163.316 E.03179
G1 X184.957 Y164 E.02425
G1 X184.938 Y177.389 E.47326
G1 X184.788 Y178.21 E.0295
G1 X184.512 Y178.938 E.02751
G1 X184.08 Y179.651 E.02947
G1 X183.564 Y180.234 E.02753
G1 X182.907 Y180.749 E.02948
G1 X182.218 Y181.111 E.02753
G1 X181.422 Y181.359 E.02947
G1 X180.5 Y181.457 E.03276
G1 X139.5 Y181.457 E1.44918
G1 X138.543 Y181.263 E.03451
G1 X90.372 Y160.898 E1.84858
G1 X89.719 Y160.557 E.026
G1 X89.175 Y160.153 E.02396
G1 X87.615 Y158.611 E.07754
G1 X86.895 Y156.878 E.06633
G1 X86.896 Y139.786 E.60412
G1 X90.157 Y116.403 E.83451
G1 X90.302 Y115.762 E.02321
G1 X90.718 Y114.854 E.03533
G1 X91.279 Y114.142 E.03202
G1 X102.627 Y102.8 E.56712
; printing object Serial_plate_bottom-100-999.stl id:2 copy 0
G1 E-.5 F2400
EXCLUDE_OBJECT_START NAME=Serial_plate_bottom-100-999.stl_id_2_copy_0
G1 X89.703 Y140.137 F12000
G1 E.5 F1800
;TYPE:Outer wall
G1 F3000
G1 X135.828 Y140.137 E1.63032
G1 X135.828 Y153.884 E.48592
G3 X135.829 Y156.728 I-371.914 J1.555 E.10053
G1 X134.61 Y157.947 E.06093
G3 X133.428 Y158.437 I-1.219 J-1.272 E.04625
G1 X92.103 Y158.437 E1.46068
G3 X90.921 Y157.947 I.035 J-1.756 E.04628
G1 X89.702 Y156.728 E.06093
G3 X89.703 Y153.884 I371.942 J-1.289 E.10053
G1 X89.703 Y140.177 E.4845
G1 X90.16 Y140.594 F12000
;TYPE:Inner wall
G1 F3000
G1 X135.371 Y140.594 E1.598
G1 X135.371 Y153.885 E.46979
G3 X135.372 Y156.539 I-347.022 J1.503 E.0938
G1 X134.294 Y157.616 E.05386
G3 X133.417 Y157.98 I-.894 J-.917 E.03439
G1 X92.115 Y157.98 E1.45986
G3 X91.236 Y157.616 I.013 J-1.275 E.03444
G1 X90.159 Y156.539 E.05386
G3 X90.16 Y153.885 I347.128 J-1.151 E.0938
G1 X90.16 Y140.634 E.46837
G1 E-.5 F2400
G1 X92.248 Y147.11 F12000
G1 E.5 F1800
;TYPE:Outer wall
G1 F3000
G3 X94.391 Y146.13 I2.518 J2.675 E.0848
G3 X94.989 Y146.118 I.382 J4.013 E.02114
G3 X92.219 Y147.138 I-.223 J3.667 E.70855
G1 X91.921 Y146.789 F12000
;TYPE:Inner wall
G1 F3000
G1 X91.934 Y146.777 E.00062
G3 X94.345 Y145.675 I2.832 J3.008 E.09535
G3 X95.015 Y145.661 I.43 J4.502 E.02372
G3 X91.699 Y147.018 I-.249 J4.124 E.78647
G1 X91.894 Y146.818 E.00988
G1 E-.5 F2400
G1 X92.805 Y146.287 F12000
G1 X93.099 Y146.138
G1 X93.402 Y146.014
G1 X93.714 Y145.916
G1 X94.033 Y145.843
G1 X94.357 Y145.796
G1 X94.654 Y145.778
G1 X95.008 Y145.783
G1 X95.336 Y145.816
G1 X95.658 Y145.876
G1 X129.529 Y154.206
G1 E.5 F1800
G1 F3000
G1 X129.563 Y154.214 E.00124
G2 X134.716 Y152.122 I1.204 J-4.428 E.21121
G1 X134.913 Y152.18 E.00726
G2 X134.917 Y155.44 I779.842 J.853 E.11522
G1 X134.915 Y156.349 E.03215
G1 X133.979 Y157.285 E.04679
G3 X133.406 Y157.523 I-.569 J-.564 E.02252
G1 X92.127 Y157.523 E1.45904
G3 X91.551 Y157.285 I-.007 J-.798 E.0226
G1 X90.616 Y156.349 E.04679
G3 X90.617 Y152.18 I763.751 J-1.778 E.14737
G1 X90.82 Y152.125 E.00741
G2 X90.82 Y147.449 I3.946 J-2.338 E.84515
G1 X90.617 Y147.394 E.00741
G1 X90.617 Y141.051 E.22419
G1 X134.913 Y141.051 E1.56569
G1 X134.913 Y147.394 E.22421
G1 X134.717 Y147.452 E.00723
G2 X129.206 Y154.102 I-3.951 J2.334 E.62149
G1 X129.491 Y154.194 E.01058
G1 X129.392 Y154.642 F12000
G1 F3000
G1 X129.442 Y154.658 E.00186
G2 X134.456 Y153.239 I1.329 J-4.871 E.19353
G3 X134.458 Y156.159 I-1642.168 J2.584 E.10323
G1 X133.664 Y156.954 E.03972
G3 X133.395 Y157.066 I-.249 J-.22 E.01067
G1 X92.139 Y157.066 E1.45822
G3 X91.867 Y156.954 I-.024 J-.329 E.01077
G1 X91.072 Y156.159 E.03971
G3 X91.074 Y153.226 I1669.929 J-.329 E.10368
G2 X91.074 Y146.347 I3.69 J-3.439 E.85276
G1 X91.074 Y141.508 E.17105
G1 X134.456 Y141.508 E1.53338
G1 X134.456 Y146.335 E.1706
G2 X129.05 Y154.533 I-3.685 J3.452 E.64458
G1 X129.354 Y154.63 E.01128
G1 X129.803 Y153.331 F12000
;TYPE:Outer wall
G1 F3000
G3 X130.391 Y146.13 I.963 J-3.545 E.36025
G3 X130.989 Y146.118 I.382 J4.013 E.02114
G3 X129.841 Y153.341 I-.223 J3.667 E.43309
G1 X129.665 Y153.77 F12000
;TYPE:Inner wall
G1 F3000
G1 X129.362 Y153.67 E.01129
G3 X130.345 Y145.675 I1.404 J-3.885 E.39316
G3 X131.015 Y145.661 I.43 J4.502 E.02372
G3 X129.705 Y153.777 I-.249 J4.124 E.48788
G1 E-.5 F2400
G1 X134.578 Y152.773 F12000
G1 E.5 F1800
;TYPE:Gap infill
;WIDTH:0.11137
G1 F3000
G2 X134.665 Y152.648 I-.102 J-.163 E.00083
G1 X134.887 Y151.934 F12000
;WIDTH:0.360201
G1 F3000
G1 X134.986 Y151.398 E.01338
;WIDTH:0.355052
G1 X135.006 Y151.27 E.00311
;WIDTH:0.314063
G1 X135.027 Y151.143 E.00271
;WIDTH:0.270951
G1 X135.048 Y151.009 E.0024
;WIDTH:0.230103
G1 X135.068 Y150.846 E.00237
;WIDTH:0.189062
G1 X135.089 Y150.679 E.0019
;WIDTH:0.149211
G1 X135.114 Y150.366 E.00258
G1 X135.114 Y149.207 F12000
;WIDTH:0.103556
G1 F3000
G1 X135.088 Y148.89 E.00149
;WIDTH:0.1501
G1 X135.067 Y148.712 E.00149
;WIDTH:0.195757
G1 X135.044 Y148.526 E.00221
;WIDTH:0.239942
G1 X135.024 Y148.408 E.00183
;WIDTH:0.278997
G1 X135.004 Y148.289 E.00219
;WIDTH:0.349986
G2 X134.886 Y147.641 I-15.889 J2.555 E.01566
G1 X134.665 Y146.926 F12000
;WIDTH:0.111376
G1 F3000
G2 X134.578 Y146.8 I-.188 J.038 E.00083
G1 E-.5 F2400
G1 X134.319 Y142.571 F12000
G1 E.5 F1800
;TYPE:Bottom surface
;WIDTH:0.500913
G1 F6300
G1 X133.599 Y141.851 E.03607
G1 X132.951 Y141.851 E.02294
G1 X134.114 Y143.013 E.05821
G1 X134.114 Y143.661 E.02294
G1 X132.304 Y141.851 E.09065
G1 X131.656 Y141.851 E.02294
G1 X134.114 Y144.308 E.12309
G1 X134.114 Y144.956 E.02294
G1 X131.008 Y141.851 E.15554
G1 X130.361 Y141.851 E.02294
G1 X133.941 Y145.431 E.17933
G2 X132.576 Y144.714 I-3.076 J4.196 E.05482
G1 X129.713 Y141.851 E.1434
G1 X129.065 Y141.851 E.02294
G1 X131.695 Y144.481 E.13174
G2 X130.97 Y144.404 I-.955 J5.513 E.02584
G1 X128.417 Y141.851 E.12787
G1 X127.77 Y141.851 E.02294
G1 X130.336 Y144.417 E.12852
G2 X129.762 Y144.491 I.763 J8.147 E.02048
G1 X127.122 Y141.851 E.13223
G1 X126.474 Y141.851 E.02294
G1 X129.243 Y144.619 E.13865
G2 X128.762 Y144.787 I.784 J3.019 E.01803
G1 X125.827 Y141.851 E.14704
M73 P1 R51
G1 X125.179 Y141.851 E.02294
G1 X128.317 Y144.989 E.15718
G2 X127.904 Y145.223 I1.225 J2.645 E.01685
G1 X124.531 Y141.851 E.16891
G1 X123.884 Y141.851 E.02294
G1 X127.52 Y145.487 E.18214
G2 X127.165 Y145.78 I1.61 J2.318 E.01631
G1 X123.236 Y141.851 E.19678
G1 X122.588 Y141.851 E.02294
G1 X126.837 Y146.1 E.21281
G2 X126.537 Y146.447 I1.975 J2.009 E.01628
G1 X121.94 Y141.851 E.23022
G1 X121.293 Y141.851 E.02294
G1 X126.266 Y146.824 E.24911
G2 X126.022 Y147.228 I2.59 J1.847 E.01672
G1 X120.645 Y141.851 E.26931
G1 X119.997 Y141.851 E.02294
G1 X125.811 Y147.664 E.29117
G2 X125.636 Y148.137 I2.803 J1.305 E.01788
G1 X119.35 Y141.851 E.31486
G1 X118.702 Y141.851 E.02294
M73 P1 R50
G1 X125.5 Y148.649 E.3405
G2 X125.41 Y149.206 I3.362 J.832 E.02001
G1 X118.054 Y141.851 E.36841
G1 X117.407 Y141.851 E.02294
G1 X125.376 Y149.82 E.39915
G2 X125.429 Y150.521 I4.309 J.027 E.02491
G1 X116.759 Y141.851 E.43424
G1 X116.111 Y141.851 E.02294
G1 X125.944 Y151.684 E.49252
G1 E-.5 F2400
G1 X128.809 Y153.289 F12000
G1 X129.126 Y153.447
G1 X129.402 Y153.559
G1 X129.714 Y153.658
G1 X130.033 Y153.731
G1 X130.357 Y153.777
G1 X130.683 Y153.797
G1 X133.957 Y153.868
G1 E.5 F1800
G1 F6300
G1 X134.114 Y154.024 E.00786
G1 X134.115 Y154.673 E.02296
G1 X133.728 Y154.286 E.01938
G3 X133.322 Y154.528 I-1.833 J-2.606 E.01674
G1 X134.115 Y155.321 E.03971
G1 X134.115 Y155.969 E.02295
G1 X132.886 Y154.74 E.06157
G3 X132.416 Y154.917 I-1.322 J-2.785 E.01781
G1 X133.816 Y156.317 E.07011
G1 X133.492 Y156.641 E.01622
G1 X131.905 Y155.054 E.07951
G3 X131.345 Y155.142 I-.819 J-3.376 E.02008
G1 X132.919 Y156.715 E.07881
G1 X132.271 Y156.716 E.02294
G1 X130.731 Y155.175 E.07716
G3 X130.031 Y155.123 I.095 J-6.015 E.02486
G1 X131.624 Y156.716 E.07978
G1 X130.976 Y156.716 E.02294
G1 X128.868 Y154.608 E.10557
G1 E-.5 F2400
G1 X130.534 Y156.922 F12000
G1 E.5 F1800
G1 F6300
G1 X115.463 Y141.851 E.75484
G1 X114.816 Y141.851 E.02294
G1 X129.681 Y156.716 E.74455
G1 X129.033 Y156.716 E.02294
G1 X114.168 Y141.851 E.74455
G1 X113.52 Y141.851 E.02294
G1 X128.386 Y156.716 E.74456
G1 X127.738 Y156.716 E.02294
G1 X112.873 Y141.851 E.74456
G1 X112.225 Y141.851 E.02294
G1 X127.091 Y156.716 E.74457
G1 X126.443 Y156.717 E.02294
G1 X111.577 Y141.851 E.74458
G1 X110.93 Y141.851 E.02294
G1 X125.795 Y156.717 E.74458
G1 X125.148 Y156.717 E.02294
G1 X110.282 Y141.851 E.74459
G1 X109.634 Y141.851 E.02294
G1 X124.5 Y156.717 E.74459
G1 X123.853 Y156.717 E.02294
G1 X108.986 Y141.851 E.7446
G1 X108.339 Y141.851 E.02294
G1 X123.205 Y156.717 E.74461
G1 X122.558 Y156.717 E.02294
G1 X107.691 Y141.851 E.74461
G1 X107.043 Y141.851 E.02294
G1 X121.91 Y156.717 E.74462
G1 X121.262 Y156.718 E.02294
G1 X106.396 Y141.851 E.74462
G1 X105.748 Y141.851 E.02294
G1 X120.615 Y156.718 E.74463
G1 X119.967 Y156.718 E.02294
G1 X105.1 Y141.851 E.74463
G1 X104.453 Y141.851 E.02294
G1 X119.32 Y156.718 E.74464
G1 X118.672 Y156.718 E.02294
G1 X103.805 Y141.851 E.74465
G1 X103.157 Y141.851 E.02294
G1 X118.024 Y156.718 E.74465
G1 X117.377 Y156.718 E.02294
G1 X102.509 Y141.851 E.74466
G1 X101.862 Y141.851 E.02294
G1 X116.729 Y156.718 E.74466
G1 X116.082 Y156.718 E.02294
G1 X101.214 Y141.851 E.74467
G1 X100.566 Y141.851 E.02294
