; HEADER_BLOCK_START
; generated by OrcaSlicer 1.6.4-beta2 on 2023-08-14 at 22:18:01
; total layer number: 10
; HEADER_BLOCK_END

; THUMBNAIL_BLOCK_START
; THUMBNAIL_BLOCK_END

; external perimeters extrusion width = 0.40mm
; perimeters extrusion width = 0.46mm
; infill extrusion width = 0.64mm
; solid infill extrusion width = 0.56mm
; top infill extrusion width = 0.40mm
; support material extrusion width = 0.46mm
; first layer extrusion width = 0.50mm

; EXECUTABLE_BLOCK_START
EXCLUDE_OBJECT_DEFINE NAME=buck.stl_id_0_copy_0 CENTER=165,165 POLYGON=[[135,146.5],[195,146.5],[195,183.5],[135,183.5],[135,146.5]]
M73 P0 R8
;TYPE:Custom
START_PRINT T_BED=110 T_EXTRUDER=260
G90
G21
M83 ; use relative distances for extrusion
; Filament gcode
M106 S0
;LAYER_CHANGE
;Z:0.2
;HEIGHT:0.2
;BEFORE_LAYER_CHANGE
;0.2
G92 E0

SET_VELOCITY_LIMIT ACCEL=1000 ACCEL_TO_DECEL=500
G1 E-.5 F3000
G1 X133.552 Y143.971 F12000
G1 Z.2
G1 E.5 F1800
;TYPE:Skirt
;WIDTH:0.5
G1 F3000
G1 X135 Y143.586 E.05295
G1 X195 Y143.586 E2.12075
G1 X196.462 Y143.979 E.0535
G1 X197.529 Y145.052 E.0535
G1 X197.914 Y146.5 E.05295
G1 X197.914 Y183.5 E1.3078
G1 X197.521 Y184.962 E.0535
G1 X196.448 Y186.029 E.0535
G1 X195 Y186.414 E.05295
G1 X135 Y186.414 E2.12075
G1 X133.538 Y186.021 E.0535
G1 X132.471 Y184.948 E.0535
G1 X132.086 Y183.5 E.05295
G1 X132.086 Y146.5 E1.3078
M73 P1 R8
G1 X132.479 Y145.038 E.0535
G1 X133.524 Y143.999 E.05209
G1 X133.851 Y144.378 F12000
G1 F3000
G1 X133.985 Y144.262 E.00627
G1 X135 Y144.043 E.03669
G1 X195 Y144.043 E2.12075
G1 X196.331 Y144.435 E.04905
G1 X197.238 Y145.485 E.04905
G1 X197.457 Y146.5 E.03669
G1 X197.457 Y183.5 E1.3078
G1 X197.065 Y184.831 E.04905
G1 X196.015 Y185.738 E.04905
G1 X195 Y185.957 E.03669
G1 X135 Y185.957 E2.12075
G1 X133.669 Y185.565 E.04905
G1 X132.762 Y184.515 E.04905
G1 X132.543 Y183.5 E.03669
G1 X132.543 Y146.5 E1.3078
G1 X132.935 Y145.169 E.04905
G1 X133.821 Y144.404 E.04136
; printing object buck.stl id:0 copy 0
EXCLUDE_OBJECT_START NAME=buck.stl_id_0_copy_0
G1 E-.5
G1 X194.75 Y180.512 F12000
G1 E.5 F1800
;TYPE:Outer wall
M73 P2 R8
G1 F3000
G1 X194.75 Y181.986 E.0521
G2 X194.658 Y183.158 I11.079 J1.457 E.04158
G2 X193.485 Y183.25 I.261 J10.843 E.0416
G1 X190.515 Y183.25 E.10501
G2 X189.002 Y183.151 I-1.512 J11.54 E.0536
G1 X141.5 Y183.15 E1.67903
G2 X139.485 Y183.25 I-.21 J16.12 E.07133
G1 X136.515 Y183.25 E.10501
G2 X135.342 Y183.158 I-1.434 J10.751 E.0416
G2 X135.25 Y181.986 I-11.17 J.284 E.04158
G1 X135.25 Y180.512 E.0521
G1 X135.296 Y181.006 E.01753
G2 X135.656 Y181.938 I2.675 J-.497 E.03554
G1 X135.93 Y182.378 E.01832
G1 X136.337 Y182.721 E.0188
G2 X137.746 Y183.239 I1.83 J-2.803 E.05354
G2 X139.22 Y182.965 I.191 J-3.072 E.05353
G2 X140.076 Y182.418 I-1.683 J-3.576 E.03599
G1 X140.418 Y182.005 E.01896
G1 X140.658 Y181.531 E.01878
G1 X140.803 Y181.024 E.01863
G1 X140.851 Y180.5 E.0186
G1 X140.803 Y179.976 E.0186
G1 X140.659 Y179.47 E.0186
G1 X140.424 Y178.999 E.0186
G1 X140.107 Y178.579 E.0186
G1 X139.718 Y178.224 E.0186
G1 X139.271 Y177.947 E.0186
G1 X138.78 Y177.757 E.0186
G1 X138.263 Y177.661 E.0186
G1 X137.737 Y177.661 E.0186
G1 X137.22 Y177.757 E.0186
G1 X136.728 Y177.948 E.01865
G1 X136.278 Y178.234 E.01884
G1 X135.901 Y178.621 E.01907
G2 X135.435 Y179.506 I9.661 J5.655 E.03539
G2 X135.25 Y180.488 I2.535 J.985 E.03553
G1 X135.25 Y179.014 E.0521
G2 X135.35 Y176.5 I-19.676 J-2.042 E.089
G1 X135.349 Y152.498 E.84839
G2 X135.25 Y150.986 I-11.921 J.018 E.05359
G1 X135.25 Y149.512 E.0521
G1 X135.296 Y150.006 E.01753
G2 X135.653 Y150.933 I2.658 J-.492 E.03532
G1 X135.901 Y151.379 E.01806
G1 X136.278 Y151.766 E.01907
G1 X136.728 Y152.052 E.01884
G1 X137.22 Y152.243 E.01865
G1 X137.737 Y152.339 E.0186
G1 X138.263 Y152.339 E.0186
G1 X138.78 Y152.243 E.0186
G1 X139.271 Y152.053 E.0186
G1 X139.718 Y151.776 E.0186
G1 X140.107 Y151.421 E.0186
G1 X140.424 Y151.001 E.0186
G1 X140.659 Y150.53 E.0186
G1 X140.803 Y150.024 E.0186
G1 X140.851 Y149.5 E.0186
G1 X140.803 Y148.976 E.0186
G1 X140.658 Y148.469 E.01863
G1 X140.418 Y147.995 E.01878
G1 X140.076 Y147.582 E.01896
G2 X138.753 Y146.854 I-2.704 J3.349 E.05365
G2 X136.78 Y147.035 I-.752 J2.643 E.07165
G1 X136.337 Y147.279 E.01788
G1 X135.93 Y147.622 E.0188
G2 X135.435 Y148.506 I4.338 J3.014 E.03588
G2 X135.25 Y149.488 I2.535 J.985 E.03553
G1 X135.25 Y148.014 E.0521
G2 X135.342 Y146.842 I-11.078 J-1.457 E.04158
G2 X136.515 Y146.75 I-.261 J-10.843 E.0416
G1 X139.485 Y146.75 E.10501
G1 X139.978 Y146.808 E.01752
G2 X141.5 Y146.85 I1.29 J-18.98 E.05383
G1 X188.5 Y146.85 E1.66128
G2 X190.515 Y146.75 I.21 J-16.12 E.07133
G1 X193.485 Y146.75 E.10501
G2 X194.658 Y146.842 I1.434 J-10.751 E.0416
G2 X194.75 Y148.014 I11.17 J-.284 E.04158
G1 X194.75 Y149.488 E.0521
G1 X194.704 Y148.994 E.01753
G2 X194.344 Y148.062 I-2.675 J.497 E.03554
G1 X194.07 Y147.622 E.01832
G1 X193.663 Y147.279 E.0188
G2 X192.254 Y146.761 I-1.83 J2.803 E.05354
G2 X190.78 Y147.035 I-.191 J3.072 E.05353
G2 X189.924 Y147.582 I1.683 J3.576 E.03599
G1 X189.582 Y147.995 E.01896
G1 X189.342 Y148.469 E.01878
G1 X189.197 Y148.976 E.01863
G1 X189.149 Y149.5 E.0186
G1 X189.197 Y150.024 E.0186
G1 X189.341 Y150.53 E.0186
G1 X189.576 Y151.001 E.0186
G1 X189.893 Y151.421 E.0186
G1 X190.282 Y151.776 E.0186
G1 X190.729 Y152.053 E.0186
G1 X191.22 Y152.243 E.0186
G1 X191.737 Y152.339 E.0186
G1 X192.263 Y152.339 E.0186
G1 X192.78 Y152.243 E.0186
G1 X193.272 Y152.052 E.01865
G1 X193.722 Y151.766 E.01884
G1 X194.099 Y151.379 E.01907
G2 X194.565 Y150.494 I-9.664 J-5.656 E.03539
G2 X194.75 Y149.512 I-2.535 J-.985 E.03553
G1 X194.75 Y150.986 E.0521
G2 X194.65 Y153.5 I19.676 J2.042 E.089
G1 X194.651 Y177.502 E.84839
G2 X194.75 Y179.014 I11.921 J-.018 E.05359
G1 X194.75 Y180.488 E.0521
G1 X194.704 Y179.994 E.01753
G2 X194.347 Y179.067 I-2.658 J.492 E.03532
G1 X194.099 Y178.621 E.01806
G1 X193.722 Y178.234 E.01907
G1 X193.272 Y177.948 E.01884
M73 P3 R8
G1 X192.78 Y177.757 E.01865
G1 X192.263 Y177.661 E.0186
G1 X191.737 Y177.661 E.0186
G1 X191.22 Y177.757 E.0186
G1 X190.729 Y177.947 E.0186
G1 X190.282 Y178.224 E.0186
G1 X189.893 Y178.579 E.0186
G1 X189.576 Y178.999 E.0186
G1 X189.341 Y179.47 E.0186
G1 X189.197 Y179.976 E.0186
G1 X189.149 Y180.5 E.0186
G1 X189.197 Y181.024 E.0186
G1 X189.342 Y181.531 E.01863
G1 X189.582 Y182.005 E.01878
G1 X189.924 Y182.418 E.01896
G2 X191.247 Y183.146 I2.704 J-3.349 E.05365
G2 X193.22 Y182.965 I.752 J-2.643 E.07165
G1 X193.663 Y182.721 E.01788
G1 X194.07 Y182.378 E.0188
G2 X194.565 Y181.494 I-4.338 J-3.014 E.03588
G2 X194.75 Y180.551 I-2.535 J-.985 E.03412
G1 E-.5
G1 X194.204 Y177.998 F12000
G1 E.5 F1800
;TYPE:Inner wall
G1 F3000
G1 X193.48 Y177.539 E.03032
G1 X192.906 Y177.316 E.02174
G1 X192.305 Y177.204 E.0216
G1 X191.695 Y177.204 E.02159
G1 X191.094 Y177.316 E.02159
G1 X190.524 Y177.537 E.02159
G1 X190.005 Y177.858 E.02159
G1 X189.553 Y178.27 E.02159
G1 X189.185 Y178.757 E.02159
G1 X188.913 Y179.304 E.02159
G1 X188.746 Y179.892 E.02159
G1 X188.689 Y180.5 E.02159
G1 X188.746 Y181.109 E.0216
G1 X188.914 Y181.699 E.02169
G1 X189.198 Y182.257 E.02213
G1 X189.568 Y182.704 E.02052
G2 X188 Y182.693 I-1.128 J47.5 E.0554
G1 X141.499 Y182.693 E1.64362
G2 X140.432 Y182.704 I-.164 J34.904 E.03772
G1 X140.802 Y182.257 E.02052
G1 X141.086 Y181.699 E.02213
G1 X141.254 Y181.109 E.02169
G1 X141.311 Y180.5 E.0216
G1 X141.254 Y179.892 E.02159
G1 X141.087 Y179.304 E.02159
G1 X140.815 Y178.757 E.02159
G1 X140.447 Y178.27 E.02159
G1 X139.995 Y177.858 E.02159
G1 X139.476 Y177.537 E.02159
G1 X138.906 Y177.316 E.02159
G1 X138.305 Y177.204 E.02159
G1 X137.695 Y177.204 E.02159
G1 X137.094 Y177.316 E.0216
G1 X136.52 Y177.539 E.02174
G1 X135.796 Y177.998 E.03032
G2 X135.807 Y176.5 I-43.669 J-1.058 E.05295
G1 X135.796 Y152.002 E.86593
G1 X136.52 Y152.461 E.03032
G1 X137.094 Y152.684 E.02174
G1 X137.695 Y152.796 E.0216
G1 X138.305 Y152.796 E.02159
G1 X138.906 Y152.684 E.02159
G1 X139.476 Y152.463 E.02159
G1 X139.995 Y152.142 E.02159
G1 X140.447 Y151.73 E.02159
G1 X140.815 Y151.243 E.02159
G1 X141.087 Y150.696 E.02159
G1 X141.254 Y150.108 E.02159
G1 X141.311 Y149.5 E.02159
G1 X141.254 Y148.891 E.0216
G1 X141.086 Y148.301 E.02169
G1 X140.802 Y147.743 E.02213
G1 X140.432 Y147.296 E.02052
G2 X141.499 Y147.307 I.903 J-34.881 E.0377
G1 X188.501 Y147.307 E1.66133
G2 X189.568 Y147.296 I.164 J-34.893 E.0377
G1 X189.198 Y147.743 E.02052
G1 X188.914 Y148.301 E.02213
G1 X188.746 Y148.891 E.02169
G1 X188.689 Y149.5 E.0216
G1 X188.746 Y150.108 E.02159
G1 X188.913 Y150.696 E.02159
G1 X189.185 Y151.243 E.02159
G1 X189.553 Y151.73 E.02159
G1 X190.005 Y152.142 E.02159
G1 X190.524 Y152.463 E.02159
G1 X191.094 Y152.684 E.02159
G1 X191.695 Y152.796 E.02159
G1 X192.305 Y152.796 E.02159
G1 X192.906 Y152.684 E.0216
G1 X193.48 Y152.461 E.02174
G1 X194.204 Y152.002 E.03032
G2 X194.193 Y153.5 I43.669 J1.058 E.05295
G1 X194.204 Y177.958 E.86452
G1 X193.737 Y177.148 F12000
G1 F3000
G1 X193.032 Y176.874 E.02674
G1 X192.348 Y176.747 E.02461
G1 X191.652 Y176.747 E.02459
G1 X190.968 Y176.874 E.02459
G1 X190.32 Y177.126 E.02459
G1 X189.728 Y177.492 E.02459
G1 X189.214 Y177.96 E.02459
G1 X188.795 Y178.516 E.02459
G1 X188.485 Y179.138 E.02459
G1 X188.295 Y179.807 E.02459
G1 X188.23 Y180.5 E.02459
G1 X188.295 Y181.193 E.0246
G1 X188.487 Y181.866 E.02475
G1 X188.675 Y182.237 E.01468
G1 X141.326 Y182.236 E1.6736
M73 P4 R8
G1 X141.513 Y181.866 E.01465
G1 X141.705 Y181.193 E.02475
G1 X141.77 Y180.5 E.0246
G1 X141.705 Y179.807 E.02459
G1 X141.515 Y179.138 E.02459
G1 X141.205 Y178.516 E.02459
G1 X140.786 Y177.96 E.02459
G1 X140.272 Y177.492 E.02459
G1 X139.68 Y177.126 E.02459
G1 X139.032 Y176.874 E.02459
G1 X138.348 Y176.747 E.02459
G1 X137.652 Y176.747 E.02459
G1 X136.968 Y176.874 E.02461
G1 X136.263 Y177.148 E.02672
G1 X136.263 Y152.852 E.85878
G1 X136.968 Y153.126 E.02674
G1 X137.652 Y153.253 E.02461
G1 X138.348 Y153.253 E.02459
G1 X139.032 Y153.126 E.02459
G1 X139.68 Y152.874 E.02459
G1 X140.272 Y152.508 E.02459
G1 X140.786 Y152.04 E.02459
G1 X141.205 Y151.484 E.02459
G1 X141.515 Y150.862 E.02459
G1 X141.705 Y150.193 E.02459
G1 X141.77 Y149.5 E.02459
G1 X141.705 Y148.807 E.0246
G1 X141.513 Y148.134 E.02475
G1 X141.326 Y147.764 E.01465
G1 X188.674 Y147.764 E1.67358
G1 X188.487 Y148.134 E.01465
G1 X188.295 Y148.807 E.02475
G1 X188.23 Y149.5 E.0246
G1 X188.295 Y150.193 E.02459
G1 X188.485 Y150.862 E.02459
G1 X188.795 Y151.484 E.02459
G1 X189.214 Y152.04 E.02459
G1 X189.728 Y152.508 E.02459
G1 X190.32 Y152.874 E.02459
G1 X190.968 Y153.126 E.02459
G1 X191.652 Y153.253 E.02459
G1 X192.348 Y153.253 E.02459
G1 X193.032 Y153.126 E.02461
G1 X193.737 Y152.852 E.02672
G1 X193.737 Y177.108 E.85737
G1 X193.28 Y176.456 F12000
G1 F3000
G1 X192.39 Y176.289 E.032
G1 X191.61 Y176.289 E.02758
G1 X190.843 Y176.433 E.02758
G1 X190.115 Y176.715 E.02758
G1 X189.452 Y177.125 E.02758
G1 X188.875 Y177.651 E.02758
G1 X188.405 Y178.274 E.02758
G1 X188.057 Y178.972 E.02758
G1 X187.843 Y179.723 E.02758
G1 X187.771 Y180.5 E.02758
G1 X187.843 Y181.277 E.0276
G1 X187.986 Y181.779 E.01843
G1 X142.014 Y181.779 E1.62495
G1 X142.157 Y181.277 E.01843
G1 X142.229 Y180.5 E.0276
G1 X142.157 Y179.723 E.02758
G1 X141.943 Y178.972 E.02758
G1 X141.595 Y178.274 E.02758
G1 X141.125 Y177.651 E.02758
G1 X140.548 Y177.125 E.02758
G1 X139.885 Y176.715 E.02758
G1 X139.157 Y176.433 E.02758
G1 X138.39 Y176.289 E.02758
G1 X137.61 Y176.289 E.02758
G1 X136.721 Y176.456 E.03195
G1 X136.72 Y153.544 E.80982
G1 X137.61 Y153.711 E.032
G1 X138.39 Y153.711 E.02758
G1 X139.157 Y153.567 E.02758
G1 X139.885 Y153.285 E.02758
G1 X140.548 Y152.875 E.02758
G1 X141.125 Y152.349 E.02758
G1 X141.595 Y151.726 E.02758
G1 X141.943 Y151.028 E.02758
G1 X142.157 Y150.277 E.02758
G1 X142.229 Y149.5 E.02758
G1 X142.157 Y148.723 E.0276
G1 X142.014 Y148.221 E.01843
G1 X187.986 Y148.221 E1.62495
M73 P5 R8
G1 X187.843 Y148.723 E.01843
G1 X187.771 Y149.5 E.0276
G1 X187.788 Y149.682 E.00645
G1 X187.843 Y150.277 E.02113
G1 X188.057 Y151.028 E.02758
G1 X188.405 Y151.726 E.02758
G1 X188.875 Y152.349 E.02758
G1 X189.452 Y152.875 E.02758
G1 X190.115 Y153.285 E.02758
G1 X190.843 Y153.567 E.02758
G1 X191.61 Y153.711 E.02758
G1 X192.39 Y153.711 E.02758
G1 X193.279 Y153.544 E.03195
G1 X193.28 Y176.416 E.80841
G1 X193.831 Y177.459 F12000
;TYPE:Gap infill
;WIDTH:0.118368
G1 F3000
G1 X193.966 Y177.527 E.00089
G1 X194.045 Y178.2 F12000
;WIDTH:0.142601
G1 F3000
G1 X194.189 Y178.317 E.00143
;WIDTH:0.182283
G1 X194.334 Y178.434 E.00201
;WIDTH:0.208577
G3 X194.469 Y178.577 I-1.014 J1.104 E.00252
G1 X194.467 Y178.763 F12000
;WIDTH:0.102921
G1 F3000
G1 X194.433 Y178.656 E.00052
;WIDTH:0.164822
G3 X194.338 Y178.355 I11.646 J-3.798 E.00298
G1 E-.5
G1 X194.5 Y180.5 F12000
G1 X194.467 Y182.211
G1 E.5 F1800
;WIDTH:0.200094
G1 F3000
G1 X194.22 Y182.948 E.00946
G1 X194.194 Y182.95 F12000
;WIDTH:0.272877
G1 F3000
G1 X194.492 Y182.224 E.01395
G1 X194.452 Y182.675 F12000
;WIDTH:0.206187
G1 F3000
G1 X193.746 Y182.97 E.00966
G1 X193.744 Y182.965 F12000
;WIDTH:0.122068
G1 F3000
G2 X194.45 Y182.704 I-2.245 J-7.135 E.00461
G1 E-.5
G1 X192.231 Y182.989 F12000
G1 X191.769 Y182.989
G1 X190.009 Y182.879
G1 E.5 F1800
;WIDTH:0.110114
G1 F3000
G2 X190.256 Y182.965 I1.45 J-3.763 E.00136
G1 X190.186 Y182.982 F12000
;WIDTH:0.161194
G1 F3000
G1 X190.054 Y182.857 E.00167
;WIDTH:0.132057
G1 X189.921 Y182.732 E.00126
G1 E-.5
G1 X194.657 Y183.427 F12000
G1 X194.314 Y176.193
G1 X193.831 Y152.541
G1 E.5 F1800
;WIDTH:0.117435
G1 F3000
G1 X193.928 Y152.492 E.00063
G1 X193.967 Y152.423 E.00046
G1 X194.045 Y151.8 F12000
;WIDTH:0.1426
G1 F3000
G1 X194.189 Y151.683 E.00143
;WIDTH:0.18228
G1 X194.334 Y151.566 E.00201
;WIDTH:0.208577
G2 X194.469 Y151.423 I-1.014 J-1.104 E.00252
G1 X194.467 Y151.237 F12000
;WIDTH:0.10292
G1 F3000
G1 X194.433 Y151.344 E.00052
;WIDTH:0.164822
G2 X194.338 Y151.645 I11.642 J3.797 E.00298
G1 E-.5
G1 X194.5 Y149.5 F12000
G1 X194.467 Y147.789
G1 E.5 F1800
;WIDTH:0.200095
G1 F3000
G1 X194.22 Y147.052 E.00946
G1 X194.194 Y147.05 F12000
;WIDTH:0.272877
G1 F3000
G1 X194.492 Y147.776 E.01395
G1 X194.452 Y147.325 F12000
;WIDTH:0.206188
G1 F3000
G1 X193.746 Y147.031 E.00966
G1 X193.744 Y147.035 F12000
;WIDTH:0.122069
G1 F3000
G3 X194.45 Y147.297 I-2.239 J7.118 E.00461
G1 E-.5
G1 X192.231 Y147.011 F12000
G1 X191.769 Y147.011
G1 X190.009 Y147.121
G1 E.5 F1800
;WIDTH:0.110113
G1 F3000
G3 X190.256 Y147.035 I1.451 J3.767 E.00136
G1 X190.186 Y147.018 F12000
;WIDTH:0.161193
G1 F3000
G1 X190.054 Y147.143 E.00167
;WIDTH:0.132056
G1 X189.921 Y147.268 E.00126
G1 E-.5
G1 X186.886 Y148.358 F12000
G1 E.5 F1800
;TYPE:Bottom surface
;WIDTH:0.500795
G1 F6300
G1 X187.478 Y148.95 E.02962
G1 X187.432 Y149.551 E.02135
G1 X186.445 Y148.564 E.04943
G1 X185.797 Y148.564 E.02293
G1 X187.777 Y150.544 E.09912
G1 E-.5 F3000
G1 X192.376 Y153.848 F12000
G1 E.5 F1800
G1 F6300
G1 X192.936 Y154.408 E.02805
G1 X192.936 Y155.055 E.02293
G1 X191.934 Y154.053 E.05017
G3 X191.219 Y153.986 I-.178 J-1.945 E.02556
G1 X192.936 Y155.703 E.08596
G1 X192.936 Y156.351 E.02293
G1 X190.317 Y153.731 E.13117
G1 X189.962 Y153.593 E.01347
G1 X189.244 Y153.149 E.02988
G1 X188.621 Y152.581 E.02988
G1 X188.112 Y151.907 E.02988
G1 X187.735 Y151.15 E.02996
G1 X185.15 Y148.564 E.12948
G1 X184.502 Y148.564 E.02293
G1 X192.936 Y156.998 E.42233
G1 X192.936 Y157.646 E.02293
G1 X183.854 Y148.564 E.45475
M73 P6 R8
G1 X183.207 Y148.564 E.02293
G1 X192.936 Y158.293 E.48718
G1 X192.936 Y158.941 E.02293
G1 X182.559 Y148.564 E.51961
G1 X181.912 Y148.564 E.02293
G1 X192.936 Y159.588 E.55203
G1 X192.936 Y160.236 E.02293
G1 X181.264 Y148.564 E.58446
G1 X180.617 Y148.564 E.02293
G1 X192.936 Y160.884 E.61689
G1 X192.936 Y161.531 E.02293
G1 X179.969 Y148.564 E.64931
G1 X179.322 Y148.564 E.02293
G1 X192.936 Y162.179 E.68174
G1 X192.937 Y162.826 E.02293
G1 X178.674 Y148.564 E.71416
G1 X178.027 Y148.564 E.02293
G1 X192.937 Y163.474 E.74659
G1 X192.937 Y164.121 E.02293
G1 X177.379 Y148.564 E.77902
G1 X176.732 Y148.564 E.02293
G1 X192.937 Y164.769 E.81144
G1 X192.937 Y165.417 E.02293
G1 X176.084 Y148.564 E.84387
G1 X175.437 Y148.564 E.02293
G1 X192.937 Y166.064 E.8763
G1 X192.937 Y166.712 E.02293
G1 X174.789 Y148.564 E.90872
