; generated by SuperSlicer 2.5.59 on 2023-02-23 at 03:15:33 UTC


;
;

;
;
; 

; external perimeters extrusion width = 0.40mm
; perimeters extrusion width = 0.46mm
; infill extrusion width = 0.64mm
; solid infill extrusion width = 0.56mm
; top infill extrusion width = 0.40mm
; first layer extrusion width = 0.50mm

; object:{"name":"Cable guide F-ST120","id":"Cable guide F-ST120.01.STL id:0 copy 0","object_center":[165.000000,165.000000,0.000000],"boundingbox_center":[165.000000,165.000000,7.500000],"boundingbox_size":[14.290000,31.199999,15.000000]}
; plater:{"center":[165.000000,165.000000,0.000000],"boundingbox_center":[165.000000,165.000000,7.500000],"boundingbox_size":[14.290000,31.199999,15.000000]}

M73 P0 R16


; Pre-Processed for Cancel-Object support by preprocess_cancellation v0.2.0
; 1 known objects
EXCLUDE_OBJECT_DEFINE NAME=Cable_guide_F_ST120_01_STL_id_0_copy_0 CENTER=163.328,164.677 POLYGON=[[158.055,149.6],[158.055,180.4],[171.945,180.4],[171.945,149.6]]
;TYPE:Custom
; custom gcode: start_gcode
START_PRINT T_BED=70 T_EXTRUDER=235
; custom gcode end: start_gcode
M107
G21 ; set units to millimeters
G90 ; use absolute coordinates
M82 ; use absolute distances for extrusion
G92 E0
; custom gcode: start_filament_gcode
; Filament gcode
PRESSURE_ADVANCE_SELECT FILAMENT=PETG
; custom gcode end: start_filament_gcode
;_TOOLCHANGE 0
M109 S235 ; set temperature and wait for it to be reached
M190 S70 ; set bed temperature and wait for it to be reached
;LAYER_CHANGE
;Z:0.2
;HEIGHT:0.2
G1 Z0.2 F9000
M73 P0 R16
G1 E-1 F3000
M204 S1000
G1 X154.951 Y147.186 F9000
G1 E0 F1800
;TYPE:Skirt
;WIDTH:0.52
G1 X154.115 Y148.259 E0.05398
G1 X153.503 Y149.387 E0.10489
G1 X153.201 Y150.184 E0.1387
G1 X152.915 Y151.353 E0.18642
G1 X152.808 Y152.62 E0.23688
G1 X152.814 Y177.533 E1.22517
G1 X152.901 Y178.547 E1.26553
G1 X153.121 Y179.564 E1.3068
G1 X153.47 Y180.544 E1.34808
G1 X153.943 Y181.47 E1.3893
G1 X154.388 Y182.133 E1.42099
G1 X155.113 Y182.994 E1.46562
G1 X156.255 Y184.137 E1.52974
G1 X157.916 Y185.251 E1.60908
G1 X159.896 Y185.647 E1.68919
G1 X171.104 Y185.647 E2.13377
G1 X173.063 Y185.259 E2.21299
G1 X174.743 Y184.139 E2.29309
G1 X175.12 Y183.762 E2.31425
G1 X176.231 Y182.103 E2.39348
G1 X176.628 Y180.123 E2.47358
G1 X176.628 Y149.877 E3.6734
G1 X176.24 Y147.918 E3.75263
G1 X175.12 Y146.238 E3.83273
G1 X174.743 Y145.861 E3.8539
G1 X173.084 Y144.749 E3.93312
G1 X171.104 Y144.353 E4.01322
G1 X159.897 Y144.353 E4.45779
G1 X157.903 Y144.755 E4.53849
G1 X156.231 Y145.888 E4.61859
G1 X154.951 Y147.186 E4.69091
G1 X155.291 Y147.521 F9000
G1 F1800
G1 X154.507 Y148.531 E4.74165
G1 X153.933 Y149.593 E4.7895
G1 X153.659 Y150.316 E4.82018
G1 X153.387 Y151.421 E4.86535
G1 X153.285 Y152.62 E4.91307
G1 X153.291 Y177.533 E5.90136
G1 X153.374 Y178.488 E5.93936
G1 X153.583 Y179.444 E5.97819
G1 X153.913 Y180.365 E6.01702
G1 X154.762 Y181.837 E6.08443
G1 X155.45 Y182.657 E6.12687
G1 X156.592 Y183.8 E6.19099
G1 X158.015 Y184.774 E6.25939
G1 X159.896 Y185.17 E6.33565
G1 X171.104 Y185.17 E6.78023
G1 X172.796 Y184.852 E6.84851
G1 X174.406 Y183.802 E6.92478
M73 P1 R16
G1 X174.783 Y183.425 E6.94593
G1 X175.755 Y182.004 E7.01422
G1 X176.15 Y180.123 E7.09048
G1 X176.151 Y149.877 E8.29031
G1 X175.833 Y148.185 E8.3586
G1 X174.783 Y146.575 E8.43486
G1 X174.406 Y146.198 E8.45602
G1 X172.985 Y145.226 E8.52431
G1 X171.104 Y144.83 E8.60057
G1 X159.897 Y144.83 E9.04514
G1 X158.173 Y145.16 E9.11477
G1 X156.571 Y146.222 E9.19103
G1 X155.291 Y147.521 E9.26335
G1 X155.631 Y147.856 F9000
G1 F1800
G1 X154.899 Y148.803 E9.31085
G1 X154.364 Y149.798 E9.35565
G1 X153.859 Y151.49 E9.42569
G1 X153.762 Y152.62 E9.47069
G1 X153.801 Y178.056 E10.4797
G1 X153.95 Y178.961 E10.51609
G1 X154.215 Y179.839 E10.55247
G1 X154.59 Y180.675 E10.58885
G1 X155.137 Y181.541 E10.62946
G1 X155.788 Y182.319 E10.66972
G1 X156.93 Y183.463 E10.73383
G1 X158.119 Y184.297 E10.79147
G1 X159.896 Y184.693 E10.86369
G1 X171.104 Y184.693 E11.30827
G1 X172.532 Y184.442 E11.36581
G1 X174.068 Y183.465 E11.43802
G1 X174.445 Y183.088 E11.45918
G1 X175.278 Y181.9 E11.51672
G1 X175.673 Y180.123 E11.58894
G1 X175.674 Y149.877 E12.78876
G1 X175.423 Y148.449 E12.8463
G1 X174.445 Y146.913 E12.91852
G1 X174.068 Y146.535 E12.93969
G1 X172.881 Y145.703 E12.99723
G1 X171.104 Y145.307 E13.06944
G1 X159.897 Y145.307 E13.51401
G1 X158.439 Y145.569 E13.57275
G1 X156.91 Y146.557 E13.64497
G1 X155.631 Y147.856 E13.71729
G1 X155.971 Y148.191 F9000
G1 F1800
G1 X155.291 Y149.075 E13.76155
G1 X154.794 Y150.003 E13.8033
G1 X154.331 Y151.558 E13.86766
G1 X154.239 Y152.62 E13.90993
G1 X154.274 Y177.996 E14.91659
G1 X154.411 Y178.84 E14.95053
G1 X154.657 Y179.66 E14.98446
G1 X155.006 Y180.441 E15.0184
G1 X155.511 Y181.245 E15.05607
G1 X156.125 Y181.982 E15.09414
G1 X157.268 Y183.126 E15.15825
G1 X158.23 Y183.821 E15.20535
G1 X159.896 Y184.216 E15.27329
G1 X171.104 Y184.216 E15.71786
G1 X172.274 Y184.027 E15.76488
G1 X173.731 Y183.127 E15.83281
G1 X174.108 Y182.75 E15.85397
G1 X174.802 Y181.789 E15.90098
G1 X175.196 Y180.123 E15.96891
G1 X175.196 Y149.877 E17.16874
G1 X175.007 Y148.707 E17.21575
G1 X174.108 Y147.25 E17.28369
G1 X173.731 Y146.873 E17.30485
G1 X172.77 Y146.179 E17.35186
G1 X171.104 Y145.784 E17.4198
G1 X159.897 Y145.784 E17.86436
M73 P2 R16
G1 X158.701 Y145.982 E17.91245
G1 X157.25 Y146.892 E17.98038
G1 X155.971 Y148.191 E18.05269
G1 X156.311 Y148.525 F9000
G1 F1800
G1 X155.683 Y149.347 E18.09372
G1 X155.225 Y150.209 E18.13242
G1 X154.803 Y151.627 E18.1911
G1 X154.717 Y152.62 E18.23065
G1 X154.747 Y177.937 E19.23495
G1 X154.968 Y179.083 E19.28127
G1 X155.605 Y180.532 E19.34406
G1 X156.463 Y181.645 E19.39981
G1 X157.605 Y182.789 E19.46392
G1 X158.349 Y183.345 E19.50075
G1 X159.896 Y183.739 E19.56411
G1 X171.104 Y183.739 E20.00869
G1 X172.021 Y183.606 E20.04545
G1 X173.394 Y182.79 E20.1088
G1 X174.325 Y181.671 E20.16658
G1 X174.719 Y180.123 E20.22993
G1 X174.719 Y149.877 E21.42976
G1 X174.587 Y148.96 E21.46652
G1 X173.771 Y147.587 E21.52987
G1 X172.651 Y146.655 E21.58766
G1 X171.104 Y146.261 E21.65101
G1 X159.897 Y146.261 E22.09558
G1 X158.957 Y146.401 E22.13327
G1 X157.59 Y147.227 E22.19663
G1 X156.311 Y148.525 E22.26894
G92 E0
G1 E-1 F3000
; printing object Cable guide F-ST120.01.STL id:0 copy 0
EXCLUDE_OBJECT_START NAME=Cable_guide_F_ST120_01_STL_id_0_copy_0
; acceleration to travel
M204 S3000
G1 X159.366 Y150.129 F9000
; decel to extrusion
M204 S1000
G1 X160.384 Y150.664
; end travel
G1 E0 F1800
;TYPE:Internal perimeter
;WIDTH:0.5
G1 X170.315 Y150.664 E0.37745
G1 X170.313 Y152.325 E0.44056
G1 X160.224 Y152.336 E0.82398
G1 X159.745 Y152.409 E0.8424
G1 X159.104 Y152.827 E0.87148
G1 X159.156 Y152.312 E0.89116
G1 X159.241 Y152.017 E0.90281
G1 X159.354 Y151.779 E0.91282
G1 X159.517 Y151.544 E0.92369
G1 X160.384 Y150.664 E0.97065
G92 E0
G1 E-1 F3000
; acceleration to travel
M204 S3000
G1 X160.033 Y171.82 F9000
; decel to extrusion
M204 S1000
G1 X159.916 Y178.872
; end travel
G1 E0 F1800
G1 X160.048 Y178.632 E0.0104
G1 X160.194 Y178.664 E0.01608
G1 X170.31 Y178.672 E0.40058
G1 X170.313 Y179.336 E0.4258
G1 X160.379 Y179.336 E0.80336
G1 X159.916 Y178.872 E0.82824
G92 E0
G1 E-1 F3000
; acceleration to travel
M204 S3000
G1 X160.124 Y157.373 F9000
; decel to extrusion
M204 S1000
G1 X160.193 Y150.207
; end travel
G1 E0 F1800
G1 X170.773 Y150.207 E0.40212
G1 X170.769 Y152.781 E0.49996
G1 X160.259 Y152.793 E0.8994
G1 X159.912 Y152.846 E0.91274
G1 X159.492 Y153.119 E0.93177
G1 X159.288 Y153.515 E0.94868
G1 X159.248 Y153.824 E0.96054
G1 X159.248 Y177.218 E1.84967
G1 X159.343 Y177.671 E1.86726
G1 X159.748 Y178.099 E1.88965
G1 X160.243 Y178.207 E1.9089
G1 X170.766 Y178.216 E2.30882
G1 X170.772 Y179.793 E2.36877
G1 X160.19 Y179.793 E2.77097
G1 X159.284 Y178.886 E2.8197
G1 X159.015 Y178.546 E2.83617
G1 X158.881 Y178.308 E2.84654
G1 X158.775 Y178.045 E2.85732
G1 X158.703 Y177.771 E2.86809
G1 X158.668 Y177.488 E2.87893
G1 X158.662 Y152.654 E3.82276
M73 P3 R16
G1 X158.705 Y152.225 E3.83916
G1 X158.812 Y151.854 E3.85382
G1 X158.957 Y151.549 E3.86667
G1 X159.164 Y151.251 E3.88044
G1 X160.193 Y150.207 E3.93617
G1 X160.001 Y149.75 F9000
;TYPE:External perimeter
G1 F1800
G1 X171 Y149.75 E4.35418
G1 X171.115 Y149.865 E4.36038
G1 X171.231 Y149.981 E4.36658
G1 X171.226 Y152.977 E4.48045
G1 X171.199 Y153.111 E4.48564
G1 X171.13 Y153.238 E4.49115
G1 X160.294 Y153.25 E4.90298
G1 X160.079 Y153.283 E4.91126
G1 X159.843 Y153.437 E4.92195
G1 X159.731 Y153.653 E4.93122
G1 X159.705 Y153.854 E4.9389
G1 X159.705 Y177.171 E5.8251
G1 X159.764 Y177.451 E5.83598
G1 X159.983 Y177.683 E5.8481
G1 X160.292 Y177.75 E5.86013
G1 X171.127 Y177.759 E6.2719
G1 X171.196 Y177.878 E6.27713
G1 X171.222 Y177.993 E6.28161
G1 X171.23 Y180.02 E6.35864
G1 X171 Y180.25 E6.37101
G1 X160 Y180.25 E6.78908
G1 X158.941 Y179.19 E6.84601
G1 X158.634 Y178.801 E6.86484
G1 X158.468 Y178.507 E6.8777
G1 X158.34 Y178.189 E6.89073
G1 X158.253 Y177.857 E6.90375
G1 X158.21 Y177.517 E6.9168
G1 X158.205 Y152.632 E7.86259
G1 X158.255 Y152.139 E7.88142
G1 X158.383 Y151.692 E7.89908
G1 X158.561 Y151.319 E7.91479
G1 X158.811 Y150.959 E7.93145
G1 X160.001 Y149.75 E7.99594
;WIPE_START
M204 S4000
G1 X160.285 Y150.032 F9000
;WIPE_END
G92 E0
G1 E-1 F3000
; acceleration to travel
M204 S3000
G1 X159.475 Y152.267 F9000
; decel to extrusion
M204 S1000
G1 X159.205 Y153.012
; end travel
G1 E0 F1800
;TYPE:Gap fill
;WIDTH:0.207098
G1 X159.167 Y153.069 E0.00094
G1 X159.113 Y153.149 E0.00225
;WIDTH:0.242655
G1 X159.078 Y153.2 E0.00328
;WIDTH:0.290075
G1 X159.043 Y153.251 E0.00455
G1 X159.008 Y153.302 E0.00583
G1 X158.985 Y153.399 E0.00788
;WIDTH:0.254827
G1 X158.979 Y153.437 E0.00855
G1 X158.967 Y153.618 E0.01175
;WIDTH:0.2041
G1 X158.955 Y153.8 E0.01419
G1 X158.955 Y153.81 E0.01433
G1 X158.958 Y177.24 E0.32834
G1 X158.959 Y177.257 E0.32856
G1 X158.97 Y177.363 E0.32999
;WIDTH:0.271254
G1 X158.981 Y177.468 E0.332
G1 X159.001 Y177.589 E0.33433
G1 X159.021 Y177.71 E0.33665
G1 X159.041 Y177.795 E0.33833
G1 X159.064 Y177.854 E0.33951
;WIDTH:0.324597
G1 X159.109 Y177.935 E0.34168
G1 X159.174 Y178.035 E0.34448
;WIDTH:0.413468
G1 X159.238 Y178.136 E0.34817
G1 X159.302 Y178.223 E0.3515
;WIDTH:0.481533
G1 X159.366 Y178.31 E0.35544
G1 X159.481 Y178.442 E0.3618
G1 X159.532 Y178.486 E0.36427
;WIDTH:0.533947
G1 X159.584 Y178.53 E0.36705
;WIDTH:0.430567
G1 X159.616 Y178.569 E0.36867
G1 X159.758 Y178.723 E0.37543
G1 X160.315 Y178.974 F9000
;WIDTH:0.223746
G1 F1800
G1 X160.417 Y178.987 E0.37696
;WIDTH:0.284747
G1 X160.518 Y179 E0.37902
G1 X165.249 Y179.002 E0.47415
G1 X169.98 Y179.004 E0.56928
G1 X170.041 Y179.004 E0.5705
G1 X170.101 Y179.004 E0.57172
G92 E0
G1 E-1 F3000
; acceleration to travel
M204 S3000
G1 X169.488 Y158.581 F9000
; decel to extrusion
M204 S1000
G1 X169.254 Y150.801
; end travel
G1 E0 F1800
;TYPE:Solid infill
;WIDTH:0.526372
G1 F3600
G1 X170.176 Y151.724 E0.05219
G1 X169.994 Y152.188 F9000
G1 F3600
G1 X168.608 Y150.801 E0.13066
G1 X167.961 Y150.801 F9000
G1 F3600
G1 X169.349 Y152.189 E0.20917
G1 X168.703 Y152.189 F9000
G1 F3600
G1 X167.315 Y150.801 E0.28771
G1 X166.668 Y150.801 F9000
G1 F3600
G1 X168.057 Y152.19 E0.3663
G1 X167.412 Y152.191 F9000
G1 F3600
G1 X166.022 Y150.801 E0.44493
G1 X165.376 Y150.801 F9000
G1 F3600
G1 X166.766 Y152.192 E0.52361
G1 X166.12 Y152.192 F9000
G1 F3600
G1 X164.729 Y150.801 E0.60232
G1 X164.083 Y150.801 F9000
G1 F3600
G1 X165.475 Y152.193 E0.68107
G1 X164.829 Y152.194 F9000
G1 F3600
G1 X163.436 Y150.801 E0.75987
G1 X162.79 Y150.801 F9000
G1 F3600
G1 X164.183 Y152.195 E0.8387
G1 X163.538 Y152.195 F9000
G1 F3600
G1 X162.144 Y150.801 E0.91758
G1 X161.497 Y150.801 F9000
G1 F3600
G1 X162.892 Y152.196 E0.99649
G1 X162.246 Y152.197 F9000
G1 F3600
G1 X160.851 Y150.801 E1.07545
G1 X160.324 Y150.921 F9000
G1 F3600
G1 X161.6 Y152.197 E1.14769
G1 X160.955 Y152.198 F9000
G1 F3600
G1 X160.003 Y151.246 E1.20155
G1 X159.682 Y151.572 F9000
G1 F3600
G1 X160.309 Y152.199 E1.23703
;LAYER_CHANGE
;Z:0.4
;HEIGHT:0.2
; stop printing object Cable guide F-ST120.01.STL id:0 copy 0
EXCLUDE_OBJECT_END NAME=Cable_guide_F_ST120_01_STL_id_0_copy_0
M204 S4000
G1 Z0.4 F9000
; printing object Cable guide F-ST120.01.STL id:0 copy 0
EXCLUDE_OBJECT_START NAME=Cable_guide_F_ST120_01_STL_id_0_copy_0
; acceleration to travel
M204 S3000
G1 X165.606 Y151.325
; decel to extrusion
M204 S2500
G1 X170.788 Y150.471
; end travel
;TYPE:Internal perimeter
;WIDTH:0.46
G1 F4800
G1 X170.788 Y153.017 E1.32531
G1 X160.904 Y153.017 E1.66812
G1 X160.402 Y153.102 E1.68575
G1 X159.863 Y153.442 E1.70786
G1 X159.537 Y154.004 E1.73038
G1 X159.472 Y154.49 E1.7474
G1 X159.472 Y176.523 E2.5115
G1 X159.508 Y176.84 E2.52256
G1 X159.626 Y177.181 E2.53509
G1 X159.845 Y177.509 E2.54875
G1 X160.176 Y177.782 E2.56365
G1 X160.594 Y177.943 E2.57919
G1 X160.917 Y177.983 E2.59048
G1 X170.788 Y177.993 E2.93279
G1 X170.788 Y179.529 E2.98605
G1 X160.299 Y179.529 E3.34983
G1 X159.481 Y178.71 E3.38997
G1 X159.234 Y178.398 E3.40375
G1 X159.119 Y178.193 E3.41191
G1 X159.025 Y177.962 E3.42056
G1 X158.963 Y177.721 E3.4292
G1 X158.931 Y177.471 E3.43793
G1 X158.926 Y152.668 E4.29811
M73 P4 R15
G1 X158.966 Y152.275 E4.31181
G1 X159.065 Y151.934 E4.32413
G1 X159.206 Y151.649 E4.33516
G1 X159.379 Y151.406 E4.34552
G1 X160.302 Y150.471 E4.39109
G1 X170.788 Y150.471 E4.75474
; acceleration to travel
M204 S3000
G1 X171.016 Y150.424 F9000
; decel to extrusion
M204 S2500
G1 X171.205 Y150.385
; end travel
G1 F4800
G1 X171.205 Y152.896 E4.84183
G1 X171.191 Y153.098 E4.84885
G1 X171.15 Y153.284 E4.85546
G1 X171.083 Y153.434 E4.86114
G1 X160.939 Y153.434 E5.21295
G1 X160.554 Y153.499 E5.22648
G1 X160.172 Y153.74 E5.24214
G1 X159.94 Y154.142 E5.25823
G1 X159.889 Y154.518 E5.27142
G1 X159.889 Y176.499 E6.03371
G1 X159.918 Y176.747 E6.04236
G1 X160.003 Y176.995 E6.05145
G1 X160.158 Y177.226 E6.0611
G1 X160.39 Y177.417 E6.07154
G1 X160.696 Y177.536 E6.08293
G1 X160.943 Y177.566 E6.09155
G1 X171.108 Y177.577 E6.44408
G1 X171.18 Y177.837 E6.45346
G1 X171.205 Y178.094 E6.46239
G1 X171.205 Y179.615 E6.51516
G1 X170.874 Y179.946 E6.5314
G1 X160.126 Y179.946 E6.90415
G1 X159.169 Y178.988 E6.95112
G1 X158.887 Y178.632 E6.96688
G1 X158.742 Y178.375 E6.9771
G1 X158.629 Y178.093 E6.98762
G1 X158.552 Y177.8 E6.99814
G1 X158.514 Y177.498 E7.00871
G1 X158.509 Y152.648 E7.87052
G1 X158.554 Y152.195 E7.88628
G1 X158.675 Y151.782 E7.90119
G1 X158.846 Y151.434 E7.91466
G1 X159.059 Y151.136 E7.92734
G1 X160.128 Y150.054 E7.98012
G1 X170.874 Y150.054 E8.3528
G1 X171.205 Y150.385 E8.36904
M204 S1500
G1 X171.592 Y150.225 F9000
;TYPE:External perimeter
;WIDTH:0.4
G1 F2400
G1 X171.592 Y152.91 E8.44876
G1 X171.575 Y153.154 E8.45603
G1 X171.519 Y153.406 E8.46369
G1 X171.429 Y153.61 E8.47032
G1 X171.336 Y153.727 E8.47477
G1 X171.229 Y153.799 E8.47857
G1 X171.126 Y153.821 E8.48172
G1 X160.971 Y153.821 E8.78321
G1 X160.695 Y153.868 E8.79153
G1 X160.459 Y154.017 E8.7998
G1 X160.313 Y154.269 E8.80848
G1 X160.276 Y154.544 E8.81672
G1 X160.276 Y176.476 E9.46791
G1 X160.297 Y176.661 E9.47341
G1 X160.352 Y176.821 E9.47846
G1 X160.448 Y176.964 E9.48354
G1 X160.588 Y177.079 E9.48892
G1 X160.791 Y177.157 E9.49539
G1 X160.967 Y177.179 E9.50065
G1 X171.199 Y177.19 E9.80445
G1 X171.306 Y177.247 E9.80806
G1 X171.402 Y177.35 E9.81227
G1 X171.497 Y177.532 E9.81836
G1 X171.562 Y177.766 E9.82557
G1 X171.592 Y178.075 E9.83476
G1 X171.592 Y179.775 E9.88526
G1 X171.035 Y180.333 E9.90869
G1 X159.966 Y180.333 E10.23734
G1 X158.879 Y179.246 E10.28299
G1 X158.565 Y178.848 E10.29804
G1 X158.393 Y178.543 E10.30843
G1 X158.26 Y178.215 E10.31893
G1 X158.171 Y177.873 E10.32943
G1 X158.127 Y177.522 E10.33994
G1 X158.122 Y152.628 E11.07906
G1 X158.173 Y152.121 E11.09419
G1 X158.313 Y151.642 E11.10902
G1 X158.513 Y151.235 E11.12249
G1 X158.762 Y150.886 E11.13519
G1 X159.966 Y149.667 E11.1861
G1 X171.035 Y149.667 E11.51473
G1 X171.592 Y150.225 E11.53815
;WIPE_START
M204 S4000
G1 X171.31 Y150.507 F9000
;WIPE_END
M204 S3000
G1 X169.625 Y152.899
;TYPE:Solid infill
;WIDTH:0.581203
G1 F4800
G1 X170.671 Y151.854 E11.60412
G1 X170.671 Y151.122 F9000
G1 F4800
G1 X168.894 Y152.899 E11.71624
G1 X168.163 Y152.899 F9000
G1 F4800
