; generated by SuperSlicer 2.5.59 on 2022-12-30 at 00:51:51 UTC


;
;

;
;
; 

; external perimeters extrusion width = 0.40mm
; perimeters extrusion width = 0.46mm
; infill extrusion width = 0.64mm
; solid infill extrusion width = 0.56mm
; top infill extrusion width = 0.40mm
; first layer extrusion width = 0.50mm

; external perimeters extrusion width = 0.40mm
; perimeters extrusion width = 0.46mm
; infill extrusion width = 0.64mm
; solid infill extrusion width = 0.56mm
; top infill extrusion width = 0.40mm
; first layer extrusion width = 0.50mm

; external perimeters extrusion width = 0.40mm
; perimeters extrusion width = 0.46mm
; infill extrusion width = 0.64mm
; solid infill extrusion width = 0.56mm
; top infill extrusion width = 0.40mm
; first layer extrusion width = 0.50mm

; external perimeters extrusion width = 0.40mm
; perimeters extrusion width = 0.46mm
; infill extrusion width = 0.64mm
; solid infill extrusion width = 0.56mm
; top infill extrusion width = 0.40mm
; first layer extrusion width = 0.50mm

; external perimeters extrusion width = 0.40mm
; perimeters extrusion width = 0.46mm
; infill extrusion width = 0.64mm
; solid infill extrusion width = 0.56mm
; top infill extrusion width = 0.40mm
; first layer extrusion width = 0.50mm

; external perimeters extrusion width = 0.40mm
; perimeters extrusion width = 0.46mm
; infill extrusion width = 0.64mm
; solid infill extrusion width = 0.56mm
; top infill extrusion width = 0.40mm
; first layer extrusion width = 0.50mm

; object:{"name":"cable_clip","id":"cable_clip.stl id:0 copy 0","object_center":[165.000001,153.750000,0.000000],"boundingbox_center":[165.000001,153.750000,3.050000],"boundingbox_size":[15.000000,16.500000,6.100000]}
; object:{"name":"cable_clip","id":"cable_clip.stl id:1 copy 0","object_center":[186.000001,153.750000,0.000000],"boundingbox_center":[186.000001,153.750000,3.050000],"boundingbox_size":[15.000000,16.500000,6.100000]}
; object:{"name":"cable_clip","id":"cable_clip.stl id:2 copy 0","object_center":[165.000001,176.250000,0.000000],"boundingbox_center":[165.000001,176.250000,3.050000],"boundingbox_size":[15.000000,16.500000,6.100000]}
; object:{"name":"cable_clip","id":"cable_clip.stl id:3 copy 0","object_center":[186.000001,176.250000,0.000000],"boundingbox_center":[186.000001,176.250000,3.050000],"boundingbox_size":[15.000000,16.500000,6.100000]}
; object:{"name":"cable_clip","id":"cable_clip.stl id:4 copy 0","object_center":[144.000001,153.750000,0.000000],"boundingbox_center":[144.000001,153.750000,3.050000],"boundingbox_size":[15.000000,16.500000,6.100000]}
; object:{"name":"cable_clip","id":"cable_clip.stl id:5 copy 0","object_center":[144.000001,176.250001,0.000000],"boundingbox_center":[144.000001,176.250001,3.050000],"boundingbox_size":[15.000000,16.500000,6.100000]}
; plater:{"center":[165.000001,165.000000,0.000000],"boundingbox_center":[165.000001,165.000000,3.050000],"boundingbox_size":[57.000000,39.000001,6.100000]}

M73 P0 R37


; Pre-Processed for Cancel-Object support by preprocess_cancellation v0.2.0
; 6 known objects
EXCLUDE_OBJECT_DEFINE NAME=cable_clip_stl_id_0_copy_0 CENTER=164.970,153.015 POLYGON=[[157.7,145.7],[157.7,161.8],[172.3,161.8],[172.3,145.7]]
EXCLUDE_OBJECT_DEFINE NAME=cable_clip_stl_id_4_copy_0 CENTER=143.970,153.013 POLYGON=[[136.7,145.7],[136.7,161.8],[151.3,161.8],[151.3,145.7]]
EXCLUDE_OBJECT_DEFINE NAME=cable_clip_stl_id_5_copy_0 CENTER=143.970,175.516 POLYGON=[[136.7,168.2],[136.7,184.3],[151.3,184.3],[151.3,168.2]]
EXCLUDE_OBJECT_DEFINE NAME=cable_clip_stl_id_2_copy_0 CENTER=164.974,175.515 POLYGON=[[157.7,168.2],[157.7,184.3],[172.3,184.3],[172.3,168.2]]
EXCLUDE_OBJECT_DEFINE NAME=cable_clip_stl_id_3_copy_0 CENTER=185.974,175.515 POLYGON=[[178.7,168.2],[178.7,184.3],[193.3,184.3],[193.3,168.2]]
EXCLUDE_OBJECT_DEFINE NAME=cable_clip_stl_id_1_copy_0 CENTER=185.976,153.017 POLYGON=[[178.7,145.7],[178.7,161.8],[193.3,161.8],[193.3,145.7]]
;TYPE:Custom
; custom gcode: start_gcode
START_PRINT T_BED=60 T_EXTRUDER=200
; custom gcode end: start_gcode
M107
G21 ; set units to millimeters
G90 ; use absolute coordinates
M82 ; use absolute distances for extrusion
G92 E0
; custom gcode: start_filament_gcode
; Filament gcode
PRESSURE_ADVANCE_SELECT FILAMENT=PLA
; custom gcode end: start_filament_gcode
;_TOOLCHANGE 0
M104 S200 ; set temperature
M109 S200 ; set temperature and wait for it to be reached
M190 S60 ; set bed temperature and wait for it to be reached
;LAYER_CHANGE
;Z:0.2
;HEIGHT:0.2
G1 Z0.2 F9000
M73 P0 R37
G1 E-0.8 F3000
M204 S1000
G1 X134.577 Y142.635 F9000
G1 E0 F1800
;TYPE:Skirt
;WIDTH:0.52
G1 X133.635 Y143.577 E0.05017
G1 X132.803 Y144.764 E0.10484
G1 X132.407 Y146.541 E0.17344
G1 X132.407 Y178.9 E1.39291
G1 X132.99 Y181.031 E1.47617
G1 X135.09 Y184.589 E1.63185
G1 X135.735 Y185.422 E1.67157
G1 X137.678 Y187.365 E1.77512
G1 X138.866 Y188.197 E1.82978
G1 X140.643 Y188.593 E1.89839
G1 X189.357 Y188.593 E3.73423
G1 X190.786 Y188.342 E3.78889
G1 X192.322 Y187.365 E3.8575
G1 X194.265 Y185.422 E3.96105
G1 X194.91 Y184.589 E4.00077
G1 X197.01 Y181.031 E4.15645
G1 X197.593 Y178.9 E4.23971
G1 X197.593 Y146.541 E5.45918
G1 X197.342 Y145.113 E5.51384
G1 X196.365 Y143.577 E5.58245
G1 X195.423 Y142.635 E5.63262
G1 X194.236 Y141.803 E5.68728
G1 X192.459 Y141.407 E5.75589
G1 X137.541 Y141.407 E7.82549
G1 X136.113 Y141.658 E7.88015
G1 X134.577 Y142.635 E7.94876
G1 X134.914 Y142.973 F9000
G1 F1800
G1 X133.973 Y143.914 E7.99893
G1 X133.279 Y144.875 E8.0436
G1 X132.884 Y146.541 E8.10813
G1 X132.884 Y178.9 E9.3276
G1 X133.4 Y180.789 E9.40139
G1 X135.5 Y184.346 E9.55706
G1 X136.073 Y185.084 E9.59227
G1 X138.016 Y187.027 E9.69581
G1 X138.976 Y187.721 E9.74048
G1 X140.643 Y188.116 E9.80501
G1 X189.357 Y188.116 E11.64085
G1 X190.527 Y187.927 E11.68552
G1 X191.984 Y187.027 E11.75005
G1 X193.927 Y185.084 E11.8536
G1 X194.5 Y184.346 E11.88881
G1 X196.6 Y180.789 E12.04448
G1 X197.116 Y178.9 E12.11827
G1 X197.116 Y146.541 E13.33773
G1 X196.927 Y145.371 E13.3824
G1 X196.027 Y143.914 E13.44693
G1 X195.086 Y142.973 E13.49711
G1 X194.125 Y142.279 E13.54177
G1 X192.459 Y141.884 E13.60631
G1 X137.541 Y141.884 E15.67591
G1 X136.371 Y142.073 E15.72057
G1 X134.914 Y142.973 E15.78511
G1 X135.251 Y143.31 F9000
G1 F1800
G1 X134.31 Y144.251 E15.83528
G1 X133.755 Y144.994 E15.8702
G1 X133.361 Y146.541 E15.93039
G1 X133.361 Y178.9 E17.14985
G1 X133.811 Y180.546 E17.21417
G1 X135.911 Y184.104 E17.36984
G1 X136.41 Y184.747 E17.40053
G1 X138.353 Y186.69 E17.50407
G1 X139.095 Y187.245 E17.53899
G1 X140.643 Y187.639 E17.59918
G1 X189.357 Y187.639 E19.43502
G1 X190.274 Y187.506 E19.46994
G1 X191.647 Y186.69 E19.53013
G1 X193.59 Y184.747 E19.63368
G1 X194.089 Y184.104 E19.66436
G1 X196.189 Y180.546 E19.82003
G1 X196.639 Y178.9 E19.88435
G1 X196.639 Y146.541 E21.10381
M73 P1 R37
G1 X196.506 Y145.624 E21.13873
G1 X195.69 Y144.251 E21.19892
G1 X194.749 Y143.31 E21.2491
G1 X194.006 Y142.755 E21.28402
G1 X192.459 Y142.361 E21.3442
G1 X137.541 Y142.361 E23.41381
G1 X136.624 Y142.494 E23.44872
G1 X135.251 Y143.31 E23.50891
G92 E0
G1 E-0.8 F3000
; printing object cable_clip.stl id:0 copy 0
EXCLUDE_OBJECT_START NAME=cable_clip_stl_id_0_copy_0
; acceleration to travel
M204 S3000
G1 X154.978 Y155.951 F9000
; decel to extrusion
M204 S1000
G1 X161.553 Y160.164
; end travel
G1 E0 F1800
;TYPE:Internal perimeter
;WIDTH:0.5
G1 X162.486 Y160.164 E0.03367
G1 X162.486 Y160.736 E0.05431
G1 X162.125 Y160.736 E0.06734
G1 X161.553 Y160.164 E0.09653
; acceleration to travel
M204 S3000
G1 X160.726 Y159.821 F9000
; decel to extrusion
M204 S1000
G1 X160.45 Y159.707
; end travel
G1 F1800
G1 X162.943 Y159.707 E0.18654
G1 X162.943 Y161.193 E0.24019
G1 X161.936 Y161.193 E0.27656
G1 X160.45 Y159.707 E0.35243
G92 E0
G1 E-0.8 F3000
; acceleration to travel
M204 S3000
G1 X165.747 Y160.05 F9000
; decel to extrusion
M204 S1000
G1 X167.513 Y160.164
; end travel
G1 E0 F1800
G1 X168.447 Y160.164 E0.03371
G1 X167.875 Y160.736 E0.0629
G1 X167.513 Y160.736 E0.07595
G1 X167.513 Y160.164 E0.0966
G1 X167.056 Y159.707 F9000
G1 F1800
G1 X169.55 Y159.707 E0.18666
G1 X168.064 Y161.193 E0.26253
G1 X167.057 Y161.193 E0.29891
G1 X167.056 Y159.707 E0.35256
G92 E0
G1 E-0.8 F3000
; acceleration to travel
M204 S3000
G1 X161.18 Y152.92 F9000
; decel to extrusion
M204 S1000
G1 X159.221 Y150.657
; end travel
G1 E0 F1800
G1 X159.936 Y151.331 E0.03548
G1 X160.592 Y151.841 E0.06548
G1 X161.15 Y152.194 E0.08932
G1 X161.7 Y152.482 E0.11174
G1 X162.467 Y152.796 E0.14166
G1 X162.75 Y152.881 E0.15232
G1 X162.375 Y153.438 E0.17656
G1 X162.11 Y154.103 E0.2024
G1 X162.029 Y154.738 E0.2255
G1 X162.029 Y155.828 E0.26488
G1 X160.979 Y154.779 E0.31846
G1 X159.221 Y154.779 E0.38194
G1 X159.221 Y150.657 E0.53076
G1 X159.015 Y149.61 F9000
G1 F1800
G1 X159.424 Y150.158 E0.55548
G1 X159.813 Y150.587 E0.57637
G1 X160.234 Y150.984 E0.59726
G1 X160.855 Y151.467 E0.62568
G1 X161.379 Y151.798 E0.64804
G1 X161.893 Y152.068 E0.66901
G1 X162.62 Y152.365 E0.69737
G1 X163.176 Y152.532 E0.71833
G1 X163.684 Y152.641 E0.7371
G1 X163.057 Y153.243 E0.76847
G1 X162.781 Y153.653 E0.78631
G1 X162.556 Y154.218 E0.80829
G1 X162.486 Y154.767 E0.82825
G1 X162.486 Y156.932 E0.90642
G1 X160.79 Y155.236 E0.99301
G1 X158.764 Y155.236 E1.06616
G1 X158.764 Y149.693 E1.2663
G1 X159.015 Y149.61 E1.27583
G92 E0
G1 E-0.8 F3000
; acceleration to travel
M204 S3000
G1 X165.168 Y152.07 F9000
; decel to extrusion
M204 S1000
G1 X167.219 Y152.89
; end travel
G1 E0 F1800
G1 X167.53 Y152.797 E0.01171
G1 X168.316 Y152.476 E0.04235
G1 X169.095 Y152.048 E0.07445
G1 X169.652 Y151.664 E0.09889
G1 X170.299 Y151.119 E0.12943
G1 X170.779 Y150.613 E0.1546
G1 X170.779 Y154.779 E0.305
M73 P1 R37
G1 X169.021 Y154.779 E0.36848
G1 X167.967 Y155.832 E0.42226
G1 X167.967 Y154.559 E0.46824
G1 X167.812 Y153.848 E0.49449
G1 X167.468 Y153.17 E0.52194
G1 X167.219 Y152.89 E0.53548
G1 X166.22 Y152.653 F9000
G1 F1800
G1 X166.774 Y152.545 E0.55586
G1 X167.378 Y152.365 E0.5786
G1 X168.119 Y152.063 E0.60749
G1 X168.855 Y151.659 E0.63781
G1 X169.375 Y151.3 E0.66061
G1 X169.985 Y150.786 E0.68943
G1 X170.534 Y150.207 E0.71823
G1 X170.989 Y149.624 E0.74495
G1 X171.236 Y149.708 E0.75438
G1 X171.236 Y155.236 E0.95395
G1 X169.21 Y155.236 E1.0271
G1 X167.511 Y156.935 E1.11385
G1 X167.51 Y154.608 E1.19787
G1 X167.378 Y154.003 E1.22023
G1 X167.087 Y153.43 E1.24344
G1 X166.661 Y152.949 E1.26661
G1 X166.22 Y152.653 E1.28578
G92 E0
G1 E-0.8 F3000
; acceleration to travel
M204 S3000
G1 X160.509 Y149.022 F9000
; decel to extrusion
M204 S1000
G1 X158.606 Y147.812
; end travel
G1 E0 F1800
G1 X158.792 Y148.293 E0.01864
G1 X159.033 Y148.777 E0.03815
G1 X159.333 Y149.272 E0.05903
G1 X159.777 Y149.867 E0.08587
G1 X160.139 Y150.266 E0.10534
G1 X160.532 Y150.636 E0.1248
G1 X161.118 Y151.093 E0.15163
G1 X161.607 Y151.402 E0.17252
G1 X162.086 Y151.653 E0.19203
G1 X162.773 Y151.933 E0.21883
G1 X163.29 Y152.089 E0.23834
G1 X163.856 Y152.211 E0.25922
G1 X164.594 Y152.296 E0.28606
G1 X165.141 Y152.307 E0.30581
G1 X165.928 Y152.245 E0.33429
G1 X166.665 Y152.101 E0.36142
G1 X167.226 Y151.934 E0.38255
G1 X167.922 Y151.65 E0.40969
G1 X168.614 Y151.269 E0.43823
G1 X169.097 Y150.937 E0.45939
G1 X169.671 Y150.453 E0.48648
G1 X170.187 Y149.909 E0.51357
G1 X170.547 Y149.447 E0.53469
G1 X170.945 Y148.817 E0.56159
G1 X171.208 Y148.295 E0.58272
G1 X171.394 Y147.812 E0.60142
G1 X171.693 Y147.867 E0.61239
G1 X171.693 Y155.693 E0.89494
G1 X169.399 Y155.693 E0.97775
G1 X167.055 Y158.038 E1.09747
G1 X167.053 Y154.657 E1.21953
G1 X166.944 Y154.157 E1.238
G1 X166.706 Y153.689 E1.25697
G1 X166.358 Y153.296 E1.27592
G1 X165.922 Y153.004 E1.29486
G1 X165.428 Y152.832 E1.31375
G1 X164.935 Y152.79 E1.33162
G1 X164.543 Y152.84 E1.34588
G1 X164.091 Y153 E1.36319
G1 X163.755 Y153.207 E1.37745
G1 X163.409 Y153.539 E1.39476
G1 X163.188 Y153.867 E1.40906
G1 X163.002 Y154.334 E1.42718
G1 X162.943 Y154.796 E1.44401
G1 X162.943 Y158.035 E1.56097
G1 X160.601 Y155.693 E1.68056
G1 X158.307 Y155.693 E1.76338
G1 X158.307 Y147.867 E2.04593
G1 X158.606 Y147.812 E2.0569
; acceleration to travel
M204 S3000
G1 X158.648 Y146.327 F9000
; decel to extrusion
M204 S1000
G1 X158.662 Y145.833
; end travel
;TYPE:External perimeter
G1 F1800
G1 X158.721 Y146.447 E2.0792
G1 X158.823 Y146.975 E2.09861
G1 X158.959 Y147.457 E2.11666
G1 X159.21 Y148.109 E2.1419
G1 X159.434 Y148.556 E2.15995
G1 X159.712 Y149.016 E2.17936
G1 X160.131 Y149.576 E2.20462
G1 X160.466 Y149.946 E2.22265
G1 X160.829 Y150.289 E2.24068
G1 X161.381 Y150.718 E2.26593
G1 X161.836 Y151.006 E2.28534
G1 X162.279 Y151.238 E2.30339
G1 X162.926 Y151.502 E2.32863
G1 X163.404 Y151.646 E2.34668
G1 X163.93 Y151.759 E2.36609
G1 X164.625 Y151.839 E2.39135
G1 X165.128 Y151.849 E2.4095
G1 X165.866 Y151.791 E2.43624
G1 X166.556 Y151.657 E2.46162
G1 X167.074 Y151.502 E2.48113
G1 X167.725 Y151.236 E2.50652
G1 X168.374 Y150.88 E2.53327
G1 X168.82 Y150.573 E2.5528
G1 X169.357 Y150.12 E2.57817
G1 X169.84 Y149.61 E2.60354
G1 X170.172 Y149.184 E2.62305
G1 X170.546 Y148.592 E2.64833
G1 X170.789 Y148.109 E2.66785
G1 X171.043 Y147.453 E2.69323
G1 X171.229 Y146.736 E2.71999
G1 X171.311 Y146.201 E2.73952
G1 X171.332 Y145.827 E2.75306
G1 X172.15 Y146.645 E2.79482
G1 X172.15 Y156.15 E3.13801
G1 X169.589 Y156.15 E3.23049
G1 X167.65 Y158.089 E3.32948
G1 X167.65 Y159.25 E3.37141
G1 X170.05 Y159.25 E3.45807
G1 X170.05 Y159.854 E3.47986
G1 X168.254 Y161.65 E3.57159
G1 X166.6 Y161.65 E3.6313
G1 X166.595 Y154.706 E3.88201
G1 X166.51 Y154.312 E3.89659
G1 X166.325 Y153.948 E3.91131
G1 X166.055 Y153.643 E3.92603
G1 X165.716 Y153.416 E3.94075
G1 X165.332 Y153.282 E3.95543
G1 X164.945 Y153.249 E3.96947
G1 X164.65 Y153.287 E3.98021
G1 X164.29 Y153.414 E3.994
G1 X164.036 Y153.57 E4.00474
G1 X163.761 Y153.835 E4.01853
G1 X163.594 Y154.082 E4.02929
G1 X163.448 Y154.449 E4.04355
G1 X163.4 Y154.825 E4.05724
G1 X163.4 Y161.65 E4.30366
G1 X161.746 Y161.65 E4.36337
G1 X159.95 Y159.854 E4.45509
G1 X159.95 Y159.25 E4.47689
G1 X162.35 Y159.25 E4.56354
G1 X162.35 Y158.089 E4.60547
G1 X160.411 Y156.15 E4.70446
G1 X157.85 Y156.15 E4.79694
G1 X157.85 Y146.645 E5.14013
G1 X158.662 Y145.833 E5.18161
;WIPE_START
M204 S4000
G1 X158.584 Y146.225 F9000
;WIPE_END
M204 S1000
G1 X158.319 Y146.474
;TYPE:Gap fill
;WIDTH:0.404124
G1 F1800
G1 X158.315 Y146.601 E5.18524
G1 X158.316 Y146.654 E5.18674
;WIDTH:0.462672
G1 X158.318 Y146.746 E5.18982
;WIDTH:0.560216
G1 X158.319 Y146.839 E5.19362
G1 X158.331 Y146.958 E5.1985
;WIDTH:0.611416
G1 X158.342 Y147.077 E5.20387
G1 X158.345 Y147.101 E5.20492
G1 X158.36 Y147.211 E5.20991
;WIDTH:0.671998
G1 X158.375 Y147.321 E5.21542
G1 X158.401 Y147.476 E5.22324
;WIDTH:0.768389
G1 X158.427 Y147.631 E5.23226
G92 E0
G1 E-0.8 F3000
; acceleration to travel
M204 S3000
G1 X160.152 Y150.897 F9000
; decel to extrusion
M204 S1000
G1 X160.809 Y152.141
; end travel
G1 E0 F1800
;TYPE:Solid infill
;WIDTH:0.538375
G1 F3600
G1 X162.193 Y153.525 E0.07608
G1 X162.009 Y153.987 F9000
G1 F3600
G1 X159.358 Y151.337 E0.2218
G1 X159.358 Y151.983 F9000
G1 F3600
G1 X161.916 Y154.541 E0.36242
G1 X161.842 Y155.114 F9000
G1 F3600
G1 X159.358 Y152.629 E0.49899
G1 X159.358 Y153.276 F9000
G1 F3600
G1 X160.724 Y154.642 E0.57408
G1 X160.078 Y154.642 F9000
G1 F3600
G1 X159.358 Y153.922 E0.61364
G92 E0
G1 E-0.8 F3000
; acceleration to travel
M204 S3000
G1 X162.031 Y157.234 F9000
; decel to extrusion
M204 S1000
G1 X162.81 Y158.2
; end travel
G1 E0 F1800
;TYPE:Gap fill
;WIDTH:0.496822
G1 X162.823 Y158.302 E0.00369
;WIDTH:0.540584
G1 X162.836 Y158.404 E0.00773
;WIDTH:0.584345
G1 X162.849 Y158.506 E0.01212
;WIDTH:0.628107
G1 X162.862 Y158.608 E0.01688
;WIDTH:0.671858
G1 X162.875 Y158.71 E0.02198
G1 X162.875 Y159.182 E0.04545
G1 X162.875 Y159.497 E0.06107
G92 E0
G1 E-0.8 F3000
; acceleration to travel
M204 S3000
G1 X166.062 Y159.497 F9000
; decel to extrusion
M204 S1000
G1 X167.124 Y159.497
; end travel
G1 E0 F1800
;WIDTH:0.673179
G1 X167.124 Y159.339 E0.00785
G1 X167.124 Y159.181 E0.0157
G1 X167.124 Y158.947 E0.02738
G1 X167.124 Y158.712 E0.03905
G1 X167.137 Y158.61 E0.04418
;WIDTH:0.630064
G1 X167.15 Y158.508 E0.04897
;WIDTH:0.586242
