; HEADER_BLOCK_START
; generated by OrcaSlicer 1.6.4-beta3 on 2023-08-18 at 20:30:25
; total layer number: 20
; HEADER_BLOCK_END

; THUMBNAIL_BLOCK_START
; THUMBNAIL_BLOCK_END

; external perimeters extrusion width = 0.40mm
; perimeters extrusion width = 0.46mm
; infill extrusion width = 0.64mm
; solid infill extrusion width = 0.56mm
; top infill extrusion width = 0.40mm
; support material extrusion width = 0.46mm
; first layer extrusion width = 0.50mm

; external perimeters extrusion width = 0.40mm
; perimeters extrusion width = 0.46mm
; infill extrusion width = 0.64mm
; solid infill extrusion width = 0.56mm
; top infill extrusion width = 0.40mm
; support material extrusion width = 0.46mm
; first layer extrusion width = 0.50mm

; EXECUTABLE_BLOCK_START
EXCLUDE_OBJECT_DEFINE NAME=carabiner_4.0.0.stl_id_0_copy_0 CENTER=188.023,165 POLYGON=[[168.564,176.63],[173.18,145.84],[173.206,145.664],[173.214,145.618],[173.235,145.488],[173.266,145.311],[173.274,145.271],[173.3,145.134],[173.335,144.957],[173.343,144.922],[173.373,144.78],[173.413,144.602],[173.42,144.572],[173.456,144.425],[173.5,144.247],[173.507,144.223],[173.547,144.07],[173.597,143.892],[173.602,143.873],[173.649,143.715],[173.703,143.537],[173.707,143.523],[173.759,143.36],[173.818,143.183],[173.821,143.174],[173.879,143.006],[173.943,142.829],[173.944,142.826],[174.009,142.653],[174.076,142.479],[174.077,142.477],[174.148,142.301],[174.218,142.133],[174.221,142.126],[174.297,141.952],[174.369,141.79],[174.375,141.778],[174.455,141.604],[174.529,141.449],[174.537,141.433],[174.621,141.263],[174.699,141.111],[174.708,141.094],[174.797,140.925],[174.878,140.775],[174.886,140.76],[174.978,140.596],[175.066,140.444],[175.072,140.432],[175.169,140.27],[175.263,140.116],[175.267,140.109],[175.368,139.948],[175.468,139.792],[175.47,139.789],[175.575,139.631],[175.682,139.474],[175.683,139.473],[175.791,139.318],[175.903,139.163],[175.906,139.158],[176.016,139.01],[176.131,138.858],[176.138,138.849],[176.249,138.707],[176.368,138.558],[176.378,138.546],[176.489,138.41],[176.613,138.264],[176.626,138.248],[176.738,138.119],[176.865,137.976],[176.882,137.956],[176.994,137.834],[177.125,137.694],[177.146,137.671],[177.257,137.555],[177.392,137.419],[177.417,137.393],[177.528,137.283],[177.666,137.15],[177.695,137.122],[177.805,137.019],[177.946,136.889],[177.98,136.859],[178.089,136.761],[178.233,136.635],[178.271,136.603],[178.379,136.511],[178.526,136.389],[178.569,136.355],[178.675,136.269],[178.825,136.151],[178.872,136.115],[178.977,136.035],[179.13,135.921],[179.182,135.883],[179.284,135.809],[179.439,135.699],[179.496,135.66],[179.596,135.591],[179.754,135.486],[179.815,135.445],[179.912,135.382],[180.072,135.281],[180.139,135.239],[180.233,135.181],[180.395,135.084],[180.467,135.042],[180.558,134.989],[180.722,134.897],[180.799,134.854],[180.887,134.806],[181.052,134.718],[181.134,134.676],[181.219,134.632],[181.386,134.549],[181.472,134.506],[181.553,134.467],[181.722,134.388],[181.813,134.346],[181.891,134.311],[182.06,134.236],[182.157,134.195],[182.23,134.164],[182.401,134.094],[182.502,134.053],[182.572,134.026],[182.743,133.96],[182.849,133.921],[182.914,133.897],[183.086,133.836],[183.197,133.798],[183.258,133.777],[183.431,133.72],[183.546,133.684],[183.603,133.666],[183.776,133.614],[183.896,133.579],[183.949,133.564],[184.121,133.516],[184.246,133.483],[184.294,133.471],[184.467,133.428],[184.596,133.397],[184.64,133.387],[184.812,133.348],[184.945,133.319],[184.985,133.311],[185.157,133.276],[185.294,133.25],[185.329,133.244],[185.51,133.212],[185.642,133.19],[185.692,133.182],[185.872,133.155],[185.988,133.139],[186.053,133.13],[186.234,133.107],[186.333,133.096],[186.415,133.086],[186.596,133.068],[186.675,133.061],[186.776,133.052],[186.953,133.038],[187.016,133.034],[187.131,133.027],[187.307,133.017],[187.355,133.015],[187.483,133.01],[187.619,133.005],[187.69,133.004],[187.754,133.002],[187.889,133.001],[188.023,133],[188.205,133.001],[188.356,133.004],[188.387,133.004],[188.57,133.01],[188.692,133.015],[188.754,133.018],[188.936,133.028],[189.03,133.034],[189.118,133.04],[189.301,133.054],[189.371,133.061],[189.484,133.071],[189.658,133.089],[189.714,133.096],[189.833,133.11],[190.008,133.132],[190.059,133.139],[190.184,133.156],[190.359,133.183],[190.405,133.19],[190.536,133.212],[190.712,133.243],[190.753,133.25],[190.889,133.276],[191.066,133.312],[191.101,133.319],[191.243,133.35],[191.421,133.39],[191.451,133.397],[191.598,133.432],[191.776,133.477],[191.801,133.483],[191.954,133.524],[192.131,133.573],[192.151,133.579],[192.309,133.625],[192.486,133.679],[192.5,133.684],[192.664,133.736],[192.841,133.795],[192.85,133.798],[193.018,133.856],[193.194,133.919],[193.198,133.921],[193.371,133.985],[193.545,134.053],[193.546,134.054],[193.722,134.125],[193.89,134.195],[193.897,134.198],[194.072,134.273],[194.233,134.346],[194.246,134.351],[194.419,134.432],[194.574,134.506],[194.59,134.514],[194.76,134.598],[194.913,134.676],[194.93,134.685],[195.099,134.773],[195.248,134.854],[195.264,134.863],[195.428,134.955],[195.58,135.042],[195.591,135.049],[195.753,135.145],[195.908,135.239],[195.915,135.244],[196.075,135.344],[196.231,135.445],[196.234,135.447],[196.393,135.552],[196.55,135.659],[196.551,135.66],[196.705,135.768],[196.86,135.879],[196.865,135.883],[197.013,135.993],[197.165,136.108],[197.174,136.115],[197.316,136.225],[197.465,136.345],[197.478,136.355],[197.613,136.466],[197.76,136.589],[197.775,136.603],[197.904,136.715],[198.048,136.842],[198.067,136.859],[198.19,136.971],[198.33,137.101],[198.352,137.122],[198.468,137.234],[198.605,137.368],[198.63,137.393],[198.74,137.504],[198.873,137.642],[198.901,137.671],[199.005,137.782],[199.134,137.923],[199.165,137.956],[199.262,138.066],[199.388,138.21],[199.42,138.248],[199.512,138.356],[199.634,138.503],[199.669,138.546],[199.754,138.652],[199.872,138.802],[199.909,138.849],[199.988,138.953],[200.102,139.106],[200.14,139.158],[200.214,139.26],[200.324,139.416],[200.364,139.473],[200.432,139.572],[200.538,139.73],[200.578,139.792],[200.641,139.889],[200.743,140.049],[200.784,140.116],[200.842,140.21],[206.324,149.167],[206.324,149.168],[206.365,149.253],[206.399,149.342],[206.403,149.358],[207.483,153.37],[202.867,184.16],[202.84,184.336],[202.833,184.382],[202.811,184.512],[202.78,184.689],[202.773,184.729],[202.747,184.866],[202.711,185.043],[202.704,185.078],[202.674,185.22],[202.633,185.397],[202.626,185.428],[202.591,185.575],[202.546,185.753],[202.54,185.777],[202.499,185.93],[202.45,186.108],[202.444,186.127],[202.398,186.285],[202.344,186.463],[202.34,186.477],[202.288,186.64],[202.229,186.817],[202.226,186.826],[202.167,186.994],[202.104,187.171],[202.103,187.174],[202.038,187.347],[201.97,187.521],[201.969,187.523],[201.899,187.699],[201.828,187.867],[201.825,187.874],[201.75,188.048],[201.677,188.21],[201.672,188.222],[201.592,188.396],[201.517,188.551],[201.51,188.567],[201.425,188.737],[201.348,188.889],[201.339,188.906],[201.25,189.075],[201.169,189.225],[201.16,189.24],[201.068,189.404],[200.981,189.556],[200.974,189.568],[200.878,189.73],[200.784,189.884],[200.78,189.891],[200.679,190.052],[200.578,190.208],[200.576,190.211],[200.471,190.369],[200.364,190.526],[200.364,190.527],[200.255,190.682],[200.144,190.837],[200.14,190.842],[200.031,190.99],[199.915,191.142],[199.909,191.151],[199.798,191.293],[199.679,191.442],[199.669,191.454],[199.557,191.59],[199.434,191.736],[199.42,191.752],[199.309,191.881],[199.182,192.024],[199.165,192.044],[199.053,192.166],[198.922,192.306],[198.901,192.329],[198.789,192.445],[198.655,192.581],[198.63,192.607],[198.519,192.716],[198.381,192.85],[198.352,192.878],[198.242,192.981],[198.1,193.111],[198.067,193.141],[197.958,193.239],[197.813,193.365],[197.775,193.397],[197.668,193.489],[197.52,193.611],[197.478,193.645],[197.372,193.731],[197.221,193.849],[197.174,193.885],[197.07,193.965],[196.917,194.079],[196.865,194.117],[196.763,194.191],[196.607,194.301],[196.551,194.34],[196.451,194.409],[196.293,194.514],[196.231,194.555],[196.134,194.618],[195.974,194.719],[195.908,194.761],[195.813,194.819],[195.651,194.916],[195.58,194.958],[195.488,195.011],[195.324,195.103],[195.248,195.146],[195.16,195.194],[194.994,195.282],[194.913,195.324],[194.828,195.368],[194.661,195.451],[194.574,195.494],[194.493,195.533],[194.325,195.612],[194.233,195.654],[194.156,195.689],[193.986,195.764],[193.89,195.805],[193.816,195.836],[193.646,195.906],[193.545,195.947],[193.475,195.974],[193.304,196.04],[193.198,196.079],[193.132,196.103],[192.96,196.164],[192.85,196.202],[192.788,196.223],[192.616,196.28],[192.5,196.316],[192.443,196.334],[192.271,196.386],[192.151,196.421],[192.098,196.436],[191.925,196.484],[191.801,196.517],[191.752,196.529],[191.58,196.572],[191.451,196.603],[191.407,196.613],[191.234,196.652],[191.101,196.681],[191.062,196.689],[190.89,196.724],[190.753,196.75],[190.718,196.756],[190.536,196.788],[190.405,196.81],[190.355,196.818],[190.174,196.845],[190.059,196.861],[189.994,196.87],[189.812,196.893],[189.714,196.904],[189.631,196.914],[189.451,196.932],[189.371,196.939],[189.271,196.948],[189.093,196.962],[189.03,196.966],[188.916,196.973],[188.74,196.983],[188.692,196.985],[188.564,196.99],[188.428,196.995],[188.356,196.996],[188.293,196.998],[188.158,196.999],[188.023,197],[187.842,196.999],[187.69,196.996],[187.66,196.996],[187.477,196.99],[187.355,196.985],[187.293,196.982],[187.111,196.972],[187.016,196.966],[186.929,196.96],[186.746,196.946],[186.675,196.939],[186.562,196.929],[186.388,196.911],[186.333,196.904],[186.214,196.89],[186.039,196.868],[185.988,196.861],[185.863,196.844],[185.687,196.817],[185.642,196.81],[185.511,196.788],[185.334,196.757],[185.294,196.75],[185.158,196.724],[184.98,196.688],[184.945,196.681],[184.803,196.65],[184.626,196.61],[184.596,196.603],[184.448,196.568],[184.271,196.523],[184.246,196.517],[184.093,196.476],[183.915,196.427],[183.896,196.421],[183.738,196.375],[183.56,196.321],[183.546,196.316],[183.383,196.264],[183.206,196.205],[183.197,196.202],[183.029,196.144],[182.852,196.081],[182.849,196.079],[182.676,196.015],[182.502,195.947],[182.5,195.946],[182.325,195.875],[182.157,195.805],[182.15,195.802],[181.975,195.727],[181.813,195.654],[181.801,195.649],[181.628,195.568],[181.472,195.494],[181.457,195.486],[181.286,195.402],[181.134,195.324],[181.117,195.315],[180.948,195.227],[180.799,195.146],[180.783,195.137],[180.619,195.045],[180.467,194.958],[180.456,194.951],[180.293,194.855],[180.139,194.761],[180.132,194.756],[179.971,194.656],[179.815,194.555],[179.812,194.553],[179.654,194.448],[179.497,194.341],[179.496,194.34],[179.341,194.232],[179.187,194.121],[179.182,194.117],[179.033,194.007],[178.881,193.892],[178.872,193.885],[178.73,193.775],[178.581,193.655],[178.569,193.645],[178.433,193.534],[178.287,193.411],[178.271,193.397],[178.142,193.285],[177.999,193.158],[177.98,193.141],[177.857,193.029],[177.717,192.899],[177.695,192.878],[177.579,192.766],[177.442,192.632],[177.417,192.607],[177.307,192.496],[177.174,192.358],[177.146,192.329],[177.042,192.218],[176.912,192.077],[176.882,192.044],[176.785,191.934],[176.659,191.79],[176.626,191.752],[176.535,191.644],[176.413,191.497],[176.378,191.454],[176.293,191.348],[176.174,191.198],[176.138,191.151],[176.058,191.047],[175.944,190.894],[175.906,190.842],[175.832,190.74],[175.722,190.584],[175.683,190.527],[175.615,190.428],[175.509,190.27],[175.468,190.208],[175.405,190.111],[175.304,189.951],[175.263,189.884],[175.205,189.79],[169.723,180.833],[169.723,180.832],[169.682,180.747],[169.648,180.658],[169.643,180.642],[168.564,176.63]]
EXCLUDE_OBJECT_DEFINE NAME=S-Carabiner_Rev2.STL_id_1_copy_0 CENTER=140.626,165.021 POLYGON=[[122.497,150.949],[122.526,150.703],[122.615,150.472],[128.201,140.046],[128.663,139.365],[129.083,138.746],[130.002,137.664],[130.099,137.55],[131.239,136.47],[132.489,135.52],[133.834,134.71],[135.259,134.051],[136.747,133.55],[137.404,133.405],[138.28,133.212],[139.841,133.043],[141.411,133.043],[142.972,133.212],[143.848,133.405],[144.505,133.55],[145.993,134.051],[147.418,134.71],[148.763,135.52],[150.013,136.47],[151.153,137.55],[152.169,138.746],[152.589,139.365],[153.05,140.046],[153.786,141.433],[154.367,142.891],[154.467,143.251],[154.787,144.404],[154.944,145.363],[155.041,145.954],[158.755,179.077],[158.729,179.327],[158.641,179.563],[153.05,189.997],[152.589,190.678],[152.169,191.296],[151.153,192.493],[150.013,193.573],[148.763,194.523],[147.418,195.332],[145.993,195.991],[144.505,196.493],[142.972,196.83],[141.411,197],[139.841,197],[138.28,196.83],[136.747,196.493],[135.259,195.991],[133.834,195.332],[132.489,194.523],[131.239,193.573],[130.099,192.493],[130.002,192.379],[129.083,191.296],[128.663,190.678],[128.201,189.997],[127.466,188.61],[126.885,187.151],[126.465,185.638],[126.308,184.679],[126.211,184.089],[122.497,150.949]]
M73 P0 R20
;TYPE:Custom
START_PRINT T_BED=110 T_EXTRUDER=260
G90
G21
M83 ; use relative distances for extrusion
; Filament gcode
M106 S0
;LAYER_CHANGE
;Z:0.2
;HEIGHT:0.2
;BEFORE_LAYER_CHANGE
;0.2
G92 E0

SET_VELOCITY_LIMIT ACCEL=1000 ACCEL_TO_DECEL=500
G1 E-.5 F3000
G1 X128.352 Y135.499 F12000
G1 Z.2
G1 E.5 F1800
;TYPE:Skirt
;WIDTH:0.5
G1 F3000
G1 X129.609 Y134.308 E.06123
G1 X131.102 Y133.194 E.06584
G1 X132.707 Y132.248 E.06584
G1 X134.405 Y131.482 E.06584
G1 X136.176 Y130.903 E.06584
G1 X137.998 Y130.519 E.06584
G1 X139.537 Y130.352 E.0547
G1 X188.106 Y130.087 E1.71673
G1 X189.858 Y130.181 E.06201
G1 X191.49 Y130.425 E.05835
G1 X193.21 Y130.854 E.06266
G1 X194.898 Y131.459 E.06337
G1 X196.558 Y132.25 E.06498
G1 X198.058 Y133.161 E.06205
G1 X199.409 Y134.171 E.05962
G1 X200.769 Y135.413 E.06509
G1 X201.986 Y136.778 E.06465
G1 X203.052 Y138.252 E.06429
G1 X208.902 Y147.815 E.39626
G1 X209.237 Y148.676 E.03266
G1 X210.297 Y152.613 E.14409
G1 X210.365 Y153.802 E.04211
G1 X205.593 Y185.492 E1.13271
G1 X204.882 Y188.055 E.09403
G1 X203.843 Y190.404 E.09077
G1 X202.846 Y192.059 E.06829
G1 X201.261 Y194.068 E.09047
G1 X199.924 Y195.389 E.06643
G1 X198.539 Y196.502 E.06277
G1 X196.98 Y197.513 E.0657
G1 X195.413 Y198.318 E.06227
G1 X193.78 Y198.963 E.06207
G1 X192.11 Y199.441 E.0614
G1 X190.317 Y199.766 E.06439
G1 X188.616 Y199.904 E.06032
G1 X139.537 Y199.69 E1.73477
G1 X137.687 Y199.472 E.06584
G1 X136.176 Y199.139 E.0547
G1 X134.112 Y198.444 E.07697
G1 X132.707 Y197.794 E.0547
G1 X131.102 Y196.848 E.06584
G1 X129.369 Y195.531 E.07698
G1 X128.028 Y194.237 E.06584
G1 X127.026 Y193.058 E.0547
G1 X125.804 Y191.255 E.07697
G1 X124.947 Y189.601 E.06584
G1 X124.374 Y188.164 E.0547
G1 X123.791 Y186.065 E.07697
G1 X123.521 Y184.391 E.05994
G1 X119.808 Y151.272 E1.17796
G1 X119.834 Y150.408 E.03056
G1 X120.007 Y149.709 E.02547
G1 X120.229 Y149.194 E.01982
G1 X125.81 Y138.776 E.41773
G1 X126.835 Y137.236 E.06539
G1 X128.028 Y135.805 E.06584
G1 X128.323 Y135.527 E.01433
G1 X128.635 Y135.856 F12000
G1 F3000
G1 X129.886 Y134.672 E.0609
G1 X131.338 Y133.586 E.06409
G1 X132.899 Y132.663 E.06409
G1 X134.551 Y131.915 E.06409
G1 X136.274 Y131.35 E.06409
G1 X138.048 Y130.974 E.06409
G1 X139.586 Y130.807 E.0547
M73 P0 R19
G1 X188.094 Y130.544 E1.71459
G1 X189.802 Y130.635 E.06045
G1 X191.393 Y130.872 E.05684
G1 X193.069 Y131.289 E.06106
G1 X194.714 Y131.877 E.06174
G1 X196.332 Y132.648 E.06335
G1 X197.794 Y133.534 E.06044
G1 X199.126 Y134.53 E.05878
G1 X200.451 Y135.741 E.06344
G1 X201.636 Y137.072 E.063
G1 X202.674 Y138.509 E.06264
G1 X208.502 Y148.038 E.39483
G1 X208.796 Y148.795 E.02871
G1 X209.855 Y152.732 E.14409
G1 X209.913 Y153.734 E.0355
G1 X205.147 Y185.393 E1.13162
G1 X204.455 Y187.892 E.09164
G1 X203.434 Y190.198 E.08914
G1 X202.473 Y191.794 E.06583
G1 X200.917 Y193.767 E.08885
G1 X199.613 Y195.054 E.06476
G1 X198.264 Y196.137 E.06115
G1 X196.743 Y197.122 E.06404
G1 X195.216 Y197.906 E.06067
G1 X193.624 Y198.534 E.06047
G1 X191.996 Y198.998 E.05984
G1 X190.268 Y199.311 E.06207
G1 X188.608 Y199.447 E.05888
G1 X139.586 Y199.236 E1.73273
G1 X138.048 Y199.069 E.0547
