; HEADER_BLOCK_START
; generated by OrcaSlicer 1.6.3 on 2023-06-29 at 21:04:12
; total layer number: 40
; HEADER_BLOCK_END

; THUMBNAIL_BLOCK_START
; THUMBNAIL_BLOCK_END

; external perimeters extrusion width = 0.40mm
; perimeters extrusion width = 0.45mm
; infill extrusion width = 0.45mm
; solid infill extrusion width = 0.40mm
; top infill extrusion width = 0.40mm
; first layer extrusion width = 0.50mm

; external perimeters extrusion width = 0.40mm
; perimeters extrusion width = 0.45mm
; infill extrusion width = 0.45mm
; solid infill extrusion width = 0.40mm
; top infill extrusion width = 0.40mm
; first layer extrusion width = 0.50mm

; EXECUTABLE_BLOCK_START
EXCLUDE_OBJECT_DEFINE NAME=chalk_bag_clip_v2.stl_id_0_copy_0 CENTER=165.005,178.007 POLYGON=[[138.505,170.5],[138.517,170.239],[138.551,169.979],[138.608,169.724],[138.686,169.474],[138.786,169.232],[138.907,169],[139.048,168.779],[139.207,168.572],[139.384,168.379],[139.577,168.202],[139.785,168.043],[140.005,167.902],[140.237,167.781],[140.479,167.681],[140.729,167.602],[140.984,167.546],[141.244,167.511],[141.505,167.5],[188.505,167.5],[188.767,167.511],[189.026,167.546],[189.282,167.602],[189.531,167.681],[189.773,167.781],[190.005,167.902],[190.226,168.043],[190.434,168.202],[190.627,168.379],[190.803,168.572],[190.963,168.779],[191.103,169],[191.224,169.232],[191.324,169.474],[191.403,169.724],[191.46,169.979],[191.494,170.239],[191.505,170.5],[191.505,185.514],[191.494,185.776],[191.46,186.035],[191.403,186.291],[191.324,186.541],[191.224,186.783],[191.103,187.015],[190.962,187.235],[190.803,187.443],[190.626,187.636],[190.433,187.813],[190.225,187.972],[190.005,188.113],[189.772,188.234],[189.53,188.334],[189.281,188.412],[189.025,188.469],[188.766,188.503],[188.504,188.514],[141.504,188.494],[141.243,188.483],[140.983,188.449],[140.728,188.392],[140.478,188.313],[140.237,188.213],[140.005,188.092],[139.784,187.952],[139.576,187.792],[139.384,187.615],[139.207,187.422],[139.048,187.215],[138.907,186.994],[138.786,186.762],[138.686,186.52],[138.607,186.271],[138.551,186.015],[138.517,185.756],[138.505,185.494],[138.505,170.5]]
EXCLUDE_OBJECT_DEFINE NAME=chalk_bag_clip_v2.stl_id_1_copy_0 CENTER=164.995,151.993 POLYGON=[[119.995,144.486],[120.014,144.224],[120.072,143.965],[120.168,143.709],[120.302,143.46],[120.472,143.218],[120.677,142.986],[120.916,142.765],[121.187,142.557],[121.487,142.364],[121.814,142.188],[122.167,142.028],[122.542,141.888],[122.936,141.767],[123.347,141.667],[123.771,141.588],[124.204,141.531],[124.645,141.497],[125.089,141.486],[204.9,141.486],[205.344,141.497],[205.785,141.531],[206.219,141.588],[206.643,141.667],[207.053,141.767],[207.448,141.888],[207.822,142.028],[208.175,142.188],[208.503,142.364],[208.803,142.557],[209.073,142.765],[209.312,142.986],[209.517,143.218],[209.687,143.46],[209.821,143.709],[209.917,143.965],[209.975,144.224],[209.995,144.486],[209.995,159.5],[209.975,159.762],[209.917,160.021],[209.821,160.277],[209.687,160.526],[209.517,160.768],[209.312,161],[209.073,161.221],[208.802,161.429],[208.502,161.622],[208.174,161.799],[207.821,161.958],[207.446,162.099],[207.052,162.219],[206.641,162.319],[206.217,162.398],[205.783,162.455],[205.342,162.489],[204.898,162.5],[125.087,162.48],[124.643,162.469],[124.203,162.434],[123.769,162.378],[123.345,162.299],[122.935,162.199],[122.541,162.078],[122.166,161.937],[121.814,161.778],[121.486,161.601],[121.186,161.408],[120.916,161.2],[120.677,160.98],[120.472,160.748],[120.302,160.506],[120.168,160.256],[120.072,160.001],[120.014,159.742],[119.995,159.48],[119.995,144.486]]
M73 P0 R25
;TYPE:Custom
START_PRINT T_BED=110 T_EXTRUDER=260
G90
G21
M83 ; use relative distances for extrusion
; Filament gcode

    PRESSURE_ADVANCE_SELECT FILAMENT=ABS
M106 S0
;LAYER_CHANGE
;Z:0.2
;HEIGHT:0.2
;BEFORE_LAYER_CHANGE
;0.2
G92 E0

M204 S1000
G1 E-.5 F2400
G1 X119.825 Y141.229 F9000
G1 Z.2
G1 E.5 F1800
;TYPE:Skirt
;WIDTH:0.5
G1 F3000
G1 X120.408 Y140.738 E.02683
G1 X121.266 Y140.21 E.03546
G1 X122.795 Y139.63 E.05754
G1 X124.053 Y139.396 E.04503
G1 X125.089 Y139.333 E.03653
G1 X205.01 Y139.335 E2.81272
G1 X206.26 Y139.438 E.04413
G1 X207.194 Y139.63 E.03358
G1 X208.277 Y140 E.04025
G1 X209.159 Y140.454 E.03492
G1 X209.986 Y141.064 E.03619
G1 X210.723 Y141.865 E.03828
G1 X211.134 Y142.532 E.02759
G1 X211.481 Y143.462 E.03493
G1 X211.614 Y144.424 E.03417
G1 X211.614 Y159.562 E.53279
G1 X211.524 Y160.331 E.02723
G1 X211.364 Y160.915 E.02132
G1 X210.872 Y161.908 E.03903
G1 X192.647 Y188.57 E1.13659
G1 X192.053 Y189.243 E.0316
G1 X191.352 Y189.803 E.03156
G1 X190.564 Y190.232 E.03158
G1 X189.714 Y190.518 E.03158
G1 X188.55 Y190.666 E.0413
G1 X141.457 Y190.646 E1.65737
G1 X140.486 Y190.54 E.03438
G1 X139.445 Y190.212 E.0384
G1 X138.295 Y189.518 E.04729
G1 X137.776 Y189.043 E.02476
G1 X137.27 Y188.421 E.0282
G1 X119.119 Y161.89 E1.13136
G1 X118.697 Y161.085 E.03197
G1 X118.509 Y160.504 E.0215
G1 X118.401 Y159.909 E.02127
G1 X118.373 Y158.994 E.03221
G1 X118.376 Y144.424 E.5128
G1 X118.465 Y143.655 E.02723
G1 X118.625 Y143.071 E.02132
G1 X118.955 Y142.346 E.02802
G1 X119.788 Y141.276 E.04774
G1 X120.118 Y141.599 F9000
G1 F3000
G1 X120.313 Y141.4 E.00981
G1 X120.854 Y140.982 E.02405
G1 X121.638 Y140.535 E.03178
G1 X123.209 Y139.999 E.05841
G1 X125.089 Y139.79 E.06657
G1 X204.993 Y139.792 E2.81212
G1 X206.2 Y139.891 E.04265
G1 X207.086 Y140.074 E.03182
G1 X208.088 Y140.416 E.03728
G1 X208.912 Y140.839 E.03256
G1 X209.676 Y141.4 E.03338
G1 X210.349 Y142.128 E.03488
G1 X210.731 Y142.748 E.02563
G1 X211.035 Y143.562 E.03057
G1 X211.157 Y144.426 E.03073
G1 X211.157 Y159.56 E.53261
G1 X210.936 Y160.754 E.04274
G1 X210.494 Y161.65 E.03519
G1 X192.285 Y188.292 E1.1357
G1 X191.745 Y188.906 E.02879
G1 X191.107 Y189.417 E.02876
G1 X190.389 Y189.809 E.02878
G1 X189.615 Y190.071 E.02878
G1 X188.55 Y190.209 E.03779
G1 X141.457 Y190.189 E1.65737
G1 X140.585 Y190.094 E.03088
G1 X139.62 Y189.789 E.0356
G1 X138.573 Y189.155 E.04309
G1 X137.647 Y188.163 E.04776
G1 X119.496 Y161.632 E1.13136
G1 X119.125 Y160.924 E.02812
G1 X118.955 Y160.404 E.01925
G1 X118.854 Y159.849 E.01985
G1 X118.83 Y158.994 E.0301
G1 X118.83 Y144.958 E.494
G1 X118.912 Y143.755 E.04243
G1 X119.053 Y143.232 E.01906
G1 X119.358 Y142.562 E.02591
G1 X119.81 Y141.914 E.02779
G1 X120.076 Y141.642 E.01341
; printing object chalk_bag_clip_v2.stl id:0 copy 0
EXCLUDE_OBJECT_START NAME=chalk_bag_clip_v2.stl_id_0_copy_0
G1 E-.5 F2400
G1 X141.623 Y179.75 F9000
G1 E.5 F1800
;TYPE:Outer wall
;WIDTH:0.499999
G1 F3000
G1 X141.449 Y179.83 E.00674
G1 X141.394 Y179.978 E.00556
G1 X141.393 Y184.252 E.1504
G1 X141.423 Y184.638 E.01362
G1 X141.572 Y185.143 E.01854
G1 X141.802 Y185.576 E.01726
G1 X142.141 Y185.967 E.01821
G1 X142.504 Y186.257 E.01637
G1 X142.834 Y186.428 E.01306
G1 X143.186 Y186.545 E.01306
G1 X143.589 Y186.609 E.01438
G1 X149.192 Y186.613 E.19718
G1 X149.336 Y186.652 E.00524
G1 X149.39 Y186.82 E.00623
G1 X149.345 Y187.319 E.01763
G1 X149.214 Y187.386 E.00518
G1 X141.804 Y187.382 E.26079
G1 X141.186 Y187.35 E.02178
G1 X140.705 Y187.199 E.01772
G1 X140.263 Y186.901 E.01875
G1 X139.942 Y186.523 E.01749
G1 X139.738 Y186.143 E.01516
G1 X139.629 Y185.65 E.01778
G1 X139.616 Y185.007 E.02265
G1 X139.629 Y170.627 E.50608
G1 X139.666 Y170.129 E.01757
G1 X139.875 Y169.559 E.02137
G1 X140.174 Y169.169 E.01729
G1 X140.568 Y168.867 E.01745
G1 X140.943 Y168.709 E.01432
G1 X141.477 Y168.613 E.01911
G1 X162.179 Y168.612 E.72859
G1 X162.338 Y168.653 E.00577
G1 X162.391 Y168.818 E.00611
G1 X162.346 Y169.322 E.01779
G1 X162.215 Y169.388 E.00518
G1 X143.754 Y169.388 E.64971
G1 X143.359 Y169.42 E.01393
G1 X142.874 Y169.556 E.01772
G1 X142.535 Y169.724 E.01333
G1 X142.233 Y169.94 E.01306
G1 X141.9 Y170.294 E.0171
G1 X141.675 Y170.63 E.01422
G1 X141.499 Y171.045 E.01589
G1 X141.396 Y171.584 E.01929
G1 X141.392 Y176.288 E.16556
G1 X141.478 Y176.643 E.01286
G1 X141.607 Y176.841 E.00831
G1 X141.943 Y177.083 E.01456
G1 X142.423 Y177.227 E.01765
G1 X142.705 Y177.25 E.00997
G1 X187.305 Y177.25 E1.56963
G1 X187.646 Y177.22 E.01203
G1 X187.988 Y177.121 E.01255
G1 X188.263 Y176.967 E.01107
G1 X188.484 Y176.735 E.01129
G1 X188.612 Y176.37 E.01359
G1 X188.614 Y171.585 E.16843
M73 P1 R25
G1 X188.461 Y170.91 E.02434
G1 X188.207 Y170.42 E.01944
G1 X187.961 Y170.115 E.01376
G1 X187.623 Y169.822 E.01577
G1 X187.135 Y169.556 E.01957
G1 X186.651 Y169.419 E.01768
G1 X186.257 Y169.388 E.01391
G1 X168.024 Y169.388 E.64169
G1 X167.691 Y169.357 E.01178
G1 X167.641 Y169.211 E.00545
G1 X167.633 Y168.705 E.01778
G1 X167.786 Y168.612 E.0063
G1 X188.45 Y168.612 E.72725
G1 X188.916 Y168.673 E.01653
G1 X189.4 Y168.85 E.01816
G1 X189.833 Y169.165 E.01884
G1 X190.138 Y169.563 E.01763
G1 X190.322 Y170.03 E.01768
G1 X190.393 Y170.526 E.01763
G1 X190.393 Y185.187 E.51596
G1 X190.361 Y185.832 E.02276
G1 X190.19 Y186.352 E.01927
G1 X189.913 Y186.755 E.01721
G1 X189.529 Y187.081 E.01771
G1 X189.154 Y187.282 E.01499
G1 X188.663 Y187.391 E.0177
G1 X180.791 Y187.4 E.27702
G1 X180.661 Y187.33 E.0052
G1 X180.619 Y186.823 E.01792
G1 X180.651 Y186.688 E.00488
G1 X180.722 Y186.623 E.0034
G1 X186.422 Y186.609 E.20059
G1 X186.79 Y186.554 E.0131
G1 X187.193 Y186.419 E.01494
G1 X187.811 Y186.03 E.0257
G1 X188.152 Y185.661 E.01769
G1 X188.406 Y185.222 E.01787
G1 X188.588 Y184.638 E.02153
G1 X188.617 Y184.252 E.01361
G1 X188.619 Y180.712 E.12458
G1 X188.532 Y180.356 E.01289
G1 X188.317 Y180.078 E.01237
G1 X187.868 Y179.837 E.01794
G1 X187.305 Y179.75 E.02005
G1 X141.683 Y179.75 E1.60563
G1 X141.595 Y179.724
G1 X141.583 Y179.304 F9000
;TYPE:Inner wall
G1 F3000
G1 X141.502 Y179.304 E.00285
G1 X141.101 Y179.533 E.01625
G1 X140.937 Y179.978 E.01667
G1 X140.936 Y184.252 E.15041
G1 X140.978 Y184.744 E.0174
G1 X141.15 Y185.318 E.02106
G1 X141.462 Y185.894 E.02307
G1 X141.806 Y186.277 E.01811
G1 X142.236 Y186.627 E.01952
G1 X142.626 Y186.835 E.01558
G1 X142.84 Y186.894 E.0078
;WIDTH:0.470385
G1 X143.053 Y186.953 E.00729
G1 X142.886 Y186.939 E.00554
;WIDTH:0.499999
G1 X141.324 Y186.906 E.05498
G1 X140.891 Y186.778 E.01589
G1 X140.557 Y186.551 E.01419
G1 X140.237 Y186.132 E.01858
G1 X140.085 Y185.596 E.01961
G1 X140.095 Y170.329 E.53729
G1 X140.231 Y169.894 E.01604
G1 X140.454 Y169.555 E.01429
G1 X140.76 Y169.296 E.0141
G1 X141.018 Y169.162 E.01024
G1 X141.502 Y169.07 E.01732
G1 X142.916 Y169.07 E.04978
G1 X142.75 Y169.116 E.00606
G1 X142.327 Y169.317 E.01647
G1 X141.965 Y169.57 E.01557
G1 X141.565 Y169.984 E.02024
G1 X141.267 Y170.422 E.01864
G1 X141.051 Y170.956 E.02029
G1 X140.939 Y171.583 E.02241
G1 X140.935 Y176.287 E.16556
G1 X141.036 Y176.76 E.01702
G1 X141.244 Y177.118 E.01455
G1 X141.601 Y177.416 E.01637
G1 X141.811 Y177.521 E.00829
G1 X142.292 Y177.665 E.01765
G1 X142.705 Y177.707 E.01463
G1 X187.305 Y177.707 E1.56963
G1 X187.687 Y177.675 E.0135
G1 X188.121 Y177.559 E.01578
G1 X188.494 Y177.361 E.01488
G1 X188.826 Y177.038 E.01628
G1 X188.963 Y176.799 E.00972
G1 X189.069 Y176.371 E.01552
G1 X189.071 Y171.585 E.16843
G1 X189.058 Y171.451 E.00473
G1 X188.883 Y170.735 E.02593
G1 X188.596 Y170.181 E.02196
G1 X188.288 Y169.794 E.01744
G1 X187.846 Y169.423 E.02028
G1 X187.259 Y169.116 E.02334
G1 X187.011 Y169.07 E.00888
;WIDTH:0.454446
G1 X186.763 Y169.023 E.00799
G1 X187.014 Y169.046 E.00799
;WIDTH:0.499999
G1 X187.265 Y169.069 E.00888
G1 X188.656 Y169.087 E.04894
G1 X189.12 Y169.216 E.01696
G1 X189.412 Y169.408 E.01229
G1 X189.706 Y169.75 E.01587
G1 X189.844 Y170.013 E.01044
G1 X189.936 Y170.526 E.01835
G1 X189.936 Y184.851 E.50415
G1 X189.919 Y185.675 E.02902
G1 X189.771 Y186.163 E.01793
G1 X189.563 Y186.461 E.0128
G1 X189.151 Y186.779 E.01832
G1 X188.613 Y186.934 E.0197
G1 X187.213 Y186.947 E.04926
;WIDTH:0.473952
G1 X186.959 Y186.958 E.00844
G1 X187.195 Y186.884 E.00822
;WIDTH:0.499999
G1 X187.431 Y186.809 E.00872
G1 X188.001 Y186.46 E.02351
G1 X188.255 Y186.223 E.01222
G1 X188.619 Y185.782 E.02012
G1 X188.878 Y185.278 E.01994
G1 X189.033 Y184.744 E.01955
G1 X189.074 Y184.252 E.01738
G1 X189.076 Y180.712 E.12458
G1 X188.974 Y180.239 E.01704
G1 X188.823 Y179.959 E.01119
G1 X188.659 Y179.774 E.00871
G1 X188.257 Y179.512 E.01688
G1 X187.94 Y179.386 E.01199
G1 X187.305 Y179.293 E.02259
G1 X141.643 Y179.304 E1.60704
G1 E-.5 F2400
G1 X190.053 Y177.762 F9000
G1 X188.537 Y169.478
M73 P1 R24
G1 E.5 F1800
;WIDTH:0.387229
G1 F3000
G1 X188.944 Y169.581 E.01114
G1 X189.195 Y169.75 E.00802
;WIDTH:0.397254
G1 X189.455 Y170.138 E.01274
G1 X189.536 Y170.526 E.01082
;WIDTH:0.385129
G1 X189.536 Y170.86 E.00881
;WIDTH:0.428405
G1 X189.514 Y171.113 E.00752
;WIDTH:0.47168
G1 X189.493 Y171.365 E.00836
G1 X189.422 Y171.122 E.00836
;WIDTH:0.428405
G1 X189.352 Y170.878 E.00752
;WIDTH:0.389808
G1 X189.164 Y170.364 E.01464
G1 X188.877 Y169.876 E.01512
;WIDTH:0.387229
G1 X188.576 Y169.524 E.01228
G1 E-.5 F2400
G1 X189.494 Y176.565 F9000
G1 E.5 F1800
;WIDTH:0.469584
G1 F3000
G1 X189.502 Y176.371 E.00639
;WIDTH:0.452628
G1 X189.504 Y171.585 E.15097
;WIDTH:0.47168
G1 X189.493 Y171.365 E.00728
G1 E-.5 F2400
G1 X188.383 Y179.714 F9000
G1 X188.266 Y179.636
G1 X188.146 Y179.579
G1 X188.021 Y179.53
G1 X187.865 Y179.483
G1 X187.73 Y179.453
G1 X187.591 Y179.432
G1 X187.449 Y179.418
G1 X187.314 Y179.414
G1 X141.463 Y178.86
G1 E.5 F1800
;WIDTH:0.499999
G1 F3000
G1 X141.285 Y178.887 E.00633
G1 X140.754 Y179.237 E.0224
G1 X140.63 Y179.607 E.01374
;WIDTH:0.472645
G1 X140.507 Y179.978 E.01291
G1 X140.521 Y179.567 E.0136
;WIDTH:0.499999
G1 X140.537 Y177.362 E.0776
G1 X140.521 Y176.578 E.0276
G1 X140.595 Y176.877 E.01084
G1 X140.79 Y177.277 E.01565
G1 X141.11 Y177.621 E.01655
G1 X141.415 Y177.841 E.0132
G1 X141.748 Y177.979 E.01272
;WIDTH:0.538447
G1 X141.971 Y178.055 E.00896
;WIDTH:0.576895
G1 X142.193 Y178.131 E.00965
;WIDTH:0.615342
G1 X142.415 Y178.206 E.01035
G1 X142.705 Y178.218 E.0128
;WIDTH:0.607302
G1 X187.305 Y178.218 E1.93812
G1 X187.518 Y178.179 E.00939
;WIDTH:0.563621
G1 X187.73 Y178.14 E.00866
;WIDTH:0.51994
G1 X188.253 Y177.996 E.01992
;WIDTH:0.499999
G1 X188.726 Y177.755 E.0187
G1 X189.167 Y177.341 E.02127
G1 X189.397 Y176.943 E.0162
;WIDTH:0.499607
G1 X189.494 Y176.565 E.0137
G1 X189.479 Y176.956 E.01375
;WIDTH:0.499999
G1 X189.487 Y180.421 E.12195
;WIDTH:0.496368
G1 X189.414 Y180.122 E.01074
;WIDTH:0.499999
G1 X189.165 Y179.655 E.01863
G1 X189 Y179.47 E.00871
G1 X188.686 Y179.222 E.01409
G1 X188.375 Y179.056 E.01241
G1 X188.013 Y178.935 E.01344
;WIDTH:0.535767
G1 X187.777 Y178.884 E.00915
;WIDTH:0.571535
G1 X187.541 Y178.833 E.00982
;WIDTH:0.607302
G1 X187.305 Y178.782 E.01048
G1 X142.705 Y178.782 E1.93813
;WIDTH:0.615342
G1 X142.398 Y178.778 E.01357
G1 X142.139 Y178.797 E.01142
;WIDTH:0.576895
G1 X141.881 Y178.817 E.01065
;WIDTH:0.538447
G1 X141.623 Y178.836 E.00988
;WIDTH:0.499999
G1 X141.522 Y178.851 E.00357
G1 E-.5 F2400
G1 X188.154 Y178.502 F9000
G1 E.5 F1800
;WIDTH:0.497718
G1 F3000
G1 X188.598 Y178.351 E.01642
G1 X189.023 Y178.094 E.01737
G1 X189.023 Y178.916 E.02879
G1 X188.59 Y178.654 E.01772
G1 X188.211 Y178.522 E.01405
G1 E-.5 F2400
G1 X189.485 Y184.781 F9000
G1 E.5 F1800
;WIDTH:0.487088
G1 F3000
G1 X189.505 Y184.252 E.01808
;WIDTH:0.447288
G1 X189.506 Y180.712 E.11021
;WIDTH:0.48385
G1 X189.487 Y180.421 E.00992
G1 E-.5 F2400
G1 X188.526 Y186.528 F9000
G1 E.5 F1800
;WIDTH:0.397485
G1 F3000
G1 X188.785 Y186.247 E.01045
;WIDTH:0.401502
G1 X189.092 Y185.791 E.01515
G1 X189.289 Y185.325 E.01398
;WIDTH:0.41758
G1 X189.354 Y185.144 E.00557
;WIDTH:0.452334
G1 X189.42 Y184.962 E.00608
;WIDTH:0.487088
G1 X189.485 Y184.781 E.0066
G1 X189.502 Y184.916 E.00467
;WIDTH:0.452334
G1 X189.52 Y185.051 E.0043
;WIDTH:0.41758
G1 X189.537 Y185.187 E.00394
;WIDTH:0.382826
G1 X189.522 Y185.632 E.01168
;WIDTH:0.401502
G1 X189.415 Y185.941 E.00903
G1 X189.252 Y186.2 E.00845
;WIDTH:0.397485
G1 X188.924 Y186.437 E.01104
G1 X188.584 Y186.515 E.00952
G1 E-.5 F2400
G1 X181.016 Y187.011 F9000
G1 E.5 F1800
;WIDTH:0.370252
G1 F3000
G1 X186.423 Y187.001 E.13627
;WIDTH:0.401281
G1 X186.645 Y186.985 E.00615
;WIDTH:0.43231
G1 X186.868 Y186.97 E.00669
G1 E-.5 F2400
G1 X190.19 Y184.229 F9000
G1 X188.644 Y168.702
G1 X168.024 Y169
G1 E.5 F1800
