; generated by SuperSlicer 2.5.59 on 2023-07-02 at 20:47:02 UTC


;
;

;
;
; 

; external perimeters extrusion width = 0.40mm
; perimeters extrusion width = 0.46mm
; infill extrusion width = 0.64mm
; solid infill extrusion width = 0.56mm
; top infill extrusion width = 0.40mm
; first layer extrusion width = 0.50mm

; object:{"name":"Chalk Bag Clip","id":"Chalk Bag Clip.stl id:0 copy 0","object_center":[161.391863,149.251668,0.000000],"boundingbox_center":[161.391863,149.251668,3.175000],"boundingbox_size":[76.200005,49.212502,6.350000]}
EXCLUDE_OBJECT_DEFINE NAME=Chalk_Bag_Clip_stl_id_0_copy_0 CENTER=161.391863,149.251668 POLYGON=[[123.291864,130.995424],[123.370040,130.002048],[123.602648,129.033160],[123.983968,128.112576],[124.504600,127.262976],[125.151736,126.505288],[125.909424,125.858152],[126.759016,125.337528],[127.679600,124.956208],[128.648496,124.723592],[129.641864,124.645416],[193.141856,124.645416],[194.135216,124.723592],[195.104128,124.956208],[196.024704,125.337528],[196.874304,125.858152],[197.631984,126.505288],[198.279120,127.262976],[198.799744,128.112576],[199.181072,129.033160],[199.413680,130.002048],[199.491872,130.995424],[199.491872,132.900424],[199.413680,133.893768],[199.181072,134.862672],[198.799744,135.783264],[198.279120,136.632848],[174.466608,171.240352],[173.819488,171.998048],[173.061792,172.645168],[172.212208,173.165808],[171.291632,173.547120],[170.322720,173.779728],[169.329360,173.857904],[153.454368,173.857904],[152.460992,173.779728],[151.492096,173.547120],[150.571520,173.165808],[149.721920,172.645168],[148.964240,171.998048],[148.317104,171.240352],[124.504600,136.632848],[123.983968,135.783264],[123.602648,134.862672],[123.370040,133.893768],[123.291864,132.900424],[123.291864,130.995424]]
; plater:{"center":[161.391863,149.251668,0.000000],"boundingbox_center":[161.391863,149.251668,3.175000],"boundingbox_size":[76.200005,49.212502,6.350000]}

M73 P0 R20
M204 P4000 T4000 ; sets acceleration (P, T), mm/sec^2
;TYPE:Custom
; custom gcode: start_gcode
START_PRINT T_BED=110 T_EXTRUDER=260
; custom gcode end: start_gcode
M107
G21 ; set units to millimeters
G90 ; use absolute coordinates
M82 ; use absolute distances for extrusion
G92 E0
; custom gcode: start_filament_gcode
; filament start gcode

    PRESSURE_ADVANCE_SELECT FILAMENT=ABS
; custom gcode end: start_filament_gcode
;_TOOLCHANGE 0
M104 S260 ; set temperature
M109 S260 ; set temperature and wait for it to be reached
M190 S110 ; set bed temperature and wait for it to be reached
;LAYER_CHANGE
;Z:0.2
;HEIGHT:0.2
G1 Z0.2 F9000
M73 P0 R20
G1 E-0.5 F2400
M204 S1000
G1 X121.852 Y123.739 F9000
G1 E0 F1800
;TYPE:Skirt
;WIDTH:0.52
G1 X121.212 Y124.489 E0.0391
G1 X120.311 Y125.861 E0.10425
G1 X119.635 Y127.358 E0.16941
G1 X119.098 Y129.592 E0.26054
G1 X119.008 Y130.908 E0.31286
G1 X119.008 Y132.814 E0.38849
G1 X119.201 Y134.78 E0.46683
G1 X119.635 Y136.364 E0.53199
G1 X120.012 Y137.275 E0.57109
G1 X120.946 Y138.887 E0.64503
G1 X144.879 Y173.669 E2.31985
M73 P0 R20
G1 X145.785 Y174.764 E2.37626
G1 X146.999 Y175.87 E2.44141
G1 X148.372 Y176.771 E2.50656
G1 X149.869 Y177.447 E2.57171
G1 X152.103 Y177.984 E2.66285
G1 X153.418 Y178.074 E2.71516
G1 X169.365 Y178.074 E3.34776
G1 X171.331 Y177.881 E3.42611
G1 X172.915 Y177.447 E3.49126
G1 X173.826 Y177.07 E3.53036
G1 X175.252 Y176.256 E3.59551
G1 X176.534 Y175.23 E3.66066
G1 X177.905 Y173.669 E3.74309
G1 X201.837 Y138.887 E5.41791
G1 X202.473 Y137.861 E5.46581
G1 X203.149 Y136.364 E5.53096
G1 X203.685 Y134.13 E5.6221
G1 X203.776 Y132.814 E5.67441
G1 X203.763 Y130.579 E5.7631
G1 X203.685 Y129.592 E5.80236
G1 X203.352 Y127.984 E5.86751
G1 X202.473 Y125.861 E5.95865
G1 X201.571 Y124.488 E6.0238
G1 X200.466 Y123.274 E6.08896
G1 X199.184 Y122.247 E6.15411
G1 X198.344 Y121.732 E6.19321
G1 X196.221 Y120.853 E6.28435
G1 X194.613 Y120.52 E6.3495
G1 X193.626 Y120.442 E6.38876
G1 X129.486 Y120.429 E8.93316
G1 X127.521 Y120.623 E9.0115
G1 X125.937 Y121.056 E9.07665
G1 X125.026 Y121.433 E9.11575
G1 X123.067 Y122.634 E9.20689
G1 X121.852 Y123.739 E9.27205
G1 X122.227 Y124.078 F9000
G1 F1800
G1 X121.575 Y124.798 E9.31058
G1 X120.717 Y126.11 E9.37276
G1 X120.075 Y127.541 E9.43495
G1 X119.574 Y129.629 E9.52017
G1 X119.485 Y130.908 E9.57099
G1 X119.485 Y132.814 E9.64663
G1 X119.665 Y134.668 E9.72052
G1 X120.075 Y136.181 E9.78271
G1 X120.453 Y137.092 E9.82181
G1 X121.339 Y138.617 E9.89178
G1 X145.272 Y173.398 E11.56661
G1 X146.147 Y174.455 E11.62104
G1 X147.309 Y175.507 E11.68323
G1 X148.621 Y176.365 E11.74542
G1 X150.051 Y177.007 E11.8076
G1 X152.14 Y177.508 E11.89282
G1 X153.418 Y177.597 E11.94365
G1 X169.365 Y177.597 E12.57625
G1 X171.219 Y177.417 E12.65014
G1 X172.732 Y177.007 E12.71233
G1 X173.643 Y176.629 E12.75143
G1 X175.003 Y175.85 E12.81362
G1 X176.224 Y174.867 E12.8758
G1 X177.512 Y173.398 E12.9533
G1 X201.444 Y138.617 E14.62812
G1 X202.066 Y137.611 E14.67502
G1 X202.708 Y136.181 E14.7372
G1 X203.21 Y134.092 E14.82242
G1 X203.299 Y132.814 E14.87325
M73 P1 R20
G1 X203.287 Y130.616 E14.96045
G1 X203.21 Y129.629 E14.99971
G1 X202.889 Y128.095 E15.06189
G1 X202.066 Y126.11 E15.14711
G1 X201.209 Y124.798 E15.2093
G1 X200.569 Y124.049 E15.2484
G1 X199.407 Y122.996 E15.31059
G1 X198.095 Y122.139 E15.37277
G1 X196.11 Y121.317 E15.45799
G1 X194.576 Y120.995 E15.52018
G1 X193.589 Y120.918 E15.55943
G1 X129.486 Y120.906 E18.10235
G1 X127.632 Y121.086 E18.17624
G1 X126.119 Y121.497 E18.23843
G1 X125.209 Y121.874 E18.27753
G1 X123.377 Y122.996 E18.36275
G1 X122.627 Y123.637 E18.40185
G1 X122.227 Y124.078 E18.4255
G1 X122.58 Y124.396 F9000
G1 F1800
G1 X121.938 Y125.108 E18.46353
G1 X121.124 Y126.36 E18.52275
G1 X120.516 Y127.723 E18.58197
G1 X120.049 Y129.667 E18.66127
G1 X119.962 Y130.908 E18.71061
G1 X119.962 Y132.814 E18.78624
G1 X120.129 Y134.557 E18.85569
G1 X120.516 Y135.999 E18.91491
G1 X120.893 Y136.909 E18.95401
G1 X121.732 Y138.346 E19.02002
G1 X145.665 Y173.128 E20.69484
G1 X146.51 Y174.145 E20.74731
G1 X147.619 Y175.144 E20.80653
G1 X148.871 Y175.958 E20.86575
G1 X150.234 Y176.566 E20.92497
G1 X151.676 Y176.953 E20.98419
G1 X153.164 Y177.11 E21.04357
G1 X169.365 Y177.12 E21.68625
G1 X171.108 Y176.953 E21.75569
G1 X172.55 Y176.566 E21.81492
G1 X173.46 Y176.189 E21.85402
G1 X174.754 Y175.443 E21.91324
G1 X175.914 Y174.504 E21.97246
G1 X177.119 Y173.128 E22.04502
G1 X201.051 Y138.346 E23.71985
G1 X201.66 Y137.362 E23.76574
G1 X202.268 Y135.999 E23.82496
G1 X202.734 Y134.055 E23.90426
G1 X202.822 Y132.814 E23.9536
G1 X202.812 Y130.653 E24.03932
G1 X202.734 Y129.667 E24.07858
G1 X202.425 Y128.207 E24.13779
G1 X201.66 Y126.36 E24.21709
G1 X200.846 Y125.108 E24.27631
G1 X199.846 Y123.999 E24.33553
G1 X199.097 Y123.359 E24.37463
G1 X197.845 Y122.545 E24.43385
G1 X195.999 Y121.78 E24.51315
G1 X194.538 Y121.471 E24.57237
G1 X193.552 Y121.393 E24.61163
G1 X129.486 Y121.383 E27.15306
G1 X127.744 Y121.55 E27.2225
G1 X126.302 Y121.938 E27.28172
G1 X125.391 Y122.315 E27.32083
G1 X123.687 Y123.359 E27.40012
G1 X122.937 Y123.999 E27.43922
G1 X122.58 Y124.396 E27.46042
G92 E0
G1 E-0.5 F2400
; printing object Chalk Bag Clip.stl id:0 copy 0
EXCLUDE_OBJECT_START NAME=Chalk_Bag_Clip_stl_id_0_copy_0
; acceleration to travel
M204 S3000
G1 X127.558 Y129.995 F9000
; decel to extrusion
M204 S1000
G1 X129.218 Y131.861
; end travel
G1 E0 F1800
;TYPE:External perimeter
;WIDTH:0.5
G1 X129.447 Y132.285 E0.01832
G1 X129.645 Y132.54 E0.03061
G1 X129.882 Y132.759 E0.04284
G1 X130.151 Y132.935 E0.05507
G1 X130.446 Y133.064 E0.06733
G1 X130.758 Y133.143 E0.07954
G1 X131.063 Y133.168 E0.09119
G1 X139.041 Y133.168 E0.39441
G1 X139.499 Y133.204 E0.41187
G1 X139.933 Y133.308 E0.42881
G1 X140.344 Y133.479 E0.44575
G1 X140.724 Y133.712 E0.46268
G1 X141.063 Y134.001 E0.47962
G1 X141.353 Y134.34 E0.49656
G1 X141.586 Y134.72 E0.51349
G1 X141.756 Y135.132 E0.53043
M73 P2 R19
G1 X141.86 Y135.565 E0.54737
G1 X141.895 Y136.009 E0.5643
G1 X141.86 Y136.453 E0.58124
G1 X141.756 Y136.887 E0.59818
G1 X141.586 Y137.298 E0.61511
G1 X141.353 Y137.678 E0.63205
G1 X141.063 Y138.017 E0.64899
G1 X140.724 Y138.307 E0.66592
G1 X140.344 Y138.54 E0.68286
G1 X139.933 Y138.71 E0.6998
G1 X139.499 Y138.814 E0.71673
G1 X139.041 Y138.85 E0.73419
G1 X129.496 Y138.85 E1.09698
G1 X128.539 Y138.775 E1.13347
G1 X127.619 Y138.554 E1.16944
G1 X126.744 Y138.192 E1.2054
G1 X125.937 Y137.697 E1.24137
G1 X125.218 Y137.083 E1.27734
G1 X124.603 Y136.363 E1.31331
G1 X124.109 Y135.556 E1.34927
G1 X123.747 Y134.682 E1.38524
G1 X123.526 Y133.762 E1.42121
G1 X123.45 Y132.804 E1.4577
G1 X123.45 Y130.917 E1.52942
G1 X123.526 Y129.96 E1.56591
G1 X123.747 Y129.04 E1.60188
G1 X124.109 Y128.166 E1.63784
G1 X124.603 Y127.359 E1.67381
G1 X125.218 Y126.639 E1.70978
G1 X125.937 Y126.025 E1.74575
G1 X126.744 Y125.53 E1.78171
G1 X127.619 Y125.168 E1.81768
G1 X128.539 Y124.947 E1.85365
G1 X129.496 Y124.872 E1.89014
G1 X152.165 Y124.88 E2.75169
G1 X152.459 Y124.934 E2.76305
G1 X152.639 Y125.008 E2.77048
G1 X152.806 Y125.11 E2.7779
G1 X152.954 Y125.237 E2.78532
G1 X153.081 Y125.386 E2.79274
G1 X153.183 Y125.552 E2.80016
G1 X153.258 Y125.733 E2.80758
G1 X153.303 Y125.923 E2.815
G1 X153.32 Y126.131 E2.82295
G1 X153.32 Y131.537 E3.0284
G1 X153.435 Y131.821 E3.04006
G1 X153.602 Y132.098 E3.05234
G1 X153.811 Y132.344 E3.06462
G1 X154.056 Y132.556 E3.07694
G1 X154.342 Y132.73 E3.08964
G1 X154.614 Y132.844 E3.10086
G1 X154.946 Y132.926 E3.11385
G1 X155.252 Y132.95 E3.12551
G1 X167.534 Y132.95 E3.59231
G1 X167.861 Y132.921 E3.60478
G1 X168.147 Y132.852 E3.61597
G1 X168.441 Y132.731 E3.62807
G1 X168.727 Y132.556 E3.64081
G1 X168.973 Y132.344 E3.65312
G1 X169.181 Y132.098 E3.66541
G1 X169.349 Y131.821 E3.67769
G1 X169.464 Y131.537 E3.68935
G1 X169.464 Y126.131 E3.8948
G1 X169.48 Y125.923 E3.90274
G1 X169.526 Y125.733 E3.91017
G1 X169.601 Y125.552 E3.91759
G1 X169.703 Y125.386 E3.92501
G1 X169.83 Y125.237 E3.93243
G1 X169.978 Y125.11 E3.93985
G1 X170.144 Y125.008 E3.94727
G1 X170.325 Y124.934 E3.95469
G1 X170.515 Y124.888 E3.96212
G1 X170.723 Y124.872 E3.97006
G1 X193.288 Y124.872 E4.82765
G1 X194.245 Y124.947 E4.86414
G1 X195.165 Y125.168 E4.90011
G1 X196.039 Y125.53 E4.93608
G1 X196.846 Y126.025 E4.97205
G1 X197.566 Y126.639 E5.00801
G1 X198.18 Y127.359 E5.04398
G1 X198.675 Y128.166 E5.07995
G1 X199.037 Y129.04 E5.11592
G1 X199.258 Y129.96 E5.15188
G1 X199.333 Y130.917 E5.18837
G1 X199.333 Y132.804 E5.26009
G1 X199.258 Y133.762 E5.29659
G1 X199.037 Y134.682 E5.33255
G1 X198.675 Y135.556 E5.36852
G1 X198.18 Y136.363 E5.40449
G1 X197.566 Y137.083 E5.44045
G1 X196.846 Y137.697 E5.47642
G1 X196.039 Y138.192 E5.51239
G1 X195.165 Y138.554 E5.54836
G1 X194.245 Y138.775 E5.58432
G1 X193.288 Y138.85 E5.62081
G1 X183.742 Y138.85 E5.9836
G1 X183.284 Y138.814 E6.00106
G1 X182.851 Y138.71 E6.018
G1 X182.439 Y138.54 E6.03493
G1 X182.059 Y138.307 E6.05187
G1 X181.72 Y138.017 E6.06881
G1 X181.431 Y137.678 E6.08574
G1 X181.198 Y137.298 E6.10268
G1 X181.028 Y136.887 E6.11962
G1 X180.924 Y136.453 E6.13655
G1 X180.889 Y136.009 E6.15349
G1 X180.924 Y135.565 E6.17043
G1 X181.028 Y135.132 E6.18736
G1 X181.198 Y134.72 E6.2043
G1 X181.431 Y134.34 E6.22124
G1 X181.72 Y134.001 E6.23817
G1 X182.059 Y133.712 E6.25511
G1 X182.439 Y133.479 E6.27205
G1 X182.851 Y133.308 E6.28898
G1 X183.284 Y133.204 E6.30592
G1 X183.742 Y133.168 E6.32338
G1 X191.72 Y133.168 E6.6266
G1 X192.028 Y133.143 E6.63831
G1 X192.346 Y133.061 E6.65081
G1 X192.633 Y132.935 E6.66272
G1 X192.903 Y132.758 E6.67497
G1 X193.143 Y132.535 E6.68744
G1 X193.337 Y132.285 E6.69948
G1 X193.566 Y131.861 E6.7178
G1 X193.335 Y131.433 E6.73628
G1 X193.139 Y131.182 E6.7484
G1 X192.908 Y130.968 E6.76035
G1 X192.633 Y130.787 E6.77284
G1 X192.337 Y130.658 E6.78512
G1 X192.026 Y130.579 E6.79733
G1 X191.72 Y130.554 E6.80899
G1 X182.119 Y130.554 E7.17389
G1 X181.08 Y130.635 E7.21352
G1 X180.052 Y130.882 E7.25367
G1 X179.076 Y131.286 E7.29383
G1 X178.176 Y131.838 E7.33398
G1 X177.372 Y132.525 E7.37414
G1 X176.686 Y133.328 E7.41429
G1 X176.134 Y134.229 E7.45445
G1 X175.73 Y135.205 E7.4946
G1 X175.483 Y136.232 E7.53476
G1 X175.401 Y137.272 E7.57439
G1 X175.401 Y167.586 E8.72651
M73 P3 R19
G1 X175.326 Y168.543 E8.763
G1 X175.105 Y169.463 E8.79897
G1 X174.743 Y170.338 E8.83494
G1 X174.248 Y171.145 E8.87091
G1 X173.634 Y171.864 E8.90687
G1 X172.914 Y172.479 E8.94284
G1 X172.107 Y172.973 E8.97881
G1 X171.233 Y173.335 E9.01477
G1 X170.313 Y173.556 E9.05074
G1 X169.355 Y173.632 E9.08723
G1 X153.428 Y173.632 E9.69257
G1 X152.471 Y173.556 E9.72906
G1 X151.551 Y173.335 E9.76503
G1 X150.677 Y172.973 E9.801
G1 X149.87 Y172.479 E9.83696
G1 X149.15 Y171.864 E9.87293
G1 X148.535 Y171.145 E9.9089
G1 X148.041 Y170.338 E9.94486
G1 X147.679 Y169.463 E9.98083
G1 X147.458 Y168.543 E10.0168
G1 X147.383 Y167.586 E10.05329
G1 X147.383 Y137.272 E11.20542
G1 X147.301 Y136.232 E11.24505
G1 X147.054 Y135.205 E11.2852
G1 X146.65 Y134.229 E11.32536
G1 X146.098 Y133.328 E11.36551
G1 X145.412 Y132.525 E11.40567
G1 X144.608 Y131.838 E11.44582
G1 X143.707 Y131.286 E11.48598
G1 X142.731 Y130.882 E11.52613
G1 X141.704 Y130.635 E11.56629
G1 X140.664 Y130.554 E11.60592
G1 X131.063 Y130.554 E11.97082
G1 X130.757 Y130.579 E11.9825
G1 X130.445 Y130.658 E11.99474
G1 X130.15 Y130.787 E12.00696
G1 X129.876 Y130.968 E12.01945
G1 X129.645 Y131.181 E12.03139
G1 X129.447 Y131.437 E12.04369
G1 X129.218 Y131.861 E12.06201
;WIPE_START
M204 S4000
G1 X128.909 Y132.115 F9000
;WIPE_END
M204 S1000
G1 X128.737 Y131.79
;TYPE:Internal perimeter
G1 F1800
G1 X128.698 Y131.861 E12.06509
G1 X129.062 Y132.535 E12.09422
G1 X129.307 Y132.851 E12.10939
G1 X129.6 Y133.12 E12.12452
G1 X129.933 Y133.338 E12.13964
G1 X130.297 Y133.498 E12.15477
G1 X130.682 Y133.595 E12.16986
G1 X131.044 Y133.625 E12.18367
G1 X139.023 Y133.625 E12.48692
G1 X139.428 Y133.657 E12.50233
G1 X139.791 Y133.744 E12.51654
G1 X140.136 Y133.887 E12.53074
G1 X140.455 Y134.083 E12.54494
G1 X140.739 Y134.325 E12.55914
G1 X140.982 Y134.609 E12.57335
G1 X141.177 Y134.928 E12.58755
G1 X141.32 Y135.273 E12.60175
G1 X141.407 Y135.637 E12.61595
G1 X141.437 Y136.009 E12.63016
G1 X141.407 Y136.382 E12.64436
G1 X141.32 Y136.745 E12.65856
G1 X141.177 Y137.09 E12.67276
G1 X140.982 Y137.409 E12.68696
G1 X140.739 Y137.693 E12.70117
G1 X140.455 Y137.936 E12.71537
G1 X140.136 Y138.131 E12.72957
G1 X139.791 Y138.274 E12.74377
G1 X139.428 Y138.361 E12.75798
G1 X139.023 Y138.393 E12.77339
G1 X129.514 Y138.393 E13.13481
G1 X128.611 Y138.322 E13.16925
G1 X127.76 Y138.118 E13.20248
G1 X126.953 Y137.783 E13.23571
G1 X126.207 Y137.326 E13.26895
G1 X125.542 Y136.758 E13.30218
G1 X124.974 Y136.094 E13.33541
G1 X124.517 Y135.348 E13.36864
M73 P3 R19
G1 X124.183 Y134.54 E13.40188
G1 X123.979 Y133.69 E13.43511
G1 X123.907 Y132.787 E13.46955
G1 X123.907 Y130.935 E13.53991
G1 X123.979 Y130.032 E13.57435
G1 X124.183 Y129.182 E13.60758
G1 X124.517 Y128.374 E13.64081
G1 X124.974 Y127.628 E13.67405
G1 X125.542 Y126.963 E13.70728
G1 X126.207 Y126.396 E13.74051
G1 X126.953 Y125.939 E13.77375
G1 X127.76 Y125.604 E13.80698
G1 X128.611 Y125.4 E13.84021
G1 X129.514 Y125.329 E13.87465
G1 X152.123 Y125.337 E14.73394
G1 X152.329 Y125.375 E14.74189
G1 X152.536 Y125.481 E14.75075
G1 X152.71 Y125.655 E14.7601
G1 X152.822 Y125.874 E14.76945
G1 X152.85 Y125.994 E14.77413
G1 X152.863 Y131.626 E14.98817
G1 X153.025 Y132.026 E15.0046
G1 X153.23 Y132.365 E15.01963
G1 X153.485 Y132.667 E15.03466
G1 X153.786 Y132.926 E15.04977
G1 X154.133 Y133.138 E15.06522
G1 X154.47 Y133.279 E15.07911
G1 X154.873 Y133.378 E15.09486
G1 X155.234 Y133.407 E15.10862
G1 X167.554 Y133.407 E15.57687
G1 X167.935 Y133.373 E15.5914
G1 X168.288 Y133.288 E15.60522
G1 X168.649 Y133.139 E15.62003
G1 X168.997 Y132.926 E15.63556
G1 X169.299 Y132.667 E15.65067
G1 X169.554 Y132.365 E15.6657
G1 X169.758 Y132.026 E15.68073
G1 X169.921 Y131.626 E15.69716
G1 X169.933 Y125.994 E15.9112
G1 X170.009 Y125.76 E15.92054
G1 X170.154 Y125.562 E15.92989
G1 X170.353 Y125.417 E15.93923
G1 X170.587 Y125.341 E15.94858
G1 X193.27 Y125.329 E16.81068
G1 X194.173 Y125.4 E16.84512
G1 X195.023 Y125.604 E16.87836
G1 X195.831 Y125.939 E16.91159
