; HEADER_BLOCK_START
; generated by OrcaSlicer 1.6.3 on 2023-06-28 at 15:05:39
; total layer number: 50
; HEADER_BLOCK_END

; THUMBNAIL_BLOCK_START
; THUMBNAIL_BLOCK_END

; external perimeters extrusion width = 0.42mm
; perimeters extrusion width = 0.45mm
; infill extrusion width = 0.45mm
; solid infill extrusion width = 0.42mm
; top infill extrusion width = 0.42mm
; first layer extrusion width = 0.50mm

; external perimeters extrusion width = 0.42mm
; perimeters extrusion width = 0.45mm
; infill extrusion width = 0.45mm
; solid infill extrusion width = 0.42mm
; top infill extrusion width = 0.42mm
; first layer extrusion width = 0.50mm

; external perimeters extrusion width = 0.42mm
; perimeters extrusion width = 0.45mm
; infill extrusion width = 0.45mm
; solid infill extrusion width = 0.42mm
; top infill extrusion width = 0.42mm
; first layer extrusion width = 0.50mm

; external perimeters extrusion width = 0.42mm
; perimeters extrusion width = 0.45mm
; infill extrusion width = 0.45mm
; solid infill extrusion width = 0.42mm
; top infill extrusion width = 0.42mm
; first layer extrusion width = 0.50mm

; external perimeters extrusion width = 0.42mm
; perimeters extrusion width = 0.45mm
; infill extrusion width = 0.45mm
; solid infill extrusion width = 0.42mm
; top infill extrusion width = 0.42mm
; first layer extrusion width = 0.50mm

; EXECUTABLE_BLOCK_START
EXCLUDE_OBJECT_DEFINE NAME=Chalkbag_Clip_MAG_PRO_90mm_V4.stl_id_0_copy_0 CENTER=209,203.664 POLYGON=[[165.5,195.664],[165.546,195.143],[165.681,194.638],[165.902,194.164],[166.202,193.736],[166.572,193.366],[167,193.066],[167.474,192.845],[167.979,192.71],[168.5,192.664],[176.5,192.664],[251.9,197.664],[252.055,197.685],[252.2,197.745],[252.324,197.84],[252.42,197.964],[252.48,198.109],[252.5,198.264],[252.5,209.064],[252.48,209.22],[252.42,209.364],[252.324,209.489],[252.2,209.584],[252.055,209.644],[251.9,209.664],[176.5,214.664],[168.5,214.664],[167.979,214.619],[167.474,214.483],[167,214.262],[166.572,213.963],[166.202,213.593],[165.902,213.164],[165.681,212.69],[165.546,212.185],[165.5,211.664],[165.5,195.664]]
EXCLUDE_OBJECT_DEFINE NAME=Chalkbag_Clip_MAG_PRO_80mm_V2.stl_id_1_copy_0 CENTER=119,203.664 POLYGON=[[77.5,195.664],[77.5456,195.143],[77.6809,194.638],[77.9019,194.164],[78.2019,193.736],[78.5716,193.366],[79,193.066],[79.4739,192.845],[79.9791,192.71],[80.5,192.664],[88.5,192.664],[159.9,197.664],[160.055,197.685],[160.2,197.745],[160.324,197.84],[160.42,197.964],[160.48,198.109],[160.5,198.264],[160.5,209.064],[160.48,209.22],[160.42,209.364],[160.324,209.489],[160.2,209.584],[160.055,209.644],[159.9,209.664],[88.5,214.664],[80.5,214.664],[79.9791,214.619],[79.4739,214.484],[79,214.262],[78.5716,213.963],[78.2019,213.593],[77.9019,213.164],[77.6809,212.69],[77.5456,212.185],[77.5,211.664],[77.5,195.664]]
EXCLUDE_OBJECT_DEFINE NAME=Chalkbag_Clip_MAG_PRO_70mm_V2.stl_id_2_copy_0 CENTER=160.815,179.35 POLYGON=[[124.315,171.35],[124.361,170.829],[124.496,170.324],[124.717,169.85],[125.017,169.422],[125.387,169.052],[125.815,168.752],[126.289,168.531],[126.794,168.395],[127.315,168.35],[135.315,168.35],[196.715,173.35],[196.871,173.37],[197.015,173.43],[197.14,173.526],[197.235,173.65],[197.295,173.795],[197.315,173.95],[197.315,184.75],[197.295,184.905],[197.235,185.05],[197.14,185.174],[197.015,185.27],[196.871,185.329],[196.715,185.35],[135.315,190.35],[127.315,190.35],[126.794,190.304],[126.289,190.169],[125.815,189.948],[125.387,189.648],[125.017,189.278],[124.717,188.85],[124.496,188.376],[124.361,187.871],[124.315,187.35],[124.315,171.35]]
EXCLUDE_OBJECT_DEFINE NAME=Chalkbag_Clip_MAG_PRO_60mm_V2.stl_id_3_copy_0 CENTER=161.553,152.35 POLYGON=[[130.053,144.35],[130.09,143.881],[130.2,143.423],[130.38,142.988],[130.626,142.587],[130.932,142.229],[131.29,141.923],[131.691,141.677],[132.126,141.497],[132.584,141.387],[133.053,141.35],[141.053,141.35],[192.453,146.35],[192.609,146.37],[192.753,146.43],[192.878,146.526],[192.973,146.65],[193.033,146.795],[193.053,146.95],[193.053,157.75],[193.033,157.905],[192.973,158.05],[192.878,158.174],[192.753,158.27],[192.609,158.329],[192.453,158.35],[141.053,163.35],[133.053,163.35],[132.584,163.313],[132.126,163.203],[131.691,163.023],[131.29,162.777],[130.932,162.471],[130.626,162.113],[130.38,161.712],[130.2,161.277],[130.09,160.819],[130.053,160.35],[130.053,144.35]]
EXCLUDE_OBJECT_DEFINE NAME=chalk_bag_clip_v2.stl_id_4_copy_0 CENTER=162.281,125.843 POLYGON=[[135.781,118.355],[135.792,118.094],[135.826,117.835],[135.883,117.579],[135.962,117.33],[136.062,117.088],[136.183,116.856],[136.323,116.635],[136.482,116.427],[136.659,116.235],[136.852,116.058],[137.06,115.898],[137.28,115.758],[137.512,115.637],[137.754,115.537],[138.003,115.458],[138.259,115.401],[138.518,115.367],[138.78,115.355],[185.78,115.336],[186.041,115.347],[186.301,115.381],[186.556,115.438],[186.806,115.516],[187.048,115.616],[187.28,115.737],[187.501,115.878],[187.709,116.037],[187.902,116.214],[188.079,116.407],[188.238,116.614],[188.379,116.835],[188.5,117.067],[188.6,117.309],[188.679,117.559],[188.735,117.815],[188.77,118.074],[188.781,118.336],[188.781,133.35],[188.77,133.611],[188.735,133.871],[188.679,134.126],[188.6,134.376],[188.5,134.618],[188.379,134.85],[188.238,135.071],[188.079,135.278],[187.902,135.471],[187.709,135.648],[187.502,135.807],[187.281,135.948],[187.049,136.069],[186.807,136.169],[186.557,136.248],[186.302,136.304],[186.042,136.338],[185.781,136.35],[138.781,136.35],[138.519,136.338],[138.26,136.304],[138.004,136.248],[137.755,136.169],[137.513,136.069],[137.281,135.948],[137.06,135.807],[136.853,135.648],[136.66,135.471],[136.483,135.278],[136.323,135.071],[136.183,134.85],[136.062,134.618],[135.962,134.376],[135.883,134.126],[135.827,133.871],[135.792,133.611],[135.781,133.35],[135.781,118.355]]
M73 P0 R54
;TYPE:Custom
START_PRINT T_BED=110 T_EXTRUDER=260
G90
G21
M83 ; use relative distances for extrusion
; filament start gcode

    PRESSURE_ADVANCE_SELECT FILAMENT=ABS
M106 S0
;LAYER_CHANGE
;Z:0.2
;HEIGHT:0.2
;BEFORE_LAYER_CHANGE
;0.2
G92 E0

G1 E-.5 F2400
M204 S1000
G1 X134.633 Y115.308 F12000
G1 Z.2
G1 E.5 F1800
;TYPE:Skirt
;WIDTH:0.5
G1 F7200
G1 X135.232 Y114.628 E.03191
G1 X135.933 Y114.068 E.0316
G1 X136.901 Y113.564 E.0384
G1 X137.762 Y113.31 E.03157
G1 X138.779 Y113.203 E.03599
G1 X185.965 Y113.189 E1.66065
G1 X186.99 Y113.332 E.03642
G1 X188.07 Y113.726 E.04048
G1 X188.991 Y114.312 E.03841
G1 X189.796 Y115.114 E.04
G1 X254.492 Y198.588 E3.71683
G1 X255.029 Y199.721 E.04412
G1 X255.14 Y200.534 E.02887
G1 X255.14 Y206.795 E.22035
G1 X255.029 Y207.608 E.02887
G1 X254.17 Y209.093 E.06038
G1 X254.017 Y209.234 E.00734
G1 X252.582 Y209.96 E.0566
G1 X252.18 Y210.024 E.01433
G1 X176.5 Y217.304 E2.67575
G1 X80.5 Y217.304 E3.37861
G1 X79.163 Y217.137 E.04742
G1 X78.152 Y216.785 E.03769
G1 X77.225 Y216.248 E.03769
G1 X76.417 Y215.545 E.03769
G1 X75.756 Y214.702 E.03769
G1 X75.267 Y213.75 E.03769
G1 X74.967 Y212.722 E.03769
G1 X74.864 Y211.864 E.03042
G1 X74.868 Y195.457 E.57742
G1 X75.092 Y194.086 E.04888
G1 X75.274 Y193.562 E.0195
G1 X75.766 Y192.611 E.03769
G1 X134.596 Y115.356 E3.41751
G1 X134.96 Y115.633 F12000
G1 F7200
G1 X134.996 Y115.585 E.00211
G1 X135.541 Y114.965 E.02905
G1 X136.179 Y114.453 E.02879
G1 X137.076 Y113.986 E.0356
G1 X137.861 Y113.756 E.02877
G1 X138.779 Y113.66 E.03249
G1 X185.936 Y113.645 E1.65963
G1 X186.891 Y113.779 E.03394
G1 X187.859 Y114.131 E.03628
G1 X188.713 Y114.675 E.0356
G1 X189.434 Y115.394 E.03587
G1 X254.131 Y198.868 E3.71683
G1 X254.583 Y199.823 E.0372
G1 X254.683 Y200.534 E.02525
G1 X254.683 Y206.795 E.22035
G1 X254.583 Y207.505 E.02525
G1 X253.859 Y208.757 E.05091
G1 X253.706 Y208.899 E.00734
G1 X252.496 Y209.511 E.04772
G1 X252.136 Y209.569 E.01285
G1 X176.5 Y216.847 E2.67421
G1 X80.5 Y216.847 E3.37861
M73 P0 R53
G1 X79.292 Y216.698 E.04284
G1 X78.361 Y216.379 E.03464
G1 X77.508 Y215.889 E.03464
G1 X76.762 Y215.246 E.03464
G1 X76.152 Y214.474 E.03464
G1 X75.699 Y213.6 E.03464
G1 X75.419 Y212.657 E.03464
G1 X75.321 Y211.853 E.02851
G1 X75.324 Y195.489 E.57589
G1 X75.537 Y194.194 E.0462
G1 X76.138 Y192.876 E.05097
G1 X134.923 Y115.68 E3.41488
; printing object Chalkbag_Clip_MAG_PRO_90mm_V4.stl id:0 copy 0
EXCLUDE_OBJECT_START NAME=Chalkbag_Clip_MAG_PRO_90mm_V4.stl_id_0_copy_0
G1 E-.35 F2400
;WIPE_START
G1 F7200
G1 X134.996 Y115.585 E-.00854
G1 X135.541 Y114.965 E-.05881
G1 X136.179 Y114.453 E-.05829
G1 X136.389 Y114.344 E-.01686
;WIPE_END
G1 E-.0075 F2400
G1 X167.875 Y200.328 F12000
G1 E.5 F1800
;TYPE:Outer wall
;WIDTH:0.499999
G1 F7200
G1 X167.92 Y200.466 E.00511
G1 X168.103 Y200.559 E.00723
G1 X251.855 Y200.556 E2.94756
G1 X251.876 Y200.576 E.001
G1 X251.867 Y206.773 E.21811
G1 X168.102 Y206.77 E2.948
G1 X167.919 Y206.862 E.0072
G1 X167.874 Y206.999 E.00508
G1 X167.876 Y210.669 E.12918
G2 X168.373 Y212.019 I2.182 J-.038 E.05158
G1 X168.768 Y212.394 E.01917
G2 X169.994 Y212.789 I1.314 J-1.982 E.0459
G1 X176.477 Y212.789 E.22817
G1 X176.811 Y212.875 E.01215
G1 X177.039 Y213.103 E.01134
G1 X177.123 Y213.414 E.01134
G1 X177.039 Y213.726 E.01134
G1 X176.811 Y213.954 E.01134
G1 X176.477 Y214.04 E.01215
G1 X168.77 Y214.04 E.27123
G1 X168.136 Y214.004 E.02235
G3 X166.938 Y213.443 I.555 J-2.745 E.047
G3 X166.194 Y212.227 I1.853 J-1.97 E.05078
G1 X166.124 Y211.649 E.02046
G1 X166.124 Y196.397 E.53679
G1 X166.134 Y195.544 E.03
G1 X166.234 Y194.982 E.02011
G3 X166.906 Y193.919 I2.457 J.81 E.04469
G1 X167.334 Y193.605 E.0187
G1 X167.826 Y193.389 E.01892
G1 X168.519 Y193.289 E.02465
G1 X176.477 Y193.289 E.28006
G1 X176.811 Y193.375 E.01215
G1 X177.039 Y193.603 E.01134
G1 X177.123 Y193.914 E.01134
G1 X177.039 Y194.226 E.01134
G1 X176.811 Y194.454 E.01134
G1 X176.477 Y194.54 E.01215
G1 X169.997 Y194.54 E.22806
G2 X169.398 Y194.629 I.286 J3.985 E.02134
G2 X168.389 Y195.289 I.714 J2.192 E.04292
G1 X168.103 Y195.708 E.01786
G1 X167.975 Y196.043 E.01261
G1 X167.878 Y196.565 E.01871
G3 X167.875 Y200.32 I-206.081 J1.704 E.13215
G1 X167.853 Y200.347
G1 X167.428 Y200.351 F12000
;TYPE:Inner wall
G1 F7200
G1 X167.428 Y200.449 E.00344
G1 X167.553 Y200.739 E.01112
G1 X167.838 Y200.962 E.01277
G1 X168.103 Y201.016 E.00951
G1 X251.418 Y201.013 E2.93218
G1 X251.418 Y206.316 E.18664
G1 X168.102 Y206.313 E2.93222
G1 X167.838 Y206.366 E.00947
G1 X167.553 Y206.588 E.0127
G1 X167.416 Y206.999 E.01525
G1 X167.418 Y210.669 E.12918
G1 X167.442 Y211.005 E.01185
G1 X167.558 Y211.495 E.01771
G1 X167.777 Y211.974 E.01852
G1 X168.083 Y212.391 E.01822
G1 X168.47 Y212.741 E.01837
G1 X168.919 Y213.007 E.01837
G1 X169.416 Y213.166 E.01836
;WIDTH:0.478698
G1 X169.994 Y213.216 E.01946
;WIDTH:0.439944
G1 X176.436 Y213.216 E.19694
G3 X176.651 Y213.299 I.013 J.287 E.00724
G1 X176.689 Y213.439 E.00445
G1 X176.616 Y213.565 E.00445
G1 X176.436 Y213.613 E.00568
G1 X169.994 Y213.613 E.19694
;WIDTH:0.44214
G1 X169.907 Y213.612 E.00266
;WIDTH:0.478698
G1 X169.351 Y213.594 E.01868
;WIDTH:0.499999
G3 X168.18 Y213.549 I-.019 J-14.8 E.04126
G1 X167.751 Y213.418 E.01578
G1 X167.313 Y213.156 E.01797
G1 X166.976 Y212.816 E.01683
G1 X166.823 Y212.572 E.01012
G1 X166.642 Y212.123 E.01704
G1 X166.582 Y211.622 E.01778
G1 X166.582 Y196.016 E.54922
G1 X166.599 Y195.446 E.0201
G1 X166.735 Y194.94 E.01842
G1 X166.979 Y194.514 E.01726
G1 X167.221 Y194.25 E.01262
G1 X167.623 Y193.962 E.01738
G1 X168.041 Y193.82 E.01555
G3 X169.296 Y193.74 I1.004 J5.904 E.04435
;WIDTH:0.488304
G1 X169.997 Y193.716 E.02406
;WIDTH:0.439944
G1 X176.436 Y193.716 E.19684
G3 X176.651 Y193.799 I.013 J.287 E.00724
G1 X176.689 Y193.939 E.00445
G1 X176.616 Y194.065 E.00445
G1 X176.436 Y194.113 E.00568
G1 X169.997 Y194.113 E.19684
;WIDTH:0.444879
G1 X169.897 Y194.118 E.00308
;WIDTH:0.489918
G1 X169.315 Y194.185 E.02019
;WIDTH:0.499999
G1 X168.809 Y194.376 E.01902
G1 X168.373 Y194.663 E.01837
G1 X168.003 Y195.031 E.01837
G1 X167.715 Y195.467 E.01837
G1 X167.521 Y195.951 E.01837
G1 X167.421 Y196.565 E.02191
G1 X167.428 Y200.343 E.13295
G1 X167.029 Y200.58 F12000
;WIDTH:0.469289
G1 F7200
G1 X167.097 Y200.767 E.00654
;WIDTH:0.499999
G1 X167.186 Y201.011 E.00916
G1 X167.662 Y201.384 E.02128
G1 X168.103 Y201.473 E.01585
G1 X250.961 Y201.47 E2.9161
G1 X250.961 Y205.859 E.15447
G1 X168.102 Y205.856 E2.91613
G1 X167.662 Y205.944 E.01578
G1 X167.188 Y206.313 E.02117
G1 X167.093 Y206.656 E.01251
;WIDTH:0.460398
G1 X166.999 Y206.999 E.01142
G1 X167.019 Y206.631 E.01183
;WIDTH:0.499999
G1 X167.039 Y206.264 E.01295
G1 X167.039 Y201.06 E.18315
G1 X167.023 Y200.791 E.00948
;WIDTH:0.469289
G1 X167.008 Y200.522 E.00884
G1 X167.026 Y200.572 E.00174
G1 E-.5 F2400
G1 X167.496 Y201.808 F12000
G1 E.5 F1800
;WIDTH:0.499999
G1 F7200
G1 X168.103 Y201.93 E.02181
G1 X250.504 Y201.927 E2.90001
G1 X250.504 Y205.402 E.12229
G1 X168.102 Y205.399 E2.90005
G1 X167.496 Y205.52 E.02177
G1 X167.496 Y201.816 E.13037
G1 E-.5 F2400
G1 X167.1 Y195.614 F12000
G1 E.5 F1800
;WIDTH:0.60936
G1 F7200
G1 X167.077 Y195.809 E.0086
;WIDTH:0.5665
G1 X167.054 Y196.005 E.00795
;WIDTH:0.523639
G1 X167.031 Y196.201 E.0073
;WIDTH:0.480779
G1 X167.008 Y196.397 E.00665
;WIDTH:0.437918
G1 X167.001 Y196.566 E.00515
;WIDTH:0.427774
G3 X167 Y200.321 I-411.326 J1.702 E.11126
;WIDTH:0.438578
G1 X167.008 Y200.522 E.00614
G1 E-.5 F2400
G1 X167.1 Y195.614 F12000
G1 E.5 F1800
;WIDTH:0.60936
G1 F7200
G1 X167.092 Y195.527 E.00378
;WIDTH:0.561269
G1 X167.084 Y195.441 E.00346
;WIDTH:0.513177
G1 X167.075 Y195.355 E.00314
;WIDTH:0.465086
G1 X167.067 Y195.268 E.00282
;WIDTH:0.416994
G1 X167.059 Y195.182 E.0025
;WIDTH:0.384866
G1 X167.183 Y194.923 E.00757
G1 X167.491 Y194.533 E.01308
;WIDTH:0.367271
G1 X167.792 Y194.317 E.00925
;WIDTH:0.365328
G1 X168.037 Y194.216 E.0066
G1 X168.413 Y194.16 E.00944
G1 X168.15 Y194.343 E.00796
G1 X167.775 Y194.705 E.01295
;WIDTH:0.384866
G1 X167.483 Y195.084 E.01259
;WIDTH:0.429765
G1 X167.407 Y195.19 E.00389
;WIDTH:0.474664
G1 X167.33 Y195.296 E.00434
;WIDTH:0.519563
G1 X167.253 Y195.402 E.0048
;WIDTH:0.564462
G1 X167.177 Y195.508 E.00525
;WIDTH:0.60936
G1 X167.105 Y195.607 E.00535
G1 E-.5 F2400
G1 X167.098 Y211.702 F12000
G1 E.5 F1800
;WIDTH:0.586606
G1 F7200
G1 X167.071 Y211.517 E.00781
;WIDTH:0.54485
G1 X167.045 Y211.332 E.00721
;WIDTH:0.503094
G1 X167.019 Y211.147 E.00661
;WIDTH:0.461338
G1 X167 Y210.67 E.0154
;WIDTH:0.422808
G1 X166.999 Y206.999 E.10736
;WIDTH:0.420796
G1 X166.999 Y206.999 E.00002
G1 E-.5 F2400
G1 X167.098 Y211.702 F12000
G1 E.5 F1800
;WIDTH:0.586606
G1 F7200
G1 X167.146 Y211.763 E.00325
;WIDTH:0.548776
G1 X167.194 Y211.823 E.00302
;WIDTH:0.510945
G1 X167.242 Y211.884 E.0028
;WIDTH:0.473115
G1 X167.29 Y211.945 E.00257
;WIDTH:0.435284
G1 X167.415 Y212.143 E.00705
;WIDTH:0.409086
G1 X167.54 Y212.34 E.00658
;WIDTH:0.382888
G1 X167.922 Y212.791 E.01547
;WIDTH:0.375806
G1 X168.391 Y213.169 E.01544
G1 X167.963 Y213.082 E.01118
G1 X167.615 Y212.891 E.01017
;WIDTH:0.382888
G1 X167.277 Y212.555 E.01247
G1 X167.06 Y212.137 E.01233
;WIDTH:0.411883
G1 X167.068 Y212.05 E.00248
;WIDTH:0.455564
G1 X167.075 Y211.963 E.00278
;WIDTH:0.499245
G1 X167.083 Y211.876 E.00307
;WIDTH:0.542926
G1 X167.09 Y211.789 E.00336
;WIDTH:0.586606
G1 X167.097 Y211.71 E.00332
G1 E-.5 F2400
G1 X167.676 Y206.579 F12000
G1 X168.57 Y206.436
G1 X249.442 Y202.064
G1 E.5 F1800
;TYPE:Bottom surface
;WIDTH:0.500807
G1 F7200
G1 X250.162 Y202.784 E.0359
G1 X250.162 Y203.432 E.02283
G1 X249 Y202.27 E.05793
G1 X248.352 Y202.27 E.02283
G1 X250.162 Y204.079 E.09021
G1 X250.162 Y204.727 E.02283
G1 X247.705 Y202.27 E.1225
G1 X247.057 Y202.27 E.02283
G1 X249.846 Y205.059 E.13907
G1 X249.199 Y205.059 E.02283
G1 X246.41 Y202.27 E.13906
G1 X245.762 Y202.27 E.02283
G1 X248.551 Y205.059 E.13906
M73 P1 R53
G1 X247.904 Y205.059 E.02283
G1 X245.115 Y202.27 E.13906
G1 X244.467 Y202.27 E.02283
G1 X247.256 Y205.059 E.13906
G1 X246.608 Y205.059 E.02283
G1 X243.819 Y202.27 E.13905
G1 X243.172 Y202.27 E.02283
G1 X245.961 Y205.059 E.13905
G1 X245.313 Y205.059 E.02283
G1 X242.524 Y202.27 E.13905
G1 X241.877 Y202.27 E.02283
G1 X244.666 Y205.059 E.13905
G1 X244.018 Y205.059 E.02283
G1 X241.229 Y202.27 E.13904
G1 X240.582 Y202.27 E.02283
