; HEADER_BLOCK_START
; generated by OrcaSlicer 1.6.3 on 2023-06-25 at 08:42:29
; total layer number: 109
; HEADER_BLOCK_END

; THUMBNAIL_BLOCK_START
; THUMBNAIL_BLOCK_END

; external perimeters extrusion width = 0.40mm
; perimeters extrusion width = 0.45mm
; infill extrusion width = 0.45mm
; solid infill extrusion width = 0.40mm
; top infill extrusion width = 0.40mm
; support material extrusion width = 0.40mm
; first layer extrusion width = 0.50mm

; external perimeters extrusion width = 0.40mm
; perimeters extrusion width = 0.45mm
; infill extrusion width = 0.45mm
; solid infill extrusion width = 0.40mm
; top infill extrusion width = 0.40mm
; support material extrusion width = 0.40mm
; first layer extrusion width = 0.50mm

; EXECUTABLE_BLOCK_START
EXCLUDE_OBJECT_DEFINE NAME=chalk-bag-carabiner.stl_id_0_copy_0 CENTER=173.797,165.038 POLYGON=[[139.185,145.739],[139.187,144.06],[139.201,140.19],[139.227,139.754],[139.289,139.569],[140.169,136.944],[140.169,136.943],[145.568,127.41],[145.57,127.408],[200.601,117.056],[205.872,125.786],[208.408,165.323],[207.944,167.251],[207.57,168.801],[196.441,212.447],[196.431,212.453],[196.069,212.531],[193.806,213.02],[190.405,211.559],[189.052,210.968],[177.762,204.903],[161.93,196.026],[161.657,195.803],[161.336,195.417],[160.819,194.363],[159.338,191.292],[159.198,190.998],[139.355,146.269],[139.185,145.739]]
EXCLUDE_OBJECT_DEFINE NAME=gate.STL_id_1_copy_0 CENTER=127.885,161.116 POLYGON=[[121.585,136.04],[121.59,135.97],[121.607,135.901],[121.634,135.836],[121.671,135.776],[121.717,135.722],[122.353,135.086],[122.407,135.04],[122.467,135.003],[122.532,134.976],[131.256,131.534],[131.325,131.518],[131.395,131.512],[133.099,131.512],[133.169,131.518],[133.238,131.534],[133.303,131.561],[133.363,131.598],[133.417,131.644],[134.053,132.279],[134.099,132.333],[134.136,132.393],[134.163,132.458],[134.179,132.527],[134.185,132.597],[134.185,189.632],[134.179,189.703],[134.163,189.772],[134.136,189.837],[134.099,189.897],[134.053,189.951],[133.417,190.587],[133.363,190.633],[133.303,190.67],[133.238,190.697],[133.169,190.713],[133.099,190.719],[122.671,190.719],[122.601,190.713],[122.532,190.697],[122.467,190.67],[122.407,190.633],[122.353,190.587],[121.717,189.951],[121.671,189.897],[121.634,189.837],[121.607,189.772],[121.59,189.703],[121.585,189.632],[121.585,136.04]]
M73 P0 R55
;TYPE:Custom
START_PRINT T_BED=110 T_EXTRUDER=260
G90
G21
M83 ; use relative distances for extrusion
; Filament gcode
M106 S0
;LAYER_CHANGE
;Z:0.2
;HEIGHT:0.2
M204 S1000
G1 E-.5 F3600
G1 X120.431 Y135.394 F9000
G1 Z.2
G1 E.5 F3600
;TYPE:Skirt
;WIDTH:0.5
G1 F3000
G1 X121.531 Y134.629 E.04718
G1 X130.282 Y131.175 E.33112
G1 X145.613 Y125.355 E.57712
G1 X199.598 Y115.232 E1.93306
G1 X201.108 Y115.349 E.05327
G1 X202.63 Y116.59 E.06913
G1 X207.447 Y124.568 E.32797
G1 X207.846 Y125.735 E.0434
G1 X212.924 Y169.181 E1.53944
G1 X212.924 Y178.395 E.32427
G1 X212.837 Y179.101 E.02506
G1 X209.955 Y190.624 E.418
G1 X204.241 Y210.623 E.73203
G1 X203.461 Y211.921 E.05327
G1 X202.387 Y212.578 E.04433
G1 X195.991 Y214.779 E.23806
G1 X194.147 Y214.796 E.06489
G1 X121.705 Y191.403 E2.67914
G1 X120.838 Y190.95 E.03443
G1 X120.503 Y190.658 E.01565
G1 X120.031 Y190.061 E.0268
G1 X119.67 Y189.274 E.03048
G1 X119.536 Y188.722 E.01998
G1 X119.476 Y187.987 E.02595
G1 X119.478 Y138 E1.75925
G1 X119.639 Y136.842 E.04112
G1 X119.931 Y136.102 E.028
G1 X120.396 Y135.443 E.02839
G1 X120.766 Y135.706 F9000
G1 F3000
G1 X120.771 Y135.699 E.00029
G1 X121.699 Y135.054 E.03978
G1 X130.446 Y131.602 E.33095
G1 X145.698 Y125.804 E.57423
G1 X199.683 Y115.682 E1.93306
G1 X201.063 Y115.821 E.04884
G1 X202.239 Y116.827 E.05444
G1 X207.056 Y124.804 E.32797
G1 X207.392 Y125.788 E.03659
G1 X212.467 Y169.181 E1.53757
G1 X212.467 Y178.395 E.32427
G1 X212.394 Y178.991 E.02113
G1 X209.515 Y190.498 E.41747
G1 X203.801 Y210.497 E.73203
G1 X203.059 Y211.67 E.04884
G1 X202.238 Y212.146 E.03339
G1 X195.842 Y214.347 E.23806
G1 X194.288 Y214.361 E.05471
G1 X121.846 Y190.968 E2.67914
G1 X121.115 Y190.586 E.02903
G1 X120.821 Y190.33 E.01371
G1 X120.423 Y189.827 E.02259
G1 X120.108 Y189.146 E.0264
G1 X119.933 Y187.987 E.04124
G1 X119.933 Y138.104 E1.75558
G1 X120.082 Y136.952 E.04086
G1 X120.339 Y136.308 E.0244
G1 X120.732 Y135.755 E.02388
; printing object chalk-bag-carabiner.stl id:0 copy 0
EXCLUDE_OBJECT_START NAME=chalk-bag-carabiner.stl_id_0_copy_0
G1 E-.5 F3600
G1 X162.476 Y182.18 F9000
G1 E.5 F3600
;TYPE:Support interface
G1 F3000
G1 X162.368 Y182.18 E.00379
G1 X162.368 Y185.037 E.10055
G1 X162.59 Y185.037 E.00782
G1 X162.655 Y184.993 E.00275
G1 X162.655 Y182.18 E.09898
G1 X163.512 Y182.18 E.03016
G1 X163.512 Y184.398 E.07804
G1 X163.993 Y184.08 E.02028
G1 X164.261 Y184.01 E.00976
G1 X164.369 Y184.01 E.00379
G1 X164.369 Y182.18 E.06441
G1 X165.226 Y182.18 E.03016
G1 X165.226 Y184.615 E.08568
G1 X165.539 Y184.577 E.01112
G1 X165.653 Y185.037 E.0167
G1 X165.226 Y185.037 E.01503
G1 X165.226 Y185.414 E.01326
G1 X165.513 Y186.579 E.04223
G1 X165.512 Y186.677 E.00346
G1 X165.472 Y186.817 E.00512
G1 X165.226 Y187.339 E.02031
G1 X165.226 Y187.895 E.01954
G1 X166.083 Y187.895 E.03016
G1 X166.083 Y182.18 E.20111
G1 X166.94 Y182.18 E.03016
G1 X166.94 Y187.895 E.20111
G1 X167.797 Y187.895 E.03016
G1 X167.797 Y182.18 E.20111
G1 X168.083 Y182.18 E.01005
G1 X168.083 Y182.776 E.02095
G1 E-.5 F3600
G1 X161.94 Y185.466 F9000
G1 E.5 F3600
;TYPE:Support
G1 F3000
G1 X161.958 Y185.466 E.00065
G1 X160.44 Y186.551 E.06567
G1 X160.44 Y183.466 E.10857
G1 X161.94 Y183.466 E.05278
G1 X161.94 Y185.397 E.06797
G1 X161.528 Y183.877 F9000
G1 F3000
G1 X161.528 Y185.268 E.04893
G1 X160.851 Y185.751 E.02929
G1 X160.851 Y183.877 E.06595
G1 X161.528 Y183.877 E.02383
G1 E-.5 F3600
G1 X199.082 Y171.181 F9000
G1 E.5 F3600
G1 F3000
G1 X208.51 Y171.181 E.33183
G1 X208.51 Y169.181 E.07039
G1 X210.01 Y169.181 E.05278
G1 X210.01 Y178.395 E.32427
G1 X207.153 Y178.395 E.10055
G1 X207.153 Y189.823 E.40221
M73 P0 R54
G1 X204.296 Y189.823 E.10055
G1 X204.296 Y198.394 E.30165
G1 X201.439 Y198.394 E.10055
G1 X201.439 Y209.822 E.40221
G1 X196.053 Y209.822 E.18955
G1 X196.451 Y207.636 E.07821
G1 X196.308 Y207.304 E.01274
G1 X189.011 Y202.538 E.30673
G1 X189.011 Y194.537 E.28157
G1 X191.868 Y194.537 E.10055
G1 X191.868 Y183.109 E.40221
G1 X194.725 Y183.109 E.10055
G1 X194.725 Y168.824 E.50276
G1 X199.082 Y168.824 E.15334
G1 X199.082 Y171.112 E.08054
G1 X195.136 Y169.235 F9000
G1 F3000
G1 X198.67 Y169.235 E.12438
G1 X198.67 Y171.592 E.08295
G1 X208.922 Y171.592 E.36078
G1 X208.922 Y169.592 E.07039
G1 X209.599 Y169.592 E.02383
G1 X209.599 Y177.983 E.29532
G1 X206.742 Y177.983 E.10055
G1 X206.742 Y189.412 E.40221
G1 X203.885 Y189.412 E.10055
G1 X203.885 Y197.983 E.30165
G1 X201.027 Y197.983 E.10055
G1 X201.027 Y209.411 E.40221
G1 X196.546 Y209.411 E.15772
G1 X196.878 Y207.588 E.06522
G1 X196.637 Y207.027 E.02148
G1 X189.422 Y202.315 E.30326
G1 X189.422 Y194.949 E.25926
G1 X192.279 Y194.949 E.10055
G1 X192.279 Y183.52 E.40221
G1 X195.136 Y183.52 E.10055
G1 X195.136 Y169.235 E.50276
G1 X195.644 Y169.743 F9000
G1 F3000
G1 X198.162 Y169.743 E.08863
G1 X198.162 Y172.1 E.08295
G1 X209.091 Y172.1 E.38461
G1 X209.091 Y177.475 E.18918
G1 X206.234 Y177.475 E.10055
G1 X206.234 Y188.904 E.40221
G1 X203.377 Y188.904 E.10055
G1 X203.377 Y197.475 E.30165
G1 X200.52 Y197.475 E.10055
G1 X200.52 Y208.903 E.40221
G1 X197.155 Y208.903 E.11843
G1 X197.405 Y207.528 E.0492
G1 X197.043 Y206.686 E.03227
G1 X189.93 Y202.04 E.29898
G1 X189.93 Y195.457 E.23171
G1 X192.787 Y195.457 E.10055
G1 X192.787 Y184.028 E.40221
G1 X195.644 Y184.028 E.10055
G1 X195.644 Y169.743 E.50276
G1 X196.152 Y170.251 F9000
G1 F3000
G1 X197.655 Y170.251 E.05288
G1 X197.655 Y172.608 E.08295
G1 X208.583 Y172.608 E.38461
G1 X208.583 Y176.968 E.15344
G1 X205.726 Y176.968 E.10055
G1 X205.726 Y188.396 E.40221
G1 X202.869 Y188.396 E.10055
G1 X202.869 Y196.967 E.30165
G1 X200.012 Y196.967 E.10055
G1 X200.012 Y208.395 E.40221
G1 X197.763 Y208.395 E.07914
M73 P1 R54
G1 X197.932 Y207.468 E.03317
G1 X197.449 Y206.344 E.04305
G1 X190.438 Y201.765 E.2947
G1 X190.438 Y195.964 E.20416
G1 X193.295 Y195.964 E.10055
G1 X193.295 Y184.536 E.40221
G1 X196.152 Y184.536 E.10055
G1 X196.152 Y170.251 E.50276
G1 X196.66 Y170.759 F9000
G1 F3000
G1 X197.147 Y170.759 E.01714
G1 X197.147 Y173.116 E.08295
G1 X208.075 Y173.116 E.38461
G1 X208.075 Y176.46 E.11769
G1 X205.218 Y176.46 E.10055
G1 X205.218 Y187.888 E.40221
G1 X202.361 Y187.888 E.10055
G1 X202.361 Y196.459 E.30165
G1 X199.504 Y196.459 E.10055
G1 X199.504 Y207.888 E.40221
G1 X198.372 Y207.888 E.03984
G1 X198.459 Y207.408 E.01714
G1 X197.855 Y206.003 E.05384
G1 X190.946 Y201.491 E.29042
G1 X190.946 Y196.472 E.17661
G1 X193.803 Y196.472 E.10055
G1 X193.803 Y185.044 E.40221
G1 X196.66 Y185.044 E.10055
G1 X196.66 Y170.759 E.50276
G1 X197.168 Y173.623 F9000
G1 F3000
G1 X207.567 Y173.623 E.366
G1 X207.567 Y175.952 E.08194
G1 X204.71 Y175.952 E.10055
G1 X204.71 Y187.38 E.40221
G1 X201.853 Y187.38 E.10055
G1 X201.853 Y195.951 E.30165
G1 X198.996 Y195.951 E.10055
G1 X198.996 Y206.448 E.36941
G1 X198.631 Y206.523 E.01311
G1 X198.261 Y205.661 E.033
G1 X191.454 Y201.216 E.28614
G1 X191.454 Y196.98 E.14906
G1 X194.311 Y196.98 E.10055
G1 X194.311 Y185.552 E.40221
G1 X197.168 Y185.552 E.10055
G1 X197.168 Y173.623 E.4198
G1 X197.676 Y174.131 F9000
G1 F3000
G1 X207.059 Y174.131 E.33025
G1 X207.059 Y175.444 E.04619
G1 X204.202 Y175.444 E.10055
G1 X204.202 Y186.872 E.40221
G1 X201.345 Y186.872 E.10055
G1 X201.345 Y195.443 E.30165
G1 X198.488 Y195.443 E.10055
G1 X198.488 Y205.203 E.34349
G1 X191.961 Y200.941 E.27435
G1 X191.961 Y197.488 E.12152
G1 X194.818 Y197.488 E.10055
G1 X194.818 Y186.06 E.40221
G1 X197.676 Y186.06 E.10055
G1 X197.676 Y174.131 E.4198
G1 X198.183 Y174.639 F9000
G1 F3000
G1 X203.694 Y174.639 E.19395
G1 X203.694 Y186.364 E.41265
G1 X200.837 Y186.364 E.10055
G1 X200.837 Y194.936 E.30165
G1 X197.98 Y194.936 E.10055
G1 X197.98 Y204.265 E.32834
G1 X192.469 Y200.666 E.23166
G1 X192.469 Y197.996 E.09397
G1 X195.326 Y197.996 E.10055
G1 X195.326 Y186.568 E.40221
G1 X198.183 Y186.568 E.10055
G1 X198.183 Y174.639 E.4198
G1 X198.691 Y175.147 F9000
G1 F3000
G1 X203.187 Y175.147 E.15821
G1 X203.187 Y185.856 E.37691
G1 X200.329 Y185.856 E.10055
G1 X200.329 Y194.428 E.30165
G1 X197.472 Y194.428 E.10055
G1 X197.472 Y203.327 E.31319
G1 X192.977 Y200.391 E.18896
G1 X192.977 Y198.504 E.06642
G1 X195.834 Y198.504 E.10055
G1 X195.834 Y187.075 E.40221
G1 X198.691 Y187.075 E.10055
G1 X198.691 Y175.147 E.4198
G1 X199.199 Y175.655 F9000
G1 F3000
G1 X202.679 Y175.655 E.12246
G1 X202.679 Y185.349 E.34116
G1 X199.822 Y185.349 E.10055
G1 X199.822 Y193.92 E.30165
G1 X196.965 Y193.92 E.10055
G1 X196.965 Y202.389 E.29805
G1 X193.485 Y200.116 E.14626
G1 X193.485 Y199.012 E.03887
G1 X196.342 Y199.012 E.10055
G1 X196.342 Y187.583 E.40221
G1 X199.199 Y187.583 E.10055
G1 X199.199 Y175.655 E.4198
G1 X196.457 Y199.519 F9000
G1 F3000
G1 X196.457 Y201.45 E.06795
G1 X194 Y199.846 E.10325
G1 X194.098 Y199.519 E.012
G1 X196.457 Y199.519 E.08302
G1 X196.85 Y193.412 F9000
G1 F3000
G1 X196.85 Y188.091 E.18726
G1 X199.314 Y188.091 E.08671
G1 X199.314 Y193.412 E.18726
G1 X196.85 Y193.412 E.08671
G1 X197.358 Y192.904 F9000
G1 F3000
G1 X197.358 Y188.599 E.15152
G1 X198.806 Y188.599 E.05096
G1 X198.806 Y192.904 E.15152
G1 X197.358 Y192.904 E.05096
G1 X199.707 Y184.841 F9000
G1 F3000
G1 X199.707 Y176.163 E.30541
G1 X202.171 Y176.163 E.08671
G1 X202.171 Y184.841 E.30541
G1 X199.707 Y184.841 E.08671
G1 X200.215 Y184.333 F9000
G1 F3000
G1 X200.215 Y176.671 E.26966
G1 X201.663 Y176.671 E.05096
G1 X201.663 Y184.333 E.26966
G1 X200.215 Y184.333 E.05096
G1 E-.5 F3600
G1 X200.188 Y170.752 F9000
G1 E.5 F3600
;TYPE:Support interface
G1 F3000
G1 X199.51 Y170.752 E.02383
G1 X199.51 Y165.038 E.20111
G1 X200.171 Y165.038 E.02326
G1 X200.286 Y166.767 E.06097
G1 X200.366 Y166.939 E.00668
G1 X200.366 Y170.752 E.1342
G1 X201.223 Y170.752 E.03016
G1 X201.223 Y168.288 E.08672
G1 X201.313 Y168.362 E.0041
G1 X202.08 Y168.572 E.028
G1 X202.08 Y170.752 E.07671
G1 X202.937 Y170.752 E.03016
G1 X202.937 Y168.778 E.06947
G1 X203.794 Y168.984 E.03102
G1 X203.794 Y170.752 E.06224
G1 X204.651 Y170.752 E.03016
G1 X204.651 Y169.189 E.05501
G1 X205.509 Y169.395 E.03102
G1 X205.509 Y170.752 E.04777
G1 X206.366 Y170.752 E.03016
G1 X206.366 Y169.619 E.03986
G1 X206.431 Y169.638 E.00238
G1 X206.661 Y169.557 E.00859
G1 X207.223 Y168.745 E.03474
G1 X207.223 Y170.752 E.07062
G1 X208.08 Y170.752 E.03016
G1 X208.08 Y167.895 E.10055
G1 E-.5 F3600
G1 X206.32 Y168.027 F9000
G1 X166.664 Y190.609
G1 X165.091 Y191.472
G1 E.5 F3600
;TYPE:Inner wall
;WIDTH:0.499999
G1 F3000
G1 X165.27 Y191.53 E.00665
G1 X166.526 Y191.729 E.04474
G1 X166.983 Y191.691 E.01616
G1 X167.581 Y191.555 E.02158
G1 X180.211 Y199.563 E.52633
G1 X193.048 Y207.947 E.53961
;WIDTH:0.543611
G1 X193.103 Y208.009 E.00319
;WIDTH:0.587223
G1 X193.158 Y208.071 E.00347
;WIDTH:0.630835
G1 X193.213 Y208.133 E.00375
;WIDTH:0.674447
G1 X193.268 Y208.195 E.00403
;WIDTH:0.718059
G1 X193.323 Y208.257 E.00431
G1 X193.818 Y208.571 E.03049
;WIDTH:0.702314
G1 X193.779 Y208.786 E.01111
G1 X193.698 Y209.232 E.02301
;WIDTH:0.718059
G1 X192.979 Y208.837 E.04267
G1 X192.898 Y208.818 E.00431
;WIDTH:0.674447
G1 X192.817 Y208.8 E.00403
;WIDTH:0.630835
G1 X192.737 Y208.781 E.00375
;WIDTH:0.587223
G1 X192.656 Y208.763 E.00347
;WIDTH:0.543611
G1 X192.575 Y208.744 E.00319
;WIDTH:0.499999
G1 X179.848 Y201.908 E.50843
G1 X179.841 Y201.868 E.00143
G1 X179.545 Y201.657 E.01278
G1 X163.22 Y192.574 E.65748
G1 X163.052 Y192.431 E.00778
G1 X161.43 Y189.1 E.13037
G1 X161.37 Y188.879 E.00809
G1 X161.378 Y188.735 E.00508
G1 X162.843 Y187.69 E.06333
G1 X162.821 Y188.271 E.02044
G1 X163.013 Y189.34 E.03822
G1 X163.149 Y189.757 E.01544
G1 X163.33 Y190.045 E.01199
G1 X163.873 Y190.682 E.02945
G1 X164.389 Y191.117 E.02373
G1 X164.849 Y191.393 E.01889
G1 X165.033 Y191.453 E.00683
G1 X165.203 Y191.025 F9000
G1 F3000
G1 X165.35 Y191.08 E.00552
G1 X166.528 Y191.272 E.04199
G1 X166.884 Y191.245 E.01256
G1 X167.665 Y191.066 E.0282
G1 X180.456 Y199.177 E.53304
G1 X194.434 Y208.306 E.58758
G1 X194.328 Y208.886 E.02075
G1 X194.11 Y210.087 E.04296
G1 X179.545 Y202.264 E.58186
G1 X179.534 Y202.207 E.00204
G1 X179.323 Y202.056 E.00913
G1 X162.875 Y192.905 E.66243
G1 X162.673 Y192.696 E.01024
G1 X161.337 Y189.953 E.10738
G1 X160.953 Y189.113 E.03251
G1 X160.902 Y188.594 E.01834
G1 X161.033 Y188.419 E.0077
G1 X163.437 Y186.706 E.10388
G1 X163.497 Y186.905 E.0073
G1 X163.29 Y187.699 E.02889
G1 X163.271 Y188.19 E.01729
G1 X163.463 Y189.259 E.03822
G1 X163.56 Y189.556 E.01103
G1 X163.69 Y189.763 E.00856
G1 X164.168 Y190.333 E.02619
G1 X164.679 Y190.763 E.02351
G1 X164.915 Y190.917 E.00991
G1 X165.147 Y191.004 E.00874
G1 X165.35 Y190.598 F9000
G1 F3000
G1 X165.43 Y190.63 E.00305
G1 X166.413 Y190.805 E.03513
G1 X166.784 Y190.799 E.01306
G1 X167.748 Y190.578 E.03482
G1 X180.701 Y198.791 E.53975
G1 X194.938 Y208.09 E.59847
G1 X194.778 Y208.968 E.03143
G1 X194.447 Y210.787 E.06507
G1 X179.242 Y202.62 E.60744
G1 X179.227 Y202.546 E.00265
G1 X179.101 Y202.455 E.00548
G1 X162.593 Y193.272 E.66482
G1 X162.293 Y192.961 E.01518
G1 X160.608 Y189.501 E.13548
G1 X160.477 Y189.077 E.01562
G1 X160.442 Y188.495 E.02049
G1 X160.476 Y188.386 E.00402
G1 X160.681 Y188.108 E.01216
G1 X163.691 Y185.964 E.13008
G1 X163.971 Y186.896 E.03426
G1 X163.732 Y187.814 E.0334
G1 X163.721 Y188.109 E.01037
G1 X163.913 Y189.178 E.03822
G1 X164.049 Y189.48 E.01167
G1 X164.463 Y189.983 E.02293
G1 X165.082 Y190.489 E.02814
G1 X165.294 Y190.575 E.00806
G1 X165.185 Y189.995 F9000
;TYPE:Outer wall
G1 F3000
G1 X165.268 Y190.064 E.0038
G1 X165.51 Y190.18 E.00944
G1 X166.493 Y190.355 E.03513
G1 X166.684 Y190.353 E.00674
G1 X167.834 Y190.092 E.04151
G1 X180.945 Y198.405 E.54637
G1 X181.121 Y198.391 E.00618
G1 X181.181 Y198.559 E.00629
G1 X195.442 Y207.873 E.59945
G1 X195.228 Y209.05 E.04211
G1 X194.784 Y211.487 E.08718
G1 X178.939 Y202.976 E.63303
G1 X178.879 Y202.855 E.00475
G1 X162.311 Y193.638 E.66721
G1 X161.914 Y193.227 E.02013
