; generated by SuperSlicer 2.5.59 on 2023-06-28 at 21:57:45 UTC


;
;

;
;
; 

; external perimeters extrusion width = 0.40mm
; perimeters extrusion width = 0.46mm
; infill extrusion width = 0.64mm
; solid infill extrusion width = 0.56mm
; top infill extrusion width = 0.40mm
; first layer extrusion width = 0.50mm

; external perimeters extrusion width = 0.40mm
; perimeters extrusion width = 0.46mm
; infill extrusion width = 0.64mm
; solid infill extrusion width = 0.56mm
; top infill extrusion width = 0.40mm
; first layer extrusion width = 0.50mm

; external perimeters extrusion width = 0.40mm
; perimeters extrusion width = 0.46mm
; infill extrusion width = 0.64mm
; solid infill extrusion width = 0.56mm
; top infill extrusion width = 0.40mm
; first layer extrusion width = 0.50mm

; external perimeters extrusion width = 0.40mm
; perimeters extrusion width = 0.46mm
; infill extrusion width = 0.64mm
; solid infill extrusion width = 0.56mm
; top infill extrusion width = 0.40mm
; first layer extrusion width = 0.50mm

; external perimeters extrusion width = 0.40mm
; perimeters extrusion width = 0.46mm
; infill extrusion width = 0.64mm
; solid infill extrusion width = 0.56mm
; top infill extrusion width = 0.40mm
; first layer extrusion width = 0.50mm

; object:{"name":"Chalkbag_Clip_MAG_PRO_90mm_V4","id":"Chalkbag_Clip_MAG_PRO_90mm_V4.stl id:0 copy 0","object_center":[126.500001,137.962172,0.000000],"boundingbox_center":[126.500001,137.962172,5.000000],"boundingbox_size":[87.000000,22.000000,10.000000]}
EXCLUDE_OBJECT_DEFINE NAME=Chalkbag_Clip_MAG_PRO_90mm_V4_stl_id_0_copy_0 CENTER=126.500001,137.962172 POLYGON=[[83.000000,129.962176],[83.045576,129.441224],[83.180920,128.936112],[83.401928,128.462176],[83.701864,128.033816],[84.071640,127.664040],[84.500000,127.364096],[84.973936,127.143096],[85.479056,127.007752],[86.000000,126.962176],[94.000000,126.962176],[169.400000,131.962176],[169.555296,131.982624],[169.700000,132.042560],[169.824272,132.137912],[169.919616,132.262176],[169.979552,132.406872],[170.000000,132.562176],[170.000000,143.362160],[169.979552,143.517472],[169.919616,143.662176],[169.824272,143.786432],[169.700000,143.881792],[169.555296,143.941728],[169.400000,143.962176],[94.000000,148.962176],[86.000000,148.962176],[85.479056,148.916592],[84.973936,148.781248],[84.500000,148.560256],[84.071640,148.260320],[83.701864,147.890528],[83.401928,147.462176],[83.180920,146.988240],[83.045576,146.483120],[83.000000,145.962176],[83.000000,129.962176]]
; object:{"name":"Chalkbag_Clip_MAG_PRO_80mm_V2","id":"Chalkbag_Clip_MAG_PRO_80mm_V2.stl id:1 copy 0","object_center":[126.500000,165.962172,0.000000],"boundingbox_center":[126.500000,165.962172,5.000000],"boundingbox_size":[83.000000,22.000000,10.000000]}
EXCLUDE_OBJECT_DEFINE NAME=Chalkbag_Clip_MAG_PRO_80mm_V2_stl_id_1_copy_0 CENTER=126.500000,165.962172 POLYGON=[[85.000000,157.962176],[85.045576,157.441216],[85.180920,156.936112],[85.401928,156.462176],[85.701864,156.033808],[86.071640,155.664032],[86.500000,155.364096],[86.973936,155.143104],[87.479056,155.007744],[88.000000,154.962176],[96.000000,154.962176],[167.400000,159.962176],[167.555296,159.982624],[167.700000,160.042560],[167.824272,160.137904],[167.919616,160.262176],[167.979552,160.406880],[168.000000,160.562176],[168.000000,171.362160],[167.979552,171.517472],[167.919616,171.662176],[167.824272,171.786432],[167.700000,171.881792],[167.555296,171.941728],[167.400000,171.962176],[96.000000,176.962176],[88.000000,176.962176],[87.479056,176.916592],[86.973936,176.781248],[86.500000,176.560256],[86.071640,176.260320],[85.701864,175.890528],[85.401928,175.462176],[85.180920,174.988240],[85.045576,174.483120],[85.000000,173.962176],[85.000000,157.962176]]
; object:{"name":"Chalkbag_Clip_MAG_PRO_70mm_V2","id":"Chalkbag_Clip_MAG_PRO_70mm_V2.stl id:2 copy 0","object_center":[210.500000,165.493570,0.000000],"boundingbox_center":[210.500000,165.493570,5.000000],"boundingbox_size":[73.000000,22.000000,10.000000]}
EXCLUDE_OBJECT_DEFINE NAME=Chalkbag_Clip_MAG_PRO_70mm_V2_stl_id_2_copy_0 CENTER=210.500000,165.493570 POLYGON=[[174.000000,157.493584],[174.045584,156.972624],[174.180928,156.467520],[174.401920,155.993584],[174.701872,155.565216],[175.071648,155.195440],[175.500000,154.895488],[175.973936,154.674496],[176.479072,154.539152],[177.000000,154.493584],[185.000000,154.493584],[246.400000,159.493584],[246.555296,159.514016],[246.700000,159.573952],[246.824272,159.669312],[246.919616,159.793584],[246.979552,159.938272],[247.000000,160.093584],[247.000000,170.893568],[246.979552,171.048880],[246.919616,171.193568],[246.824272,171.317840],[246.700000,171.413200],[246.555296,171.473136],[246.400000,171.493584],[185.000000,176.493584],[177.000000,176.493584],[176.479072,176.448000],[175.973936,176.312656],[175.500000,176.091664],[175.071648,175.791712],[174.701872,175.421936],[174.401920,174.993584],[174.180928,174.519632],[174.045584,174.014528],[174.000000,173.493584],[174.000000,157.493584]]
; object:{"name":"Chalkbag_Clip_MAG_PRO_60mm_V2","id":"Chalkbag_Clip_MAG_PRO_60mm_V2.stl id:3 copy 0","object_center":[207.500001,137.493570,0.000000],"boundingbox_center":[207.500001,137.493570,5.000000],"boundingbox_size":[63.000000,22.000000,10.000000]}
EXCLUDE_OBJECT_DEFINE NAME=Chalkbag_Clip_MAG_PRO_60mm_V2_stl_id_3_copy_0 CENTER=207.500001,137.493570 POLYGON=[[176.000000,129.493576],[176.036928,129.024280],[176.146832,128.566528],[176.326976,128.131608],[176.572960,127.730216],[176.878672,127.372256],[177.236656,127.066528],[177.638032,126.820560],[178.072960,126.640408],[178.530704,126.530512],[179.000000,126.493576],[187.000000,126.493576],[238.400000,131.493576],[238.555296,131.514024],[238.700000,131.573960],[238.824272,131.669312],[238.919616,131.793576],[238.979552,131.938280],[239.000000,132.093584],[239.000000,142.893568],[238.979552,143.048880],[238.919616,143.193568],[238.824272,143.317840],[238.700000,143.413200],[238.555296,143.473136],[238.400000,143.493584],[187.000000,148.493584],[179.000000,148.493584],[178.530704,148.456640],[178.072960,148.346736],[177.638032,148.166592],[177.236656,147.920624],[176.878672,147.614896],[176.572960,147.256928],[176.326976,146.855552],[176.146832,146.420624],[176.036928,145.962880],[176.000000,145.493584],[176.000000,129.493576]]
; object:{"name":"chalk_bag_clip_v2","id":"chalk_bag_clip_v2.stl id:4 copy 0","object_center":[165.019113,192.999272,0.000000],"boundingbox_center":[165.019113,192.999272,4.000000],"boundingbox_size":[53.000000,21.014320,8.000000]}
EXCLUDE_OBJECT_DEFINE NAME=chalk_bag_clip_v2_stl_id_4_copy_0 CENTER=165.019113,192.999272 POLYGON=[[138.519120,185.511936],[138.530528,185.250528],[138.564672,184.991136],[138.621296,184.735680],[138.699952,184.486144],[138.800048,184.244400],[138.920832,184.012304],[139.061392,183.791616],[139.220624,183.584000],[139.397360,183.391072],[139.590208,183.214272],[139.797760,183.054928],[140.018384,182.914272],[140.250448,182.793392],[140.492128,182.693184],[140.741632,182.614448],[140.997072,182.557712],[141.256464,182.523456],[141.517856,182.511936],[180.767856,182.495376],[188.517856,182.492112],[188.779392,182.503424],[189.038960,182.537488],[189.294560,182.594048],[189.544256,182.672704],[189.786144,182.772800],[190.018384,182.893616],[190.239216,183.034208],[190.446944,183.193520],[190.639984,183.370336],[190.816896,183.563312],[190.976288,183.770976],[191.116992,183.991744],[191.237904,184.223936],[191.338112,184.465792],[191.416848,184.715456],[191.473504,184.971024],[191.507696,185.230576],[191.519120,185.492112],[191.519120,200.506432],[191.507712,200.767904],[191.473536,201.027376],[191.416896,201.282880],[191.338192,201.532480],[191.238032,201.774288],[191.117184,202.006432],[190.976576,202.227152],[190.817264,202.434784],[190.640448,202.627744],[190.447472,202.804560],[190.239856,202.963888],[190.019120,203.104512],[189.786976,203.225360],[189.545184,203.325504],[189.295584,203.404208],[189.040064,203.460848],[188.780576,203.495008],[188.519120,203.506432],[141.519120,203.506432],[141.257664,203.495008],[140.998176,203.460848],[140.742656,203.404208],[140.493056,203.325504],[140.251264,203.225360],[140.019120,203.104512],[139.798384,202.963888],[139.590752,202.804560],[139.397792,202.627744],[139.220992,202.434784],[139.061664,202.227152],[138.921056,202.006432],[138.800208,201.774288],[138.700048,201.532480],[138.621344,201.282880],[138.564704,201.027376],[138.530528,200.767904],[138.519120,200.506432],[138.519120,185.511936]]
; plater:{"center":[165.000000,165.000001,0.000000],"boundingbox_center":[165.000000,165.000001,5.000000],"boundingbox_size":[163.999999,77.012862,10.000000]}

M73 P0 R69
M204 P4000 T4000 ; sets acceleration (P, T), mm/sec^2
;TYPE:Custom
; custom gcode: start_gcode
START_PRINT T_BED=110 T_EXTRUDER=260
; custom gcode end: start_gcode
M107
G21 ; set units to millimeters
G90 ; use absolute coordinates
M82 ; use absolute distances for extrusion
G92 E0
; custom gcode: start_filament_gcode
; filament start gcode

    PRESSURE_ADVANCE_SELECT FILAMENT=ABS
; custom gcode end: start_filament_gcode
;_TOOLCHANGE 0
M104 S260 ; set temperature
M109 S260 ; set temperature and wait for it to be reached
M190 S110 ; set bed temperature and wait for it to be reached
;LAYER_CHANGE
;Z:0.2
;HEIGHT:0.2
G1 Z0.2 F9000
G1 E-0.5 F2400
M204 S1000
G1 X82.156 Y124.722 F9000
G1 E0 F1800
;TYPE:Skirt
;WIDTH:0.52
G1 X81.601 Y125.159 E0.02802
G1 X80.485 Y126.447 E0.09567
G1 X79.923 Y127.515 E0.14353
G1 X79.692 Y128.183 E0.17156
G1 X79.478 Y129.283 E0.216
G1 X79.442 Y129.926 E0.24157
G1 X79.454 Y146.392 E0.89474
G1 X81.464 Y174.392 E2.00834
G1 X81.731 Y175.84 E2.06675
G1 X82.188 Y176.956 E2.11462
G1 X83.177 Y178.345 E2.18227
G1 X84.083 Y179.143 E2.23014
G1 X85.123 Y179.755 E2.27801
G1 X138.705 Y205.744 E4.6404
G1 X139.706 Y206.149 E4.68322
G1 X140.629 Y206.351 E4.72073
G1 X141.36 Y206.408 E4.74981
G1 X188.633 Y206.409 E6.62507
G1 X189.971 Y206.246 E6.67856
G1 X190.795 Y205.992 E6.71276
G1 X191.4 Y205.707 E6.73928
G1 X248.555 Y172.053 E9.37046
G1 X249.327 Y171.452 E9.40927
G1 X250.441 Y169.408 E9.5016
G1 X250.523 Y168.629 E9.53267
G1 X250.523 Y162.359 E9.78142
G1 X250.429 Y161.527 E9.81462
G1 X242.327 Y133.215 E10.98284
G1 X241.171 Y131.411 E11.0678
G1 X239.341 Y130.487 E11.14914
G1 X239.066 Y130.438 E11.16021
G1 X187.375 Y123.13 E13.23114
G1 X178.842 Y123.099 E13.56966
G1 X85.527 Y123.58 E17.27146
G1 X84.35 Y123.742 E17.31858
G1 X83.206 Y124.127 E17.36645
G1 X82.156 Y124.722 E17.41432
G1 X82.414 Y125.123 F9000
G1 F1800
G1 X81.93 Y125.504 E17.43875
G1 X80.873 Y126.724 E17.50279
G1 X80.357 Y127.714 E17.54707
G1 X80.156 Y128.295 E17.57149
G1 X79.954 Y129.317 E17.61278
G1 X79.919 Y129.926 E17.637
G1 X79.93 Y146.357 E18.28882
G1 X81.94 Y174.357 E19.40242
M73 P0 R69
G1 X82.182 Y175.684 E19.4559
G1 X82.602 Y176.718 E19.50017
G1 X83.538 Y178.033 E19.56422
G1 X84.378 Y178.768 E19.60849
G1 X85.342 Y179.331 E19.65277
G1 X138.913 Y205.315 E22.0147
G1 X139.829 Y205.688 E22.05394
G1 X140.681 Y205.877 E22.08853
G1 X141.36 Y205.931 E22.11558
G1 X188.633 Y205.932 E23.99084
G1 X189.847 Y205.785 E24.03939
G1 X191.161 Y205.294 E24.09502
G1 X248.313 Y171.641 E26.72604
G1 X249.001 Y171.104 E26.76066
G1 X249.95 Y169.423 E26.83723
G1 X250.046 Y168.629 E26.86896
G1 X250.046 Y162.359 E27.11771
G1 X249.964 Y161.634 E27.14665
G1 X241.868 Y133.346 E28.31386
G1 X240.847 Y131.761 E28.38865
G1 X239.251 Y130.955 E28.45955
G1 X238.999 Y130.911 E28.4697
G1 X187.313 Y123.603 E30.54045
G1 X178.844 Y123.576 E30.87641
M73 P1 R68
G1 X85.529 Y124.057 E34.57821
G1 X84.44 Y124.21 E34.62183
G1 X83.384 Y124.57 E34.66611
G1 X82.414 Y125.123 E34.71038
G92 E0
G1 E-0.5 F2400
; printing object Chalkbag_Clip_MAG_PRO_90mm_V4.stl id:0 copy 0
EXCLUDE_OBJECT_START NAME=Chalkbag_Clip_MAG_PRO_90mm_V4_stl_id_0_copy_0
; acceleration to travel
M204 S3000
G1 X84.482 Y132.238 F9000
; decel to extrusion
M204 S1000
G1 X85.171 Y134.61
; end travel
G1 E0 F1800
;TYPE:External perimeter
;WIDTH:0.499999
G1 X85.216 Y134.747 E0.0055
G1 X85.399 Y134.839 E0.01327
G1 X169.571 Y134.836 E3.21231
G1 X169.593 Y134.858 E3.2135
G1 X169.583 Y141.088 E3.45028
G1 X85.399 Y141.086 E6.64977
G1 X85.216 Y141.177 E6.65754
G1 X85.171 Y141.314 E6.66304
G1 X85.171 Y145.002 E6.8032
G1 X85.193 Y145.305 E6.81473
G1 X85.296 Y145.716 E6.83086
G1 X85.482 Y146.106 E6.84726
G1 X85.67 Y146.357 E6.85921
G1 X86.067 Y146.735 E6.88
G1 X86.442 Y146.948 E6.89641
G1 X86.852 Y147.082 E6.91281
G1 X87.298 Y147.131 E6.92985
G1 X93.814 Y147.131 E7.1775
G1 X94.15 Y147.218 E7.19072
G1 X94.38 Y147.447 E7.20306
G1 X94.464 Y147.761 E7.2154
G1 X94.38 Y148.075 E7.22775
G1 X94.15 Y148.305 E7.24009
G1 X93.814 Y148.392 E7.25331
G1 X86.068 Y148.392 E7.5477
G1 X85.431 Y148.355 E7.57196
G1 X84.997 Y148.245 E7.58895
G1 X84.684 Y148.103 E7.60204
G1 X84.226 Y147.791 E7.62309
G1 X83.916 Y147.462 E7.64027
G1 X83.712 Y147.146 E7.65458
G1 X83.508 Y146.657 E7.67472
G1 X83.41 Y146.108 E7.69591
G1 X83.41 Y129.9 E8.31189
G1 X83.495 Y129.332 E8.33372
G1 X83.688 Y128.818 E8.35459
G1 X83.892 Y128.499 E8.369
G1 X84.193 Y128.167 E8.38603
G1 X84.623 Y127.85 E8.40633
G1 X85.041 Y127.664 E8.42371
G1 X85.57 Y127.545 E8.44431
G1 X93.814 Y127.533 E8.75764
G1 X94.15 Y127.62 E8.77085
G1 X94.38 Y127.849 E8.78319
G1 X94.464 Y128.163 E8.79554
G1 X94.38 Y128.477 E8.80788
G1 X94.15 Y128.707 E8.82023
G1 X93.814 Y128.794 E8.83345
G1 X87.111 Y128.803 E9.08819
G1 X86.688 Y128.885 E9.10458
G1 X86.289 Y129.051 E9.12098
G1 X85.932 Y129.294 E9.13739
G1 X85.686 Y129.546 E9.15077
G1 X85.399 Y129.967 E9.17014
G1 X85.27 Y130.303 E9.18381
G1 X85.173 Y130.827 E9.20409
G1 X85.171 Y134.61 E9.34786
;WIPE_START
M204 S4000
G1 X84.875 Y134.879 F9000
;WIPE_END
M204 S1000
G1 X84.718 Y134.66
;TYPE:Internal perimeter
G1 F1800
G1 X84.724 Y134.729 E9.35048
G1 X84.851 Y135.021 E9.3626
G1 X85.135 Y135.243 E9.37632
G1 X85.399 Y135.296 E9.38654
G1 X169.136 Y135.293 E12.56905
;WIDTH:0.48154
G1 X169.136 Y140.631 E12.76374
G1 X85.399 Y140.629 E15.81772
G1 X85.136 Y140.681 E15.82753
G1 X84.851 Y140.903 E15.84069
G1 X84.714 Y141.314 E15.8565
G1 X84.714 Y145.002 E15.991
G1 X84.737 Y145.339 E16.00334
G1 X84.853 Y145.831 E16.02176
G1 X85.073 Y146.311 E16.04103
G1 X85.381 Y146.73 E16.05997
G1 X85.769 Y147.081 E16.07907
G1 X86.22 Y147.348 E16.09817
G1 X86.718 Y147.509 E16.11727
G1 X87.008 Y147.535 E16.12788
;WIDTH:0.447055
G1 X87.298 Y147.56 E16.13766
G1 X93.772 Y147.56 E16.35523
G1 X93.862 Y147.57 E16.35826
G1 X93.989 Y147.644 E16.36321
G1 X94.028 Y147.786 E16.36816
G1 X93.954 Y147.914 E16.37311
G1 X93.772 Y147.962 E16.37943
G1 X86.931 Y147.952 E16.60932
;WIDTH:0.499999
G1 X86.068 Y147.935 E16.64213
G1 X85.474 Y147.9 E16.66474
G1 X85.037 Y147.771 E16.68208
G1 X84.6 Y147.504 E16.7015
G1 X84.262 Y147.163 E16.71979
G1 X84.108 Y146.917 E16.73081
G1 X83.94 Y146.507 E16.74765
G1 X83.867 Y146.075 E16.7643
G1 X83.864 Y130.276 E17.36476
G1 X83.882 Y129.702 E17.38659
G1 X84.019 Y129.192 E17.40664
G1 X84.264 Y128.764 E17.4254
G1 X84.508 Y128.498 E17.43913
G1 X84.871 Y128.235 E17.45613
G1 X85.211 Y128.089 E17.47021
G1 X85.614 Y128.002 E17.48587
G1 X86.83 Y127.986 E17.53211
;WIDTH:0.444404
G1 X87.11 Y127.972 E17.54145
G1 X93.771 Y127.962 E17.76385
G1 X93.862 Y127.972 E17.76688
G1 X93.99 Y128.046 E17.7718
G1 X94.028 Y128.188 E17.77672
G1 X93.954 Y128.316 E17.78165
G1 X93.772 Y128.364 E17.78793
G1 X87.11 Y128.374 E18.01033
G1 X86.853 Y128.405 E18.01898
;WIDTH:0.499999
G1 X86.596 Y128.437 E18.02883
G1 X86.109 Y128.631 E18.04874
G1 X85.666 Y128.922 E18.0689
G1 X85.3 Y129.288 E18.08855
G1 X85.011 Y129.725 E18.10846
G1 X84.816 Y130.211 E18.12837
G1 X84.716 Y130.827 E18.15208
G1 X84.714 Y134.61 E18.29584
G1 X84.718 Y134.66 E18.29777
G1 X84.323 Y134.871 F9000
;WIDTH:0.451026
G1 F1800
G1 X84.391 Y135.049 E18.30425
;WIDTH:0.499999
G1 X84.485 Y135.295 E18.31425
G1 X84.96 Y135.665 E18.33711
G1 X85.399 Y135.753 E18.35415
G1 X168.679 Y135.75 E21.51929
G1 X168.679 Y140.174 E21.68742
G1 X85.399 Y140.171 E24.85256
G1 X84.96 Y140.259 E24.86959
G1 X84.485 Y140.629 E24.89245
G1 X84.388 Y140.971 E24.906
;WIDTH:0.433
