; generated by SuperSlicer 2.5.59 on 2023-06-25 at 15:44:53 UTC


;
;

;
;
; 

; external perimeters extrusion width = 0.40mm
; perimeters extrusion width = 0.46mm
; infill extrusion width = 0.64mm
; solid infill extrusion width = 0.56mm
; top infill extrusion width = 0.40mm
; support material extrusion width = 0.46mm
; first layer extrusion width = 0.50mm

; external perimeters extrusion width = 0.40mm
; perimeters extrusion width = 0.46mm
; infill extrusion width = 0.64mm
; solid infill extrusion width = 0.56mm
; top infill extrusion width = 0.40mm
; support material extrusion width = 0.46mm
; first layer extrusion width = 0.50mm

; object:{"name":"chalk-bag-carabiner","id":"chalk-bag-carabiner.stl id:0 copy 0","object_center":[155.695970,165.045413,0.000000],"boundingbox_center":[155.695970,165.045413,10.854420],"boundingbox_size":[69.223054,95.963668,21.708840]}
EXCLUDE_OBJECT_DEFINE NAME=chalk_bag_carabiner_stl_id_0_copy_0 CENTER=155.695970,165.045413 POLYGON=[[121.084448,145.746512],[121.086120,144.067472],[121.100784,140.197728],[121.126832,139.761376],[121.187920,139.576912],[122.068192,136.951472],[122.068808,136.950368],[127.466928,127.417248],[127.469280,127.415992],[182.500096,117.063584],[187.771456,125.793576],[190.307488,165.330208],[189.842912,167.258848],[189.468928,168.809072],[178.340336,212.454992],[178.330640,212.460192],[177.967888,212.538624],[175.705200,213.027248],[172.303904,211.566160],[170.951104,210.975664],[159.660976,204.910368],[143.828992,196.033952],[143.556400,195.810368],[143.235424,195.424544],[142.718144,194.370784],[141.237264,191.299824],[141.097200,191.005600],[121.254088,146.276400],[121.084448,145.746512]]
; object:{"name":"gate","id":"gate.STL id:1 copy 0","object_center":[202.615792,164.999999,0.000000],"boundingbox_center":[202.615792,164.999999,4.499999],"boundingbox_size":[12.600000,59.206001,8.998000]}
EXCLUDE_OBJECT_DEFINE NAME=gate_STL_id_1_copy_0 CENTER=202.615792,164.999999 POLYGON=[[196.315792,139.925008],[196.319792,139.852992],[196.337792,139.785008],[196.363808,139.718992],[196.399792,139.658992],[196.445808,139.604992],[197.083808,138.968992],[197.135808,138.925008],[197.195808,138.886992],[205.919808,135.445008],[205.985792,135.419008],[206.053808,135.401008],[206.125792,135.397008],[207.827808,135.397008],[207.899808,135.401008],[207.967808,135.419008],[208.033792,135.445008],[208.093808,135.481008],[208.145808,135.527008],[208.783792,136.162992],[208.829808,136.216992],[208.865792,136.277008],[208.893808,136.343008],[208.909808,136.410992],[208.915808,136.481008],[208.915808,193.516992],[208.909808,193.587008],[208.893808,193.654992],[208.865792,193.721008],[208.829808,193.781008],[208.783792,193.834992],[208.145808,194.471008],[208.093808,194.516992],[208.033792,194.553008],[207.967808,194.580992],[207.899808,194.597008],[207.827808,194.602992],[197.401792,194.602992],[197.329808,194.597008],[197.261792,194.580992],[197.195808,194.553008],[197.135808,194.516992],[197.083808,194.471008],[196.445808,193.834992],[196.399792,193.781008],[196.363808,193.721008],[196.337792,193.654992],[196.319792,193.587008],[196.315792,193.516992],[196.315792,139.925008]]
; plater:{"center":[165.000118,165.045413,0.000000],"boundingbox_center":[165.000118,165.045413,10.854420],"boundingbox_size":[87.831349,95.963668,21.708840]}

M73 P0 R53
M204 P4000 T4000 ; sets acceleration (P, T), mm/sec^2
;TYPE:Custom
; custom gcode: start_gcode
START_PRINT T_BED=110 T_EXTRUDER=260
; custom gcode end: start_gcode
M107
G21 ; set units to millimeters
G90 ; use absolute coordinates
M82 ; use absolute distances for extrusion
G92 E0
; custom gcode: start_filament_gcode
; Filament gcode

    PRESSURE_ADVANCE_SELECT FILAMENT=ABS
; custom gcode end: start_filament_gcode
;_TOOLCHANGE 0
M109 S260 ; set temperature and wait for it to be reached
M190 S110 ; set bed temperature and wait for it to be reached
;LAYER_CHANGE
;Z:0.2
;HEIGHT:0.2
G1 Z0.2 F12000
G1 E-0.5 F3000
M204 S1000
G1 X125.457 Y125.718 F12000
G1 E0 F1800
;TYPE:Skirt
;WIDTH:0.52
G1 X117.519 Y133.835 E0.41705
G1 X116.835 Y134.806 E0.46068
G1 X115.425 Y137.701 E0.57897
G1 X115.05 Y139.319 E0.64
G1 X115.057 Y146.285 E0.89587
G1 X115.273 Y147.592 E0.94454
G1 X115.722 Y148.971 E0.9978
G1 X137.502 Y197.536 E2.95298
G1 X138.209 Y198.83 E3.00714
G1 X139.083 Y199.88 E3.05733
G1 X140.471 Y200.96 E3.12191
G1 X156.135 Y209.978 E3.78588
G1 X169.188 Y216.991 E4.33019
G1 X172.809 Y218.562 E4.47516
G1 X173.878 Y218.842 E4.51575
G1 X175.577 Y218.628 E4.57865
G1 X182.221 Y216.143 E4.83922
M73 P0 R53
G1 X183.152 Y215.633 E4.87821
G1 X210.256 Y195.255 E6.12388
G1 X211.14 Y194.193 E6.17462
G1 X211.546 Y193.217 E6.21346
G1 X211.711 Y192.209 E6.25097
G1 X215.533 Y143.389 E8.0498
G1 X215.481 Y142.415 E8.08565
G1 X214.786 Y140.85 E8.14856
G1 X210.843 Y135.667 E8.38776
G1 X210.083 Y134.907 E8.42725
G1 X184.234 Y115.257 E9.62001
M73 P0 R53
G1 X183.011 Y114.644 E9.67026
G1 X181.3 Y114.563 E9.73316
G1 X127.429 Y124.664 E11.74655
G1 X125.457 Y125.718 E11.82867
G1 X125.798 Y126.052 F12000
G1 F1800
G1 X117.86 Y134.169 E12.24572
G1 X117.264 Y135.015 E12.28375
G1 X115.854 Y137.91 E12.40204
G1 X115.527 Y139.321 E12.45523
G1 X115.534 Y146.281 E12.71091
G1 X115.737 Y147.481 E12.75561
G1 X116.157 Y148.776 E12.80562
G1 X137.937 Y197.341 E14.7608
G1 X138.625 Y198.597 E14.81342
G1 X139.387 Y199.513 E14.85717
G1 X140.709 Y200.546 E14.91879
G1 X156.373 Y209.564 E15.58276
G1 X169.414 Y216.571 E16.12656
G1 X172.997 Y218.123 E16.27
G1 X173.822 Y218.354 E16.30146
G1 X175.41 Y218.181 E16.36013
G1 X182.054 Y215.696 E16.6207
G1 X182.865 Y215.252 E16.65468
G1 X209.947 Y194.891 E17.89931
G1 X210.729 Y193.951 E17.94424
G1 X211.088 Y193.081 E17.97878
G1 X211.235 Y192.165 E18.01287
G1 X215.058 Y143.352 E19.81145
G1 X214.407 Y141.139 E19.89621
G1 X210.464 Y135.956 E20.13541
G1 X209.795 Y135.287 E20.17018
G1 X183.945 Y115.637 E21.36294
G1 X182.982 Y115.134 E21.40284
G1 X181.388 Y115.032 E21.46151
G1 X127.517 Y125.133 E23.4749
G1 X125.798 Y126.052 E23.54647
G92 E0
G1 E-0.5 F3000
; printing object chalk-bag-carabiner.stl id:0 copy 0
EXCLUDE_OBJECT_START NAME=chalk_bag_carabiner_stl_id_0_copy_0
; acceleration to travel
M204 S3000
G1 X141.619 Y169.634 F12000
; decel to extrusion
M204 S1000
G1 X146.892 Y184.162
; end travel
G1 E0 F1800
;TYPE:Support material interface
;WIDTH:0.5
G1 X147.165 Y184.116 E0.00975
G1 X147.441 Y184.038 E0.01983
G1 X147.518 Y184.144 E0.02446
G1 X147.93 Y185.796 E0.08437
G1 X147.415 Y186.253 E0.1086
G1 X146.892 Y184.162 E0.18448
G92 E0
G1 E-0.5 F3000
; acceleration to travel
M204 S3000
G1 X173.333 Y172.034 F12000
; decel to extrusion
M204 S1000
G1 X182.147 Y167.992
; end travel
G1 E0 F1800
G1 X182.197 Y167.813 E0.00655
G1 X182.27 Y167.109 E0.03143
G1 X182.377 Y167.28 E0.03853
G1 X183.04 Y168.334 E0.08234
G1 X183.195 Y168.451 E0.08918
G1 X183.718 Y168.603 E0.10836
G1 X187.864 Y169.597 E0.2584
G1 X188.205 Y169.696 E0.2709
G1 X188.107 Y169.929 E0.27979
G1 X188.044 Y170.262 E0.29171
G1 X187.943 Y170.579 E0.30343
G1 X187.129 Y170.343 E0.33323
G1 X184.142 Y169.627 E0.44136
G1 X182.986 Y169.291 E0.48372
G1 X182.869 Y169.195 E0.48903
G1 X182.708 Y168.886 E0.50132
G1 X182.147 Y167.992 E0.53844
G92 E0
G1 E-0.5 F3000
; acceleration to travel
M204 S3000
G1 X184.538 Y168.829 F12000
; decel to extrusion
M204 S1000
G1 X185.335 Y169.108
; end travel
G1 E0 F1800
G1 X183.471 Y169.108 E0.06561
G1 X184.217 Y169.325 E0.09296
G1 X185.43 Y169.616 E0.13686
G1 X186.61 Y169.616 E0.17838
G1 X187.796 Y169.901 E0.22132
G1 X187.754 Y170.124 E0.2293
G1 X186.705 Y170.124 E0.26621
G92 E0
G1 E-0.5 F3000
; acceleration to travel
M204 S3000
G1 X180.041 Y200.78 F12000
; decel to extrusion
M204 S1000
G1 X177.82 Y210.998
; end travel
G1 E0 F1800
;TYPE:Support material
G1 X180.919 Y212.663 E0.12383
G1 X174.275 Y215.148 E0.37348
G1 X173.058 Y214.625 E0.42011
G1 X172.161 Y214.143 E0.45595
G1 X171.894 Y214.125 E0.46537
G1 X170.946 Y213.718 E0.50165
G1 X157.989 Y206.758 E1.01929
G1 X157.805 Y206.606 E1.02768
G1 X155.125 Y205.107 E1.13574
G1 X154.803 Y204.7 E1.15401
G1 X142.324 Y197.74 E1.6569
G1 X141.452 Y197.018 E1.69674
G1 X140.892 Y196.016 E1.73714
G1 X140.851 Y195.721 E1.74762
G1 X139.974 Y193.682 E1.82574
G1 X141.81 Y192.891 E1.89611
G1 X141.976 Y193.236 E1.90955
G1 X142.242 Y193.791 E1.93122
G1 X142.316 Y194.186 E1.94538
G1 X142.305 Y194.327 E1.95036
G1 X142.674 Y194.79 E1.97119
G1 X142.851 Y195.202 E1.98696
G1 X143.009 Y195.319 E1.99388
G1 X159.281 Y204.375 E2.64926
G1 X159.385 Y204.502 E2.65504
G1 X174.788 Y212.775 E3.27037
G1 X175.192 Y212.624 E3.28555
G1 X175.848 Y212.668 E3.30868
G1 X176.929 Y213.249 E3.35189
G1 X177.535 Y213.118 E3.37371
G1 X177.66 Y212.433 E3.39823
G1 X177.625 Y212.066 E3.41118
G1 X177.82 Y210.998 E3.4494
; acceleration to travel
M204 S3000
G1 X179.51 Y212.392 F12000
; decel to extrusion
M204 S1000
G1 X180.074 Y212.857
; end travel
G1 F1800
G1 X180.074 Y212.562 E3.45981
G1 X179.566 Y212.289 E3.4801
G1 X179.566 Y212.837 E3.4994
G1 X179.058 Y213.027 E3.51849
G1 X179.058 Y212.016 E3.55408
G1 X178.55 Y211.743 E3.57437
G1 X178.55 Y213.217 E3.62624
G1 X178.042 Y213.407 E3.64533
G1 X178.042 Y211.511 E3.71205
G1 X177.939 Y212.08 E3.73238
G1 X177.973 Y212.446 E3.74533
G1 X177.804 Y213.378 E3.77868
G1 X177.534 Y213.437 E3.78839
G1 X177.534 Y213.597 E3.79404
G1 X177.026 Y213.787 E3.81312
G1 X177.026 Y213.546 E3.8216
G1 X176.883 Y213.577 E3.82676
G1 X176.518 Y213.381 E3.84132
G1 X176.518 Y213.977 E3.86228
G1 X176.011 Y214.167 E3.88136
G1 X176.011 Y213.109 E3.91861
G1 X175.76 Y212.974 E3.92863
G1 X175.503 Y212.956 E3.93769
G1 X175.503 Y214.357 E3.98698
G1 X174.995 Y214.547 E4.00606
G1 X174.995 Y213.029 E4.05946
G1 X174.765 Y213.115 E4.0681
G1 X174.487 Y212.966 E4.0792
G1 X174.487 Y214.737 E4.14151
G1 X174.283 Y214.813 E4.14917
G1 X173.979 Y214.682 E4.16081
G1 X173.979 Y212.693 E4.23081
G1 X173.471 Y212.421 E4.2511
G1 X173.471 Y214.464 E4.32302
G1 X172.963 Y214.221 E4.34283
G1 X172.963 Y212.148 E4.4158
G1 X172.456 Y211.875 E4.43609
G1 X172.456 Y213.948 E4.50906
G1 X172.249 Y213.837 E4.51733
G1 X171.948 Y213.81 E4.52797
G1 X171.948 Y211.602 E4.60566
G1 X171.44 Y211.329 E4.62595
G1 X171.44 Y213.592 E4.70556
G1 X171.082 Y213.438 E4.71928
G1 X170.932 Y213.357 E4.72526
G1 X170.932 Y211.057 E4.80623
G1 X170.424 Y210.784 E4.82652
G1 X170.424 Y213.084 E4.90749
G1 X169.916 Y212.812 E4.92778
G1 X169.916 Y210.511 E5.00875
G1 X169.408 Y210.238 E5.02904
G1 X169.408 Y212.539 E5.11001
G1 X168.9 Y212.266 E5.1303
G1 X168.9 Y209.965 E5.21127
G1 X168.393 Y209.693 E5.23156
G1 X168.393 Y211.993 E5.31253
G1 X167.885 Y211.72 E5.33282
G1 X167.885 Y209.42 E5.41379
G1 X167.377 Y209.147 E5.43408
G1 X167.377 Y211.448 E5.51505
G1 X166.869 Y211.175 E5.53534
G1 X166.869 Y208.874 E5.61631
G1 X166.361 Y208.601 E5.6366
G1 X166.361 Y210.902 E5.71757
G1 X165.853 Y210.629 E5.73786
G1 X165.853 Y208.329 E5.81883
G1 X165.345 Y208.056 E5.83912
G1 X165.345 Y210.356 E5.92009
G1 X164.838 Y210.084 E5.94038
G1 X164.838 Y207.783 E6.02135
G1 X164.33 Y207.51 E6.04164
G1 X164.33 Y209.811 E6.12261
G1 X163.822 Y209.538 E6.1429
G1 X163.822 Y207.237 E6.22387
G1 X163.314 Y206.965 E6.24416
G1 X163.314 Y209.265 E6.32513
G1 X162.806 Y208.992 E6.34542
G1 X162.806 Y206.692 E6.42639
G1 X162.298 Y206.419 E6.44668
G1 X162.298 Y208.72 E6.52765
G1 X161.79 Y208.447 E6.54794
G1 X161.79 Y206.146 E6.62891
G1 X161.282 Y205.873 E6.6492
G1 X161.282 Y208.174 E6.73017
G1 X160.775 Y207.901 E6.75046
G1 X160.775 Y205.601 E6.83143
G1 X160.267 Y205.328 E6.85172
G1 X160.267 Y207.628 E6.93269
G1 X159.759 Y207.356 E6.95298
G1 X159.759 Y205.055 E7.03395
G1 X159.251 Y204.782 E7.05424
G1 X159.251 Y207.083 E7.13521
G1 X158.743 Y206.81 E7.1555
G1 X158.743 Y204.431 E7.23922
G1 X158.235 Y204.149 E7.25967
G1 X158.235 Y206.537 E7.34373
G1 X157.981 Y206.349 E7.35488
G1 X157.727 Y206.207 E7.3651
G1 X157.727 Y203.866 E7.44748
G1 X157.22 Y203.583 E7.46794
G1 X157.22 Y205.923 E7.55027
G1 X156.712 Y205.639 E7.57075
G1 X156.712 Y203.301 E7.65304
G1 X156.204 Y203.018 E7.67349
G1 X156.204 Y205.355 E7.75573
G1 X155.696 Y205.07 E7.77621
G1 X155.696 Y202.735 E7.85839
G1 X155.188 Y202.453 E7.87884
G1 X155.188 Y204.685 E7.95742
G1 X155.009 Y204.459 E7.96759
G1 X154.68 Y204.275 E7.98084
G1 X154.68 Y202.17 E8.05494
G1 X154.172 Y201.887 E8.07539
G1 X154.172 Y203.992 E8.14947
G1 X153.665 Y203.709 E8.16993
G1 X153.665 Y201.605 E8.24398
G1 X153.157 Y201.322 E8.26444
G1 X153.157 Y203.426 E8.33847
G1 X152.649 Y203.142 E8.35893
G1 X152.649 Y201.039 E8.43294
G1 X152.141 Y200.757 E8.4534
G1 X152.141 Y202.859 E8.52738
G1 X151.633 Y202.576 E8.54785
G1 X151.633 Y200.474 E8.62181
G1 X151.125 Y200.192 E8.64227
G1 X151.125 Y202.293 E8.71621
G1 X150.617 Y202.009 E8.73667
G1 X150.617 Y199.909 E8.81059
G1 X150.109 Y199.626 E8.83105
G1 X150.109 Y201.726 E8.90494
G1 X149.602 Y201.443 E8.92541
G1 X149.602 Y199.344 E8.99928
G1 X149.094 Y199.061 E9.01974
G1 X149.094 Y201.159 E9.09359
G1 X148.586 Y200.876 E9.11406
G1 X148.586 Y198.778 E9.18789
G1 X148.078 Y198.496 E9.20834
G1 X148.078 Y200.593 E9.28215
G1 X147.57 Y200.31 E9.30262
G1 X147.57 Y198.213 E9.3764
G1 X147.062 Y197.93 E9.39686
G1 X147.062 Y200.026 E9.47062
G1 X146.554 Y199.743 E9.49109
G1 X146.554 Y197.648 E9.56483
G1 X146.047 Y197.365 E9.58528
G1 X146.047 Y199.46 E9.659
G1 X145.539 Y199.176 E9.67947
G1 X145.539 Y197.082 E9.75316
G1 X145.031 Y196.8 E9.77362
G1 X145.031 Y198.893 E9.84729
G1 X144.523 Y198.61 E9.86776
G1 X144.523 Y196.517 E9.94141
G1 X144.015 Y196.235 E9.96187
G1 X144.015 Y198.327 E10.0355
G1 X143.507 Y198.043 E10.05596
G1 X143.507 Y195.952 E10.12957
G1 X142.999 Y195.669 E10.15002
G1 X142.999 Y197.76 E10.22361
G1 X142.501 Y197.482 E10.2437
G1 X142.491 Y195.152 E10.32572
G1 X142.405 Y194.951 E10.3334
G1 X141.986 Y194.425 E10.35708
G1 X142.003 Y194.203 E10.36492
G1 X141.984 Y194.098 E10.36866
G1 X141.984 Y197.054 E10.47268
G1 X141.695 Y196.815 E10.48586
G1 X141.476 Y196.423 E10.50169
G1 X141.476 Y193.374 E10.60899
G1 X140.968 Y193.592 E10.62845
G1 X140.968 Y195.206 E10.68525
G1 X140.46 Y194.026 E10.73048
G1 X140.46 Y193.597 E10.74558
G92 E0
G1 E-0.5 F3000
; acceleration to travel
M204 S3000
G1 X145.544 Y189.943 F12000
; decel to extrusion
M204 S1000
G1 X147.239 Y188.724
; end travel
G1 E0 F1800
G1 X147.11 Y188.008 E0.02563
G1 X147.289 Y187.311 E0.05094
G1 X148.262 Y186.446 E0.09677
G1 X148.742 Y186.131 E0.11697
G1 X148.171 Y183.838 E0.20013
G1 X147.921 Y183.497 E0.21503
G1 X147.582 Y183.289 E0.22901
G1 X147.289 Y183.332 E0.23942
G1 X147.013 Y183.424 E0.24965
G1 X146.701 Y183.473 E0.26078
G1 X146.581 Y183.526 E0.2654
G1 X146.298 Y183.592 E0.27561
G1 X146.066 Y183.601 E0.2838
G1 X145.561 Y183.865 E0.30384
G1 X144.95 Y184.126 E0.32722
G1 X144.131 Y184.696 E0.36234
G1 X140.214 Y182.301 E0.52393
G1 X147.463 Y181.242 E0.78172
M73 P1 R52
G1 X148.117 Y181.273 E0.80477
G1 X149.448 Y181.524 E0.85246
G1 X150.614 Y182.84 E0.91433
G1 X151.25 Y185.656 E1.01594
G1 X150.543 Y187.189 E1.07532
G1 X150.023 Y187.724 E1.10159
G1 X150.374 Y188.347 E1.12675
G1 X154.305 Y187.449 E1.26866
G1 X163.956 Y193.561 E1.67069
G1 X166.119 Y194.974 E1.76163
G1 X166.295 Y195.8 E1.79136
G1 X172.832 Y200.072 E2.0662
G1 X172.711 Y198.781 E2.11185
G1 X172.55 Y198.169 E2.1341
G1 X172.728 Y196.894 E2.17942
G1 X172.8 Y196.678 E2.18744
G1 X172.838 Y196.41 E2.19696
G1 X172.91 Y196.194 E2.20498
G1 X172.94 Y195.981 E2.21253
G1 X173.014 Y195.75 E2.22107
G1 X173.046 Y195.522 E2.22917
G1 X173.12 Y195.291 E2.23772
G1 X173.152 Y195.063 E2.24583
G1 X173.227 Y194.832 E2.25437
G1 X173.259 Y194.604 E2.26248
G1 X173.333 Y194.372 E2.27103
G1 X173.365 Y194.141 E2.27926
G1 X173.436 Y193.92 E2.28743
G1 X173.467 Y193.691 E2.29557
G1 X173.539 Y193.464 E2.30394
G1 X173.566 Y193.259 E2.31122
G1 X173.654 Y192.979 E2.32154
G1 X173.684 Y192.766 E2.3291
G1 X173.758 Y192.535 E2.33765
G1 X173.79 Y192.307 E2.34576
G1 X173.864 Y192.076 E2.3543
G1 X173.9 Y191.817 E2.36348
G1 X173.973 Y191.596 E2.37167
G1 X174.002 Y191.388 E2.37908
G1 X174.076 Y191.157 E2.38762
G1 X174.109 Y190.929 E2.39573
G1 X174.183 Y190.697 E2.40427
G1 X174.215 Y190.469 E2.41239
G1 X174.289 Y190.238 E2.42093
G1 X174.321 Y190.01 E2.42904
