; generated by SuperSlicer 2.5.59 on 2023-07-01 at 17:22:26 UTC


;
;

;
;
; 

; external perimeters extrusion width = 0.40mm
; perimeters extrusion width = 0.46mm
; infill extrusion width = 0.64mm
; solid infill extrusion width = 0.56mm
; top infill extrusion width = 0.40mm
; first layer extrusion width = 0.50mm

; object:{"name":"Chalk Bag Clip","id":"Chalk Bag Clip.stl id:0 copy 0","object_center":[165.000000,165.000000,0.000000],"boundingbox_center":[165.000000,165.000000,3.175000],"boundingbox_size":[76.200005,49.212502,6.350000]}
EXCLUDE_OBJECT_DEFINE NAME=Chalk_Bag_Clip_stl_id_0_copy_0 CENTER=165.000000,165.000000 POLYGON=[[126.900000,146.743744],[126.978184,145.750400],[127.210784,144.781488],[127.592112,143.860896],[128.112736,143.011328],[128.759872,142.253632],[129.517560,141.606496],[130.367160,141.085856],[131.287736,140.704544],[132.256640,140.471920],[133.250000,140.393760],[196.750000,140.393760],[197.743360,140.471920],[198.712272,140.704544],[199.632848,141.085856],[200.482432,141.606496],[201.240128,142.253632],[201.887264,143.011328],[202.407904,143.860896],[202.789216,144.781488],[203.021824,145.750400],[203.100000,146.743744],[203.100000,148.648736],[203.021824,149.642128],[202.789216,150.611008],[202.407904,151.531584],[201.887264,152.381200],[178.074768,186.988688],[177.427632,187.746384],[176.669936,188.393504],[175.820336,188.914144],[174.899744,189.295472],[173.930864,189.528080],[172.937504,189.606256],[157.062496,189.606256],[156.069136,189.528080],[155.100256,189.295472],[154.179664,188.914144],[153.330064,188.393504],[152.572368,187.746384],[151.925232,186.988688],[128.112736,152.381200],[127.592112,151.531584],[127.210784,150.611008],[126.978184,149.642128],[126.900000,148.648736],[126.900000,146.743744]]
; plater:{"center":[165.000000,165.000000,0.000000],"boundingbox_center":[165.000000,165.000000,3.175000],"boundingbox_size":[76.200005,49.212502,6.350000]}

M73 P0 R20
M204 P4000 T4000 ; sets acceleration (P, T), mm/sec^2
;TYPE:Custom
; custom gcode: start_gcode
START_PRINT T_BED=60 T_EXTRUDER=210
; custom gcode end: start_gcode
M107
G21 ; set units to millimeters
G90 ; use absolute coordinates
M82 ; use absolute distances for extrusion
G92 E0
; custom gcode: start_filament_gcode
; Filament gcode

    PRESSURE_ADVANCE_SELECT FILAMENT=PLA
; custom gcode end: start_filament_gcode
;_TOOLCHANGE 0
M109 S210 ; set temperature and wait for it to be reached
M190 S60 ; set bed temperature and wait for it to be reached
;LAYER_CHANGE
;Z:0.2
;HEIGHT:0.2
G1 Z0.2 F9000
M73 P0 R20
G1 E-0.8 F2400
M204 S1000
G1 X126.416 Y138.897 F9000
G1 E0 F1800
;TYPE:Skirt
;WIDTH:0.52
G1 X125.643 Y139.602 E0.0415
G1 X124.619 Y140.88 E0.10645
G1 X124.107 Y141.716 E0.14535
G1 X123.433 Y143.208 E0.21031
G1 X122.897 Y145.437 E0.30125
G1 X122.807 Y146.748 E0.35336
G1 X122.807 Y148.645 E0.42862
G1 X123 Y150.605 E0.50676
G1 X123.229 Y151.559 E0.54566
G1 X123.808 Y153.091 E0.61062
G1 X124.74 Y154.699 E0.68436
G1 X148.552 Y189.306 E2.35081
M73 P0 R20
G1 X149.455 Y190.398 E2.40701
G1 X150.666 Y191.501 E2.47197
G1 X152.035 Y192.4 E2.53692
G1 X153.527 Y193.074 E2.60187
G1 X155.756 Y193.609 E2.69281
G1 X157.066 Y193.699 E2.74493
G1 X172.934 Y193.699 E3.37437
G1 X174.894 Y193.506 E3.45251
G1 X176.473 Y193.074 E3.51746
G1 X177.965 Y192.4 E3.58242
G1 X178.802 Y191.887 E3.62132
G1 X180.08 Y190.864 E3.68627
G1 X181.448 Y189.306 E3.7685
G1 X205.26 Y154.699 E5.43495
G1 X205.893 Y153.677 E5.48265
G1 X206.567 Y152.184 E5.5476
G1 X207.103 Y149.955 E5.63854
G1 X207.193 Y148.645 E5.69065
G1 X207.18 Y146.419 E5.77896
G1 X207.103 Y145.437 E5.81802
G1 X206.771 Y143.834 E5.88297
G1 X205.893 Y141.716 E5.97392
G1 X205.381 Y140.88 E6.01282
G1 X204.357 Y139.602 E6.07777
G1 X203.146 Y138.499 E6.14273
G1 X201.778 Y137.6 E6.20768
G1 X199.66 Y136.723 E6.29862
G1 X198.057 Y136.391 E6.36358
G1 X197.075 Y136.314 E6.40264
G1 X133.254 Y136.301 E8.93438
G1 X131.294 Y136.494 E9.01252
G1 X129.714 Y136.926 E9.07747
G1 X128.808 Y137.302 E9.11638
G1 X126.854 Y138.499 E9.20732
G1 X126.416 Y138.897 E9.23077
G1 X126.736 Y139.25 F9000
G1 F1800
G1 X126.005 Y139.911 E9.26986
G1 X125.026 Y141.129 E9.33184
G1 X124.513 Y141.965 E9.37075
G1 X123.873 Y143.391 E9.43274
G1 X123.373 Y145.475 E9.51775
G1 X123.284 Y146.748 E9.56838
G1 X123.284 Y148.645 E9.64364
G1 X123.464 Y150.494 E9.71733
G1 X123.873 Y152.002 E9.77932
G1 X124.249 Y152.908 E9.81823
G1 X125.133 Y154.428 E9.888
G1 X148.945 Y189.036 E11.55445
G1 X149.818 Y190.089 E11.60869
G1 X150.976 Y191.138 E11.67067
G1 X152.284 Y191.993 E11.73266
G1 X153.709 Y192.633 E11.79465
G1 X155.793 Y193.133 E11.87967
G1 X157.066 Y193.222 E11.93029
G1 X172.934 Y193.222 E12.55973
G1 X174.783 Y193.042 E12.63343
G1 X176.291 Y192.633 E12.69542
G1 X177.197 Y192.258 E12.73432
G1 X178.552 Y191.48 E12.79631
G1 X179.77 Y190.501 E12.85829
G1 X181.055 Y189.036 E12.93559
G1 X204.867 Y154.428 E14.60204
G1 X205.487 Y153.427 E14.64874
G1 X206.127 Y152.002 E14.71072
G1 X206.627 Y149.918 E14.79574
G1 X206.716 Y148.645 E14.84637
G1 X206.704 Y146.456 E14.93319
G1 X206.627 Y145.475 E14.97225
G1 X206.307 Y143.945 E15.03424
M73 P1 R20
G1 X205.487 Y141.965 E15.11926
G1 X204.974 Y141.129 E15.15816
G1 X203.995 Y139.911 E15.22015
G1 X202.837 Y138.862 E15.28214
G1 X201.529 Y138.007 E15.34413
G1 X199.549 Y137.187 E15.42914
G1 X198.019 Y136.867 E15.49113
G1 X197.038 Y136.79 E15.53019
G1 X133.254 Y136.778 E18.06045
G1 X131.405 Y136.958 E18.13414
G1 X129.897 Y137.367 E18.19613
G1 X128.991 Y137.742 E18.23503
G1 X127.163 Y138.862 E18.32005
G1 X126.736 Y139.25 E18.34295
G1 X127.054 Y139.603 F9000
G1 F1800
G1 X126.368 Y140.221 E18.37958
G1 X125.433 Y141.378 E18.4386
G1 X124.92 Y142.214 E18.47751
G1 X124.314 Y143.573 E18.53653
G1 X123.849 Y145.512 E18.61563
G1 X123.761 Y146.748 E18.66477
G1 X123.761 Y148.645 E18.74002
G1 X123.928 Y150.382 E18.80927
G1 X124.314 Y151.819 E18.86829
G1 X124.689 Y152.725 E18.9072
G1 X125.526 Y154.158 E18.97301
G1 X149.338 Y188.765 E20.63945
G1 X150.181 Y189.779 E20.69172
G1 X151.286 Y190.775 E20.75074
G1 X152.533 Y191.586 E20.80977
G1 X153.892 Y192.192 E20.86879
G1 X155.329 Y192.578 E20.92781
G1 X156.812 Y192.735 E20.98699
G1 X172.934 Y192.745 E21.62651
G1 X174.671 Y192.578 E21.69575
G1 X176.108 Y192.192 E21.75478
G1 X177.014 Y191.817 E21.79368
G1 X178.303 Y191.074 E21.8527
G1 X179.46 Y190.138 E21.91172
G1 X180.662 Y188.765 E21.98409
G1 X204.474 Y154.158 E23.65054
G1 X205.08 Y153.178 E23.69623
G1 X205.686 Y151.819 E23.75525
G1 X206.151 Y149.881 E23.83435
G1 X206.239 Y148.645 E23.88349
G1 X206.229 Y146.494 E23.96883
G1 X206.151 Y145.512 E24.00789
G1 X205.843 Y144.056 E24.06691
G1 X205.08 Y142.214 E24.14601
G1 X204.269 Y140.967 E24.20503
G1 X203.632 Y140.221 E24.24394
G1 X202.527 Y139.225 E24.30296
G1 X201.279 Y138.414 E24.36198
G1 X199.437 Y137.651 E24.44108
G1 X197.982 Y137.342 E24.5001
G1 X197 Y137.265 E24.53916
G1 X133.254 Y137.255 E27.06793
G1 X131.516 Y137.422 E27.13718
G1 X130.079 Y137.808 E27.1962
G1 X129.173 Y138.183 E27.2351
G1 X127.473 Y139.225 E27.3142
G1 X127.054 Y139.603 E27.3366
G92 E0
G1 E-0.8 F2400
; printing object Chalk Bag Clip.stl id:0 copy 0
EXCLUDE_OBJECT_START NAME=Chalk_Bag_Clip_stl_id_0_copy_0
; acceleration to travel
M204 S3000
G1 X131.502 Y145.673 F9000
; decel to extrusion
M204 S1000
G1 X132.985 Y147.696
; end travel
G1 E0 F1800
;TYPE:External perimeter
;WIDTH:0.5
G1 X133.213 Y148.119 E0.01827
G1 X133.41 Y148.374 E0.0305
G1 X133.646 Y148.591 E0.04269
G1 X133.914 Y148.766 E0.05487
G1 X134.209 Y148.895 E0.06708
G1 X134.519 Y148.974 E0.07924
G1 X134.823 Y148.999 E0.09084
G1 X142.761 Y148.999 E0.39254
G1 X143.217 Y149.035 E0.40991
G1 X143.648 Y149.138 E0.42675
G1 X144.057 Y149.308 E0.44359
G1 X144.435 Y149.539 E0.46044
G1 X144.772 Y149.827 E0.47728
G1 X145.06 Y150.164 E0.49412
G1 X145.291 Y150.542 E0.51096
G1 X145.461 Y150.951 E0.5278
G1 X145.564 Y151.382 E0.54464
G1 X145.599 Y151.824 E0.56148
G1 X145.564 Y152.266 E0.57833
G1 X145.461 Y152.696 E0.59517
G1 X145.291 Y153.106 E0.61201
G1 X145.06 Y153.484 E0.62885
G1 X144.772 Y153.821 E0.64569
G1 X144.435 Y154.108 E0.66253
G1 X144.057 Y154.34 E0.67938
G1 X143.648 Y154.509 E0.69622
G1 X143.217 Y154.613 E0.71306
G1 X142.761 Y154.649 E0.73042
G1 X133.264 Y154.649 E1.09139
M73 P2 R19
G1 X132.312 Y154.574 E1.12769
G1 X131.396 Y154.354 E1.16347
G1 X130.527 Y153.994 E1.19924
G1 X129.724 Y153.502 E1.23502
G1 X129.008 Y152.891 E1.2708
G1 X128.397 Y152.175 E1.30657
G1 X127.905 Y151.372 E1.34235
G1 X127.545 Y150.503 E1.37813
G1 X127.325 Y149.587 E1.4139
G1 X127.25 Y148.635 E1.45021
G1 X127.25 Y146.757 E1.52156
G1 X127.325 Y145.805 E1.55786
G1 X127.545 Y144.89 E1.59364
G1 X127.905 Y144.02 E1.62942
G1 X128.397 Y143.218 E1.66519
G1 X129.008 Y142.502 E1.70097
G1 X129.724 Y141.891 E1.73675
G1 X130.527 Y141.399 E1.77252
G1 X131.396 Y141.038 E1.8083
G1 X132.312 Y140.819 E1.84408
G1 X133.264 Y140.744 E1.88038
G1 X155.828 Y140.753 E2.73797
G1 X156.111 Y140.805 E2.74891
G1 X156.29 Y140.88 E2.75628
G1 X156.456 Y140.981 E2.76366
G1 X156.603 Y141.107 E2.77103
G1 X156.729 Y141.254 E2.7784
G1 X156.831 Y141.42 E2.78578
G1 X156.905 Y141.599 E2.79315
G1 X156.95 Y141.788 E2.80052
G1 X156.966 Y141.995 E2.80842
G1 X156.966 Y147.374 E3.01285
G1 X157.082 Y147.657 E3.02448
G1 X157.248 Y147.933 E3.03671
G1 X157.456 Y148.178 E3.04894
G1 X157.7 Y148.389 E3.0612
G1 X157.984 Y148.563 E3.07385
G1 X158.256 Y148.676 E3.08503
G1 X158.586 Y148.757 E3.09796
G1 X158.89 Y148.781 E3.10957
G1 X171.111 Y148.781 E3.57404
G1 X171.437 Y148.753 E3.58646
G1 X171.722 Y148.684 E3.59761
G1 X172.015 Y148.563 E3.60965
G1 X172.3 Y148.389 E3.62234
G1 X172.544 Y148.178 E3.6346
G1 X172.752 Y147.933 E3.64683
G1 X172.918 Y147.657 E3.65906
G1 X173.033 Y147.374 E3.67069
G1 X173.033 Y141.995 E3.87512
G1 X173.05 Y141.788 E3.88302
G1 X173.095 Y141.599 E3.89039
G1 X173.169 Y141.42 E3.89776
G1 X173.271 Y141.254 E3.90514
G1 X173.397 Y141.107 E3.91251
G1 X173.544 Y140.981 E3.91988
G1 X173.71 Y140.88 E3.92726
G1 X173.889 Y140.805 E3.93463
G1 X174.078 Y140.76 E3.94201
G1 X174.285 Y140.744 E3.9499
G1 X196.736 Y140.744 E4.8032
G1 X197.688 Y140.819 E4.8395
G1 X198.604 Y141.038 E4.87528
G1 X199.473 Y141.399 E4.91106
G1 X200.276 Y141.891 E4.94683
G1 X200.992 Y142.502 E4.98261
G1 X201.603 Y143.218 E5.01839
G1 X202.095 Y144.02 E5.05417
G1 X202.455 Y144.89 E5.08994
G1 X202.675 Y145.805 E5.12572
G1 X202.75 Y146.758 E5.16202
G1 X202.75 Y148.635 E5.23338
G1 X202.675 Y149.587 E5.26968
G1 X202.455 Y150.503 E5.30545
G1 X202.095 Y151.372 E5.34123
G1 X201.603 Y152.175 E5.37701
G1 X200.992 Y152.891 E5.41279
G1 X200.276 Y153.502 E5.44856
G1 X199.473 Y153.994 E5.48434
G1 X198.604 Y154.354 E5.52012
G1 X197.688 Y154.574 E5.55589
G1 X196.736 Y154.649 E5.59219
G1 X187.239 Y154.649 E5.95316
G1 X186.783 Y154.613 E5.97052
G1 X186.352 Y154.509 E5.98737
G1 X185.943 Y154.34 E6.00421
G1 X185.565 Y154.108 E6.02105
G1 X185.228 Y153.821 E6.03789
G1 X184.94 Y153.484 E6.05473
G1 X184.709 Y153.106 E6.07157
G1 X184.539 Y152.696 E6.08842
G1 X184.436 Y152.266 E6.10526
G1 X184.401 Y151.824 E6.1221
G1 X184.436 Y151.382 E6.13894
G1 X184.539 Y150.951 E6.15578
G1 X184.709 Y150.542 E6.17262
G1 X184.94 Y150.164 E6.18946
G1 X185.228 Y149.827 E6.20631
G1 X185.565 Y149.539 E6.22315
G1 X185.943 Y149.308 E6.23999
G1 X186.352 Y149.138 E6.25683
G1 X186.783 Y149.035 E6.27367
G1 X187.239 Y148.999 E6.29104
G1 X195.177 Y148.999 E6.59274
G1 X195.483 Y148.973 E6.6044
G1 X195.8 Y148.892 E6.61685
G1 X196.086 Y148.766 E6.62871
G1 X196.354 Y148.591 E6.64091
G1 X196.594 Y148.368 E6.65333
G1 X196.787 Y148.119 E6.66532
G1 X197.016 Y147.696 E6.68359
G1 X196.785 Y147.27 E6.70202
G1 X196.59 Y147.019 E6.71409
G1 X196.359 Y146.807 E6.72599
G1 X196.086 Y146.627 E6.73843
G1 X195.791 Y146.497 E6.75066
G1 X195.481 Y146.419 E6.76282
G1 X195.177 Y146.394 E6.77442
G1 X185.624 Y146.394 E7.13751
G1 X184.589 Y146.475 E7.17695
G1 X183.567 Y146.721 E7.21691
G1 X182.595 Y147.123 E7.25688
G1 X181.699 Y147.672 E7.29684
G1 X180.899 Y148.355 E7.33681
G1 X180.216 Y149.155 E7.37677
G1 X179.667 Y150.052 E7.41673
G1 X179.264 Y151.023 E7.4567
G1 X179.019 Y152.045 E7.49666
G1 X178.937 Y153.08 E7.5361
G1 X178.937 Y183.242 E8.68247
G1 X178.863 Y184.195 E8.71877
G1 X178.643 Y185.11 E8.75455
G1 X178.283 Y185.98 E8.79032
G1 X177.791 Y186.782 E8.8261
G1 X177.179 Y187.498 E8.86188
G1 X176.464 Y188.109 E8.89765
G1 X175.661 Y188.601 E8.93343
G1 X174.791 Y188.962 E8.96921
G1 X173.876 Y189.181 E9.00499
G1 X172.924 Y189.256 E9.04129
G1 X157.076 Y189.256 E9.64359
G1 X156.124 Y189.181 E9.67989
G1 X155.209 Y188.962 E9.71567
G1 X154.339 Y188.601 E9.75145
G1 X153.536 Y188.109 E9.78722
G1 X152.821 Y187.498 E9.823
G1 X152.209 Y186.782 E9.85878
G1 X151.717 Y185.98 E9.89455
G1 X151.357 Y185.11 E9.93033
G1 X151.137 Y184.195 E9.96611
G1 X151.062 Y183.242 E10.00241
G1 X151.062 Y153.08 E11.14877
G1 X150.981 Y152.045 E11.18821
G1 X150.736 Y151.023 E11.22818
G1 X150.333 Y150.052 E11.26814
G1 X149.784 Y149.155 E11.30811
G1 X149.101 Y148.355 E11.34807
G1 X148.301 Y147.672 E11.38804
G1 X147.405 Y147.123 E11.428
G1 X146.433 Y146.721 E11.46797
G1 X145.411 Y146.475 E11.50793
G1 X144.376 Y146.394 E11.54737
G1 X134.823 Y146.394 E11.91045
G1 X134.518 Y146.419 E11.92209
G1 X134.207 Y146.498 E11.93428
G1 X133.914 Y146.627 E11.94645
G1 X133.64 Y146.807 E11.95889
G1 X133.411 Y147.019 E11.97078
G1 X133.213 Y147.273 E11.98303
G1 X132.985 Y147.696 E12.00129
;WIPE_START
M204 S4000
G1 X132.676 Y147.95 F9000
;WIPE_END
M204 S1000
G1 X132.504 Y147.625
;TYPE:Internal perimeter
G1 F1800
G1 X132.465 Y147.696 E12.00437
G1 X132.829 Y148.37 E12.03345
G1 X133.073 Y148.684 E12.04858
G1 X133.364 Y148.953 E12.06365
G1 X133.696 Y149.17 E12.07872
G1 X134.06 Y149.329 E12.09381
G1 X134.443 Y149.426 E12.10884
G1 X134.804 Y149.456 E12.1226
G1 X142.743 Y149.456 E12.42434
G1 X143.145 Y149.487 E12.43966
G1 X143.506 Y149.574 E12.45376
G1 X143.849 Y149.716 E12.46787
G1 X144.165 Y149.91 E12.48198
G1 X144.448 Y150.151 E12.49609
G1 X144.689 Y150.433 E12.51019
G1 X144.883 Y150.75 E12.5243
G1 X145.025 Y151.093 E12.53841
G1 X145.111 Y151.454 E12.55251
G1 X145.14 Y151.824 E12.56662
G1 X145.111 Y152.194 E12.58073
G1 X145.025 Y152.555 E12.59484
G1 X144.883 Y152.898 E12.60894
G1 X144.689 Y153.214 E12.62305
G1 X144.448 Y153.496 E12.63716
G1 X144.165 Y153.737 E12.65126
G1 X143.849 Y153.931 E12.66537
G1 X143.506 Y154.073 E12.67948
G1 X143.145 Y154.16 E12.69359
G1 X142.743 Y154.192 E12.7089
G1 X133.282 Y154.192 E13.0685
G1 X132.383 Y154.121 E13.10275
G1 X131.538 Y153.918 E13.1358
G1 X130.735 Y153.585 E13.16884
G1 X129.993 Y153.131 E13.20188
G1 X129.332 Y152.566 E13.23492
G1 X128.768 Y151.905 E13.26796
G1 X128.313 Y151.164 E13.30101
G1 X127.981 Y150.361 E13.33405
G1 X127.778 Y149.515 E13.36709
G1 X127.707 Y148.617 E13.40134
G1 X127.707 Y146.775 E13.47134
G1 X127.778 Y145.877 E13.50559
G1 X127.981 Y145.032 E13.53863
G1 X128.313 Y144.228 E13.57167
G1 X128.768 Y143.487 E13.60471
G1 X129.332 Y142.826 E13.63776
G1 X129.993 Y142.261 E13.6708
G1 X130.735 Y141.807 E13.70384
G1 X131.538 Y141.474 E13.73688
G1 X132.383 Y141.272 E13.76993
G1 X133.282 Y141.201 E13.80417
G1 X155.786 Y141.21 E14.65948
M73 P3 R19
G1 X155.98 Y141.246 E14.667
G1 X156.186 Y141.352 E14.6758
G1 X156.358 Y141.524 E14.68505
G1 X156.422 Y141.628 E14.68969
G1 X156.497 Y141.86 E14.69894
G1 X156.509 Y147.463 E14.91191
G1 X156.672 Y147.863 E14.9283
G1 X156.876 Y148.2 E14.94328
G1 X157.13 Y148.501 E14.95826
G1 X157.43 Y148.76 E14.97332
G1 X157.776 Y148.971 E14.98872
G1 X158.112 Y149.111 E15.00256
G1 X158.513 Y149.21 E15.01825
G1 X158.872 Y149.238 E15.03196
G1 X171.132 Y149.238 E15.49789
G1 X171.511 Y149.205 E15.51236
G1 X171.863 Y149.12 E15.52614
G1 X172.222 Y148.972 E15.5409
G1 X172.57 Y148.76 E15.55638
G1 X172.87 Y148.501 E15.57143
G1 X173.124 Y148.2 E15.58641
G1 X173.328 Y147.863 E15.60139
G1 X173.491 Y147.463 E15.61778
G1 X173.503 Y141.86 E15.83075
G1 X173.578 Y141.628 E15.84
G1 X173.721 Y141.431 E15.84926
G1 X173.918 Y141.288 E15.8585
G1 X174.149 Y141.213 E15.86776
G1 X196.718 Y141.201 E16.72552
G1 X197.617 Y141.272 E16.75977
G1 X198.462 Y141.474 E16.79281
G1 X199.265 Y141.807 E16.82586
G1 X200.007 Y142.261 E16.8589
