; HEADER_BLOCK_START
; generated by OrcaSlicer 1.6.2 on 2023-05-18 at 17:30:08
; total layer number: 25
; HEADER_BLOCK_END

; THUMBNAIL_BLOCK_START
; THUMBNAIL_BLOCK_END

; external perimeters extrusion width = 0.40mm
; perimeters extrusion width = 0.45mm
; infill extrusion width = 0.45mm
; solid infill extrusion width = 0.40mm
; top infill extrusion width = 0.40mm
; first layer extrusion width = 0.50mm

; EXECUTABLE_BLOCK_START
EXCLUDE_OBJECT_DEFINE NAME=clip5.STL_id_0_copy_0 CENTER=165,165 POLYGON=[[151.98,187.428],[152.021,141.867],[152.054,141.378],[152.146,140.685],[152.266,140.118],[152.445,139.518],[152.672,138.951],[152.95,138.415],[153.288,137.898],[153.595,137.513],[153.989,137.1],[154.423,136.723],[154.487,136.676],[154.895,136.379],[155.392,136.077],[163.23,135.149],[163.881,135.102],[164.537,135.109],[165.195,135.167],[165.857,135.277],[166.293,135.376],[166.578,135.459],[166.997,135.581],[167.694,135.837],[168.382,136.143],[169.063,136.496],[169.526,136.766],[170.258,137.243],[170.47,137.399],[170.968,137.767],[171.655,138.336],[172.318,138.95],[172.956,139.607],[173.171,139.846],[173.798,140.594],[174.066,140.954],[174.383,141.377],[174.926,142.193],[175.429,143.041],[175.89,143.92],[176.31,144.83],[176.687,145.771],[176.961,146.553],[177.267,147.573],[177.521,148.61],[177.724,149.661],[177.875,150.725],[177.938,151.408],[177.974,151.803],[178.019,152.893],[178.02,153.513],[177.979,154.616],[177.975,154.667],[177.887,155.728],[177.77,156.661],[177.746,156.851],[177.56,157.986],[177.332,159.134],[173.026,179.156],[171.426,181.696],[164.331,190.351],[164.126,190.592],[163.748,191.037],[163.119,191.69],[162.986,191.812],[162.44,192.315],[162.085,192.615],[161.488,193.08],[160.887,193.502],[160.282,193.879],[159.672,194.207],[159.296,194.376],[159.096,194.466],[158.576,194.653],[158.317,194.723],[158.058,194.792],[157.701,194.856],[157.254,194.897],[156.938,194.892],[156.815,194.89],[156.45,194.842],[156.362,194.82],[156.031,194.735],[155.627,194.572],[155.389,194.441],[155.269,194.376],[154.841,194.075],[154.429,193.714],[154.21,193.481],[154.024,193.282],[153.616,192.756],[153.245,192.183],[152.974,191.68],[152.915,191.569],[152.654,190.984],[152.416,190.318],[152.232,189.632],[152.185,189.377],[152.1,188.915],[152.027,188.284],[151.98,187.428]]
M73 P0 R17
;TYPE:Custom
START_PRINT T_BED=70 T_EXTRUDER=240
G90
G21
M83 ; use relative distances for extrusion
; filament start gcode
PRESSURE_ADVANCE_SELECT FILAMENT=PETG
M106 S0
;LAYER_CHANGE
;Z:0.2
;HEIGHT:0.2
M204 S500
G1 E-1 F3000
G1 Z.2 F21000
G1 X151.917 Y135.126
G1 E1 F1800
;TYPE:Skirt
;WIDTH:0.5
G1 F3000
G1 X152.743 Y134.406 E.03833
G1 X153.86 Y133.659 E.04698
G1 X155.032 Y133.252 E.04338
G1 X162.889 Y132.308 E.27671
G1 X164.012 Y132.242 E.03935
G1 X165.665 Y132.344 E.0579
G1 X167.795 Y132.833 E.07641
G1 X169.541 Y133.526 E.06568
G1 X170.966 Y134.293 E.05659
G1 X172.667 Y135.464 E.0722
G1 X174.261 Y136.849 E.07382
G1 X175.366 Y138.01 E.05606
G1 X176.765 Y139.791 E.07919
G1 X177.89 Y141.581 E.07391
G1 X178.908 Y143.631 E.08004
G1 X179.702 Y145.733 E.07857
G1 X180.3 Y147.926 E.07949
G1 X180.708 Y150.322 E.08497
G1 X180.833 Y151.687 E.04795
G1 X180.879 Y153.62 E.06761
G1 X180.726 Y156.085 E.08636
G1 X180.129 Y159.737 E.12939
G1 X175.822 Y179.717 E.71466
G1 X175.439 Y180.657 E.03547
G1 X173.631 Y183.486 E.11743
G1 X166.51 Y192.207 E.39366
G1 X165.182 Y193.674 E.0692
G1 X164.38 Y194.419 E.03827
G1 X162.398 Y195.932 E.0872
G1 X161.029 Y196.726 E.05531
G1 X160.271 Y197.075 E.02918
G1 X159.313 Y197.419 E.0356
G1 X158.212 Y197.672 E.03951
G1 X157.201 Y197.759 E.03546
G1 X156.444 Y197.727 E.02652
G1 X154.955 Y197.387 E.0534
G1 X153.897 Y196.887 E.04089
G1 X152.951 Y196.224 E.04041
G1 X151.763 Y195.035 E.05877
G1 X150.843 Y193.739 E.05558
G1 X150.041 Y192.15 E.06223
G1 X149.651 Y191.055 E.04064
G1 X149.257 Y189.242 E.06488
G1 X149.119 Y187.424 E.06375
G1 X149.159 Y141.866 E1.59299
G1 X149.217 Y141 E.03034
G1 X149.347 Y140.09 E.03215
G1 X149.702 Y138.701 E.05013
G1 X150.132 Y137.633 E.04026
G1 X150.556 Y136.846 E.03124
G1 X151.052 Y136.113 E.03096
G1 X151.877 Y135.171 E.04378
G1 X152.221 Y135.473 F21000
G1 F3000
G1 X152.248 Y135.442 E.00143
G1 X153.012 Y134.776 E.03545
G1 X154.098 Y134.049 E.04571
G1 X155.086 Y133.706 E.03657
G1 X162.943 Y132.762 E.27671
G1 X164.008 Y132.699 E.03728
G1 X165.59 Y132.795 E.05544
G1 X167.667 Y133.272 E.07451
G1 X169.356 Y133.944 E.06354
G1 X170.736 Y134.688 E.05483
G1 X172.395 Y135.832 E.07047
G1 X173.95 Y137.184 E.07206
G1 X175.015 Y138.303 E.05403
G1 X176.384 Y140.045 E.07745
G1 X177.497 Y141.814 E.07306
G1 X178.493 Y143.822 E.0784
G1 X179.265 Y145.864 E.07632
G1 X179.856 Y148.035 E.07868
G1 X180.256 Y150.386 E.08338
G1 X180.377 Y151.706 E.04635
G1 X180.423 Y153.603 E.06637
G1 X180.273 Y156.028 E.08495
G1 X179.682 Y159.641 E.12799
G1 X175.376 Y179.621 E.71466
G1 X175.053 Y180.413 E.02991
G1 X173.277 Y183.197 E.11547
G1 X166.162 Y191.91 E.39334
G1 X164.852 Y193.357 E.06822
G1 X164.07 Y194.083 E.0373
G1 X162.156 Y195.544 E.08421
G1 X160.813 Y196.324 E.0543
G1 X160.084 Y196.658 E.02805
G1 X159.195 Y196.977 E.03302
G1 X158.13 Y197.222 E.03819
G1 X157.209 Y197.302 E.03233
G1 X156.502 Y197.274 E.02473
G1 X155.126 Y196.963 E.04933
G1 X154.117 Y196.486 E.03903
G1 X153.252 Y195.881 E.03691
G1 X152.124 Y194.755 E.05574
G1 X151.227 Y193.491 E.0542
G1 X150.458 Y191.964 E.05976
G1 X150.092 Y190.937 E.03812
G1 X149.711 Y189.19 E.06254
G1 X149.576 Y187.425 E.06189
G1 X149.616 Y141.866 E1.59299
G1 X149.67 Y141.06 E.02825
G1 X149.794 Y140.185 E.03092
G1 X150.14 Y138.832 E.04883
G1 X150.538 Y137.843 E.03727
G1 X150.939 Y137.097 E.02962
G1 X151.409 Y136.398 E.02946
G1 X152.181 Y135.518 E.04093
; printing object clip5.STL id:0 copy 0
EXCLUDE_OBJECT_START NAME=clip5.STL_id_0_copy_0
G1 E-1
G1 Z.4 F21000
G1 X160.11 Y139.015
G1 Z.2
G1 E1 F1800
;TYPE:Inner wall
;WIDTH:0.480929
G1 F3000
G1 X160.177 Y138.215 E.0269
G1 X160.326 Y138.088 E.00654
;WIDTH:0.475536
G1 X160.613 Y137.875 E.01183
;WIDTH:0.444979
G1 X160.899 Y137.661 E.01099
;WIDTH:0.414421
G1 X161.335 Y137.391 E.01456
;WIDTH:0.416338
G1 X161.415 Y137.378 E.00232
;WIDTH:0.459593
G1 X161.495 Y137.364 E.00259
;WIDTH:0.502848
G1 X161.575 Y137.35 E.00286
;WIDTH:0.546103
G1 X161.655 Y137.336 E.00313
;WIDTH:0.589358
G1 X161.736 Y137.323 E.0034
;WIDTH:0.632612
G1 X161.816 Y137.309 E.00367
G1 X161.77 Y137.364 E.00322
;WIDTH:0.588138
G1 X161.725 Y137.419 E.00298
;WIDTH:0.543663
G1 X161.679 Y137.474 E.00273
;WIDTH:0.499188
G1 X161.634 Y137.529 E.00249
;WIDTH:0.454713
G1 X161.533 Y137.627 E.00443
;WIDTH:0.419693
G1 X161.431 Y137.724 E.00406
;WIDTH:0.431565
G1 X160.983 Y138.069 E.01683
;WIDTH:0.480929
G1 X160.487 Y138.544 E.02298
G1 X160.148 Y138.968 E.01821
G1 E-1
G1 Z.4 F21000
G1 X159.136 Y144.066
G1 Z.2
G1 E1 F1800
;WIDTH:0.630547
G1 F3000
G1 X158.503 Y142.969 E.05692
G1 X159.134 Y141.88 E.05659
G1 X159.181 Y141.75 E.00622
;WIDTH:0.583521
G1 X159.228 Y141.62 E.00572
;WIDTH:0.536495
G1 X159.275 Y141.49 E.00522
G1 X159.228 Y141.62 E.00522
;WIDTH:0.583521
G1 X159.181 Y141.75 E.00572
;WIDTH:0.630547
G1 X159.134 Y141.88 E.00622
G1 X159.136 Y144.006 E.09556
G1 E-1
G1 Z.4 F21000
G1 X159.136 Y148.465
G1 Z.2
G1 E1 F1800
;WIDTH:0.630546
G1 F3000
G1 X158.503 Y147.369 E.05692
G1 X159.136 Y146.272 E.05692
G1 X159.136 Y148.405 E.09589
G1 E-1
G1 Z.4 F21000
G1 X159.136 Y152.865
M73 P1 R17
G1 Z.2
G1 E1 F1800
;WIDTH:0.630547
G1 F3000
G1 X158.503 Y151.768 E.05692
G1 X159.136 Y150.672 E.05692
G1 X159.136 Y152.805 E.09589
G1 E-1
G1 Z.4 F21000
G1 X159.136 Y157.264
G1 Z.2
G1 E1 F1800
G1 F3000
G1 X158.503 Y156.168 E.05692
G1 X159.136 Y155.071 E.05692
G1 X159.136 Y157.204 E.09589
G1 E-1
G1 Z.4 F21000
G1 X159.136 Y161.664
G1 Z.2
G1 E1 F1800
;WIDTH:0.630548
G1 F3000
G1 X158.503 Y160.567 E.05692
G1 X159.136 Y159.47 E.05692
G1 X159.136 Y161.604 E.09589
G1 E-1
G1 Z.4 F21000
G1 X159.136 Y166.063
G1 Z.2
G1 E1 F1800
G1 F3000
G1 X158.503 Y164.966 E.05692
G1 X159.136 Y163.87 E.05692
G1 X159.136 Y166.003 E.09589
G1 E-1
G1 Z.4 F21000
G1 X159.136 Y170.462
G1 Z.2
G1 E1 F1800
G1 F3000
G1 X158.503 Y169.366 E.05692
G1 X159.136 Y168.269 E.05692
G1 X159.136 Y170.402 E.09589
G1 E-1
G1 Z.4 F21000
G1 X159.136 Y174.862
G1 Z.2
G1 E1 F1800
G1 F3000
G1 X158.503 Y173.765 E.05692
G1 X159.136 Y172.669 E.05692
G1 X159.136 Y174.802 E.09589
G1 E-1
G1 Z.4 F21000
G1 X159.136 Y179.261
G1 Z.2
G1 E1 F1800
;WIDTH:0.630549
G1 F3000
G1 X158.503 Y178.165 E.05692
G1 X159.136 Y177.068 E.05692
G1 X159.136 Y179.201 E.09589
G1 E-1
G1 Z.4 F21000
G1 X155.208 Y183.036
G1 Z.2
G1 E1 F1800
;WIDTH:0.499999
G1 F3000
G1 X155.506 Y183.211 E.01208
G1 X155.903 Y183.31 E.0143
G1 X156.371 Y183.296 E.01639
G1 X156.89 Y183.107 E.01931
G1 X158.744 Y182.036 E.07486
G1 X158.744 Y185.283 E.11353
G1 X158.749 Y185.405 E.00427
G1 X158.871 Y185.908 E.01811
G1 X159.142 Y186.53 E.02372
G1 X159.406 Y186.9 E.01589
G1 X159.818 Y187.345 E.02121
G1 X160.286 Y187.64 E.01933
G1 X160.804 Y187.836 E.01937
G1 X161.541 Y187.923 E.02594
G1 X162.151 Y187.839 E.02154
G1 X162.663 Y187.662 E.01894
G1 X163.381 Y187.302 E.02807
G1 X164.148 Y186.724 E.03361
G1 X164.691 Y186.189 E.02664
G1 X165.036 Y185.775 E.01884
G1 X164.827 Y186.285 E.01926
G1 X164.363 Y187.232 E.03687
G1 X163.773 Y188.252 E.04122
G1 X163.399 Y188.803 E.02327
G1 X162.952 Y189.389 E.0258
G1 X162.481 Y189.939 E.02531
G1 X161.89 Y190.547 E.02965
G1 X161.298 Y191.086 E.02797
G1 X160.417 Y191.787 E.03939
G1 X159.897 Y192.147 E.02208
G1 X159.356 Y192.476 E.02215
G1 X158.828 Y192.751 E.02083
G1 X158.278 Y192.982 E.02085
G1 X157.73 Y193.147 E.02002
G1 X157.201 Y193.217 E.01866
G1 X156.599 Y193.153 E.02117
G1 X156.114 Y192.924 E.01874
G1 X155.683 Y192.588 E.01912
G1 X155.299 Y192.194 E.01924
G1 X154.982 Y191.787 E.01803
G1 X154.687 Y191.331 E.019
G1 X154.418 Y190.831 E.01984
G1 X154.208 Y190.36 E.01801
G1 X154.015 Y189.819 E.0201
G1 X153.866 Y189.263 E.02011
G1 X153.756 Y188.667 E.02122
G1 X153.696 Y188.142 E.01848
G1 X153.654 Y187.384 E.02654
G1 X153.655 Y186.409 E.03408
G1 X153.694 Y185.273 E.03973
G1 X153.694 Y180.77 E.15745
G1 X154.705 Y182.521 E.07068
G1 X155.079 Y182.961 E.0202
G1 X155.156 Y183.006 E.00311
G1 X155.454 Y182.657 F21000
G1 F3000
G1 X155.673 Y182.785 E.00887
G1 X155.956 Y182.856 E.01021
G1 X156.205 Y182.858 E.00869
G1 X156.662 Y182.711 E.01679
G1 X158.965 Y181.381 E.093
G1 X159.201 Y181.087 E.01318
G1 X159.205 Y185.37 E.14976
G1 X159.292 Y185.73 E.01293
G1 X159.502 Y186.223 E.01874
G1 X159.672 Y186.504 E.0115
G1 X160.052 Y186.944 E.0203
G1 X160.491 Y187.23 E.01834
G1 X160.889 Y187.387 E.01497
G1 X161.51 Y187.467 E.02187
G1 X162.036 Y187.395 E.01857
G1 X162.475 Y187.246 E.01622
G1 X163.112 Y186.932 E.02484
G1 X163.852 Y186.373 E.03242
G1 X164.462 Y185.762 E.03019
G1 X164.904 Y185.184 E.02543
;WIDTH:0.537013
G1 X165.015 Y185.044 E.00675
;WIDTH:0.574027
G1 X165.126 Y184.905 E.00726
;WIDTH:0.611041
G1 X165.238 Y184.765 E.00776
G1 X165.517 Y184.18 E.02818
;WIDTH:0.563834
G1 X165.897 Y183.235 E.04055
;WIDTH:0.545598
G1 X166.462 Y181.655 E.06454
G1 X166.7 Y181.742 E.00974
G1 X166.962 Y181.76 E.0101
G1 X166.361 Y183.403 E.06728
;WIDTH:0.541933
G1 X166.271 Y183.643 E.00979
;WIDTH:0.570705
G1 X165.955 Y184.492 E.03654
;WIDTH:0.586841
G1 X165.724 Y185.12 E.02788
G1 X165.624 Y185.452 E.01441
;WIDTH:0.54342
G1 X165.525 Y185.784 E.01326
;WIDTH:0.499999
G1 X165.242 Y186.477 E.02617
G1 X164.763 Y187.453 E.03802
G1 X164.155 Y188.503 E.04241
G1 X163.765 Y189.077 E.02426
G1 X163.3 Y189.686 E.02679
G1 X162.81 Y190.256 E.02629
G1 X162.199 Y190.883 E.03061
G1 X161.585 Y191.442 E.02905
G1 X160.679 Y192.161 E.04042
G1 X160.139 Y192.535 E.02297
G1 X159.573 Y192.879 E.02316
G1 X159.016 Y193.168 E.02196
G1 X158.521 Y193.38 E.01881
G1 X157.999 Y193.548 E.01919
G1 X157.448 Y193.645 E.01954
G1 X156.981 Y193.66 E.01637
G1 X156.443 Y193.585 E.01897
G1 X155.884 Y193.321 E.02163
G1 X155.381 Y192.931 E.02222
G1 X154.951 Y192.491 E.02154
G1 X154.609 Y192.052 E.01946
G1 X154.293 Y191.563 E.02033
G1 X154.008 Y191.033 E.02108
G1 X153.784 Y190.531 E.01922
G1 X153.578 Y189.955 E.02136
G1 X153.42 Y189.364 E.0214
G1 X153.304 Y188.734 E.02239
G1 X153.24 Y188.18 E.0195
G1 X153.202 Y187.487 E.0243
G1 X153.2 Y186.349 E.03977
G1 X153.237 Y185.273 E.03764
G1 X153.237 Y179.065 E.21709
G1 X155.101 Y182.293 E.13033
G1 X155.368 Y182.607 E.01443
G1 X155.402 Y182.627 E.00137
G1 E-1
G1 Z.4 F21000
G1 X153.297 Y177.041
G1 Z.2
G1 E1 F1800
;WIDTH:0.619685
G1 F3000
G1 X153.297 Y174.889 E.09497
G1 X153.918 Y175.965 E.05483
G1 X153.327 Y176.989 E.05219
G1 E-1
G1 Z.4 F21000
G1 X153.297 Y172.642
G1 Z.2
G1 E1 F1800
;WIDTH:0.619664
G1 F3000
G1 X153.297 Y170.489 E.09497
G1 X153.918 Y171.566 E.05483
G1 X153.327 Y172.59 E.05218
G1 E-1
G1 Z.4 F21000
G1 X153.297 Y168.242
G1 Z.2
G1 E1 F1800
;WIDTH:0.619644
G1 F3000
G1 X153.297 Y166.09 E.09496
G1 X153.918 Y167.166 E.05482
G1 X153.327 Y168.19 E.05218
G1 E-1
G1 Z.4 F21000
G1 X153.297 Y163.843
G1 Z.2
G1 E1 F1800
;WIDTH:0.619624
G1 F3000
G1 X153.297 Y161.691 E.09495
G1 X153.918 Y162.767 E.05482
M73 P2 R17
G1 X153.327 Y163.791 E.05217
G1 E-1
G1 Z.4 F21000
G1 X153.297 Y159.443
G1 Z.2
G1 E1 F1800
;WIDTH:0.619603
G1 F3000
G1 X153.297 Y157.291 E.09495
G1 X153.918 Y158.367 E.05482
G1 X153.327 Y159.391 E.05217
G1 E-1
G1 Z.4 F21000
G1 X153.297 Y155.044
G1 Z.2
G1 E1 F1800
;WIDTH:0.619583
G1 F3000
G1 X153.297 Y152.892 E.09494
G1 X153.918 Y153.968 E.05481
G1 X153.327 Y154.992 E.05217
G1 E-1
G1 Z.4 F21000
G1 X153.297 Y150.645
G1 Z.2
G1 E1 F1800
;WIDTH:0.619563
G1 F3000
G1 X153.297 Y148.492 E.09493
G1 X153.918 Y149.568 E.05481
G1 X153.327 Y150.593 E.05216
G1 E-1
G1 Z.4 F21000
G1 X153.297 Y146.245
G1 Z.2
G1 E1 F1800
;WIDTH:0.619543
G1 F3000
G1 X153.297 Y144.093 E.09493
G1 X153.918 Y145.169 E.0548
G1 X153.327 Y146.193 E.05216
G1 E-1
G1 Z.4 F21000
G1 X153.237 Y142.071
G1 Z.2
G1 E1 F1800
;WIDTH:0.499999
G1 F3000
G1 X153.237 Y141.929 E.00497
G1 X153.347 Y140.89 E.03654
G1 X153.45 Y140.405 E.01734
G1 X153.602 Y139.902 E.01837
G1 X153.841 Y139.341 E.02135
G1 X154.245 Y138.657 E.02776
G1 X154.585 Y138.264 E.01818
G1 X154.977 Y137.853 E.01984
G1 X155.009 Y138.01 E.0056
G1 X155.016 Y138.477 E.01631
G1 X154.893 Y139.072 E.02125
G1 X154.596 Y139.739 E.02552
G1 X153.268 Y142.02 E.0923
G1 E-1
M73 P2 R16
G1 Z.4 F21000
G1 X154.416 Y139.158
G1 Z.2
G1 E1 F1800
;WIDTH:0.434068
G1 F3000
G1 X154.065 Y139.841 E.02297
;WIDTH:0.40056
G1 X153.964 Y140.048 E.00628
G1 E-1
G1 Z.4 F21000
G1 X159.516 Y140.889
G1 Z.2
G1 E1 F1800
;WIDTH:0.524594
G1 F3000
G1 X159.528 Y140.664 E.0083
;WIDTH:0.510545
G1 X159.581 Y139.971 E.02486
;WIDTH:0.499999
G1 X159.747 Y137.993 E.06942
G1 X160.069 Y137.725 E.01465
G1 X160.689 Y137.304 E.02618
G1 X161.348 Y136.95 E.02617
G1 X162.057 Y136.658 E.02681
G1 X162.54 Y136.516 E.01763
G1 X163.176 Y136.392 E.02263
;WIDTH:0.537109
G1 X163.288 Y136.393 E.00423
;WIDTH:0.574219
G1 X163.399 Y136.395 E.00455
;WIDTH:0.599385
G1 X163.65 Y136.392 E.01065
;WIDTH:0.62455
G1 X164.485 Y136.373 E.03718
;WIDTH:0.594632
G1 X165.047 Y136.411 E.02378
;WIDTH:0.569195
G1 X165.746 Y136.519 E.02849
;WIDTH:0.52527
G1 X166.639 Y136.744 E.03395
;WIDTH:0.496714
G1 X167.246 Y136.96 E.02239
;WIDTH:0.481292
G1 X168.064 Y137.322 E.02998
;WIDTH:0.453135
G1 X168.908 Y137.779 E.03012
;WIDTH:0.440938
G1 X169.588 Y138.218 E.02465
;WIDTH:0.431474
G1 X170.395 Y138.816 E.02986
;WIDTH:0.413859
G1 X171.093 Y139.409 E.02598
;WIDTH:0.40336
G1 X171.759 Y140.049 E.02546
;WIDTH:0.391229
G1 X172.398 Y140.727 E.02482
;WIDTH:0.384195
G1 X172.996 Y141.449 E.02447
;WIDTH:0.374631
G1 X173.556 Y142.21 E.02398
;WIDTH:0.366288
G1 X174.079 Y143.013 E.02371
;WIDTH:0.359647
G1 X174.608 Y143.938 E.02583
;WIDTH:0.356276
G1 X174.918 Y144.546 E.01636
;WIDTH:0.400162
G1 X174.922 Y144.607 E.00167
;WIDTH:0.444048
G1 X174.926 Y144.668 E.00188
;WIDTH:0.487934
G1 X174.93 Y144.729 E.00208
;WIDTH:0.531819
G1 X174.934 Y144.79 E.00229
;WIDTH:0.575705
G1 X174.938 Y144.852 E.00249
;WIDTH:0.619591
G1 X174.942 Y144.913 E.0027
;WIDTH:0.663476
G1 X174.946 Y144.974 E.00291
G1 X174.902 Y144.932 E.00289
;WIDTH:0.619591
G1 X174.857 Y144.89 E.00268
;WIDTH:0.575705
G1 X174.813 Y144.849 E.00248
;WIDTH:0.531819
G1 X174.769 Y144.807 E.00227
