; generated by SuperSlicer 2.5.59 on 2023-01-12 at 04:34:07 UTC


;
;

;
;
; 

; external perimeters extrusion width = 0.40mm
; perimeters extrusion width = 0.46mm
; infill extrusion width = 0.64mm
; solid infill extrusion width = 0.56mm
; top infill extrusion width = 0.40mm
; support material extrusion width = 0.46mm
; first layer extrusion width = 0.50mm

; external perimeters extrusion width = 0.40mm
; perimeters extrusion width = 0.46mm
; infill extrusion width = 0.64mm
; solid infill extrusion width = 0.56mm
; top infill extrusion width = 0.40mm
; support material extrusion width = 0.46mm
; first layer extrusion width = 0.50mm

; object:{"name":"3x2","id":"3x2.stl id:0 copy 0","object_center":[165.000000,127.200000,0.000000],"boundingbox_center":[165.000000,127.200000,7.300000],"boundingbox_size":[102.300003,46.400002,14.600000]}
; object:{"name":"1x3","id":"1x3.stl id:1 copy 0","object_center":[165.000001,191.200000,0.000000],"boundingbox_center":[165.000001,191.200000,7.300000],"boundingbox_size":[34.099998,69.599998,14.600000]}
; plater:{"center":[165.000000,164.999999,0.000000],"boundingbox_center":[165.000000,164.999999,7.300000],"boundingbox_size":[102.300003,122.000000,14.600000]}

M73 P0 R75


; Pre-Processed for Cancel-Object support by preprocess_cancellation v0.2.0
; 2 known objects
EXCLUDE_OBJECT_DEFINE NAME=3x2_stl_id_0_copy_0 CENTER=166.736,127.614 POLYGON=[[114.05,104.2],[114.05,150.2],[215.948,150.2],[215.948,104.2]]
EXCLUDE_OBJECT_DEFINE NAME=1x3_stl_id_1_copy_0 CENTER=165.501,191.486 POLYGON=[[148.15,156.6],[148.15,225.8],[181.85,225.8],[181.85,156.6]]
;TYPE:Custom
; custom gcode: start_gcode
START_PRINT T_BED=60 T_EXTRUDER=200
; custom gcode end: start_gcode
M107
G21 ; set units to millimeters
G90 ; use absolute coordinates
M82 ; use absolute distances for extrusion
G92 E0
; custom gcode: start_filament_gcode
; Filament gcode

    PRESSURE_ADVANCE_SELECT FILAMENT=PLA
; custom gcode end: start_filament_gcode
;_TOOLCHANGE 0
M104 S200 ; set temperature
M109 S200 ; set temperature and wait for it to be reached
M190 S60 ; set bed temperature and wait for it to be reached
;LAYER_CHANGE
;Z:0.2
;HEIGHT:0.2
G1 Z0.2 F9000
G1 E-0.8 F3000
M204 S1000
G1 X112.574 Y103.562 F9000
G1 E0 F1800
;TYPE:Skirt
;WIDTH:0.52
G1 X112.075 Y104.279 E0.03466
G1 X111.717 Y104.999 E0.06657
G1 X111.399 Y106.043 E0.10984
G1 X111.278 Y107.167 E0.15469
G1 X111.278 Y147.195 E1.74257
G1 X111.505 Y148.776 E1.80593
G1 X111.785 Y149.566 E1.83919
G1 X145.915 Y225.229 E5.13193
G1 X146.517 Y226.237 E5.17852
G1 X147.041 Y226.849 E5.21045
G1 X147.67 Y227.4 E5.24364
G1 X148.658 Y228.003 E5.28955
G1 X149.672 Y228.372 E5.33234
G1 X151.155 Y228.572 E5.39171
G1 X178.92 Y228.571 E6.49314
G1 X180.106 Y228.43 E6.54051
G1 X181.143 Y228.093 E6.58379
G1 X182.313 Y227.413 E6.63745
G1 X183.166 Y226.628 E6.68342
G1 X183.656 Y225.99 E6.71535
G1 X184.129 Y225.133 E6.75419
G1 X218.243 Y149.493 E10.04582
G1 X218.58 Y148.456 E10.08908
G1 X218.721 Y147.27 E10.13646
G1 X218.722 Y107.168 E11.72728
G1 X218.653 Y106.352 E11.75978
G1 X218.386 Y105.279 E11.80362
G1 X217.92 Y104.277 E11.84746
G1 X217.522 Y103.687 E11.87571
G1 X216.767 Y102.879 E11.91956
G1 X215.873 Y102.23 E11.9634
G1 X214.495 Y101.645 E12.02279
G1 X212.982 Y101.428 E12.08341
G1 X200.995 Y101.428 E12.55891
G1 X117.055 Y101.428 E15.88876
G1 X115.474 Y101.655 E15.95212
G1 X114.468 Y102.042 E15.9949
G1 X113.776 Y102.45 E16.02675
G1 X113.147 Y102.952 E16.05868
G1 X112.574 Y103.562 E16.09187
G1 X112.953 Y103.852 F9000
G1 F1800
G1 X112.493 Y104.51 E16.12372
G1 X112.163 Y105.17 E16.15299
G1 X111.863 Y106.15 E16.19362
G1 X111.755 Y107.167 E16.23419
G1 X111.755 Y147.195 E17.82208
G1 X111.959 Y148.628 E17.87951
G1 X112.22 Y149.37 E17.91069
G1 X146.35 Y225.033 E21.20344
G1 X146.893 Y225.944 E21.24551
G1 X147.372 Y226.506 E21.2748
G1 X147.947 Y227.012 E21.30518
G1 X148.875 Y227.578 E21.34829
G1 X149.811 Y227.915 E21.38779
G1 X151.155 Y228.095 E21.44156
G1 X178.92 Y228.094 E22.54299
G1 X179.991 Y227.967 E22.58575
G1 X180.965 Y227.651 E22.62638
G1 X182.016 Y227.04 E22.67461
G1 X182.817 Y226.303 E22.71778
G1 X183.266 Y225.717 E22.74707
G1 X183.694 Y224.937 E22.78238
G1 X217.801 Y149.315 E26.07325
G1 X218.117 Y148.341 E26.11387
G1 X218.244 Y147.27 E26.15664
G1 X218.245 Y107.168 E27.74746
M73 P1 R74
G1 X218.179 Y106.406 E27.77781
G1 X217.931 Y105.423 E27.81802
G1 X217.501 Y104.505 E27.85824
G1 X217.154 Y103.99 E27.88287
G1 X216.16 Y102.996 E27.93862
G1 X215.299 Y102.461 E27.97884
G1 X214.727 Y102.219 E28.00347
G1 X213.744 Y101.971 E28.04369
G1 X212.982 Y101.905 E28.07403
G1 X200.995 Y101.905 E28.54953
G1 X117.055 Y101.905 E31.87938
G1 X115.622 Y102.109 E31.93682
G1 X114.692 Y102.463 E31.9763
G1 X114.057 Y102.836 E32.00552
G1 X113.478 Y103.295 E32.0348
G1 X112.953 Y103.852 E32.06519
G92 E0
G1 E-0.8 F3000
; printing object 3x2.stl id:0 copy 0
EXCLUDE_OBJECT_START NAME=3x2_stl_id_0_copy_0
; acceleration to travel
M204 S3000
G1 X115.533 Y105.914 F9000
; decel to extrusion
M204 S1000
G1 X116.393 Y106.601
; end travel
G1 E0 F1800
;TYPE:Internal perimeter
;WIDTH:0.5
G1 X116.478 Y106.519 E0.0045
G1 X116.579 Y106.446 E0.00922
G1 X116.669 Y106.398 E0.01309
G1 X116.866 Y106.334 E0.02098
G1 X117.116 Y106.308 E0.03054
G1 X117.55 Y106.308 E0.04701
G1 X212.916 Y106.308 E3.67153
G1 X213.134 Y106.333 E3.67989
G1 X213.296 Y106.384 E3.68635
G1 X213.446 Y106.465 E3.69281
G1 X213.577 Y106.573 E3.69927
G1 X213.685 Y106.704 E3.70573
G1 X213.766 Y106.854 E3.71219
G1 X213.817 Y107.016 E3.71865
G1 X213.842 Y107.234 E3.727
G1 X213.841 Y147.209 E5.2463
G1 X213.826 Y147.354 E5.25186
G1 X213.796 Y147.475 E5.25658
G1 X213.749 Y147.59 E5.26129
G1 X213.687 Y147.697 E5.26601
G1 X213.611 Y147.795 E5.27072
G1 X213.522 Y147.881 E5.27544
G1 X213.421 Y147.954 E5.28015
G1 X213.331 Y148.002 E5.28403
G1 X213.134 Y148.066 E5.29191
G1 X212.884 Y148.092 E5.30148
G1 X117.068 Y148.092 E8.9431
M73 P1 R74
G1 X116.916 Y148.079 E8.94886
G1 X116.77 Y148.044 E8.95458
G1 X116.66 Y147.999 E8.95909
G1 X116.553 Y147.937 E8.96381
G1 X116.455 Y147.861 E8.96852
G1 X116.369 Y147.772 E8.97324
G1 X116.296 Y147.671 E8.97795
G1 X116.248 Y147.581 E8.98183
G1 X116.184 Y147.384 E8.98971
G1 X116.158 Y147.134 E8.99927
G1 X116.158 Y107.218 E10.51634
G1 X116.172 Y107.061 E10.52232
G1 X116.199 Y106.94 E10.52704
G1 X116.244 Y106.824 E10.53175
G1 X116.301 Y106.72 E10.53626
G1 X116.393 Y106.601 E10.54198
G1 X116.336 Y106.057 F9000
G1 F1800
G1 X116.489 Y105.976 E10.54858
G1 X116.77 Y105.884 E10.55981
G1 X117.092 Y105.85 E10.57212
G1 X117.55 Y105.85 E10.5895
G1 X212.942 Y105.851 E14.21501
G1 X213.23 Y105.884 E14.22602
G1 X213.476 Y105.961 E14.23583
G1 X213.703 Y106.084 E14.24563
G1 X213.902 Y106.248 E14.25544
G1 X214.066 Y106.447 E14.26524
G1 X214.189 Y106.674 E14.27505
G1 X214.266 Y106.92 E14.28485
G1 X214.299 Y107.208 E14.29587
G1 X214.298 Y147.233 E15.81706
G1 X214.277 Y147.434 E15.82475
G1 X214.232 Y147.616 E15.83189
G1 X214.161 Y147.791 E15.83904
G1 X214.067 Y147.954 E15.84618
G1 X213.951 Y148.102 E15.85333
G1 X213.816 Y148.232 E15.86047
G1 X213.664 Y148.343 E15.86762
G1 X213.511 Y148.424 E15.87422
G1 X213.23 Y148.516 E15.88545
G1 X212.908 Y148.55 E15.89775
G1 X117.048 Y148.549 E19.54105
G1 X116.843 Y148.531 E19.54886
G1 X116.63 Y148.48 E19.55716
G1 X116.459 Y148.411 E19.56417
G1 X116.296 Y148.317 E19.57132
G1 X116.148 Y148.201 E19.57847
G1 X116.018 Y148.066 E19.58561
G1 X115.907 Y147.914 E19.59276
G1 X115.826 Y147.761 E19.59936
G1 X115.734 Y147.48 E19.61059
G1 X115.7 Y147.158 E19.62289
G1 X115.701 Y107.198 E21.14163
G1 X115.719 Y106.989 E21.14958
G1 X115.761 Y106.806 E21.15673
G1 X115.829 Y106.63 E21.16387
G1 X115.918 Y106.469 E21.17088
G1 X116.051 Y106.296 E21.17919
G1 X116.184 Y106.168 E21.1862
G1 X116.336 Y106.057 E21.19334
G1 X115.709 Y105.991 F9000
;TYPE:External perimeter
G1 F1800
G1 X115.889 Y105.817 E21.20286
G1 X116.093 Y105.669 E21.21243
G1 X116.31 Y105.553 E21.22177
G1 X116.675 Y105.435 E21.23635
G1 X117.068 Y105.393 E21.25139
G1 X117.55 Y105.393 E21.26968
G1 X212.968 Y105.394 E24.89617
G1 X213.325 Y105.434 E24.90985
G1 X213.655 Y105.538 E24.923
G1 X213.959 Y105.704 E24.93615
G1 X214.226 Y105.924 E24.9493
G1 X214.446 Y106.191 E24.96245
G1 X214.612 Y106.495 E24.9756
G1 X214.716 Y106.825 E24.98875
G1 X214.756 Y107.182 E25.00243
G1 X214.755 Y147.257 E26.52552
G1 X214.728 Y147.514 E26.53533
G1 X214.667 Y147.758 E26.5449
G1 X214.573 Y147.992 E26.55448
G1 X214.447 Y148.21 E26.56405
G1 X214.292 Y148.408 E26.57362
G1 X214.111 Y148.583 E26.5832
G1 X213.907 Y148.731 E26.59277
G1 X213.69 Y148.847 E26.60211
G1 X213.325 Y148.965 E26.61669
G1 X212.932 Y149.007 E26.63173
G1 X117.028 Y149.006 E30.27669
G1 X116.769 Y148.984 E30.28655
G1 X116.491 Y148.917 E30.29744
G1 X116.258 Y148.823 E30.30695
G1 X116.04 Y148.697 E30.31653
G1 X115.842 Y148.542 E30.32611
G1 X115.667 Y148.361 E30.33568
G1 X115.519 Y148.157 E30.34525
G1 X115.403 Y147.94 E30.3546
G1 X115.285 Y147.575 E30.36917
G1 X115.243 Y147.182 E30.38421
G1 X115.244 Y107.178 E31.90462
G1 X115.266 Y106.918 E31.91454
G1 X115.323 Y106.672 E31.92411
G1 X115.413 Y106.437 E31.93369
G1 X115.535 Y106.218 E31.94321
G1 X115.709 Y105.991 E31.95409
;WIPE_START
M204 S4000
G1 X116.099 Y106.082 F9000
;WIPE_END
G92 E0
G1 E-0.8 F3000
; acceleration to travel
M204 S3000
G1 X186.233 Y106.352 F9000
; decel to extrusion
M204 S1000
G1 X212.951 Y106.455
; end travel
G1 E0 F1800
;TYPE:Solid infill
;WIDTH:0.500551
G1 F3600
G1 X213.701 Y107.204 E0.04033
G1 X213.705 Y107.855 F9000
G1 F3600
G1 X212.295 Y106.445 E0.1162
G1 X211.649 Y106.445 F9000
G1 F3600
G1 X213.705 Y108.501 E0.22685
G1 X213.705 Y109.148 F9000
G1 F3600
G1 X211.002 Y106.445 E0.37228
G1 X210.356 Y106.445 F9000
G1 F3600
G1 X213.705 Y109.794 E0.55249
G1 X213.705 Y110.441 F9000
G1 F3600
G1 X209.709 Y106.445 E0.76749
G1 X209.063 Y106.445 F9000
G1 F3600
G1 X213.705 Y111.087 E1.01726
G1 X213.705 Y111.733 F9000
G1 F3600
G1 X208.417 Y106.445 E1.30182
G1 X207.77 Y106.445 F9000
G1 F3600
G1 X213.705 Y112.38 E1.62116
G1 X213.705 Y113.026 F9000
G1 F3600
G1 X207.124 Y106.445 E1.97527
G1 X206.477 Y106.445 F9000
G1 F3600
G1 X213.705 Y113.672 E2.36418
G1 X213.705 Y114.319 F9000
G1 F3600
G1 X205.831 Y106.445 E2.78786
G1 X205.185 Y106.445 F9000
G1 F3600
G1 X213.705 Y114.965 E3.24632
G1 X213.705 Y115.612 F9000
G1 F3600
G1 X204.538 Y106.445 E3.73956
G1 X203.892 Y106.445 F9000
G1 F3600
G1 X213.705 Y116.258 E4.26759
G1 X213.705 Y116.904 F9000
G1 F3600
G1 X203.245 Y106.445 E4.8304
G1 X202.599 Y106.445 F9000
G1 F3600
G1 X213.705 Y117.551 E5.42799
G1 X213.705 Y118.197 F9000
G1 F3600
G1 X201.952 Y106.445 E6.06035
G1 X201.306 Y106.445 F9000
G1 F3600
G1 X213.705 Y118.844 E6.72751
G1 X213.705 Y119.49 F9000
G1 F3600
G1 X200.66 Y106.445 E7.42944
G1 X200.013 Y106.445 F9000
G1 F3600
G1 X213.705 Y120.136 E8.16615
G1 X213.705 Y120.783 F9000
G1 F3600
G1 X199.367 Y106.445 E8.93765
G1 X198.72 Y106.445 F9000
G1 F3600
G1 X213.705 Y121.429 E9.74392
G1 X213.705 Y122.076 F9000
G1 F3600
G1 X198.074 Y106.445 E10.58498
G1 X197.428 Y106.445 F9000
G1 F3600
G1 X213.705 Y122.722 E11.46082
G1 X213.705 Y123.368 F9000
G1 F3600
G1 X196.781 Y106.445 E12.37144
G1 X196.135 Y106.445 F9000
G1 F3600
G1 X213.705 Y124.015 E13.31684
G1 X213.705 Y124.661 F9000
G1 F3600
G1 X195.488 Y106.445 E14.29702
G1 X194.842 Y106.445 F9000
G1 F3600
G1 X213.705 Y125.308 E15.31199
G1 X213.705 Y125.954 F9000
G1 F3600
G1 X194.196 Y106.445 E16.36173
G1 X193.549 Y106.445 F9000
G1 F3600
G1 X213.705 Y126.6 E17.44626
G1 X213.705 Y127.247 F9000
G1 F3600
G1 X192.903 Y106.445 E18.56557
G1 X192.256 Y106.445 F9000
G1 F3600
G1 X213.705 Y127.893 E19.71966
G1 X213.705 Y128.539 F9000
G1 F3600
G1 X191.61 Y106.445 E20.90853
M73 P2 R74
G1 X190.964 Y106.445 F9000
G1 F3600
G1 X213.704 Y129.186 E22.13218
G1 X213.704 Y129.832 F9000
G1 F3600
G1 X190.317 Y106.445 E23.39061
G1 X189.671 Y106.445 F9000
G1 F3600
G1 X213.704 Y130.479 E24.68383
G1 X213.704 Y131.125 F9000
G1 F3600
G1 X189.024 Y106.445 E26.01182
G1 X188.378 Y106.445 F9000
G1 F3600
G1 X213.704 Y131.771 E27.3746
G1 X213.704 Y132.418 F9000
G1 F3600
G1 X187.731 Y106.445 E28.77216
G1 X187.085 Y106.445 F9000
G1 F3600
G1 X213.704 Y133.064 E30.2045
G1 X213.704 Y133.711 F9000
G1 F3600
G1 X186.439 Y106.445 E31.67162
G1 X185.792 Y106.445 F9000
G1 F3600
G1 X213.704 Y134.357 E33.17352
G1 X213.704 Y135.003 F9000
G1 F3600
G1 X185.146 Y106.445 E34.7102
G1 X184.499 Y106.445 F9000
G1 F3600
G1 X213.704 Y135.65 E36.28167
G1 X213.704 Y136.296 F9000
G1 F3600
G1 X183.853 Y106.445 E37.88792
G1 X183.207 Y106.445 F9000
G1 F3600
G1 X213.704 Y136.943 E39.52894
G1 X213.704 Y137.589 F9000
G1 F3600
G1 X182.56 Y106.445 E41.20475
G1 X181.914 Y106.445 F9000
G1 F3600
G1 X213.704 Y138.235 E42.91534
G1 X213.704 Y138.882 F9000
G1 F3600
G1 X181.267 Y106.445 E44.66071
G1 X180.621 Y106.445 F9000
G1 F3600
G1 X213.704 Y139.528 E46.44087
G1 X213.704 Y140.175 F9000
G1 F3600
G1 X179.975 Y106.445 E48.2558
G1 X179.328 Y106.445 F9000
G1 F3600
G1 X213.704 Y140.821 E50.10552
G1 X213.704 Y141.467 F9000
G1 F3600
G1 X178.682 Y106.445 E51.99001
G1 X178.035 Y106.445 F9000
G1 F3600
G1 X213.704 Y142.114 E53.90929
G1 X213.704 Y142.76 F9000
G1 F3600
G1 X177.389 Y106.445 E55.86335
G1 X176.743 Y106.445 F9000
G1 F3600
G1 X213.704 Y143.406 E57.85219
G1 X213.704 Y144.053 F9000
G1 F3600
G1 X176.096 Y106.445 E59.87581
G1 X175.45 Y106.445 F9000
G1 F3600
G1 X213.704 Y144.699 E61.93422
G1 X213.704 Y145.346 F9000
G1 F3600
G1 X174.803 Y106.445 E64.0274
G1 X174.157 Y106.445 F9000
G1 F3600
G1 X213.704 Y145.992 E66.15537
G1 X213.704 Y146.638 F9000
G1 F3600
G1 X173.51 Y106.445 E68.31812
G1 X172.864 Y106.445 F9000
G1 F3600
G1 X213.686 Y147.267 E70.51468
G1 X213.49 Y147.717 F9000
G1 F3600
G1 X172.218 Y106.445 E72.73549
M73 P2 R73
G1 X171.571 Y106.445 F9000
G1 F3600
G1 X213.062 Y147.936 E74.96805
G1 X212.435 Y147.955 F9000
G1 F3600
G1 X170.925 Y106.445 E77.20165
G1 X170.278 Y106.445 F9000
G1 F3600
G1 X211.789 Y147.955 E79.43526
G1 X211.143 Y147.955 F9000
G1 F3600
G1 X169.632 Y106.445 E81.66887
G1 X168.986 Y106.445 F9000
G1 F3600
G1 X210.496 Y147.955 E83.90248
G1 X209.85 Y147.955 F9000
G1 F3600
G1 X168.339 Y106.445 E86.13609
G1 X167.693 Y106.445 F9000
G1 F3600
G1 X209.203 Y147.955 E88.3697
G1 X208.557 Y147.955 F9000
G1 F3600
G1 X167.046 Y106.445 E90.60331
G1 X166.4 Y106.445 F9000
G1 F3600
G1 X207.91 Y147.955 E92.83692
G1 X207.264 Y147.955 F9000
G1 F3600
G1 X165.754 Y106.445 E95.07053
G1 X165.107 Y106.445 F9000
G1 F3600
G1 X206.618 Y147.955 E97.30414
G1 X205.971 Y147.955 F9000
G1 F3600
G1 X164.461 Y106.445 E99.53774
G1 X163.814 Y106.445 F9000
G1 F3600
G1 X205.325 Y147.955 E101.77135
G1 X204.678 Y147.955 F9000
G1 F3600
G1 X163.168 Y106.445 E104.00496
G1 X162.521 Y106.445 F9000
G1 F3600
G1 X204.032 Y147.955 E106.23857
G1 X203.386 Y147.955 F9000
G1 F3600
G1 X161.875 Y106.445 E108.47218
G1 X161.229 Y106.445 F9000
G1 F3600
G1 X202.739 Y147.955 E110.70579
G1 X202.093 Y147.955 F9000
G1 F3600
G1 X160.582 Y106.445 E112.9394
M73 P3 R73
G1 X159.936 Y106.445 F9000
G1 F3600
G1 X201.446 Y147.955 E115.17301
G1 X200.8 Y147.955 F9000
G1 F3600
G1 X159.289 Y106.445 E117.40662
G1 X158.643 Y106.445 F9000
G1 F3600
G1 X200.154 Y147.955 E119.64022
G1 X199.507 Y147.955 F9000
G1 F3600
G1 X157.997 Y106.445 E121.87383
G1 X157.35 Y106.445 F9000
G1 F3600
G1 X198.861 Y147.955 E124.10744
G1 X198.214 Y147.955 F9000
G1 F3600
G1 X156.704 Y106.445 E126.34105
G1 X156.057 Y106.445 F9000
G1 F3600
G1 X197.568 Y147.955 E128.57466
G1 X196.922 Y147.955 F9000
G1 F3600
G1 X155.411 Y106.445 E130.80827
G1 X154.765 Y106.445 F9000
G1 F3600
G1 X196.275 Y147.955 E133.04188
G1 X195.629 Y147.955 F9000
G1 F3600
G1 X154.118 Y106.445 E135.27549
G1 X153.472 Y106.445 F9000
G1 F3600
G1 X194.982 Y147.955 E137.5091
G1 X194.336 Y147.955 F9000
G1 F3600
G1 X152.825 Y106.445 E139.7427
G1 X152.179 Y106.445 F9000
G1 F3600
G1 X193.689 Y147.955 E141.97631
G1 X193.043 Y147.955 F9000
G1 F3600
G1 X151.533 Y106.445 E144.20992
G1 X150.886 Y106.445 F9000
G1 F3600
G1 X192.397 Y147.955 E146.44353
G1 X191.75 Y147.955 F9000
G1 F3600
G1 X150.24 Y106.445 E148.67714
G1 X149.593 Y106.445 F9000
G1 F3600
G1 X191.104 Y147.955 E150.91075
G1 X190.457 Y147.955 F9000
G1 F3600
