; generated by SuperSlicer 2.5.59 on 2023-03-13 at 23:12:59 UTC


;
;

;
;
; 

; external perimeters extrusion width = 0.40mm
; perimeters extrusion width = 0.46mm
; infill extrusion width = 0.64mm
; solid infill extrusion width = 0.56mm
; top infill extrusion width = 0.40mm
; support material extrusion width = 0.46mm
; first layer extrusion width = 0.50mm

; object:{"name":"Crane_Spreader","id":"Crane_Spreader.stl id:0 copy 0","object_center":[165.000001,165.000001,0.000000],"boundingbox_center":[165.000001,165.000001,2.000000],"boundingbox_size":[19.985796,100.000000,4.000000]}
EXCLUDE_OBJECT_DEFINE NAME=Crane_Spreader_stl_id_0_copy_0 CENTER=165.000001,165.000001 POLYGON=[[155.007088,164.663216],[155.099216,121.310664],[155.118464,120.617216],[155.257232,119.937536],[155.511344,119.292056],[155.873152,118.700176],[156.331792,118.179704],[156.873440,117.746304],[160.992912,115.000000],[171.992912,115.000000],[172.578176,115.057648],[173.140944,115.228360],[173.659600,115.505592],[174.114208,115.878680],[174.487312,116.333288],[174.764544,116.851952],[174.935264,117.414736],[174.992912,118.000000],[174.992912,212.000000],[174.935264,212.585264],[174.764544,213.148048],[174.487312,213.666720],[174.114208,214.121328],[173.659600,214.494416],[173.140944,214.771632],[172.578176,214.942352],[171.992912,215.000000],[160.992912,215.000000],[156.873440,212.253696],[156.331792,211.820304],[155.873152,211.299840],[155.511344,210.707952],[155.257232,210.062464],[155.118464,209.382784],[155.099216,208.689328],[155.007088,165.336800],[155.007088,164.663216]]
; plater:{"center":[165.000001,165.000001,0.000000],"boundingbox_center":[165.000001,165.000001,2.000000],"boundingbox_size":[19.985796,100.000000,4.000000]}

M73 P0 R17
;TYPE:Custom
; custom gcode: start_gcode
START_PRINT T_BED=60 T_EXTRUDER=200
; custom gcode end: start_gcode
M107
G21 ; set units to millimeters
G90 ; use absolute coordinates
M82 ; use absolute distances for extrusion
G92 E0
; custom gcode: start_filament_gcode
; Filament gcode

    PRESSURE_ADVANCE_SELECT FILAMENT=PLA
; custom gcode end: start_filament_gcode
;_TOOLCHANGE 0
M109 S200 ; set temperature and wait for it to be reached
M190 S60 ; set bed temperature and wait for it to be reached
;LAYER_CHANGE
;Z:0.2
;HEIGHT:0.2
G1 Z0.2 F9000
M73 P0 R17
G1 E-0.8 F3000
M204 S1000
G1 X151.049 Y114.741 F9000
G1 E0 F1800
;TYPE:Skirt
;WIDTH:0.52
G1 X150.666 Y115.26 E0.02556
G1 X149.788 Y116.803 E0.096
G1 X149.19 Y118.475 E0.16643
G1 X148.89 Y120.225 E0.23686
G1 X148.77 Y165.55 E2.03488
G1 X148.857 Y208.547 E3.74057
G1 X148.964 Y210.415 E3.81479
G1 X149.373 Y212.143 E3.88522
G1 X150.075 Y213.774 E3.95565
G1 X151.049 Y215.259 E4.02609
G1 X152.264 Y216.553 E4.09652
G1 X153.323 Y217.382 E4.14987
G1 X158.792 Y221.029 E4.41062
G1 X160.99 Y221.65 E4.50123
G1 X172.481 Y221.219 E4.9574
G1 X174.151 Y220.983 E5.02431
G1 X175.189 Y220.668 E5.06735
G1 X176.819 Y219.878 E5.13919
G1 X177.424 Y219.473 E5.16809
G1 X178.778 Y218.27 E5.23993
G1 X179.871 Y216.826 E5.31178
G1 X180.382 Y215.869 E5.35481
G1 X180.976 Y214.158 E5.42665
G1 X181.118 Y213.444 E5.45555
G1 X181.23 Y212.124 E5.50809
G1 X181.212 Y117.512 E9.26129
G1 X180.976 Y115.842 E9.3282
G1 X180.382 Y114.131 E9.40004
G1 X179.466 Y112.568 E9.47189
G1 X178.263 Y111.215 E9.54373
G1 X176.819 Y110.122 E9.61558
G1 X175.189 Y109.332 E9.68742
G1 X173.437 Y108.875 E9.75926
M73 P1 R17
G1 X172.254 Y108.765 E9.80639
G1 X160.99 Y108.35 E10.25353
G1 X158.792 Y108.971 E10.34414
G1 X153.062 Y112.808 E10.61767
G1 X151.797 Y113.891 E10.68374
G1 X151.049 Y114.741 E10.72867
G1 X151.44 Y115.067 F9000
G1 F1800
G1 X151.073 Y115.509 E10.75146
G1 X150.232 Y116.978 E10.81862
G1 X149.658 Y118.57 E10.88577
G1 X149.367 Y120.238 E10.95293
G1 X149.247 Y165.55 E12.75042
M73 P1 R17
G1 X149.367 Y209.762 E14.5043
G1 X149.658 Y211.43 E14.57145
G1 X150.232 Y213.022 E14.63861
G1 X151.073 Y214.491 E14.70576
G1 X152.155 Y215.793 E14.77292
G1 X153.587 Y216.986 E14.84684
G1 X159.056 Y220.632 E15.10758
G1 X160.972 Y221.173 E15.18656
G1 X172.434 Y220.744 E15.64158
G1 X174.013 Y220.526 E15.70478
G1 X175.051 Y220.212 E15.74781
G1 X176.594 Y219.457 E15.81596
G1 X177.122 Y219.104 E15.84114
G1 X178.409 Y217.967 E15.90928
G1 X179.45 Y216.601 E15.97742
G1 X179.961 Y215.644 E16.02046
G1 X180.519 Y214.02 E16.0886
G1 X180.643 Y213.397 E16.11378
G1 X180.753 Y212.124 E16.16447
G1 X180.737 Y117.559 E19.91581
G1 X180.519 Y115.98 E19.97902
G1 X179.961 Y114.356 E20.04716
G1 X179.097 Y112.871 E20.1153
G1 X177.96 Y111.584 E20.18344
G1 X176.594 Y110.543 E20.25158
G1 X175.051 Y109.788 E20.31972
G1 X173.39 Y109.35 E20.38786
G1 X172.236 Y109.242 E20.43383
G1 X160.972 Y108.827 E20.88097
G1 X159.056 Y109.368 E20.95995
G1 X153.587 Y113.014 E21.22069
G1 X152.155 Y114.207 E21.29461
G1 X151.44 Y115.067 E21.33898
G92 E0
G1 E-0.8 F3000
; printing object Crane_Spreader.stl id:0 copy 0
EXCLUDE_OBJECT_START NAME=Crane_Spreader_stl_id_0_copy_0
; acceleration to travel
M204 S3000
G1 X153.245 Y116.657 F9000
; decel to extrusion
M204 S1000
M73 P2 R17
G1 X153.846 Y117.187
; end travel
G1 E0 F1800
;TYPE:Support material
;WIDTH:0.5
G1 X154.585 Y116.348 E0.04249
G1 X155.384 Y115.709 E0.08136
G1 X160.853 Y112.063 E0.33117
G1 X163.527 Y113.494 E0.44647
G1 X163.527 Y114.321 E0.47791
G1 X161.352 Y114.321 E0.56058
G1 X160.896 Y114.778 E0.58509
G1 X160.896 Y215.222 E4.40263
G1 X161.352 Y215.679 E4.42715
G1 X163.528 Y215.679 E4.50981
G1 X163.528 Y216.506 E4.54126
G1 X160.853 Y217.937 E4.65656
G1 X155.384 Y214.291 E4.90637
G1 X154.585 Y213.652 E4.94524
G1 X153.836 Y212.802 E4.98829
G1 X153.246 Y211.836 E5.03133
G1 X152.831 Y210.782 E5.07438
G1 X152.604 Y209.672 E5.11743
G1 X152.573 Y208.54 E5.16048
G1 X152.737 Y207.419 E5.20352
G1 X153.093 Y206.344 E5.24657
G1 X153.629 Y205.346 E5.28962
G1 X154.33 Y204.456 E5.33267
G1 X155.092 Y203.774 E5.37153
G1 X155.802 Y203.241 E5.40528
G1 X156.046 Y203.027 E5.41763
G1 X156.192 Y202.853 E5.42626
G1 X156.309 Y202.658 E5.43489
G1 X156.394 Y202.447 E5.44352
G1 X156.446 Y202.226 E5.45215
G1 X156.471 Y201.903 E5.4645
G1 X156.471 Y172.098 E6.59728
G1 X156.446 Y171.774 E6.60963
G1 X156.394 Y171.553 E6.61826
G1 X156.309 Y171.342 E6.62689
G1 X156.192 Y171.147 E6.63553
G1 X156.046 Y170.973 E6.64416
G1 X155.802 Y170.759 E6.6565
G1 X154.995 Y170.153 E6.69485
G1 X154.254 Y169.493 E6.73259
G1 X153.567 Y168.634 E6.77439
G1 X153.034 Y167.672 E6.81618
G1 X152.67 Y166.634 E6.85798
G1 X152.486 Y165.55 E6.89978
G1 X152.486 Y164.45 E6.94157
G1 X152.67 Y163.366 E6.98337
G1 X153.034 Y162.328 E7.02516
G1 X153.567 Y161.366 E7.06696
G1 X154.254 Y160.507 E7.10876
G1 X154.995 Y159.847 E7.1465
G1 X155.802 Y159.241 E7.18484
G1 X156.046 Y159.027 E7.19719
G1 X156.192 Y158.853 E7.20582
G1 X156.309 Y158.658 E7.21445
G1 X156.394 Y158.447 E7.22308
G1 X156.446 Y158.226 E7.23171
G1 X156.471 Y157.903 E7.24406
G1 X156.471 Y128.098 E8.37684
G1 X156.446 Y127.774 E8.38919
G1 X156.394 Y127.553 E8.39782
G1 X156.309 Y127.342 E8.40646
G1 X156.192 Y127.147 E8.41509
G1 X156.046 Y126.973 E8.42372
G1 X155.802 Y126.759 E8.43607
G1 X155.092 Y126.226 E8.46981
G1 X154.33 Y125.544 E8.50868
G1 X153.629 Y124.654 E8.55173
G1 X153.093 Y123.656 E8.59477
G1 X152.737 Y122.581 E8.63782
G1 X152.573 Y121.46 E8.68087
G1 X152.604 Y120.328 E8.72392
G1 X152.831 Y119.218 E8.76697
G1 X153.246 Y118.164 E8.81001
G1 X153.836 Y117.198 E8.85306
G1 X153.846 Y117.187 E8.85362
G92 E0
G1 E-0.8 F3000
; acceleration to travel
M204 S3000
G1 X160.688 Y191.803 F9000
; decel to extrusion
M204 S1000
G1 X162.969 Y216.675
; end travel
G1 E0 F1800
G1 X162.969 Y215.989 E0.02607
G1 X162.461 Y215.989 E0.04538
G1 X162.461 Y216.724 E0.0733
G1 X161.953 Y216.996 E0.09519
G1 X161.953 Y215.989 E0.13345
G1 X161.445 Y215.989 E0.15275
G1 X161.445 Y217.268 E0.20133
G1 X160.937 Y217.539 E0.22322
G1 X160.937 Y215.703 E0.29302
G1 X160.586 Y215.351 E0.31192
G1 X160.586 Y114.649 E4.13925
M73 P3 R17
G1 X160.937 Y114.297 E4.15814
G1 X160.937 Y112.461 E4.22794
G1 X161.445 Y112.732 E4.24983
G1 X161.445 Y114.011 E4.29841
G1 X161.953 Y114.011 E4.31771
G1 X161.953 Y113.004 E4.35597
G1 X162.461 Y113.276 E4.37786
G1 X162.461 Y114.011 E4.40579
G1 X162.969 Y114.011 E4.42509
G1 X162.969 Y113.325 E4.45116
G92 E0
G1 E-0.8 F3000
; acceleration to travel
M204 S3000
G1 X161.064 Y191.469 F9000
; decel to extrusion
M204 S1000
G1 X160.429 Y217.517
; end travel
G1 E0 F1800
G1 X160.429 Y112.719 E3.983
G1 X159.921 Y113.058 E4.0062
G1 X159.921 Y216.942 E7.95449
M73 P4 R16
G1 X159.413 Y216.604 E7.97768
G1 X159.413 Y113.396 E11.90023
G1 X158.906 Y113.735 E11.92343
G1 X158.906 Y216.265 E15.82025
G1 X158.398 Y215.927 E15.84344
G1 X158.398 Y114.073 E19.71452
M73 P5 R16
G1 X157.89 Y114.412 E19.73772
G1 X157.89 Y215.588 E23.58306
G1 X157.382 Y215.25 E23.60626
G1 X157.382 Y114.75 E27.42587
G1 X156.874 Y115.089 E27.44907
G1 X156.874 Y214.911 E31.24293
M73 P6 R16
G1 X156.366 Y214.572 E31.26613
G1 X156.366 Y203.128 E31.70108
G1 X156.269 Y203.245 E31.70683
G1 X155.858 Y203.588 E31.72717
G1 X155.858 Y214.234 E32.1318
G1 X155.567 Y214.04 E32.1451
G1 X155.351 Y213.866 E32.15565
G1 X155.351 Y203.968 E32.53183
G1 X154.843 Y204.414 E32.55752
G1 X154.843 Y213.46 E32.90131
G1 X154.335 Y212.898 E32.9301
G1 X154.335 Y204.953 E33.23207
G1 X153.89 Y205.517 E33.25939
G1 X153.827 Y205.635 E33.26448
G1 X153.827 Y212.191 E33.51364
G1 X153.525 Y211.697 E33.53565
G1 X153.319 Y211.174 E33.557
G1 X153.319 Y206.165 E33.74738
G92 E0
G1 E-0.8 F3000
; acceleration to travel
M204 S3000
G1 X155.604 Y179.953 F9000
; decel to extrusion
M204 S1000
G1 X156.366 Y171.216
; end travel
G1 E0 F1800
G1 X156.366 Y159.128 E0.45942
G1 X156.269 Y159.245 E0.46517
G1 X155.858 Y159.588 E0.48551
G1 X155.858 Y170.412 E0.89692
G1 X155.351 Y170.032 E0.92105
G1 X155.351 Y159.968 E1.30351
G1 X154.843 Y160.399 E1.32881
G1 X154.843 Y169.601 E1.67857
G1 X154.48 Y169.278 E1.69704
G1 X154.335 Y169.097 E1.70587
G1 X154.335 Y160.903 E2.01727
G1 X153.827 Y161.539 E2.04818
G1 X153.827 Y168.461 E2.3113
G1 X153.319 Y167.545 E2.35112
G1 X153.319 Y162.455 E2.54457
G1 X152.972 Y163.444 E2.5844
G1 X152.811 Y164.39 E2.62086
G1 X152.811 Y166.691 E2.70832
G92 E0
G1 E-0.8 F3000
; acceleration to travel
M204 S3000
G1 X155.478 Y137.085 F9000
; decel to extrusion
M204 S1000
G1 X156.366 Y127.216
; end travel
G1 E0 F1800
G1 X156.366 Y115.428 E0.44805
G1 X155.858 Y115.766 E0.47124
G1 X155.858 Y126.412 E0.87587
G1 X155.351 Y126.032 E0.9
G1 X155.351 Y116.134 E1.27618
G1 X154.843 Y116.54 E1.3009
G1 X154.843 Y125.586 E1.6447
G1 X154.557 Y125.33 E1.65925
G1 X154.335 Y125.047 E1.67293
G1 X154.335 Y117.102 E1.9749
G1 X154.087 Y117.383 E1.98913
G1 X153.827 Y117.809 E2.0081
G1 X153.827 Y124.365 E2.25727
G1 X153.38 Y123.533 E2.29317
G1 X153.319 Y123.35 E2.3005
G1 X153.319 Y118.289 E2.49282
G92 E0
G1 E-0.8 F3000
; acceleration to travel
M204 S3000
G1 X169.928 Y183.106 F9000
; decel to extrusion
M204 S1000
M73 P7 R16
G1 X175.464 Y204.712
; end travel
G1 E0 F1800
G1 X177.514 Y204.712 E0.07791
G1 X177.514 Y212.124 E0.35961
G1 X177.42 Y213.08 E0.3961
G1 X177.105 Y214.118 E0.43733
G1 X176.594 Y215.074 E0.47856
G1 X175.906 Y215.913 E0.51979
G1 X175.067 Y216.601 E0.56102
G1 X174.111 Y217.112 E0.60225
G1 X173.072 Y217.427 E0.64348
G1 X172.117 Y217.521 E0.67998
G1 X166.458 Y217.521 E0.89504
G1 X166.458 Y215.679 E0.96508
G1 X168.633 Y215.679 E1.04774
G1 X169.089 Y215.222 E1.07226
G1 X169.089 Y207.679 E1.35897
M73 P7 R16
G1 X175.008 Y207.679 E1.58393
G1 X175.464 Y207.222 E1.60845
G1 X175.464 Y204.712 E1.70386
; acceleration to travel
M204 S3000
G1 X176.758 Y211.265 F9000
; decel to extrusion
M204 S1000
G1 X177.189 Y213.449
; end travel
G1 F1800
G1 X177.189 Y205.023 E2.02411
G1 X176.681 Y205.023 E2.04341
G1 X176.681 Y214.252 E2.39419
G1 X176.334 Y214.901 E2.42214
G1 X176.173 Y215.097 E2.4318
G1 X176.173 Y205.023 E2.81469
G1 X175.775 Y205.023 E2.82981
G1 X175.775 Y207.351 E2.9183
G1 X175.665 Y207.461 E2.92422
G1 X175.665 Y215.708 E3.23766
G1 X175.157 Y216.125 E3.26263
G1 X175.157 Y207.969 E3.5726
G1 X175.137 Y207.989 E3.57369
G1 X174.649 Y207.989 E3.59222
G1 X174.649 Y216.472 E3.91462
G1 X174.142 Y216.743 E3.9365
G1 X174.142 Y207.989 E4.26921
G1 X173.634 Y207.989 E4.28851
G1 X173.634 Y216.932 E4.6284
G1 X173.126 Y217.086 E4.64857
G1 X173.126 Y207.989 E4.99431
G1 X172.618 Y207.989 E5.01362
G1 X172.618 Y217.16 E5.36215
G1 X172.11 Y217.21 E5.38155
G1 X172.11 Y207.989 E5.73198
G1 X171.602 Y207.989 E5.75128
G1 X171.602 Y217.211 E6.10175
G1 X171.094 Y217.211 E6.12105
G1 X171.094 Y207.989 E6.47152
G1 X170.587 Y207.989 E6.49082
G1 X170.587 Y217.211 E6.84129
G1 X170.079 Y217.211 E6.86059
G1 X170.079 Y207.989 E7.21106
G1 X169.571 Y207.989 E7.23036
G1 X169.571 Y217.211 E7.58083
G1 X169.063 Y217.211 E7.60013
G1 X169.063 Y215.689 E7.65798
G1 X168.762 Y215.989 E7.67415
G1 X168.555 Y215.989 E7.68202
G1 X168.555 Y217.211 E7.72843
G1 X168.047 Y217.211 E7.74774
G1 X168.047 Y215.989 E7.79415
G1 X167.539 Y215.989 E7.81346
G1 X167.539 Y217.211 E7.85987
G1 X167.031 Y217.211 E7.87917
G1 X167.031 Y215.793 E7.93306
G92 E0
G1 E-0.8 F3000
; acceleration to travel
M204 S3000
G1 X173.356 Y147.914 F9000
; decel to extrusion
M204 S1000
G1 X175.464 Y125.288
; end travel
G1 E0 F1800
G1 X175.464 Y122.778 E0.09542
G1 X175.008 Y122.321 E0.11993
G1 X169.089 Y122.321 E0.34489
G1 X169.089 Y114.778 E0.6316
G1 X168.633 Y114.321 E0.65612
G1 X166.458 Y114.321 E0.73878
M73 P8 R16
G1 X166.458 Y112.479 E0.80883
G1 X172.117 Y112.479 E1.02388
G1 X173.072 Y112.573 E1.06038
G1 X174.111 Y112.888 E1.10161
G1 X175.067 Y113.399 E1.14284
G1 X175.906 Y114.087 E1.18407
G1 X176.594 Y114.926 E1.2253
G1 X177.105 Y115.882 E1.26653
G1 X177.42 Y116.92 E1.30776
G1 X177.514 Y117.876 E1.34425
G1 X177.514 Y125.288 E1.62595
G1 X175.464 Y125.288 E1.70386
; acceleration to travel
M204 S3000
G1 X176.758 Y125.202 F9000
; decel to extrusion
M204 S1000
G1 X177.189 Y125.174
; end travel
G1 F1800
G1 X177.189 Y117.742 E1.98633
G1 X177.114 Y116.981 E2.01536
G1 X176.817 Y116.002 E2.05427
G1 X176.681 Y115.748 E2.06522
G1 X176.681 Y124.977 E2.416
G1 X176.173 Y124.977 E2.4353
G1 X176.173 Y114.903 E2.8182
G1 X175.665 Y114.292 E2.84839
G1 X175.665 Y122.539 E3.16183
G1 X175.157 Y122.031 E3.18913
G1 X175.157 Y113.875 E3.4991
G1 X174.894 Y113.659 E3.51206
G1 X174.649 Y113.528 E3.52259
G1 X174.649 Y122.011 E3.84498
G1 X174.142 Y122.011 E3.86428
G1 X174.142 Y113.257 E4.19699
G1 X173.991 Y113.176 E4.20348
G1 X173.634 Y113.068 E4.21767
G1 X173.634 Y122.011 E4.55756
G1 X173.126 Y122.011 E4.57686
G1 X173.126 Y112.914 E4.9226
G1 X173.012 Y112.879 E4.92714
G1 X172.618 Y112.84 E4.94217
G1 X172.618 Y122.011 E5.29071
G1 X172.11 Y122.011 E5.31001
G1 X172.11 Y112.79 E5.66044
G1 X171.602 Y112.789 E5.67975
G1 X171.602 Y122.011 E6.03021
G1 X171.094 Y122.011 E6.04952
G1 X171.094 Y112.789 E6.39998
G1 X170.587 Y112.789 E6.41929
G1 X170.587 Y122.011 E6.76975
G1 X170.079 Y122.011 E6.78905
G1 X170.079 Y112.789 E7.13952
G1 X169.571 Y112.789 E7.15882
G1 X169.571 Y122.011 E7.50929
G1 X169.4 Y122.011 E7.51577
G1 X169.4 Y114.649 E7.79557
G1 X169.063 Y114.311 E7.8137
G1 X169.063 Y112.789 E7.87155
G1 X168.555 Y112.789 E7.89085
G1 X168.555 Y114.011 E7.93727
G1 X168.047 Y114.011 E7.95657
G1 X168.047 Y112.789 E8.00299
G1 X167.539 Y112.789 E8.02229
G1 X167.539 Y114.011 E8.06871
G1 X167.031 Y114.011 E8.08801
G1 X167.031 Y112.593 E8.1419
G92 E0
G1 E-0.8 F3000
; acceleration to travel
M204 S3000
G1 X167.461 Y120.661 F9000
; decel to extrusion
M204 S1000
G1 X167.604 Y123.35
; end travel
G1 E0 F1800
;TYPE:Internal perimeter
G1 X167.604 Y123.807 E0.01737
G1 X173.979 Y123.807 E0.25966
G1 X173.979 Y124.193 E0.27433
G1 X167.604 Y124.193 E0.51662
G1 X167.604 Y205.807 E3.61847
M73 P9 R16
G1 X173.979 Y205.807 E3.86077
G1 X173.979 Y206.193 E3.87543
G1 X167.604 Y206.193 E4.11772
G1 X167.604 Y214.193 E4.42177
G1 X162.382 Y214.193 E4.62024
G1 X162.382 Y115.807 E8.35952
G1 X167.604 Y115.807 E8.55798
G1 X167.604 Y123.35 E8.84466
G1 X168.061 Y123.35 F9000
;TYPE:External perimeter
G1 F1800
G1 X174.436 Y123.35 E9.08695
G1 X174.436 Y124.65 E9.13636
G1 X168.061 Y124.65 E9.37865
G1 X168.061 Y205.35 E12.44576
G1 X174.436 Y205.35 E12.68805
G1 X174.436 Y206.65 E12.73746
