; generated by SuperSlicer 2.5.59 on 2023-04-12 at 23:19:33 UTC


;
;

;
;
; 

; external perimeters extrusion width = 0.40mm
; perimeters extrusion width = 0.46mm
; infill extrusion width = 0.64mm
; solid infill extrusion width = 0.56mm
; top infill extrusion width = 0.40mm
; first layer extrusion width = 0.50mm

; external perimeters extrusion width = 0.40mm
; perimeters extrusion width = 0.46mm
; infill extrusion width = 0.64mm
; solid infill extrusion width = 0.56mm
; top infill extrusion width = 0.40mm
; first layer extrusion width = 0.50mm

; object:{"name":"Deck_Mate_Mechanism_Bot_Print_02","id":"Deck_Mate_Mechanism_Bot_Print_02.stl id:0 copy 0","object_center":[165.000087,150.027311,0.000000],"boundingbox_center":[165.000087,150.027311,3.849999],"boundingbox_size":[35.303604,26.502609,7.699999]}
EXCLUDE_OBJECT_DEFINE NAME=Deck_Mate_Mechanism_Bot_Print_02_stl_id_0_copy_0 CENTER=165.000087,150.027311 POLYGON=[[147.348304,146.683152],[147.350000,146.522512],[147.369072,146.274496],[147.507392,145.654576],[147.528976,145.592096],[147.662272,145.275808],[147.980624,144.759216],[147.998000,144.736576],[148.269520,144.430432],[148.662720,144.101632],[148.764816,144.032720],[148.983632,143.903648],[161.580784,136.776000],[168.421120,136.776000],[180.957184,143.871760],[181.339168,144.101632],[181.491168,144.215824],[181.793024,144.492032],[182.021280,144.759216],[182.183024,144.993440],[182.376464,145.354000],[182.472928,145.592096],[182.578528,145.956240],[182.641696,146.360432],[182.651888,146.522512],[182.633056,146.995520],[180.151040,160.522224],[180.070352,160.865856],[179.941040,161.255760],[179.852592,161.472368],[179.631760,161.869024],[179.433536,162.135344],[179.231600,162.344912],[178.850768,162.637424],[178.717888,162.713536],[178.084992,162.987792],[178.029152,163.007040],[177.385216,163.158288],[176.724128,163.239664],[176.272032,163.264800],[175.450992,163.278496],[175.300944,163.278608],[154.700960,163.278608],[154.550896,163.278496],[153.358544,163.245824],[153.277792,163.239664],[152.433728,163.124096],[151.972768,163.007040],[151.683264,162.905504],[151.151120,162.637424],[151.100640,162.604672],[150.650592,162.226784],[150.568368,162.135344],[150.307504,161.772320],[150.149328,161.472384],[150.031088,161.182384],[149.931552,160.865856],[149.835456,160.443280],[147.422976,147.313936],[147.348304,146.683152]]
; object:{"name":"Deck_Mate_Mechanism_Top__Print_02","id":"Deck_Mate_Mechanism_Top__Print_02.stl id:1 copy 0","object_center":[165.000000,181.251305,0.000000],"boundingbox_center":[165.000000,181.251305,3.299999],"boundingbox_size":[30.184719,23.945378,6.599998]}
EXCLUDE_OBJECT_DEFINE NAME=Deck_Mate_Mechanism_Top__Print_02_stl_id_1_copy_0 CENTER=165.000000,181.251305 POLYGON=[[149.907632,175.289040],[149.913760,173.709008],[150.040544,172.229088],[150.194512,171.572576],[150.409616,171.010720],[150.631680,170.626816],[150.662384,170.583312],[150.917168,170.283984],[151.203872,170.039632],[151.637664,169.781600],[152.206384,169.564496],[152.855568,169.411952],[154.347808,169.279888],[155.918048,169.278624],[174.081952,169.278624],[175.652192,169.279888],[177.144432,169.411952],[177.793616,169.564496],[178.362336,169.781600],[178.796128,170.039632],[179.082832,170.283984],[179.337616,170.583312],[179.368320,170.626816],[179.590384,171.010720],[179.805488,171.572576],[179.959456,172.229088],[180.086240,173.709008],[180.092368,175.289040],[180.092368,177.528368],[177.053024,189.072576],[176.557216,189.568368],[167.370176,193.224000],[162.629824,193.224000],[153.442784,189.568368],[152.946976,189.072576],[149.907632,177.528368],[149.907632,175.289040]]
; plater:{"center":[165.000087,165.000000,0.000000],"boundingbox_center":[165.000087,165.000000,3.849999],"boundingbox_size":[35.303604,56.447988,7.699999]}

M73 P0 R26
;TYPE:Custom
; custom gcode: start_gcode
START_PRINT T_BED=60 T_EXTRUDER=200
; custom gcode end: start_gcode
M107
G21 ; set units to millimeters
G90 ; use absolute coordinates
M82 ; use absolute distances for extrusion
G92 E0
; custom gcode: start_filament_gcode
; Filament gcode

    PRESSURE_ADVANCE_SELECT FILAMENT=PLA
; custom gcode end: start_filament_gcode
;_TOOLCHANGE 0
M104 S200 ; set temperature
M109 S200 ; set temperature and wait for it to be reached
M190 S60 ; set bed temperature and wait for it to be reached
;LAYER_CHANGE
;Z:0.2
;HEIGHT:0.2
G1 Z0.2 F9000
M73 P0 R26
G1 E-0.8 F3000
M204 S1000
G1 X145.152 Y141.802 F9000
G1 E0 F1800
;TYPE:Skirt
;WIDTH:0.52
G1 X144.376 Y142.821 E0.05083
G1 X143.939 Y143.627 E0.08721
G1 X143.507 Y144.836 E0.13812
G1 X143.334 Y145.738 E0.17456
G1 X143.287 Y147.021 E0.22549
G1 X147.051 Y177.935 E1.46089
G1 X147.231 Y178.743 E1.49372
G1 X151.207 Y190.783 E1.99671
G1 X151.96 Y192.143 E2.05838
G1 X153.398 Y193.26 E2.1306
G1 X161.14 Y196.915 E2.47022
G1 X162.93 Y197.317 E2.543
G1 X167.07 Y197.317 E2.70725
G1 X168.86 Y196.915 E2.78003
G1 X176.602 Y193.26 E3.11964
G1 X177.86 Y192.347 E3.18132
G1 X178.793 Y190.783 E3.25353
G1 X182.769 Y178.743 E3.75652
G1 X182.95 Y177.936 E3.78934
G1 X186.715 Y147.013 E5.0251
G1 X186.668 Y145.734 E5.07585
G1 X186.495 Y144.834 E5.11221
G1 X186.061 Y143.624 E5.16321
G1 X185.621 Y142.815 E5.19976
G1 X184.846 Y141.797 E5.2505
G1 X184.189 Y141.164 E5.28667
G1 X183.143 Y140.428 E5.33742
G1 X182.322 Y140.021 E5.37378
G1 X181.1 Y139.634 E5.42462
G1 X180.187 Y139.493 E5.46129
G1 X149.815 Y139.492 E6.6661
G1 X148.903 Y139.633 E6.70274
G1 X147.681 Y140.02 E6.75357
G1 X146.859 Y140.428 E6.78996
G1 X145.811 Y141.166 E6.84081
G1 X145.152 Y141.802 E6.87715
G1 X145.483 Y142.145 F9000
G1 F1800
G1 X144.795 Y143.049 E6.9222
G1 X144.358 Y143.855 E6.95857
G1 X143.975 Y144.926 E7.00369
G1 X143.802 Y145.828 E7.04013
G1 X143.761 Y146.965 E7.08526
G1 X147.524 Y177.878 E8.3206
M73 P1 R26
G1 X147.684 Y178.593 E8.3497
G1 X151.66 Y190.633 E8.85268
G1 X152.264 Y191.76 E8.90337
G1 X153.602 Y192.828 E8.9713
G1 X161.343 Y196.484 E9.31092
G1 X162.93 Y196.84 E9.37542
G1 X167.07 Y196.84 E9.53967
G1 X168.657 Y196.484 E9.60417
G1 X176.398 Y192.828 E9.94378
G1 X177.443 Y192.092 E9.99447
G1 X178.34 Y190.634 E10.0624
G1 X182.316 Y178.594 E10.56539
G1 X182.476 Y177.878 E10.59448
G1 X186.241 Y146.957 E11.83014
G1 X186.199 Y145.824 E11.87511
G1 X186.026 Y144.924 E11.91147
G1 X185.642 Y143.852 E11.95667
G1 X185.202 Y143.042 E11.99321
G1 X184.515 Y142.141 E12.03818
G1 X183.858 Y141.508 E12.07436
G1 X182.931 Y140.855 E12.11933
G1 X182.11 Y140.448 E12.15569
G1 X181.028 Y140.105 E12.20074
G1 X180.114 Y139.964 E12.23741
G1 X149.888 Y139.964 E13.43644
G1 X148.976 Y140.105 E13.47308
G1 X147.893 Y140.448 E13.51813
G1 X147.071 Y140.855 E13.55452
G1 X146.142 Y141.509 E13.59958
G1 X145.483 Y142.145 E13.63592
G1 X145.814 Y142.488 F9000
G1 F1800
G1 X145.215 Y143.276 E13.67519
G1 X144.777 Y144.082 E13.71156
G1 X144.444 Y145.016 E13.75088
G1 X144.271 Y145.918 E13.78733
G1 X144.235 Y146.909 E13.82666
G1 X147.998 Y177.82 E15.06194
G1 X148.137 Y178.444 E15.0873
G1 X152.113 Y190.484 E15.59028
G1 X152.574 Y191.38 E15.63025
G1 X153.806 Y192.397 E15.69361
G1 X161.547 Y196.052 E16.03322
G1 X162.93 Y196.363 E16.08944
G1 X167.07 Y196.363 E16.25369
G1 X168.453 Y196.052 E16.30991
G1 X176.194 Y192.397 E16.64952
G1 X177.027 Y191.83 E16.68949
G1 X177.887 Y190.484 E16.75284
G1 X181.863 Y178.444 E17.25583
G1 X182.003 Y177.82 E17.28119
G1 X185.767 Y146.902 E18.51676
G1 X185.731 Y145.915 E18.55595
G1 X185.558 Y145.014 E18.59231
G1 X185.223 Y144.08 E18.63171
G1 X184.783 Y143.27 E18.66825
G1 X184.184 Y142.484 E18.70744
G1 X183.527 Y141.852 E18.74362
G1 X182.719 Y141.283 E18.78282
G1 X181.898 Y140.876 E18.81918
G1 X180.955 Y140.577 E18.85845
G1 X180.041 Y140.436 E18.89511
G1 X149.961 Y140.435 E20.08837
G1 X149.048 Y140.576 E20.125
G1 X148.105 Y140.875 E20.16427
G1 X147.283 Y141.283 E20.20066
G1 X146.473 Y141.853 E20.23993
G1 X145.814 Y142.488 E20.27627
G92 E0
G1 E-0.8 F3000
; printing object Deck_Mate_Mechanism_Bot_Print_02.stl id:0 copy 0
EXCLUDE_OBJECT_START NAME=Deck_Mate_Mechanism_Bot_Print_02_stl_id_0_copy_0
; acceleration to travel
M204 S3000
G1 X151.066 Y152.301 F9000
; decel to extrusion
M204 S1000
G1 X152.817 Y155.571
; end travel
G1 E0 F1800
;TYPE:Internal perimeter
;WIDTH:0.5
G1 X152.817 Y156.485 E0.03474
G1 X157.056 Y156.485 E0.19586
G1 X157.056 Y160.496 E0.34828
G1 X172.946 Y160.496 E0.95221
G1 X172.946 Y156.485 E1.10463
G1 X177.185 Y156.485 E1.26575
G1 X177.185 Y148.04 E1.58673
G1 X177.466 Y147.973 E1.59768
G1 X177.533 Y148.105 E1.6033
G1 X178.085 Y148.657 E1.63301
G1 X178.503 Y148.87 E1.6508
G1 X177.972 Y149.44 E1.68041
G1 X177.677 Y150.053 E1.70625
G1 X177.59 Y150.63 E1.72844
G1 X177.59 Y156.1 E1.93634
G1 X178.637 Y156.1 E1.97613
G1 X178.637 Y158.923 E2.08343
G1 X178.58 Y159.775 E2.11587
G1 X178.464 Y160.406 E2.14024
G1 X178.266 Y160.898 E2.16042
G1 X178.156 Y161.054 E2.16766
G1 X177.994 Y161.201 E2.17599
G1 X177.896 Y161.264 E2.18042
G1 X177.622 Y161.383 E2.19175
G1 X176.89 Y161.543 E2.22022
G1 X175.516 Y161.614 E2.27253
G1 X154.486 Y161.614 E3.0718
M73 P1 R25
G1 X153.086 Y161.542 E3.12507
G1 X152.389 Y161.386 E3.15224
G1 X152.106 Y161.264 E3.16394
G1 X152.008 Y161.201 E3.16837
G1 X151.842 Y161.051 E3.17689
G1 X151.739 Y160.905 E3.18367
G1 X151.537 Y160.406 E3.20413
G1 X151.422 Y159.776 E3.22845
G1 X151.365 Y158.922 E3.26098
G1 X151.365 Y156.1 E3.36824
G1 X152.412 Y156.1 E3.40803
G1 X152.412 Y150.63 E3.61592
G1 X152.325 Y150.053 E3.63812
G1 X152.03 Y149.44 E3.66396
G1 X151.499 Y148.87 E3.69356
G1 X151.916 Y148.657 E3.71135
G1 X152.469 Y148.105 E3.74106
G1 X152.536 Y147.973 E3.74668
G1 X152.817 Y148.04 E3.75764
G1 X152.817 Y155.571 E4.04387
G92 E0
G1 E-0.8 F3000
; acceleration to travel
M204 S3000
G1 X152.281 Y147.493 F9000
; decel to extrusion
M204 S1000
G1 X152.102 Y144.8
; end travel
G1 E0 F1800
G1 X152.817 Y144.8 E0.02717
G1 X152.817 Y145.232 E0.04358
G1 X152.536 Y145.299 E0.05454
G1 X152.469 Y145.168 E0.06016
G1 X152.102 Y144.8 E0.0799
G92 E0
G1 E-0.8 F3000
; acceleration to travel
M204 S3000
G1 X171.125 Y145.175 F9000
; decel to extrusion
M204 S1000
G1 X177.466 Y145.299
; end travel
G1 E0 F1800
G1 X177.185 Y145.232 E0.01096
G1 X177.185 Y144.8 E0.02737
G1 X177.9 Y144.8 E0.05454
G1 X177.533 Y145.168 E0.07428
G1 X177.466 Y145.299 E0.0799
G92 E0
G1 E-0.8 F3000
; acceleration to travel
M204 S3000
G1 X176.913 Y153.346 F9000
; decel to extrusion
M204 S1000
G1 X176.728 Y156.028
; end travel
G1 E0 F1800
G1 X176.728 Y144.343 E0.44411
G1 X179.008 Y144.343 E0.53076
G1 X179.075 Y144.623 E0.54172
G1 X178.357 Y144.989 E0.57234
G1 X177.907 Y145.44 E0.59655
G1 X177.618 Y146.007 E0.62075
G1 X177.518 Y146.636 E0.64496
G1 X177.618 Y147.265 E0.66916
G1 X177.907 Y147.832 E0.69337
G1 X178.357 Y148.283 E0.71757
G1 X178.925 Y148.572 E0.74178
G1 X179.491 Y148.662 E0.76355
G1 X179.501 Y148.963 E0.77501
G1 X179.192 Y149.034 E0.78708
G1 X178.723 Y149.304 E0.80764
G1 X178.354 Y149.701 E0.82824
G1 X178.119 Y150.189 E0.84883
G1 X178.047 Y150.664 E0.8671
G1 X178.047 Y155.643 E1.05632
G1 X179.094 Y155.643 E1.09611
G1 X179.094 Y158.938 E1.22136
G1 X179.035 Y159.832 E1.25538
G1 X178.906 Y160.534 E1.28251
G1 X178.67 Y161.118 E1.30644
G1 X178.501 Y161.358 E1.31761
G1 X178.272 Y161.567 E1.32939
G1 X178.11 Y161.669 E1.33666
G1 X177.763 Y161.819 E1.35103
G1 X176.952 Y161.998 E1.38262
G1 X175.528 Y162.072 E1.43681
G1 X154.474 Y162.072 E2.23697
G1 X153.034 Y161.997 E2.29178
G1 X152.844 Y161.963 E2.2991
G1 X152.244 Y161.822 E2.32254
G1 X151.892 Y161.669 E2.33714
G1 X151.73 Y161.567 E2.34441
G1 X151.497 Y161.355 E2.35637
G1 X151.335 Y161.125 E2.36708
G1 X151.096 Y160.534 E2.3913
G1 X150.967 Y159.833 E2.41838
G1 X150.908 Y158.937 E2.4525
G1 X150.908 Y155.643 E2.5777
G1 X151.955 Y155.643 E2.61749
G1 X151.955 Y150.664 E2.80671
G1 X151.883 Y150.189 E2.82498
G1 X151.648 Y149.701 E2.84558
G1 X151.279 Y149.304 E2.86617
G1 X150.81 Y149.034 E2.88673
G1 X150.501 Y148.963 E2.8988
G1 X150.511 Y148.662 E2.91026
G1 X151.077 Y148.572 E2.93203
G1 X151.644 Y148.283 E2.95624
G1 X152.095 Y147.832 E2.98045
G1 X152.384 Y147.265 E3.00465
G1 X152.484 Y146.636 E3.02886
G1 X152.384 Y146.007 E3.05306
G1 X152.095 Y145.44 E3.07727
G1 X151.644 Y144.989 E3.10147
G1 X150.927 Y144.623 E3.13209
G1 X150.994 Y144.343 E3.14305
G1 X153.274 Y144.343 E3.2297
G1 X153.274 Y156.028 E3.67381
G1 X157.513 Y156.028 E3.83493
G1 X157.513 Y160.039 E3.98735
G1 X172.489 Y160.039 E4.55654
G1 X172.489 Y156.028 E4.70896
G1 X176.728 Y156.028 E4.87007
G92 E0
G1 E-0.8 F3000
; acceleration to travel
M204 S3000
G1 X155.838 Y148.984 F9000
; decel to extrusion
M204 S1000
G1 X148.875 Y146.636
; end travel
G1 E0 F1800
;TYPE:External perimeter
G1 X148.952 Y147.122 E0.0187
G1 X149.175 Y147.56 E0.0374
G1 X149.523 Y147.908 E0.05611
G1 X149.962 Y148.132 E0.07481
G1 X150.448 Y148.209 E0.09351
G1 X150.934 Y148.132 E0.11221
G1 X151.372 Y147.908 E0.13092
G1 X151.72 Y147.56 E0.14962
G1 X151.944 Y147.122 E0.16832
G1 X152.021 Y146.636 E0.18702
G1 X151.944 Y146.15 E0.20573
G1 X151.72 Y145.712 E0.22443
G1 X151.372 Y145.364 E0.24313
G1 X150.934 Y145.14 E0.26183
G1 X150.448 Y145.063 E0.28053
G1 X150.028 Y145.13 E0.29668
G1 X149.962 Y145.14 E0.29924
G1 X149.523 Y145.364 E0.31794
G1 X149.175 Y145.712 E0.33664
G1 X148.952 Y146.15 E0.35534
G1 X148.875 Y146.636 E0.37405
;WIPE_START
M204 S4000
G1 X148.54 Y146.854 F9000
;WIPE_END
G92 E0
G1 E-0.8 F3000
; acceleration to travel
M204 S3000
G1 X172.165 Y147.812 F9000
; decel to extrusion
M204 S1000
G1 X180.04 Y148.132
; end travel
G1 E0 F1800
G1 X180.478 Y147.908 E0.0187
G1 X180.826 Y147.56 E0.0374
G1 X181.05 Y147.122 E0.05611
G1 X181.127 Y146.636 E0.07481
G1 X181.05 Y146.15 E0.09351
G1 X180.826 Y145.712 E0.11221
G1 X180.478 Y145.364 E0.13092
G1 X180.04 Y145.14 E0.14962
G1 X179.554 Y145.063 E0.16832
G1 X179.134 Y145.13 E0.18447
G1 X179.068 Y145.14 E0.18702
G1 X178.629 Y145.364 E0.20573
G1 X178.282 Y145.712 E0.22443
G1 X178.058 Y146.15 E0.24313
G1 X177.981 Y146.636 E0.26183
G1 X178.058 Y147.122 E0.28053
G1 X178.282 Y147.56 E0.29924
G1 X178.629 Y147.908 E0.31794
G1 X179.068 Y148.132 E0.33664
G1 X179.554 Y148.209 E0.35534
G1 X180.04 Y148.132 E0.37405
;WIPE_START
M204 S4000
G1 X180.351 Y148.384 F9000
;WIPE_END
G92 E0
G1 E-0.8 F3000
; acceleration to travel
M204 S3000
G1 X177.291 Y153.774 F9000
; decel to extrusion
M204 S1000
G1 X176.271 Y155.571
; end travel
G1 E0 F1800
G1 X176.271 Y143.886 E0.44411
G1 X179.527 Y143.886 E0.56786
G1 X180.383 Y144.018 E0.60079
G1 X181.135 Y144.391 E0.63269
G1 X181.736 Y144.97 E0.66441
G1 X182.139 Y145.712 E0.69648
G1 X182.298 Y146.536 E0.72837
G1 X182.201 Y147.363 E0.76003
G1 X181.855 Y148.134 E0.79217
G1 X181.294 Y148.76 E0.82411
G1 X180.572 Y149.186 E0.85597
G1 X179.36 Y149.464 E0.90321
G1 X179.011 Y149.666 E0.91855
G1 X178.736 Y149.962 E0.93391
G1 X178.56 Y150.326 E0.94926
G1 X178.504 Y150.699 E0.96361
G1 X178.504 Y155.186 E1.13415
G1 X179.551 Y155.186 E1.17394
G1 X179.551 Y158.954 E1.31713
G1 X179.489 Y159.888 E1.35274
G1 X179.347 Y160.662 E1.38264
G1 X179.074 Y161.337 E1.4103
G1 X178.846 Y161.663 E1.4254
G1 X178.55 Y161.932 E1.44063
G1 X178.325 Y162.074 E1.45075
G1 X177.905 Y162.256 E1.46814
G1 X177.013 Y162.452 E1.50285
G1 X175.54 Y162.529 E1.55892
G1 X154.462 Y162.529 E2.35999
G1 X152.982 Y162.452 E2.41633
G1 X152.752 Y162.411 E2.42521
G1 X152.099 Y162.257 E2.45068
G1 X151.677 Y162.074 E2.46818
G1 X151.452 Y161.932 E2.4783
G1 X151.152 Y161.66 E2.49368
G1 X150.931 Y161.345 E2.50832
G1 X150.655 Y160.662 E2.5363
G1 X150.513 Y159.89 E2.56615
G1 X150.451 Y158.952 E2.60185
G1 X150.451 Y155.186 E2.745
G1 X151.498 Y155.186 E2.78479
G1 X151.498 Y150.699 E2.95533
G1 X151.442 Y150.326 E2.96968
G1 X151.266 Y149.962 E2.98503
G1 X150.991 Y149.666 E3.00039
G1 X150.641 Y149.464 E3.01572
G1 X149.429 Y149.186 E3.06299
G1 X148.701 Y148.754 E3.09517
G1 X148.146 Y148.133 E3.1268
G1 X147.803 Y147.372 E3.15855
G1 X147.704 Y146.537 E3.19049
G1 X147.862 Y145.711 E3.22246
G1 X148.263 Y144.973 E3.25437
G1 X148.867 Y144.391 E3.28625
G1 X149.619 Y144.018 E3.31818
G1 X150.475 Y143.886 E3.35108
G1 X153.731 Y143.886 E3.47482
G1 X153.731 Y155.571 E3.91894
G1 X157.97 Y155.571 E4.08005
G1 X157.97 Y159.582 E4.23247
