; generated by SuperSlicer 2.5.59 on 2023-04-12 at 21:14:14 UTC


;
;

;
;
; 

; external perimeters extrusion width = 0.40mm
; perimeters extrusion width = 0.46mm
; infill extrusion width = 0.64mm
; solid infill extrusion width = 0.56mm
; top infill extrusion width = 0.40mm
; first layer extrusion width = 0.50mm

; external perimeters extrusion width = 0.40mm
; perimeters extrusion width = 0.46mm
; infill extrusion width = 0.64mm
; solid infill extrusion width = 0.56mm
; top infill extrusion width = 0.40mm
; first layer extrusion width = 0.50mm

; object:{"name":"Deck_Mate_Marked_02","id":"Deck_Mate_Marked_02.stl id:0 copy 0","object_center":[175.093338,165.000001,0.000000],"boundingbox_center":[175.093338,165.000001,12.314026],"boundingbox_size":[86.706039,122.809731,24.628053]}
EXCLUDE_OBJECT_DEFINE NAME=Deck_Mate_Marked_02_stl_id_0_copy_0 CENTER=175.093338,165.000001 POLYGON=[[131.740328,203.741712],[131.763200,201.854064],[131.769528,201.762320],[131.911176,199.886080],[131.924880,199.776416],[132.275760,197.883792],[132.290728,197.827536],[161.240320,106.094640],[163.155184,104.186688],[163.569392,103.869416],[164.051728,103.669960],[164.569328,103.601920],[175.093584,103.595128],[185.616832,103.607600],[186.134496,103.675696],[186.616880,103.875168],[187.031136,104.192424],[188.946368,106.094640],[217.894864,197.823744],[217.910912,197.883792],[218.261280,199.772384],[218.275520,199.886080],[218.416944,201.758848],[218.423472,201.854064],[218.446352,203.741712],[218.446352,223.904864],[216.532144,225.819072],[216.140512,226.123680],[216.117936,226.136896],[215.635568,226.336704],[215.610224,226.343328],[215.117936,226.404864],[135.068736,226.404864],[134.576448,226.343328],[134.551120,226.336704],[134.068744,226.136896],[134.046160,226.123680],[133.654544,225.819072],[131.740328,223.904864],[131.740328,203.741712]]
; object:{"name":"Deck_Mate_Mechanism_Top__Print_02","id":"Deck_Mate_Mechanism_Top__Print_02.stl id:1 copy 0","object_center":[126.646003,149.711459,0.000000],"boundingbox_center":[126.646003,149.711459,3.299999],"boundingbox_size":[30.184719,23.945378,6.599998]}
EXCLUDE_OBJECT_DEFINE NAME=Deck_Mate_Mechanism_Top__Print_02_stl_id_1_copy_0 CENTER=126.646003,149.711459 POLYGON=[[111.553640,143.749184],[111.559768,142.169152],[111.686536,140.689232],[111.840528,140.032720],[112.055616,139.470864],[112.277680,139.086960],[112.308384,139.043456],[112.563176,138.744128],[112.849872,138.499776],[113.283680,138.241744],[113.852392,138.024640],[114.501568,137.872096],[115.993808,137.740032],[117.564048,137.738768],[135.727952,137.738768],[137.298208,137.740032],[138.790432,137.872096],[139.439616,138.024640],[140.008336,138.241744],[140.442144,138.499776],[140.728816,138.744128],[140.983632,139.043456],[141.014336,139.086960],[141.236384,139.470864],[141.451472,140.032720],[141.605472,140.689232],[141.732240,142.169152],[141.738352,143.749184],[141.738352,145.988512],[138.699024,157.532720],[138.203216,158.028512],[129.016176,161.684144],[124.275824,161.684144],[115.088784,158.028512],[114.592984,157.532720],[111.553640,145.988512],[111.553640,143.749184]]
; plater:{"center":[165.000001,165.000001,0.000000],"boundingbox_center":[165.000001,165.000001,12.314026],"boundingbox_size":[106.892714,122.809731,24.628053]}

M73 P0 R75
;TYPE:Custom
; custom gcode: start_gcode
START_PRINT T_BED=60 T_EXTRUDER=200
; custom gcode end: start_gcode
M107
G21 ; set units to millimeters
G90 ; use absolute coordinates
M82 ; use absolute distances for extrusion
G92 E0
; custom gcode: start_filament_gcode
; Filament gcode

    PRESSURE_ADVANCE_SELECT FILAMENT=PLA
; custom gcode end: start_filament_gcode
;_TOOLCHANGE 0
M104 S200 ; set temperature
M109 S200 ; set temperature and wait for it to be reached
M190 S60 ; set bed temperature and wait for it to be reached
;LAYER_CHANGE
;Z:0.2
;HEIGHT:0.2
G1 Z0.2 F9000
G1 E-0.8 F3000
M204 S1000
G1 X111.429 Y136.369 F9000
G1 E0 F1800
;TYPE:Skirt
;WIDTH:0.52
G1 X110.716 Y136.959 E0.0367
G1 X110.119 Y137.708 E0.07473
G1 X109.788 Y138.278 E0.10086
G1 X109.495 Y139.018 E0.13242
G1 X109.241 Y140.079 E0.17573
G1 X109.128 Y141.185 E0.2198
G1 X109.143 Y145.918 E0.40756
G1 X109.293 Y146.933 E0.44826
G1 X131.081 Y221.345 E3.52409
G1 X131.887 Y222.789 E3.58967
G1 X132.802 Y223.566 E3.63728
G1 X133.176 Y223.791 E3.65461
G1 X135.086 Y224.326 E3.73333
M73 P0 R75
G1 X207.334 Y224.373 E6.59934
G1 X215.132 Y224.292 E6.90869
G1 X216.811 Y223.872 E6.97737
G1 X217.184 Y223.677 E6.99406
G1 X218.3 Y222.788 E7.05064
G1 X219.236 Y220.683 E7.14204
G1 X219.308 Y219.979 E7.17013
G1 X219.315 Y202.301 E7.87138
G1 X219.153 Y199.85 E7.96884
G1 X218.77 Y197.713 E8.05494
G1 X218.323 Y196.209 E8.1172
G1 X189.239 Y112.671 E11.62618
G1 X188.379 Y111.287 E11.69081
G1 X187.248 Y110.417 E11.7474
G1 X185.583 Y110.019 E11.81534
G1 X165.422 Y109.969 E12.61512
G1 X164.628 Y109.969 E12.6466
G1 X162.957 Y110.366 E12.71474
G1 X112.076 Y135.98 E14.97449
G1 X111.429 Y136.369 E15.00442
G1 X111.686 Y136.772 F9000
G1 F1800
G1 X111.053 Y137.297 E15.03706
G1 X110.508 Y137.984 E15.07183
G1 X109.954 Y139.148 E15.12298
G1 X109.714 Y140.137 E15.16335
G1 X109.605 Y141.191 E15.20541
G1 X109.62 Y145.914 E15.39275
G1 X109.751 Y146.799 E15.42822
G1 X131.539 Y221.211 E18.50405
G1 X132.241 Y222.469 E18.56121
G1 X133.048 Y223.157 E18.60328
G1 X133.422 Y223.383 E18.62061
G1 X135.088 Y223.849 E18.68922
G1 X207.294 Y223.896 E21.5536
G1 X215.127 Y223.815 E21.86433
G1 X216.591 Y223.449 E21.92419
G1 X216.964 Y223.254 E21.94088
G1 X217.946 Y222.469 E21.99075
G1 X218.761 Y220.634 E22.07042
G1 X218.834 Y219.93 E22.09851
G1 X218.838 Y202.306 E22.79763
G1 X218.677 Y199.882 E22.89398
G1 X218.301 Y197.804 E22.97778
G1 X217.872 Y196.366 E23.0373
G1 X188.788 Y112.828 E26.54628
M73 P1 R74
G1 X188.039 Y111.622 E26.60261
G1 X187.129 Y110.893 E26.64886
G1 X185.582 Y110.496 E26.71222
G1 X165.422 Y110.446 E27.51196
G1 X164.628 Y110.446 E27.54343
G1 X163.172 Y110.792 E27.60282
G1 X112.29 Y136.406 E29.86258
G1 X111.686 Y136.772 E29.89059
G92 E0
G1 E-0.8 F3000
; printing object Deck_Mate_Marked_02.stl id:0 copy 0
EXCLUDE_OBJECT_START NAME=Deck_Mate_Marked_02_stl_id_0_copy_0
; acceleration to travel
M204 S3000
G1 X154.63 Y128.94 F9000
; decel to extrusion
M204 S1000
G1 X168.944 Y126.33
; end travel
G1 E0 F1800
;TYPE:Thin wall
;WIDTH:0.1345
G1 X169.056 Y126.323 E0.00089
;WIDTH:0.062817
G1 X169.084 Y126.322 E0.00095
;WIDTH:0.00698
G1 X169.056 Y126.323 E0.00096
;WIDTH:0.014944
G1 X168.944 Y126.33 E0.00105
;WIDTH:0.023822
G1 X168.81 Y126.315 E0.00127
;WIDTH:0.035378
G1 X168.692 Y126.288 E0.00159
;WIDTH:0.04
G1 X168.511 Y126.263 E0.00213
;WIDTH:0.044259
G1 X168.119 Y126.203 E0.00345
;WIDTH:0.048301
G1 X168.099 Y126.197 E0.00353
;WIDTH:0.023977
G1 X167.988 Y126.154 E0.00372
;WIDTH:0.239772
G1 X167.939 Y126.164
;TYPE:External perimeter
;WIDTH:0.5
G1 X167.947 Y126.209 E0.00548
G1 X166.673 Y126.209 E0.05391
G1 X166.679 Y126.179 E0.05508
;TYPE:Thin wall
;WIDTH:0.022874
G1 X166.63 Y126.169
;WIDTH:0.205869
G1 X166.521 Y126.212 E0.05671
;WIDTH:0.409384
G1 X166.499 Y126.218 E0.05741
;WIDTH:0.368937
G1 X165.969 Y126.313 E0.07221
G1 X165.774 Y126.367 E0.07773
G1 X165.698 Y126.359 E0.07985
;WIDTH:0.21825
G1 X165.574 Y126.347 E0.08171
;WIDTH:0.062817
G1 X165.558 Y126.346 E0.08174
;WIDTH:0.00698
G1 X165.574 Y126.347 E0.08174
;WIDTH:0.02425
G1 X165.698 Y126.359 E0.08195
;WIDTH:0.040993
G1 X165.774 Y126.367 E0.08218
G1 X165.969 Y126.313 E0.0828
G1 X166.499 Y126.218 E0.08444
;WIDTH:0.045487
G1 X166.521 Y126.212 E0.08452
;WIDTH:0.022874
G1 X166.63 Y126.169 E0.0847
;WIDTH:0.228743
G1 X166.679 Y126.179
;TYPE:External perimeter
;WIDTH:0.5
G1 X166.79 Y125.599 E0.10713
G1 X166.669 Y125.363 E0.11723
G1 X166.601 Y124.989 E0.13166
G1 X166.616 Y124.744 E0.14098
G1 X166.667 Y124.597 E0.14689
G1 X166.795 Y124.42 E0.15522
G1 X166.922 Y124.326 E0.1612
G1 X167.06 Y124.272 E0.16685
G1 X167.312 Y124.25 E0.17644
G1 X167.62 Y124.303 E0.18833
G1 X167.833 Y124.416 E0.19751
G1 X167.901 Y124.488 E0.20127
G1 X167.983 Y124.659 E0.20846
G1 X168.013 Y124.829 E0.21503
G1 X167.994 Y125.12 E0.22611
G1 X167.949 Y125.317 E0.23379
G1 X167.828 Y125.575 E0.24463
G1 X167.939 Y126.164 E0.26738
;TYPE:Thin wall
;WIDTH:0.023977
G1 X167.988 Y126.154
;WIDTH:0.215795
G1 X168.099 Y126.197 E0.26913
;WIDTH:0.434706
G1 X168.119 Y126.203 E0.26983
;WIDTH:0.398329
G1 X168.511 Y126.263 E0.28169
;WIDTH:0.36
G1 X168.692 Y126.288 E0.28658
;WIDTH:0.3184
G1 X168.81 Y126.315 E0.2894
;WIDTH:0.2144
G1 X168.944 Y126.33 E0.29137
G92 E0
G1 E-0.8 F3000
; acceleration to travel
M204 S3000
G1 X168.257 Y122.788 F9000
; decel to extrusion
M204 S1000
G1 X168.028 Y121.608
; end travel
G1 E0 F1800
;WIDTH:0.289647
G1 X168.03 Y121.493 E0.00239
;WIDTH:0.070215
G1 X168.03 Y121.468 E0.00246
;WIDTH:0.007802
G1 X168.03 Y121.493 E0.00247
;WIDTH:0.032183
G1 X168.028 Y121.608 E0.00273
;WIDTH:0.052527
G1 X168.026 Y121.83 E0.00362
;WIDTH:0.055581
G1 X168.02 Y122.72 E0.00742
;WIDTH:0.059049
G1 X167.981 Y122.812 E0.00788
G1 X167.936 Y122.817 E0.00808
;WIDTH:0.053076
G1 X167.846 Y122.827 E0.00845
;WIDTH:0.04312
G1 X167.673 Y122.827 E0.00901
;WIDTH:0.04
G1 X167.293 Y122.803 E0.01014
G1 X166.847 Y122.807 E0.01146
;WIDTH:0.01975
G1 X166.726 Y122.777 E0.01162
;WIDTH:0.1975
G1 X166.676 Y122.777
;TYPE:External perimeter
;WIDTH:0.5
G1 X166.676 Y122.808 E0.01278
G1 X166.559 Y122.852 E0.01755
G1 X166.559 Y121.89 E0.05409
G1 X166.582 Y121.719 E0.06067
G1 X166.659 Y121.719 E0.0636
G1 X166.676 Y121.829 E0.06782
G1 X166.676 Y122.777 E0.10388
;TYPE:Thin wall
;WIDTH:0.01975
G1 X166.726 Y122.777
;WIDTH:0.17775
G1 X166.847 Y122.807 E0.10532
;WIDTH:0.36
G1 X167.293 Y122.803 E0.11725
G1 X167.673 Y122.827 E0.12742
;WIDTH:0.388085
G1 X167.846 Y122.827 E0.13244
;WIDTH:0.477684
G1 X167.936 Y122.817 E0.13575
;WIDTH:0.531444
G1 X167.981 Y122.812 E0.13761
G1 X168.02 Y122.72 E0.14171
;WIDTH:0.500229
G1 X168.026 Y121.83 E0.17588
;WIDTH:0.472739
G1 X168.028 Y121.608 E0.18391
G92 E0
G1 E-0.8 F3000
; acceleration to travel
M204 S3000
G1 X165.593 Y131.722 F9000
; decel to extrusion
M204 S1000
G1 X164.781 Y135.094
; end travel
G1 E0 F1800
;TYPE:Internal perimeter
;WIDTH:0.5
G1 X165.465 Y135.43 E0.02895
G1 X165.687 Y135.526 E0.03815
G1 X165.687 Y135.939 E0.05385
G1 X164.781 Y136.373 E0.09204
G1 X164.781 Y135.094 E0.14067
G92 E0
G1 E-0.8 F3000
; acceleration to travel
M204 S3000
G1 X166.491 Y127.494 F9000
; decel to extrusion
M204 S1000
G1 X167.061 Y124.961
; end travel
G1 E0 F1800
G1 X167.075 Y124.73 E0.00881
G1 X167.293 Y124.71 E0.01714
G1 X167.559 Y124.756 E0.02742
G1 X167.54 Y125.053 E0.03873
G1 X167.514 Y125.167 E0.04316
G1 X167.308 Y125.608 E0.06168
G1 X167.107 Y125.214 E0.07849
G1 X167.061 Y124.961 E0.08827
G92 E0
G1 E-0.8 F3000
; acceleration to travel
M204 S3000
G1 X180.396 Y170.557 F9000
; decel to extrusion
M204 S1000
G1 X184.842 Y185.756
; end travel
G1 E0 F1800
G1 X185.005 Y186.039 E0.01243
G1 X185.45 Y186.579 E0.039
G1 X185.719 Y186.81 E0.05248
G1 X186.136 Y187.069 E0.07116
G1 X186.072 Y187.328 E0.08128
G1 X185.564 Y187.362 E0.10064
G1 X165.551 Y187.368 E0.86127
G1 X164.151 Y187.326 E0.91449
G1 X164.077 Y187.071 E0.92458
G1 X164.551 Y186.747 E0.94639
G1 X164.81 Y186.506 E0.95983
G1 X165.19 Y186.021 E0.98327
G1 X165.344 Y185.756 E0.99491
G1 X184.842 Y185.756 E1.73595
G92 E0
G1 E-0.8 F3000
; acceleration to travel
M204 S3000
G1 X190.327 Y183.443 F9000
; decel to extrusion
M204 S1000
G1 X192.156 Y182.672
; end travel
G1 E0 F1800
G1 X192.23 Y181.416 E0.04781
G1 X192.235 Y180.166 E0.09534
G1 X193.01 Y180.043 E0.12517
G1 X193.769 Y179.656 E0.15755
G1 X194.372 Y179.054 E0.18992
G1 X194.758 Y178.295 E0.2223
G1 X194.876 Y177.553 E0.25084
G1 X194.876 Y165.514 E0.70842
G1 X194.758 Y164.772 E0.73697
G1 X194.372 Y164.013 E0.76934
G1 X193.769 Y163.41 E0.80171
G1 X193.01 Y163.024 E0.83409
G1 X192.24 Y162.902 E0.86374
G1 X192.239 Y160.425 E0.95788
G1 X192.199 Y158.966 E1.01335
G1 X192.147 Y158.454 E1.03291
G1 X191.995 Y157.455 E1.0713
G1 X191.908 Y157.081 E1.08589
G1 X191.713 Y156.443 E1.11126
G1 X191.493 Y155.943 E1.13203
G1 X191.205 Y155.44 E1.15403
G1 X190.798 Y154.928 E1.17889
G1 X190.173 Y154.41 E1.20975
G1 X189.796 Y154.192 E1.2263
G1 X189.282 Y153.953 E1.24783
G1 X188.28 Y153.648 E1.28764
G1 X187.519 Y153.591 E1.31665
G1 X187.315 Y153.62 E1.32448
G1 X187.043 Y153.658 E1.33493
G1 X186.484 Y153.82 E1.35703
G1 X186.146 Y153.981 E1.37128
G1 X185.638 Y154.321 E1.39451
G1 X185.378 Y154.56 E1.40791
G1 X184.997 Y155.046 E1.43139
G1 X184.843 Y155.311 E1.44304
G1 X165.345 Y155.311 E2.18408
G1 X165.18 Y155.026 E2.19657
G1 X164.735 Y154.487 E2.22315
G1 X164.465 Y154.255 E2.23667
G1 X163.945 Y153.933 E2.25992
G1 X163.528 Y153.756 E2.27713
G1 X162.838 Y153.602 E2.30401
G1 X162.349 Y153.612 E2.3226
G1 X161.853 Y153.661 E2.34156
G1 X160.832 Y153.978 E2.38218
G1 X160.102 Y154.352 E2.41336
G1 X159.461 Y154.855 E2.4443
G1 X158.965 Y155.465 E2.47422
G1 X158.684 Y155.959 E2.49581
G1 X158.429 Y156.572 E2.52105
G1 X158.182 Y157.49 E2.55717
G1 X158.022 Y158.547 E2.5978
G1 X157.977 Y159.222 E2.6235
G1 X157.948 Y160.654 E2.67795
G1 X157.947 Y162.902 E2.76337
G1 X157.176 Y163.024 E2.79302
G1 X156.417 Y163.41 E2.82539
G1 X155.815 Y164.013 E2.85777
G1 X155.428 Y164.772 E2.89014
G1 X155.311 Y165.514 E2.91869
G1 X155.311 Y177.553 E3.37627
G1 X155.428 Y178.295 E3.40481
G1 X155.815 Y179.054 E3.43719
G1 X156.417 Y179.656 E3.46956
G1 X157.176 Y180.043 E3.50193
G1 X157.951 Y180.166 E3.53176
G1 X157.97 Y181.805 E3.59407
G1 X158.056 Y182.7 E3.62826
G1 X157.342 Y182.092 E3.66391
G1 X157.137 Y182.041 E3.67194
G1 X156.979 Y181.954 E3.67879
G1 X156.374 Y181.815 E3.7024
G1 X155.772 Y181.868 E3.72536
G1 X155.096 Y182.112 E3.75269
G1 X154.763 Y182.312 E3.76742
G1 X154.187 Y182.78 E3.79562
G1 X147.685 Y189.225 E4.1436
G1 X145.81 Y191.271 E4.24904
G1 X144.859 Y192.649 E4.3127
G1 X144.092 Y194.15 E4.37677
G1 X143.549 Y195.759 E4.44129
G1 X143.227 Y197.4 E4.50484
G1 X143.074 Y200.087 E4.60714
G1 X142.986 Y209.836 E4.97767
G1 X143.035 Y210.477 E5.00212
G1 X143.195 Y211.115 E5.02713
G1 X143.498 Y211.736 E5.05336
G1 X143.907 Y212.255 E5.07851
G1 X144.424 Y212.669 E5.10366
G1 X145.041 Y212.978 E5.12989
G1 X145.678 Y213.143 E5.1549
G1 X146.319 Y213.198 E5.17934
G1 X203.868 Y213.198 E7.36657
G1 X204.509 Y213.143 E7.391
G1 X205.145 Y212.978 E7.41601
G1 X205.763 Y212.669 E7.44225
G1 X206.279 Y212.255 E7.4674
G1 X206.689 Y211.736 E7.49255
G1 X206.991 Y211.115 E7.51878
G1 X207.152 Y210.477 E7.54379
G1 X207.2 Y209.836 E7.56823
G1 X207.116 Y200.162 E7.93592
G1 X206.959 Y197.395 E8.04125
G1 X206.636 Y195.752 E8.10488
G1 X206.092 Y194.145 E8.16937
G1 X205.326 Y192.648 E8.23327
G1 X204.375 Y191.269 E8.29693
G1 X202.502 Y189.225 E8.40231
G1 X196.004 Y182.784 E8.75004
G1 X195.498 Y182.365 E8.77501
G1 X195.123 Y182.128 E8.79189
G1 X194.512 Y181.893 E8.81676
G1 X193.807 Y181.813 E8.84375
G1 X193.225 Y181.948 E8.86642
G1 X193.057 Y182.04 E8.87371
G1 X192.851 Y182.091 E8.88176
G1 X192.156 Y182.672 E8.91622
G92 E0
G1 E-0.8 F3000
; acceleration to travel
M204 S3000
G1 X186.868 Y184.642 F9000
; decel to extrusion
M204 S1000
G1 X185.105 Y185.299
; end travel
G1 E0 F1800
G1 X185.382 Y185.778 E0.02101
G1 X185.778 Y186.258 E0.04466
G1 X185.99 Y186.441 E0.05531
G1 X186.442 Y186.722 E0.07554
G1 X186.726 Y186.849 E0.08736
G1 X187.214 Y186.971 E0.10648
G1 X187.59 Y187.019 E0.12087
G1 X188.242 Y186.956 E0.14577
G1 X189.181 Y186.664 E0.18316
G1 X189.837 Y186.327 E0.21117
G1 X190.404 Y185.883 E0.23855
G1 X190.849 Y185.336 E0.26535
G1 X191.181 Y184.716 E0.29208
G1 X191.327 Y184.336 E0.30755
G1 X191.557 Y183.483 E0.34115
G1 X191.71 Y182.467 E0.38017
G1 X191.773 Y181.402 E0.42073
G1 X191.78 Y179.703 E0.48529
G1 X192.233 Y179.703 E0.50249
G1 X192.867 Y179.603 E0.52692
G1 X193.497 Y179.282 E0.55379
G1 X193.997 Y178.782 E0.58066
G1 X194.318 Y178.152 E0.60753
G1 X194.419 Y177.517 E0.63196
G1 X194.419 Y165.55 E1.0868
G1 X194.318 Y164.915 E1.11123
G1 X193.997 Y164.285 E1.1381
G1 X193.497 Y163.785 E1.16497
G1 X192.867 Y163.464 E1.19184
G1 X192.233 Y163.363 E1.21627
G1 X191.783 Y163.363 E1.23336
G1 X191.782 Y160.431 E1.34481
G1 X191.743 Y158.995 E1.3994
