; HEADER_BLOCK_START
; generated by OrcaSlicer 1.6.3 on 2023-07-12 at 14:59:17
; total layer number: 125
; HEADER_BLOCK_END

; THUMBNAIL_BLOCK_START
; THUMBNAIL_BLOCK_END

; external perimeters extrusion width = 0.42mm
; perimeters extrusion width = 0.45mm
; infill extrusion width = 0.45mm
; solid infill extrusion width = 0.42mm
; top infill extrusion width = 0.42mm
; first layer extrusion width = 0.50mm

; EXECUTABLE_BLOCK_START
EXCLUDE_OBJECT_DEFINE NAME=dragon_heatsink_duct_2510.stl_id_0_copy_0 CENTER=165,165 POLYGON=[[154.5,154.929],[154.503,154.827],[154.51,154.733],[154.51,154.726],[154.523,154.624],[154.539,154.538],[154.547,154.502],[154.577,154.38],[154.587,154.347],[154.615,154.26],[154.653,154.161],[154.661,154.142],[154.717,154.025],[154.738,153.983],[154.782,153.907],[157.972,148.725],[158.113,148.528],[158.27,148.343],[158.441,148.172],[161.641,145.191],[161.827,145.031],[162.025,144.887],[162.234,144.76],[162.453,144.65],[162.68,144.558],[162.914,144.485],[163.153,144.432],[163.395,144.398],[163.64,144.384],[163.884,144.39],[164.128,144.416],[164.369,144.462],[164.605,144.527],[164.834,144.611],[165.057,144.714],[165.27,144.834],[165.473,144.971],[175.5,152.492],[175.5,177.492],[165.414,185.055],[165.211,185.188],[164.998,185.305],[164.776,185.404],[164.546,185.485],[164.311,185.547],[164.072,185.589],[163.83,185.612],[163.587,185.616],[163.345,185.6],[163.104,185.564],[162.868,185.509],[162.636,185.435],[162.412,185.342],[162.195,185.232],[161.988,185.104],[161.792,184.96],[161.609,184.801],[158.434,181.824],[158.264,181.653],[158.108,181.468],[157.968,181.271],[154.782,176.077],[154.738,176],[154.717,175.959],[154.661,175.841],[154.653,175.822],[154.615,175.724],[154.587,175.637],[154.577,175.603],[154.547,175.482],[154.539,175.446],[154.523,175.359],[154.51,175.258],[154.51,175.251],[154.503,175.156],[154.5,175.054],[154.5,154.929]]
M73 P0 R15
;TYPE:Custom
START_PRINT T_BED=110 T_EXTRUDER=260
G90
G21
M83 ; use relative distances for extrusion
; filament start gcode

    PRESSURE_ADVANCE_SELECT FILAMENT=ABS
M106 S0
;LAYER_CHANGE
;Z:0.2
;HEIGHT:0.2
;BEFORE_LAYER_CHANGE
;0.2
G92 E0

G1 E-.5 F2400
M204 S1000
G1 X156.047 Y146.459 F12000
G1 Z.2
G1 E.5 F1800
;TYPE:Skirt
;WIDTH:0.5
G1 X159.655 Y143.059 E.17449
G1 X160.509 Y142.399 E.03798
G1 X161.362 Y141.948 E.03394
G1 X162.047 Y141.703 E.02559
G1 X162.992 Y141.512 E.03394
G1 X163.955 Y141.477 E.03394
G1 X164.672 Y141.553 E.02535
G1 X165.606 Y141.79 E.03394
G1 X166.49 Y142.176 E.03394
G1 X167.108 Y142.559 E.02559
G1 X177.248 Y150.16 E.446
G1 X178.182 Y151.352 E.05327
G1 X178.414 Y152.492 E.04094
G1 X178.414 Y177.492 E.87985
G1 X178.021 Y178.953 E.05327
G1 X177.248 Y179.823 E.04095
G1 X167.162 Y187.386 E.44368
G1 X166.396 Y187.862 E.03172
G1 X165.514 Y188.234 E.03369
G1 X164.584 Y188.458 E.03369
G1 X163.629 Y188.53 E.03369
G1 X162.916 Y188.482 E.02516
G1 X161.98 Y188.285 E.03369
G1 X161.302 Y188.037 E.0254
G1 X160.458 Y187.585 E.03369
G1 X159.615 Y186.927 E.03762
G1 X156.194 Y183.704 E.16542
G1 X155.48 Y182.788 E.04089
G1 X152.241 Y177.503 E.21812
G1 X151.844 Y176.622 E.03402
G1 X151.656 Y175.875 E.02711
G1 X151.586 Y175.054 E.02899
G1 X151.586 Y154.929 E.70826
G1 X151.713 Y153.827 E.03905
G1 X152.106 Y152.733 E.04091
G1 X155.49 Y147.198 E.22833
G1 X155.993 Y146.531 E.02941
G1 X156.357 Y146.806 F12000
G1 F1800
G1 X156.396 Y146.754 E.00227
G1 X159.967 Y143.393 E.1726
G1 X160.747 Y142.789 E.03472
G1 X161.533 Y142.372 E.03132
G1 X162.376 Y142.088 E.03132
G1 X163.055 Y141.965 E.02428
G1 X163.944 Y141.934 E.03132
G1 X164.586 Y142.002 E.02272
G1 X165.449 Y142.219 E.03132
G1 X166.265 Y142.574 E.03132
G1 X166.852 Y142.938 E.02428
G1 X176.974 Y150.526 E.44524
G1 X177.804 Y151.638 E.04884
G1 X177.957 Y152.492 E.03051
G1 X177.957 Y177.492 E.87985
M73 P0 R14
G1 X177.565 Y178.823 E.04884
G1 X176.974 Y179.458 E.03052
G1 X166.888 Y187.021 E.44368
M73 P1 R14
G1 X166.177 Y187.461 E.02943
G1 X165.362 Y187.802 E.03108
G1 X164.504 Y188.008 E.03108
G1 X163.623 Y188.073 E.03108
G1 X162.983 Y188.03 E.02255
G1 X162.119 Y187.849 E.03108
G1 X161.295 Y187.531 E.03108
G1 X160.698 Y187.196 E.0241
G1 X159.928 Y186.593 E.0344
G1 X156.519 Y183.382 E.16483
G1 X155.869 Y182.549 E.03718
G1 X152.633 Y177.268 E.21799
G1 X152.274 Y176.467 E.03086
G1 X152.108 Y175.808 E.02395
G1 X152.043 Y175.054 E.02662
G1 X152.043 Y154.929 E.70826
G1 X152.156 Y153.939 E.0351
G1 X152.518 Y152.929 E.03775
G1 X155.879 Y147.438 E.22659
G1 X156.303 Y146.878 E.02471
; printing object dragon heatsink duct 2510.stl id:0 copy 0
EXCLUDE_OBJECT_START NAME=dragon_heatsink_duct_2510.stl_id_0_copy_0
G1 E-.35 F2400
;WIPE_START
G1 F1800
G1 X156.396 Y146.754 E-.01101
G1 X157.74 Y145.49 E-.13149
;WIPE_END
G1 E-.0075 F2400
G1 X157.608 Y152.782 F12000
G1 E.5 F1800
;TYPE:Outer wall
G2 X157.802 Y152.261 I-.669 J-.546 E.01993
G3 X157.841 Y150.119 I87.907 J.514 E.07539
G3 X159.015 Y148.165 I2.656 J.267 E.08287
G2 X161.591 Y145.766 I-3.161 J-5.975 E.12534
G3 X163.862 Y144.74 I2.13 J1.688 E.09111
G3 X165.677 Y145.597 I-.227 J2.833 E.07223
G3 X166.513 Y146.643 I-3.329 J3.515 E.04728
G2 X175.15 Y152.805 I9.949 J-4.811 E.38945
G1 X175.15 Y177.188 E.85812
G2 X166.465 Y183.421 I1.716 J11.558 E.39079
G3 X164.646 Y185.079 I-3.533 J-2.051 E.08796
G3 X161.562 Y184.229 I-.969 J-2.503 E.12059
G2 X159.006 Y181.832 I-5.744 J3.563 E.12476
G3 X157.829 Y179.663 I1.539 J-2.24 E.09014
G2 X157.791 Y177.594 I-76.391 J.359 E.07284
G2 X157.136 Y176.91 I-.848 J.157 E.03527
G3 X155.728 Y176.512 I1.101 J-6.589 E.05161
G3 X154.843 Y175.595 I1.121 J-1.967 E.04546
G1 X154.866 Y175.385 E.00743
G1 X154.784 Y175.232 E.00614
G1 X154.809 Y175.164 E.00252
G3 X155.686 Y175.593 I-2.55 J6.343 E.03441
G2 X158.079 Y176.202 I3.31 J-7.993 E.08718
G2 X156.152 Y154.205 I1.415 J-11.207 E1.41823
G2 X155.255 Y154.628 I1.24 J3.793 E.035
G3 X154.809 Y154.819 I-1.649 J-3.232 E.01712
G1 X154.784 Y154.753 E.00247
G1 X154.865 Y154.608 E.00585
G1 X154.842 Y154.39 E.0077
G3 X156.391 Y153.246 I1.939 J1.005 E.07016
G2 X157.259 Y153.038 I-13.229 J-57.01 E.03143
G2 X157.6 Y152.791 I-.32 J-.802 E.01498
G1 X157.637 Y152.787
G1 E-.5 F2400
G1 X160.931 Y150.275 F12000
G1 E.5 F1800
G3 X162.327 Y146.973 I1.566 J-1.284 E.15488
G1 X162.551 Y146.967 E.0079
G3 X160.939 Y150.284 I-.054 J2.024 E.2845
G1 X160.885 Y150.282
G1 E-.5 F2400
G1 X160.693 Y150.51 F12000
G1 X163.988 Y154.256
G1 X164.451 Y154.462
G1 X164.899 Y154.685
G1 X165.347 Y154.932
G1 X165.78 Y155.196
G1 X166.2 Y155.478
M73 P2 R14
G1 X166.607 Y155.779
G1 X166.997 Y156.093
G1 X167.381 Y156.431
G1 X167.746 Y156.782
G1 X168.095 Y157.149
G1 X168.428 Y157.53
G1 X168.744 Y157.925
G1 X169.04 Y158.329
G1 X169.323 Y158.755
G1 X169.586 Y159.189
G1 X169.828 Y159.633
G1 X170.052 Y160.087
G1 X170.255 Y160.55
G1 X170.438 Y161.022
G1 X170.602 Y161.507
G1 X170.742 Y161.988
G1 X170.861 Y162.479
G1 X170.961 Y162.98
G1 X171.036 Y163.469
G1 X171.092 Y163.985
G1 X171.125 Y164.488
G1 X171.136 Y164.992
G1 X171.125 Y165.495
G1 X171.092 Y165.999
G1 X171.035 Y166.517
G1 X170.961 Y167.003
G1 X170.861 Y167.505
G1 X170.742 Y167.995
G1 X170.603 Y168.473
G1 X170.436 Y168.966
G1 X170.255 Y169.433
G1 X170.052 Y169.896
G1 X169.828 Y170.351
G1 X169.586 Y170.795
G1 X164.399 Y179.588
G1 X164.136 Y179.803
G1 E.5 F1800
G3 X162.327 Y178.973 I-1.64 J1.188 E.37446
G1 X162.551 Y178.967 E.0079
G3 X164.129 Y179.793 I-.054 J2.024 E.06491
G1 X164.182 Y179.798
G1 E-.5 F2400
G1 X164.391 Y179.579 F12000
G1 X164.411 Y179.603
G1 X164.557 Y179.83
G1 X164.676 Y180.072
G1 X164.766 Y180.326
G1 X164.827 Y180.589
G1 X164.858 Y180.857
G1 X164.858 Y181.127
G1 X164.827 Y181.394
G1 X164.766 Y181.657
G1 X164.678 Y181.904
G1 X164.557 Y182.152
G1 X164.411 Y182.38
G1 X164.24 Y182.589
G1 X164.047 Y182.777
G1 X163.833 Y182.941
G1 X163.602 Y183.081
G1 X163.326 Y183.114
G1 X163.056 Y183.106
G1 X161.461 Y183.018
G1 E.5 F1800
;TYPE:Gap infill
;WIDTH:0.103841
G1 X161.31 Y182.96 E.00076
;WIDTH:0.133186
G1 X161.191 Y182.905 E.00091
;WIDTH:0.215133
G3 X160.459 Y182.549 I5.819 J-12.898 E.0108
G1 X160.682 Y182.472 F12000
;WIDTH:0.22229
G1 F1800
G1 X160.626 Y182.358 E.00175
;WIDTH:0.177314
G1 X160.568 Y182.239 E.00137
;WIDTH:0.134234
G1 X160.503 Y182.087 E.00116
G1 X160.603 Y182.208 F12000
;WIDTH:0.306956
G1 F1800
G1 X160.686 Y182.431 E.00483
;WIDTH:0.337587
G1 X160.77 Y182.653 E.00539
;WIDTH:0.336831
G1 X161.071 Y182.944 E.00947
G1 X161.115 Y182.846 F12000
;WIDTH:0.310086
G1 F1800
G1 X160.882 Y182.764 E.00509
;WIDTH:0.338184
G1 X160.884 Y182.796 E.00075
;WIDTH:0.295325
G1 X160.886 Y182.829 E.00064
;WIDTH:0.252466
G1 X160.887 Y182.862 E.00053
;WIDTH:0.209607
G1 X160.889 Y182.895 E.00042
;WIDTH:0.166748
G1 X160.891 Y182.928 E.00031
;WIDTH:0.123889
G1 X160.994 Y183.054 E.00102
G1 X160.991 Y183.057 F12000
;WIDTH:0.22649
G1 F1800
G1 X160.682 Y182.472 E.00935
G1 X161.115 Y182.846 F12000
;WIDTH:0.281989
G1 F1800
G1 X161.349 Y182.929 E.00456
G1 E-.5 F2400
G1 X157.465 Y176.782 F12000
G1 E.5 F1800
;WIDTH:0.434941
G1 X156.908 Y176.425 E.01997
G1 X156.929 Y176.407 E.00083
;WIDTH:0.34681
G1 X156.949 Y176.389 E.00064
;WIDTH:0.301849
G1 X156.97 Y176.371 E.00055
;WIDTH:0.256888
G1 X156.99 Y176.353 E.00045
;WIDTH:0.211926
G1 X157.011 Y176.334 E.00036
;WIDTH:0.166965
G1 X157.031 Y176.316 E.00026
;WIDTH:0.122004
G1 X157.052 Y176.298 E.00017
;WIDTH:0.104191
G3 X157.148 Y176.305 I.029 J.243 E.00046
G1 X157.251 Y176.503 F12000
;WIDTH:0.436082
G1 F1800
G3 X155.924 Y176.14 I1.503 J-8.091 E.04168
G1 X155.81 Y176.084 E.00384
;WIDTH:0.406317
G1 X155.699 Y176.023 E.00356
;WIDTH:0.375766
G1 X155.636 Y175.984 E.0019
;WIDTH:0.337712
G1 X155.526 Y175.914 E.00296
;WIDTH:0.30487
G1 X155.457 Y175.864 E.00171
;WIDTH:0.282897
G1 X155.337 Y175.765 E.00288
;WIDTH:0.242142
G1 X155.217 Y175.665 E.00239
;WIDTH:0.201387
G1 X155.098 Y175.566 E.0019
G1 E-.5 F2400
G1 X159.551 Y176.586 F12000
G1 X160.063 Y176.614
G1 X160.563 Y176.579
G1 X161.066 Y176.522
G1 X161.571 Y176.442
G1 X162.062 Y176.342
G1 X162.553 Y176.22
G1 X163.038 Y176.077
G1 X163.517 Y175.912
G1 X163.988 Y175.727
G1 X164.451 Y175.522
G1 X164.905 Y175.296
G1 X165.348 Y175.052
G1 X165.78 Y174.788
G1 X166.205 Y174.502
G1 X166.607 Y174.205
G1 X167.001 Y173.887
G1 X167.381 Y173.552
G1 X167.746 Y173.201
G1 X168.095 Y172.835
G1 X168.428 Y172.454
G1 X168.744 Y172.058
G1 X169.043 Y171.649
G1 X169.324 Y171.228
G1 X169.586 Y170.795
G1 X169.828 Y170.351
G1 X170.052 Y169.896
G1 X170.255 Y169.433
G1 X170.436 Y168.966
G1 X170.603 Y168.473
G1 X170.742 Y167.995
G1 X170.861 Y167.505
G1 X170.961 Y167.003
G1 X171.035 Y166.517
G1 X171.092 Y165.999
G1 X171.125 Y165.495
G1 X171.136 Y164.992
G1 X171.125 Y164.488
G1 X171.092 Y163.985
G1 X171.036 Y163.469
G1 X170.961 Y162.98
G1 X170.861 Y162.479
G1 X170.742 Y161.988
G1 X170.602 Y161.507
G1 X170.438 Y161.022
G1 X170.255 Y160.55
G1 X170.052 Y160.087
G1 X169.828 Y159.633
G1 X169.586 Y159.189
G1 X169.323 Y158.755
G1 X169.04 Y158.329
G1 X168.744 Y157.925
G1 X168.428 Y157.53
G1 X168.095 Y157.149
G1 X167.746 Y156.782
G1 X167.381 Y156.431
G1 X166.997 Y156.093
G1 X166.607 Y155.779
G1 X166.2 Y155.478
G1 X165.78 Y155.196
G1 X165.347 Y154.932
G1 X164.899 Y154.685
G1 X164.451 Y154.462
G1 X163.988 Y154.256
G1 X163.512 Y154.069
G1 X163.038 Y153.907
G1 X162.553 Y153.764
G1 X162.062 Y153.641
G1 X161.566 Y153.541
G1 X161.066 Y153.462
G1 X160.563 Y153.404
G1 X160.058 Y153.369
G1 X159.551 Y153.397
G1 X155.098 Y154.418
G1 E.5 F1800
;WIDTH:0.200931
G1 X155.217 Y154.318 E.0019
;WIDTH:0.241444
G1 X155.337 Y154.218 E.00238
;WIDTH:0.281956
G1 X155.457 Y154.119 E.00287
;WIDTH:0.302152
G1 X155.52 Y154.072 E.00157
;WIDTH:0.336526
G1 X155.636 Y153.999 E.00309
;WIDTH:0.375541
G1 X155.699 Y153.96 E.0019
;WIDTH:0.406187
G1 X155.81 Y153.899 E.00356
;WIDTH:0.436081
G1 X155.924 Y153.843 E.00384
G3 X157.251 Y153.48 I2.831 J7.734 E.04168
G1 X157.139 Y153.68 F12000
;WIDTH:0.109688
G1 F1800
G3 X157.054 Y153.687 I-.059 J-.2 E.00044
;WIDTH:0.162843
G1 X157.032 Y153.668 E.00027
;WIDTH:0.210914
G1 X157.011 Y153.65 E.00036
;WIDTH:0.256079
G1 X156.99 Y153.631 E.00045
;WIDTH:0.301244
G1 X156.97 Y153.613 E.00055
;WIDTH:0.346409
G1 X156.949 Y153.595 E.00064
;WIDTH:0.391574
G1 X156.928 Y153.577 E.00074
;WIDTH:0.436739
G1 X156.908 Y153.558 E.00084
;WIDTH:0.402389
G1 X157.466 Y153.202 E.01832
G1 E-.5 F2400
G1 X160.43 Y148.376 F12000
G1 E.5 F1800
;TYPE:Bottom surface
;WIDTH:0.502677
G1 F3000
G1 X160.005 Y147.951 E.02129
G3 X159.606 Y148.202 I-1.31 J-1.641 E.01673
G1 X160.34 Y148.937 E.03677
G1 E-.5 F2400
G1 X160.921 Y148.215 F12000
G1 X161.047 Y148.058
G1 X161.178 Y147.91
G1 X161.315 Y147.772
G1 X163.976 Y145.089
G1 X164.122 Y144.917
G1 E.5 F1800
G1 F3000
G1 X167.01 Y147.804 E.14455
M73 P3 R14
G1 E-.35 F2400
;WIPE_START
G1 F3000
G1 X165.595 Y146.39 E-.1425
;WIPE_END
G1 E-.0075 F2400
G1 X167.399 Y148.718 F12000
G1 X167.708 Y149.109
G1 X168.044 Y149.497
G1 X168.375 Y149.847
G1 X168.733 Y150.194
G1 X169.105 Y150.524
G1 X169.492 Y150.838
G1 X169.904 Y151.144
G1 X170.304 Y151.413
G1 X170.728 Y151.674
G1 X171.164 Y151.915
G1 X171.623 Y152.144
G1 X172.064 Y152.34
G1 X172.527 Y152.522
G1 X173.008 Y152.687
G1 X173.481 Y152.826
G1 X173.822 Y152.91
G1 X173.871 Y152.715
G1 E.5 F1800
G1 F3000
G1 X174.807 Y153.651 E.04687
G1 X174.807 Y154.301 E.02302
G1 X173.272 Y152.766 E.07687
G3 X172.284 Y152.428 I2.034 J-7.565 E.03698
G1 X174.807 Y154.951 E.12632
G1 X174.807 Y155.601 E.02302
G1 X170.491 Y151.285 E.21608
G1 E-.5 F2400
G1 X175.013 Y156.457 F12000
G1 E.5 F1800
G1 F3000
G1 X163.641 Y145.086 E.56928
G2 X163.07 Y145.165 I.111 J2.929 E.02046
G1 X174.807 Y156.902 E.58761
G1 X174.807 Y157.552 E.02302
G1 X162.61 Y145.354 E.61065
G2 X162.218 Y145.613 I.721 J1.517 E.01667
G1 X174.807 Y158.202 E.63025
G1 X174.807 Y158.852 E.02302
G1 X164.865 Y148.91 E.49772
G3 X164.809 Y149.505 I-2.45 J.068 E.02118
G1 X174.807 Y159.503 E.50054
G1 X174.807 Y160.153 E.02302
G1 X164.644 Y149.99 E.50879
G3 X164.404 Y150.4 I-2.598 J-1.248 E.01684
G1 X174.807 Y160.803 E.52082
G1 X174.807 Y161.453 E.02302
G1 X164.094 Y150.74 E.53632
G3 X163.721 Y151.017 I-1.684 J-1.879 E.01648
G1 X174.807 Y162.103 E.555
G1 X174.807 Y162.754 E.02302
G1 X163.279 Y151.226 E.57713
G3 X162.748 Y151.344 I-.795 J-2.309 E.01931
G1 X174.807 Y163.404 E.60373
G1 X174.807 Y164.054 E.02302
G1 X162.073 Y151.32 E.63751
G3 X160.174 Y149.421 I.417 J-2.316 E.10118
G1 X159.204 Y148.451 E.04854
G2 X158.851 Y148.748 I1.042 J1.597 E.01638
G1 X164.673 Y154.57 E.29144
G2 X163.534 Y154.082 I-3.848 J7.401 E.04389
G1 X158.552 Y149.107 E.24924
G2 X158.333 Y149.531 I1.656 J1.121 E.01691
G1 X162.576 Y153.774 E.21241
G2 X161.726 Y153.573 I-1.574 J4.775 E.03097
G1 X158.201 Y150.048 E.17647
G2 X158.167 Y150.664 I3.717 J.514 E.02187
G1 X160.943 Y153.441 E.13898
G2 X160.233 Y153.381 I-.808 J5.397 E.02522
G1 X158.158 Y151.306 E.1039
G1 X158.149 Y151.947 E.02271
G1 X159.55 Y153.349 E.07016
G1 X158.925 Y153.373 E.02217
G1 X158.099 Y152.547 E.04135
G3 X157.887 Y152.986 I-1.086 J-.254 E.01738
G1 X158.502 Y153.6 E.03076
G1 E-.5 F2400
G1 X160.587 Y148.772 F12000
M73 P4 R14
G1 X160.689 Y148.571
G1 X160.801 Y148.386
G1 X160.921 Y148.215
G1 X161.047 Y148.058
G1 X161.178 Y147.91
G1 X161.315 Y147.772
G1 X161.456 Y147.638
G1 X161.602 Y147.516
G1 X161.768 Y147.389
G1 X161.941 Y147.273
G1 X162.13 Y147.166
G1 X162.335 Y147.069
G1 X162.805 Y146.85
G1 E.5 F1800
G1 F3000
G1 X161.893 Y145.938 E.04565
G2 X161.618 Y146.313 I2.507 J2.131 E.01648
G1 X162.163 Y146.858 E.0273
G1 E-.5 F2400
G1 X163.321 Y146.882 F12000
G1 X163.6 Y146.906
G1 X163.833 Y147.042
G1 X164.047 Y147.207
G1 X164.24 Y147.395
G1 X164.411 Y147.603
G1 X164.557 Y147.83
G1 X164.672 Y148.066
G1 X169.598 Y159.212
G1 X169.415 Y159.312
G1 E.5 F1800
G1 F3000
G1 X174.807 Y164.704 E.26995
G1 X174.807 Y165.354 E.02302
G1 X170.427 Y160.974 E.2193
G1 X170.73 Y161.928 E.03543
G1 X174.807 Y166.005 E.20411
G1 X174.807 Y166.655 E.02302
G1 X170.92 Y162.767 E.19463
G3 X171.052 Y163.55 I-5.908 J1.401 E.02811
G1 X174.807 Y167.305 E.18801
G1 X174.807 Y167.955 E.02302
G1 X171.111 Y164.259 E.18502
G1 X171.141 Y164.939 E.02408
G1 X174.807 Y168.605 E.18354
G1 X174.807 Y169.256 E.02302
G1 X171.118 Y165.567 E.18468
G3 X171.08 Y166.178 I-4.649 J.013 E.02171
