; generated by SuperSlicer 2.5.59 on 2023-01-11 at 00:34:04 UTC


;
;

;
;
; 

; external perimeters extrusion width = 0.40mm
; perimeters extrusion width = 0.46mm
; infill extrusion width = 0.64mm
; solid infill extrusion width = 0.56mm
; top infill extrusion width = 0.40mm
; support material extrusion width = 0.46mm
; first layer extrusion width = 0.50mm

; object:{"name":"Drawer1","id":"Drawer1.stl id:0 copy 0","object_center":[165.000000,165.000000,0.000000],"boundingbox_center":[165.000000,165.000000,61.599998],"boundingbox_size":[144.899994,23.500005,123.199997]}
; plater:{"center":[165.000000,165.000000,0.000000],"boundingbox_center":[165.000000,165.000000,61.599998],"boundingbox_size":[144.899994,23.500005,123.199997]}

M73 P0 R169


; Pre-Processed for Cancel-Object support by preprocess_cancellation v0.2.0
; 1 known objects
EXCLUDE_OBJECT_DEFINE NAME=Drawer1_stl_id_0_copy_0 CENTER=169.115,164.866 POLYGON=[[92.7,153.4],[92.7,176.75],[237.3,176.75],[237.3,153.4]]
;TYPE:Custom
; custom gcode: start_gcode
START_PRINT T_BED=60 T_EXTRUDER=200
; custom gcode end: start_gcode
M107
G21 ; set units to millimeters
G90 ; use absolute coordinates
M82 ; use absolute distances for extrusion
G92 E0
; custom gcode: start_filament_gcode
; Filament gcode

    PRESSURE_ADVANCE_SELECT FILAMENT=PLA
; custom gcode end: start_filament_gcode
;_TOOLCHANGE 0
M104 S200 ; set temperature
M109 S200 ; set temperature and wait for it to be reached
M190 S60 ; set bed temperature and wait for it to be reached
;LAYER_CHANGE
;Z:0.2
;HEIGHT:0.2
G1 Z0.2 F9000
M73 P0 R169
G1 E-0.8 F3000
M204 S1000
G1 X90.429 Y150.371 F9000
G1 E0 F1800
;TYPE:Skirt
;WIDTH:0.52
G1 X89.329 Y151.684 E0.06793
G1 X88.934 Y153.35 E0.13586
G1 X88.934 Y176.65 E1.06016
G1 X89.671 Y178.871 E1.15299
G1 X90.984 Y179.971 E1.22092
G1 X92.65 Y180.366 E1.28885
G1 X237.35 Y180.366 E7.029
G1 X239.571 Y179.629 E7.12183
G1 X240.671 Y178.316 E7.18976
G1 X241.066 Y176.65 E7.25769
G1 X241.066 Y153.35 E8.18199
G1 X240.329 Y151.129 E8.27481
G1 X239.016 Y150.029 E8.34275
G1 X237.35 Y149.634 E8.41068
G1 X92.65 Y149.634 E14.15083
G1 X90.429 Y150.371 E14.24366
G1 X90.807 Y150.721 F9000
G1 F1800
G1 X89.805 Y151.802 E14.30211
G1 X89.411 Y153.35 E14.36547
G1 X89.411 Y176.65 E15.28976
G1 X89.931 Y178.409 E15.36252
G1 X91.102 Y179.495 E15.42588
G1 X92.65 Y179.889 E15.48923
G1 X237.35 Y179.889 E21.22939
G1 X239.109 Y179.369 E21.30214
G1 X240.195 Y178.198 E21.3655
G1 X240.589 Y176.65 E21.42886
G1 X240.589 Y153.35 E22.35315
G1 X240.069 Y151.591 E22.42591
G1 X238.898 Y150.505 E22.48927
G1 X237.35 Y150.111 E22.55263
G1 X92.65 Y150.111 E28.29278
G1 X90.891 Y150.631 E28.36554
G1 X90.807 Y150.721 E28.37044
G92 E0
G1 E-0.8 F3000
; printing object Drawer1.stl id:0 copy 0
EXCLUDE_OBJECT_START NAME=Drawer1_stl_id_0_copy_0
; acceleration to travel
M204 S3000
G1 X93.062 Y153.566 F9000
; decel to extrusion
M204 S1000
G1 X93.814 Y154.514
; end travel
G1 E0 F1800
;TYPE:Internal perimeter
;WIDTH:0.5
G1 X236.186 Y154.514 E5.41102
G1 X236.186 Y175.486 E6.20808
G1 X229.114 Y175.486 E6.47685
G1 X229.114 Y170.326 E6.67294
G1 X220.374 Y161.586 E7.14274
G1 X109.626 Y161.586 E11.35183
G1 X100.886 Y170.326 E11.82163
G1 X100.886 Y175.486 E12.01772
G1 X93.814 Y175.486 E12.28649
G1 X93.814 Y154.514 E13.08355
G1 X93.357 Y154.057 F9000
G1 F1800
G1 X236.643 Y154.057 E18.52932
G1 X236.643 Y175.943 E19.36112
G1 X228.657 Y175.943 E19.66463
G1 X228.657 Y170.516 E19.8709
G1 X220.184 Y162.043 E20.3263
G1 X109.816 Y162.043 E24.52101
G1 X101.343 Y170.516 E24.97641
G1 X101.343 Y175.943 E25.18268
G1 X93.357 Y175.943 E25.48619
G1 X93.357 Y154.057 E26.31799
G1 X92.9 Y153.6 F9000
;TYPE:External perimeter
G1 F1800
G1 X237.1 Y153.6 E31.79851
M73 P1 R168
G1 X237.1 Y176.4 E32.66505
G1 X228.2 Y176.4 E33.00331
G1 X228.2 Y170.705 E33.21975
G1 X219.995 Y162.5 E33.66076
G1 X110.005 Y162.5 E37.84108
G1 X101.8 Y170.705 E38.28209
G1 X101.8 Y176.4 E38.49854
G1 X92.9 Y176.4 E38.83679
G1 X92.9 Y153.6 E39.70334
;WIPE_START
M204 S4000
G1 X93.246 Y153.8 F9000
;WIPE_END
G92 E0
G1 E-0.8 F3000
; acceleration to travel
M204 S3000
G1 X196.655 Y155.086 F9000
; decel to extrusion
M204 S1000
G1 X236.049 Y155.575
; end travel
G1 E0 F1800
;TYPE:Solid infill
;WIDTH:0.50177
G1 F3600
G1 X235.125 Y154.651 E0.04984
G1 X234.478 Y154.651 F9000
G1 F3600
G1 X236.049 Y156.222 E0.13454
G1 X236.049 Y156.868 F9000
G1 F3600
G1 X233.832 Y154.651 E0.25412
G1 X233.186 Y154.651 F9000
G1 F3600
G1 X236.049 Y157.514 E0.40855
G1 X236.049 Y158.161 F9000
G1 F3600
G1 X232.539 Y154.651 E0.59786
G1 X231.893 Y154.651 F9000
G1 F3600
G1 X236.049 Y158.807 E0.82203
G1 X236.049 Y159.454 F9000
G1 F3600
G1 X231.246 Y154.651 E1.08107
G1 X230.6 Y154.651 F9000
G1 F3600
G1 X236.049 Y160.1 E1.37498
G1 X236.049 Y160.746 F9000
G1 F3600
G1 X229.954 Y154.651 E1.70375
G1 X229.307 Y154.651 F9000
G1 F3600
G1 X236.049 Y161.393 E2.06739
G1 X236.049 Y162.039 F9000
G1 F3600
G1 X228.661 Y154.651 E2.46589
G1 X228.014 Y154.651 F9000
G1 F3600
G1 X236.049 Y162.686 E2.89927
G1 X236.049 Y163.332 F9000
G1 F3600
G1 X227.368 Y154.651 E3.36751
G1 X226.721 Y154.651 F9000
G1 F3600
G1 X236.049 Y163.979 E3.87061
G1 X236.049 Y164.625 F9000
G1 F3600
G1 X226.075 Y154.651 E4.40859
G1 X225.429 Y154.651 F9000
G1 F3600
G1 X236.049 Y165.271 E4.98143
G1 X236.049 Y165.918 F9000
G1 F3600
G1 X224.782 Y154.651 E5.58913
G1 X224.136 Y154.651 F9000
G1 F3600
G1 X236.049 Y166.564 E6.2317
G1 X236.049 Y167.211 F9000
G1 F3600
G1 X223.489 Y154.651 E6.90914
G1 X222.843 Y154.651 F9000
G1 F3600
G1 X236.049 Y167.857 E7.62145
G1 X236.049 Y168.503 F9000
G1 F3600
G1 X222.197 Y154.651 E8.36862
G1 X221.55 Y154.651 F9000
G1 F3600
G1 X236.049 Y169.15 E9.15067
G1 X236.049 Y169.796 F9000
G1 F3600
G1 X220.904 Y154.651 E9.96757
G1 X220.257 Y154.651 F9000
G1 F3600
G1 X236.049 Y170.443 E10.81935
G1 X236.049 Y171.089 F9000
G1 F3600
G1 X219.611 Y154.651 E11.70599
G1 X218.965 Y154.651 F9000
G1 F3600
G1 X236.049 Y171.735 E12.62749
G1 X236.049 Y172.382 F9000
G1 F3600
G1 X218.318 Y154.651 E13.58387
G1 X217.672 Y154.651 F9000
G1 F3600
G1 X236.049 Y173.028 E14.57511
G1 X236.049 Y173.675 F9000
G1 F3600
G1 X217.025 Y154.651 E15.60122
G1 X216.379 Y154.651 F9000
G1 F3600
G1 X236.049 Y174.321 E16.66219
G1 X236.049 Y174.967 F9000
G1 F3600
G1 X215.733 Y154.651 E17.75803
G1 X215.086 Y154.651 F9000
G1 F3600
G1 X235.784 Y175.349 E18.87444
G1 X235.137 Y175.349 F9000
G1 F3600
G1 X214.44 Y154.651 E19.99084
G1 X213.793 Y154.651 F9000
G1 F3600
G1 X234.491 Y175.349 E21.10725
G1 X233.844 Y175.349 F9000
G1 F3600
G1 X229.251 Y170.756 E21.355
G1 X229.251 Y171.402 F9000
G1 F3600
G1 X233.198 Y175.349 E21.56789
G1 X232.552 Y175.349 F9000
G1 F3600
G1 X229.251 Y172.048 E21.7459
G1 X229.251 Y172.695 F9000
G1 F3600
G1 X231.905 Y175.349 E21.88905
G1 X231.259 Y175.349 F9000
G1 F3600
G1 X229.251 Y173.341 E21.99734
G1 X229.251 Y173.988 F9000
G1 F3600
G1 X230.612 Y175.349 E22.07075
G1 X229.966 Y175.349 F9000
G1 F3600
G1 X229.251 Y174.634 E22.10931
G92 E0
G1 E-0.8 F3000
; acceleration to travel
M204 S3000
G1 X222.271 Y164.745 F9000
; decel to extrusion
M204 S1000
G1 X219.944 Y161.449
; end travel
G1 E0 F1800
G1 F3600
G1 X213.147 Y154.651 E0.36665
M73 P1 R167
G1 X212.501 Y154.651 F9000
G1 F3600
G1 X219.298 Y161.449 E0.7333
G1 X218.652 Y161.449 F9000
G1 F3600
G1 X211.854 Y154.651 E1.09995
G1 X211.208 Y154.651 F9000
G1 F3600
G1 X218.005 Y161.449 E1.4666
G1 X217.359 Y161.449 F9000
G1 F3600
G1 X210.561 Y154.651 E1.83326
G1 X209.915 Y154.651 F9000
G1 F3600
G1 X216.712 Y161.449 E2.19991
G1 X216.066 Y161.449 F9000
G1 F3600
G1 X209.268 Y154.651 E2.56656
G1 X208.622 Y154.651 F9000
G1 F3600
G1 X215.42 Y161.449 E2.93321
G1 X214.773 Y161.449 F9000
G1 F3600
G1 X207.976 Y154.651 E3.29986
G1 X207.329 Y154.651 F9000
G1 F3600
G1 X214.127 Y161.449 E3.66651
G1 X213.48 Y161.449 F9000
G1 F3600
G1 X206.683 Y154.651 E4.03316
G1 X206.036 Y154.651 F9000
G1 F3600
G1 X212.834 Y161.449 E4.39981
G1 X212.188 Y161.449 F9000
G1 F3600
G1 X205.39 Y154.651 E4.76647
G1 X204.744 Y154.651 F9000
G1 F3600
G1 X211.541 Y161.449 E5.13312
G1 X210.895 Y161.449 F9000
G1 F3600
G1 X204.097 Y154.651 E5.49977
G1 X203.451 Y154.651 F9000
G1 F3600
G1 X210.248 Y161.449 E5.86642
G1 X209.602 Y161.449 F9000
G1 F3600
G1 X202.804 Y154.651 E6.23307
G1 X202.158 Y154.651 F9000
G1 F3600
G1 X208.955 Y161.449 E6.59972
G1 X208.309 Y161.449 F9000
G1 F3600
G1 X201.512 Y154.651 E6.96637
G1 X200.865 Y154.651 F9000
G1 F3600
G1 X207.663 Y161.449 E7.33302
G1 X207.016 Y161.449 F9000
G1 F3600
G1 X200.219 Y154.651 E7.69968
G1 X199.572 Y154.651 F9000
G1 F3600
G1 X206.37 Y161.449 E8.06633
G1 X205.723 Y161.449 F9000
G1 F3600
G1 X198.926 Y154.651 E8.43298
G1 X198.28 Y154.651 F9000
G1 F3600
G1 X205.077 Y161.449 E8.79963
G1 X204.431 Y161.449 F9000
G1 F3600
G1 X197.633 Y154.651 E9.16628
G1 X196.987 Y154.651 F9000
G1 F3600
G1 X203.784 Y161.449 E9.53293
G1 X203.138 Y161.449 F9000
G1 F3600
G1 X196.34 Y154.651 E9.89958
G1 X195.694 Y154.651 F9000
G1 F3600
G1 X202.491 Y161.449 E10.26623
G1 X201.845 Y161.449 F9000
G1 F3600
G1 X195.048 Y154.651 E10.63288
G1 X194.401 Y154.651 F9000
G1 F3600
G1 X201.199 Y161.449 E10.99954
G1 X200.552 Y161.449 F9000
G1 F3600
G1 X193.755 Y154.651 E11.36619
G1 X193.108 Y154.651 F9000
G1 F3600
G1 X199.906 Y161.449 E11.73284
G1 X199.259 Y161.449 F9000
G1 F3600
G1 X192.462 Y154.651 E12.09949
G1 X191.815 Y154.651 F9000
G1 F3600
G1 X198.613 Y161.449 E12.46614
G1 X197.967 Y161.449 F9000
G1 F3600
G1 X191.169 Y154.651 E12.83279
G1 X190.523 Y154.651 F9000
G1 F3600
G1 X197.32 Y161.449 E13.19944
G1 X196.674 Y161.449 F9000
G1 F3600
G1 X189.876 Y154.651 E13.56609
G1 X189.23 Y154.651 F9000
G1 F3600
G1 X196.027 Y161.449 E13.93275
G1 X195.381 Y161.449 F9000
G1 F3600
G1 X188.583 Y154.651 E14.2994
G1 X187.937 Y154.651 F9000
G1 F3600
G1 X194.735 Y161.449 E14.66605
G1 X194.088 Y161.449 F9000
G1 F3600
G1 X187.291 Y154.651 E15.0327
G1 X186.644 Y154.651 F9000
G1 F3600
G1 X193.442 Y161.449 E15.39935
G1 X192.795 Y161.449 F9000
G1 F3600
G1 X185.998 Y154.651 E15.766
G1 X185.351 Y154.651 F9000
G1 F3600
G1 X192.149 Y161.449 E16.13265
G1 X191.502 Y161.449 F9000
G1 F3600
G1 X184.705 Y154.651 E16.4993
G1 X184.059 Y154.651 F9000
G1 F3600
G1 X190.856 Y161.449 E16.86596
G1 X190.21 Y161.449 F9000
G1 F3600
G1 X183.412 Y154.651 E17.23261
G1 X182.766 Y154.651 F9000
G1 F3600
G1 X189.563 Y161.449 E17.59926
G1 X188.917 Y161.449 F9000
G1 F3600
G1 X182.119 Y154.651 E17.96591
G1 X181.473 Y154.651 F9000
G1 F3600
G1 X188.27 Y161.449 E18.33256
G1 X187.624 Y161.449 F9000
G1 F3600
G1 X180.827 Y154.651 E18.69921
G1 X180.18 Y154.651 F9000
G1 F3600
G1 X186.978 Y161.449 E19.06586
G1 X186.331 Y161.449 F9000
G1 F3600
G1 X179.534 Y154.651 E19.43251
G1 X178.887 Y154.651 F9000
G1 F3600
G1 X185.685 Y161.449 E19.79916
G1 X185.038 Y161.449 F9000
G1 F3600
G1 X178.241 Y154.651 E20.16582
G1 X177.595 Y154.651 F9000
G1 F3600
G1 X184.392 Y161.449 E20.53247
G1 X183.746 Y161.449 F9000
G1 F3600
G1 X176.948 Y154.651 E20.89912
G1 X176.302 Y154.651 F9000
G1 F3600
G1 X183.099 Y161.449 E21.26577
G1 X182.453 Y161.449 F9000
G1 F3600
G1 X175.655 Y154.651 E21.63242
G1 X175.009 Y154.651 F9000
G1 F3600
G1 X181.806 Y161.449 E21.99907
G1 X181.16 Y161.449 F9000
G1 F3600
G1 X174.362 Y154.651 E22.36572
G1 X173.716 Y154.651 F9000
G1 F3600
G1 X180.514 Y161.449 E22.73237
G1 X179.867 Y161.449 F9000
G1 F3600
G1 X173.07 Y154.651 E23.09903
G1 X172.423 Y154.651 F9000
G1 F3600
G1 X179.221 Y161.449 E23.46568
G1 X178.574 Y161.449 F9000
G1 F3600
G1 X171.777 Y154.651 E23.83233
G1 X171.13 Y154.651 F9000
G1 F3600
G1 X177.928 Y161.449 E24.19898
G1 X177.282 Y161.449 F9000
G1 F3600
G1 X170.484 Y154.651 E24.56563
G1 X169.838 Y154.651 F9000
G1 F3600
G1 X176.635 Y161.449 E24.93228
G1 X175.989 Y161.449 F9000
G1 F3600
G1 X169.191 Y154.651 E25.29893
G1 X168.545 Y154.651 F9000
G1 F3600
G1 X175.342 Y161.449 E25.66558
G1 X174.696 Y161.449 F9000
G1 F3600
G1 X167.898 Y154.651 E26.03224
G1 X167.252 Y154.651 F9000
G1 F3600
G1 X174.049 Y161.449 E26.39889
G1 X173.403 Y161.449 F9000
G1 F3600
G1 X166.606 Y154.651 E26.76554
G1 X165.959 Y154.651 F9000
G1 F3600
G1 X172.757 Y161.449 E27.13219
G1 X172.11 Y161.449 F9000
G1 F3600
G1 X165.313 Y154.651 E27.49884
G1 X164.666 Y154.651 F9000
G1 F3600
G1 X171.464 Y161.449 E27.86549
G1 X170.817 Y161.449 F9000
G1 F3600
G1 X164.02 Y154.651 E28.23214
G1 X163.374 Y154.651 F9000
G1 F3600
G1 X170.171 Y161.449 E28.59879
G1 X169.525 Y161.449 F9000
G1 F3600
G1 X162.727 Y154.651 E28.96544
G1 X162.081 Y154.651 F9000
G1 F3600
G1 X168.878 Y161.449 E29.3321
G1 X168.232 Y161.449 F9000
G1 F3600
G1 X161.434 Y154.651 E29.69875
G1 X160.788 Y154.651 F9000
G1 F3600
G1 X167.585 Y161.449 E30.0654
G1 X166.939 Y161.449 F9000
G1 F3600
G1 X160.142 Y154.651 E30.43205
G1 X159.495 Y154.651 F9000
G1 F3600
G1 X166.293 Y161.449 E30.7987
G1 X165.646 Y161.449 F9000
G1 F3600
G1 X158.849 Y154.651 E31.16535
G1 X158.202 Y154.651 F9000
G1 F3600
G1 X165 Y161.449 E31.532
G1 X164.353 Y161.449 F9000
G1 F3600
G1 X157.556 Y154.651 E31.89865
G1 X156.909 Y154.651 F9000
G1 F3600
G1 X163.707 Y161.449 E32.26531
G1 X163.061 Y161.449 F9000
G1 F3600
G1 X156.263 Y154.651 E32.63196
G1 X155.617 Y154.651 F9000
G1 F3600
G1 X162.414 Y161.449 E32.99861
G1 X161.768 Y161.449 F9000
G1 F3600
G1 X154.97 Y154.651 E33.36526
G1 X154.324 Y154.651 F9000
G1 F3600
G1 X161.121 Y161.449 E33.73191
G1 X160.475 Y161.449 F9000
G1 F3600
G1 X153.677 Y154.651 E34.09856
G1 X153.031 Y154.651 F9000
G1 F3600
G1 X159.829 Y161.449 E34.46521
G1 X159.182 Y161.449 F9000
G1 F3600
G1 X152.385 Y154.651 E34.83186
G1 X151.738 Y154.651 F9000
G1 F3600
G1 X158.536 Y161.449 E35.19851
G1 X157.889 Y161.449 F9000
G1 F3600
G1 X151.092 Y154.651 E35.56517
G1 X150.445 Y154.651 F9000
G1 F3600
G1 X157.243 Y161.449 E35.93182
G1 X156.596 Y161.449 F9000
G1 F3600
G1 X149.799 Y154.651 E36.29847
G1 X149.153 Y154.651 F9000
G1 F3600
G1 X155.95 Y161.449 E36.66512
G1 X155.304 Y161.449 F9000
G1 F3600
G1 X148.506 Y154.651 E37.03177
G1 X147.86 Y154.651 F9000
G1 F3600
G1 X154.657 Y161.449 E37.39842
G1 X154.011 Y161.449 F9000
G1 F3600
G1 X147.213 Y154.651 E37.76507
G1 X146.567 Y154.651 F9000
G1 F3600
G1 X153.364 Y161.449 E38.13172
G1 X152.718 Y161.449 F9000
G1 F3600
G1 X145.921 Y154.651 E38.49838
G1 X145.274 Y154.651 F9000
G1 F3600
G1 X152.072 Y161.449 E38.86503
G1 X151.425 Y161.449 F9000
G1 F3600
G1 X144.628 Y154.651 E39.23168
G1 X143.981 Y154.651 F9000
G1 F3600
G1 X150.779 Y161.449 E39.59833
G1 X150.132 Y161.449 F9000
G1 F3600
G1 X143.335 Y154.651 E39.96498
G1 X142.689 Y154.651 F9000
G1 F3600
G1 X149.486 Y161.449 E40.33163
G1 X148.84 Y161.449 F9000
G1 F3600
G1 X142.042 Y154.651 E40.69828
G1 X141.396 Y154.651 F9000
G1 F3600
G1 X148.193 Y161.449 E41.06493
G1 X147.547 Y161.449 F9000
G1 F3600
G1 X140.749 Y154.651 E41.43158
G1 X140.103 Y154.651 F9000
G1 F3600
G1 X146.9 Y161.449 E41.79824
G1 X146.254 Y161.449 F9000
G1 F3600
G1 X139.456 Y154.651 E42.16489
G1 X138.81 Y154.651 F9000
G1 F3600
G1 X145.608 Y161.449 E42.53154
G1 X144.961 Y161.449 F9000
G1 F3600
G1 X138.164 Y154.651 E42.89819
G1 X137.517 Y154.651 F9000
G1 F3600
G1 X144.315 Y161.449 E43.26484
G1 X143.668 Y161.449 F9000
G1 F3600
G1 X136.871 Y154.651 E43.63149
G1 X136.224 Y154.651 F9000
G1 F3600
G1 X143.022 Y161.449 E43.99814
G1 X142.376 Y161.449 F9000
G1 F3600
G1 X135.578 Y154.651 E44.36479
G1 X134.932 Y154.651 F9000
G1 F3600
G1 X141.729 Y161.449 E44.73145
G1 X141.083 Y161.449 F9000
G1 F3600
G1 X134.285 Y154.651 E45.0981
G1 X133.639 Y154.651 F9000
G1 F3600
G1 X140.436 Y161.449 E45.46475
G1 X139.79 Y161.449 F9000
G1 F3600
G1 X132.992 Y154.651 E45.8314
G1 X132.346 Y154.651 F9000
G1 F3600
G1 X139.143 Y161.449 E46.19805
G1 X138.497 Y161.449 F9000
G1 F3600
G1 X131.7 Y154.651 E46.5647
G1 X131.053 Y154.651 F9000
G1 F3600
G1 X137.851 Y161.449 E46.93135
G1 X137.204 Y161.449 F9000
G1 F3600
G1 X130.407 Y154.651 E47.298
G1 X129.76 Y154.651 F9000
G1 F3600
G1 X136.558 Y161.449 E47.66465
G1 X135.911 Y161.449 F9000
G1 F3600
G1 X129.114 Y154.651 E48.03131
G1 X128.468 Y154.651 F9000
G1 F3600
G1 X135.265 Y161.449 E48.39796
G1 X134.619 Y161.449 F9000
G1 F3600
G1 X127.821 Y154.651 E48.76461
G1 X127.175 Y154.651 F9000
G1 F3600
G1 X133.972 Y161.449 E49.13126
G1 X133.326 Y161.449 F9000
G1 F3600
