; generated by SuperSlicer 2.5.59 on 2023-01-10 at 04:56:31 UTC


;
;

;
;
; 

; external perimeters extrusion width = 0.40mm
; perimeters extrusion width = 0.46mm
; infill extrusion width = 0.64mm
; solid infill extrusion width = 0.56mm
; top infill extrusion width = 0.40mm
; support material extrusion width = 0.46mm
; first layer extrusion width = 0.50mm

; object:{"name":"drawer","id":"drawer.stl id:0 copy 0","object_center":[165.000000,165.000000,0.000000],"boundingbox_center":[165.000000,165.000000,9.400001],"boundingbox_size":[140.199997,130.000000,18.800001]}
; plater:{"center":[165.000000,165.000000,0.000000],"boundingbox_center":[165.000000,165.000000,9.400001],"boundingbox_size":[140.199997,130.000000,18.800001]}

M73 P0 R131


; Pre-Processed for Cancel-Object support by preprocess_cancellation v0.2.0
; 1 known objects
EXCLUDE_OBJECT_DEFINE NAME=drawer_stl_id_0_copy_0 CENTER=165.942,129.105 POLYGON=[[95.1,97.479],[95.1,229.8],[234.9,229.8],[234.9,97.479]]
;TYPE:Custom
; custom gcode: start_gcode
START_PRINT T_BED=60 T_EXTRUDER=200
; custom gcode end: start_gcode
M107
G21 ; set units to millimeters
G90 ; use absolute coordinates
M82 ; use absolute distances for extrusion
G92 E0
; custom gcode: start_filament_gcode
; Filament gcode

    PRESSURE_ADVANCE_SELECT FILAMENT=PLA
; custom gcode end: start_filament_gcode
;_TOOLCHANGE 0
M104 S200 ; set temperature
M109 S200 ; set temperature and wait for it to be reached
M190 S60 ; set bed temperature and wait for it to be reached
;LAYER_CHANGE
;Z:0.2
;HEIGHT:0.2
G1 Z0.2 F9000
G1 E-0.8 F3000
M204 S1000
G1 X93.259 Y108.406 F9000
G1 E0 F1800
;TYPE:Skirt
;WIDTH:0.52
G1 X92.305 Y109.618 E0.05753
G1 X91.803 Y110.598 E0.0986
G1 X91.566 Y111.271 E0.12519
G1 X91.349 Y112.285 E0.16386
G1 X91.284 Y113.198 E0.198
G1 X91.284 Y229.9 E4.54972
G1 X92.021 Y232.121 E4.63698
G1 X93.334 Y233.221 E4.70083
G1 X95 Y233.616 E4.76469
G1 X235 Y233.616 E9.98517
G1 X237.221 Y232.879 E10.07243
G1 X238.321 Y231.566 E10.13629
G1 X238.716 Y229.9 E10.20015
G1 X238.714 Y113.097 E14.55563
G1 X238.503 Y111.519 E14.61499
G1 X238.061 Y110.29 E14.6637
G1 X237.229 Y108.954 E14.7224
G1 X236.254 Y107.959 E14.77434
G1 X235.174 Y107.225 E14.82304
G1 X233.715 Y106.633 E14.88172
G1 X177.639 Y94.073 E17.02456
G1 X176.605 Y93.878 E17.06381
G1 X175.314 Y93.77 E17.11213
G1 X154.842 Y93.764 E17.87551
G1 X152.76 Y93.987 E17.95359
G1 X96.496 Y106.583 E20.10354
M73 P0 R131
G1 X95.37 Y106.963 E20.14788
G1 X94.328 Y107.532 E20.19214
G1 X93.259 Y108.406 E20.24362
G1 X93.59 Y108.749 F9000
G1 F1800
G1 X92.704 Y109.878 E20.29713
G1 X92.248 Y110.77 E20.33448
G1 X92.026 Y111.395 E20.35921
G1 X91.82 Y112.36 E20.39601
G1 X91.762 Y113.198 E20.42733
G1 X91.761 Y229.9 E24.77906
G1 X92.281 Y231.659 E24.84745
G1 X93.452 Y232.745 E24.907
G1 X95 Y233.139 E24.96656
G1 X235 Y233.139 E30.18704
G1 X236.759 Y232.619 E30.25544
G1 X237.845 Y231.448 E30.31499
G1 X238.239 Y229.9 E30.37455
G1 X238.237 Y113.097 E34.73004
G1 X238.043 Y111.646 E34.78462
G1 X237.634 Y110.502 E34.82992
G1 X236.85 Y109.244 E34.88521
G1 X235.94 Y108.319 E34.93359
G1 X234.934 Y107.638 E34.97888
G1 X233.599 Y107.096 E35.03261
G1 X177.535 Y94.539 E37.17499
G1 X176.518 Y94.347 E37.2136
G1 X175.284 Y94.246 E37.25975
G1 X154.842 Y94.241 E38.02203
G1 X152.864 Y94.453 E38.0962
G1 X96.627 Y107.041 E40.24512
G1 X95.578 Y107.392 E40.28637
G1 X94.608 Y107.918 E40.32753
G1 X93.59 Y108.749 E40.37653
G92 E0
G1 E-0.8 F3000
; printing object drawer.stl id:0 copy 0
EXCLUDE_OBJECT_START NAME=drawer_stl_id_0_copy_0
; acceleration to travel
M204 S3000
G1 X132.532 Y109.178 F9000
; decel to extrusion
M204 S1000
G1 X145.513 Y109.321
; end travel
G1 E0 F1800
;TYPE:Support material
;WIDTH:0.5
G1 X147.479 Y107.356 E0.09933
G1 X147.479 Y104.939 E0.18564
G1 X147.486 Y104.777 E0.19145
G1 X147.491 Y104.666 E0.19543
G1 X147.495 Y104.564 E0.19907
G1 X147.505 Y104.337 E0.20718
G1 X147.559 Y103.934 E0.22171
G1 X147.565 Y103.884 E0.2235
G1 X147.593 Y103.675 E0.23103
G1 X147.766 Y102.93 E0.25837
G1 X147.978 Y102.297 E0.28222
G1 X148.241 Y101.695 E0.30567
G1 X148.554 Y101.119 E0.32911
G1 X148.917 Y100.572 E0.35257
G1 X149.333 Y100.05 E0.37641
G1 X149.873 Y99.492 E0.40416
G1 X150.469 Y98.993 E0.4319
G1 X151.028 Y98.609 E0.45614
G1 X151.698 Y98.239 E0.48349
G1 X152.31 Y97.973 E0.50734
G1 X152.933 Y97.766 E0.53078
G1 X153.015 Y97.746 E0.53379
G1 X153.261 Y97.687 E0.54283
G1 X153.571 Y97.613 E0.55423
G1 X153.981 Y97.552 E0.56904
G1 X154.221 Y97.517 E0.57768
G1 X154.783 Y97.483 E0.59782
G1 X154.842 Y97.479 E0.59992
G1 X175.083 Y97.479 E1.32306
G1 X175.924 Y97.531 E1.35317
G1 X176.828 Y97.699 E1.386
G1 X177.11 Y97.788 E1.39656
G1 X177.714 Y97.979 E1.41919
G1 X178.262 Y98.235 E1.4408
G1 X178.64 Y98.412 E1.45573
G1 X179.429 Y98.915 E1.48915
G1 X180.138 Y99.501 E1.522
G1 X180.77 Y100.168 E1.55483
G1 X181.195 Y100.743 E1.58036
G1 X181.23 Y100.791 E1.58251
G1 X181.309 Y100.898 E1.58726
G1 X181.437 Y101.119 E1.59637
G1 X181.708 Y101.59 E1.61579
G1 X181.755 Y101.695 E1.61991
G1 X182.027 Y102.309 E1.6439
G1 X182.224 Y102.93 E1.66716
G1 X182.301 Y103.174 E1.67629
G1 X182.455 Y103.971 E1.7053
G1 X182.521 Y104.819 E1.73571
G1 X182.521 Y107.355 E1.82631
G1 X184.487 Y109.321 E1.92565
G1 X180.979 Y109.321 E2.05098
G1 X180.48 Y109.321 E2.06882
G1 X177.983 Y109.321 E2.158
G1 X177.484 Y109.321 E2.17584
G1 X174.988 Y109.321 E2.26503
G1 X174.489 Y109.321 E2.28286
G1 X171.493 Y109.321 E2.38989
G1 X170.994 Y109.321 E2.40772
G1 X168.497 Y109.321 E2.49691
G1 X167.998 Y109.321 E2.51474
G1 X165.502 Y109.321 E2.60393
G1 X165.002 Y109.321 E2.62177
G1 X162.007 Y109.321 E2.72879
G1 X161.507 Y109.321 E2.74662
G1 X159.011 Y109.321 E2.83581
G1 X158.512 Y109.321 E2.85365
G1 X155.516 Y109.321 E2.96067
G1 X155.017 Y109.321 E2.9785
G1 X152.521 Y109.321 E3.06769
G1 X152.021 Y109.321 E3.08553
G1 X149.525 Y109.321 E3.17471
G1 X149.026 Y109.321 E3.19255
G1 X146.03 Y109.321 E3.29957
G1 X145.531 Y109.321 E3.31741
G1 X145.513 Y109.321 E3.31806
; acceleration to travel
M204 S3000
G1 X173.841 Y109.236 F9000
; decel to extrusion
M204 S1000
G1 X183.283 Y109.207
; end travel
G1 F1800
G1 X183.283 Y108.557 E3.34129
G1 X182.775 Y108.049 E3.36695
G1 X182.775 Y109.011 E3.40131
G1 X182.267 Y109.011 E3.41945
G1 X182.267 Y107.541 E3.47195
G1 X182.21 Y107.484 E3.47483
G1 X182.21 Y104.832 E3.5696
G1 X182.146 Y104.012 E3.59895
G1 X181.999 Y103.25 E3.62669
G1 X181.927 Y103.024 E3.63518
G1 X181.76 Y102.494 E3.65504
G1 X181.76 Y109.011 E3.88786
G1 X181.252 Y109.011 E3.90601
G1 X181.252 Y101.421 E4.17716
G1 X181.167 Y101.274 E4.18321
G1 X181.049 Y101.069 E4.19169
G1 X180.98 Y100.976 E4.19581
G1 X180.945 Y100.927 E4.19796
G1 X180.744 Y100.656 E4.21002
G1 X180.744 Y109.011 E4.50852
G1 X180.48 Y109.011 E4.51795
G1 X180.236 Y109.011 E4.52666
G1 X180.236 Y100.056 E4.84657
G1 X179.925 Y99.728 E4.86271
G1 X179.728 Y99.565 E4.87185
G1 X179.728 Y109.011 E5.2093
G1 X179.22 Y109.011 E5.22744
G1 X179.22 Y99.151 E5.57971
G1 X178.712 Y98.827 E5.60123
G1 X178.712 Y109.011 E5.96506
G1 X178.205 Y109.011 E5.9832
G1 X178.205 Y98.552 E6.35686
G1 X178.13 Y98.517 E6.3598
G1 X177.697 Y98.315 E6.37689
G1 X177.697 Y109.011 E6.75902
G1 X177.189 Y109.011 E6.77716
G1 X177.189 Y98.139 E7.16555
G1 X177.016 Y98.085 E7.17203
G1 X176.752 Y98.001 E7.18191
G1 X176.681 Y97.988 E7.1845
G1 X176.681 Y109.011 E7.5783
G1 X176.173 Y109.011 E7.59644
G1 X176.173 Y97.893 E7.99362
G1 X175.886 Y97.84 E8.00404
G1 X175.665 Y97.826 E8.01195
G1 X175.665 Y109.011 E8.41153
G1 X175.157 Y109.011 E8.42967
G1 X175.157 Y97.795 E8.83038
G1 X175.074 Y97.789 E8.83338
G1 X174.649 Y97.789 E8.84853
G1 X174.649 Y109.011 E9.24942
G1 X174.142 Y109.011 E9.26756
G1 X174.142 Y97.789 E9.66845
G1 X173.634 Y97.789 E9.68659
G1 X173.634 Y109.011 E10.08748
G1 X173.126 Y109.011 E10.10563
G1 X173.126 Y97.789 E10.50651
G1 X172.618 Y97.789 E10.52466
G1 X172.618 Y109.011 E10.92555
G1 X172.11 Y109.011 E10.94369
G1 X172.11 Y97.79 E11.34458
G1 X171.602 Y97.79 E11.36272
G1 X171.602 Y109.011 E11.76361
G1 X171.493 Y109.011 E11.76751
G1 X171.094 Y109.011 E11.78175
G1 X171.094 Y97.79 E12.18264
G1 X170.587 Y97.79 E12.20078
G1 X170.587 Y109.011 E12.60167
G1 X170.079 Y109.011 E12.61981
G1 X170.079 Y97.79 E13.02069
G1 X169.571 Y97.79 E13.03884
G1 X169.571 Y109.011 E13.43972
G1 X169.063 Y109.011 E13.45787
G1 X169.063 Y97.79 E13.85875
G1 X168.555 Y97.79 E13.87689
G1 X168.555 Y109.011 E14.27777
G1 X168.497 Y109.011 E14.27984
G1 X168.047 Y109.011 E14.29592
G1 X168.047 Y97.79 E14.6968
G1 X167.539 Y97.79 E14.71494
G1 X167.539 Y109.011 E15.11583
G1 X167.031 Y109.011 E15.13397
G1 X167.031 Y97.79 E15.53485
G1 X166.524 Y97.79 E15.55299
G1 X166.524 Y109.011 E15.95387
G1 X166.016 Y109.011 E15.97202
G1 X166.016 Y97.79 E16.3729
G1 X165.508 Y97.79 E16.39104
G1 X165.508 Y109.011 E16.79192
G1 X165 Y109.011 E16.81007
G1 X165 Y97.79 E17.21094
G1 X164.492 Y97.79 E17.22909
G1 X164.492 Y109.011 E17.62997
G1 X163.984 Y109.011 E17.64811
G1 X163.984 Y97.79 E18.04899
G1 X163.476 Y97.79 E18.06713
G1 X163.476 Y109.011 E18.46801
G1 X162.969 Y109.011 E18.48615
G1 X162.969 Y97.79 E18.88703
G1 X162.461 Y97.79 E18.90517
G1 X162.461 Y109.011 E19.30605
G1 X161.953 Y109.011 E19.32419
G1 X161.953 Y97.79 E19.72506
G1 X161.445 Y97.79 E19.74321
G1 X161.445 Y109.011 E20.14408
G1 X160.937 Y109.011 E20.16223
G1 X160.937 Y97.79 E20.5631
M73 P1 R130
G1 X160.429 Y97.79 E20.58124
G1 X160.429 Y109.011 E20.98212
G1 X159.921 Y109.011 E21.00026
G1 X159.921 Y97.79 E21.40113
G1 X159.413 Y97.79 E21.41928
G1 X159.413 Y109.011 E21.82015
G1 X159.011 Y109.011 E21.83452
G1 X158.906 Y109.011 E21.83829
G1 X158.906 Y97.79 E22.23916
G1 X158.398 Y97.79 E22.25731
G1 X158.398 Y109.011 E22.65818
G1 X157.89 Y109.011 E22.67632
G1 X157.89 Y97.79 E23.07719
G1 X157.382 Y97.79 E23.09533
G1 X157.382 Y109.011 E23.4962
G1 X156.874 Y109.011 E23.51435
G1 X156.874 Y97.79 E23.91522
G1 X156.366 Y97.79 E23.93336
G1 X156.366 Y109.011 E24.33423
G1 X155.858 Y109.011 E24.35237
G1 X155.858 Y97.79 E24.75324
G1 X155.351 Y97.79 E24.77138
G1 X155.351 Y109.011 E25.17225
G1 X155.017 Y109.011 E25.18417
G1 X154.843 Y109.011 E25.19039
G1 X154.843 Y97.791 E25.59124
G1 X154.802 Y97.793 E25.5927
G1 X154.335 Y97.821 E25.60942
G1 X154.335 Y109.011 E26.00917
G1 X153.827 Y109.011 E26.02732
G1 X153.827 Y97.889 E26.42464
G1 X153.63 Y97.919 E26.43174
G1 X153.333 Y97.99 E26.44266
G1 X153.319 Y97.993 E26.44317
G1 X153.319 Y109.011 E26.83679
G1 X152.811 Y109.011 E26.85493
G1 X152.811 Y98.134 E27.24352
G1 X152.422 Y98.264 E27.25819
G1 X152.303 Y98.315 E27.26279
G1 X152.303 Y109.011 E27.6449
G1 X152.021 Y109.011 E27.65498
G1 X151.795 Y109.011 E27.66304
G1 X151.795 Y98.54 E28.03711
G1 X151.288 Y98.821 E28.05784
G1 X151.288 Y109.011 E28.42188
G1 X150.78 Y109.011 E28.44002
G1 X150.78 Y99.157 E28.79206
G1 X150.657 Y99.241 E28.79739
G1 X150.272 Y99.563 E28.81533
G1 X150.272 Y109.011 E29.15284
G1 X149.764 Y109.011 E29.17099
G1 X149.764 Y100.052 E29.49105
G1 X149.567 Y100.255 E29.50117
G1 X149.256 Y100.645 E29.51899
G1 X149.256 Y109.011 E29.81785
G1 X148.748 Y109.011 E29.836
G1 X148.748 Y101.413 E30.10743
G1 X148.52 Y101.832 E30.12447
G1 X148.269 Y102.409 E30.14695
G1 X148.24 Y102.493 E30.15014
G1 X148.24 Y109.011 E30.38298
G1 X147.733 Y109.011 E30.40112
G1 X147.733 Y107.541 E30.45362
G1 X147.225 Y108.049 E30.47928
G1 X147.225 Y109.011 E30.51364
G1 X146.717 Y109.011 E30.53178
G1 X146.717 Y108.279 E30.55793
G92 E0
G1 E-0.8 F3000
; acceleration to travel
M204 S3000
G1 X212.056 Y198.622 F9000
; decel to extrusion
M204 S1000
G1 X233.836 Y228.736
; end travel
G1 E0 F1800
;TYPE:Internal perimeter
G1 X96.164 Y228.736 E4.91845
G1 X96.164 Y113.229 E9.04503
G1 X96.177 Y112.995 E9.05341
G1 X96.209 Y112.795 E9.06065
G1 X96.261 Y112.6 E9.06788
G1 X96.334 Y112.411 E9.07511
G1 X96.426 Y112.23 E9.08234
G1 X96.534 Y112.065 E9.08938
G1 X96.691 Y111.875 E9.09821
G1 X96.817 Y111.754 E9.10445
G1 X97.108 Y111.543 E9.11727
G1 X97.411 Y111.396 E9.12929
G1 X97.761 Y111.296 E9.14231
G1 X97.878 Y111.279 E9.14652
G1 X98.611 Y111.264 E9.17273
G1 X228.272 Y111.264 E13.805
M73 P1 R130
G1 X231.861 Y111.264 E13.93323
G1 X232.269 Y111.303 E13.94785
G1 X232.639 Y111.412 E13.96162
G1 X232.767 Y111.471 E13.96667
G1 X233.098 Y111.682 E13.9807
G1 X233.238 Y111.804 E13.98733
G1 X233.483 Y112.091 E14.00082
G1 X233.67 Y112.422 E14.0144
G1 X233.738 Y112.599 E14.02115
G1 X233.822 Y112.982 E14.03518
G1 X233.834 Y113.142 E14.04089
G1 X233.836 Y228.736 E18.1706
G1 X234.293 Y229.193 F9000
G1 F1800
G1 X95.707 Y229.193 E23.12171
G1 X95.707 Y113.217 E27.26506
G1 X95.722 Y112.946 E27.27474
G1 X95.761 Y112.699 E27.28368
G1 X95.826 Y112.458 E27.29263
G1 X95.916 Y112.224 E27.30157
G1 X96.03 Y112.001 E27.31051
G1 X96.165 Y111.794 E27.31933
G1 X96.356 Y111.564 E27.33001
G1 X96.523 Y111.402 E27.33833
G1 X96.872 Y111.15 E27.35372
G1 X97.247 Y110.968 E27.3686
G1 X97.665 Y110.849 E27.38412
G1 X97.839 Y110.823 E27.39043
G1 X98.606 Y110.807 E27.41784
G1 X228.272 Y110.807 E32.05027
G1 X231.883 Y110.807 E32.17927
G1 X232.157 Y110.822 E32.18908
G1 X232.356 Y110.852 E32.19628
G1 X232.606 Y110.915 E32.20547
G1 X232.799 Y110.983 E32.2128
G1 X232.986 Y111.069 E32.22013
G1 X233.209 Y111.198 E32.22933
G1 X233.373 Y111.315 E32.23653
G1 X233.564 Y111.482 E32.2456
G1 X233.737 Y111.668 E32.25467
G1 X233.859 Y111.828 E32.26188
G1 X233.995 Y112.047 E32.27107
G1 X234.085 Y112.227 E32.27828
G1 X234.177 Y112.468 E32.28747
G1 X234.231 Y112.662 E32.29468
G1 X234.275 Y112.916 E32.30388
G1 X234.291 Y113.124 E32.31135
G1 X234.293 Y229.193 E36.45802
G1 X234.75 Y229.65 F9000
;TYPE:External perimeter
G1 F1800
G1 X95.25 Y229.65 E41.44178
G1 X95.25 Y113.205 E45.60191
G1 X95.267 Y112.898 E45.61288
G1 X95.314 Y112.603 E45.62353
G1 X95.391 Y112.315 E45.63419
G1 X95.499 Y112.037 E45.64485
G1 X95.634 Y111.772 E45.6555
G1 X95.796 Y111.523 E45.6661
G1 X96.02 Y111.253 E45.67864
G1 X96.229 Y111.051 E45.68902
G1 X96.636 Y110.756 E45.70698
G1 X97.083 Y110.539 E45.72472
G1 X97.568 Y110.401 E45.74274
G1 X97.801 Y110.366 E45.75115
G1 X98.602 Y110.35 E45.77976
G1 X228.272 Y110.35 E50.41236
G1 X231.895 Y110.35 E50.5418
G1 X232.204 Y110.367 E50.55283
G1 X232.446 Y110.403 E50.56161
G1 X232.739 Y110.477 E50.57237
G1 X232.971 Y110.559 E50.5812
G1 X233.196 Y110.662 E50.59002
G1 X233.457 Y110.813 E50.60079
G1 X233.656 Y110.956 E50.60956
G1 X233.882 Y111.153 E50.62027
G1 X234.087 Y111.373 E50.63098
G1 X234.236 Y111.568 E50.63975
G1 X234.395 Y111.824 E50.65052
G1 X234.504 Y112.043 E50.65929
G1 X234.612 Y112.325 E50.67006
G1 X234.677 Y112.562 E50.67883
G1 X234.729 Y112.858 E50.68959
G1 X234.748 Y113.107 E50.69848
G1 X234.75 Y229.65 E54.86211
;WIPE_START
M204 S4000
G1 X234.404 Y229.45 F9000
;WIPE_END
G92 E0
G1 E-0.8 F3000
; acceleration to travel
M204 S3000
G1 X233.832 Y144.895 F9000
; decel to extrusion
M204 S1000
G1 X233.614 Y112.683
; end travel
G1 E0 F1800
;TYPE:Solid infill
;WIDTH:0.500245
G1 F3600
G1 X232.422 Y111.491 E0.06025
G1 X231.685 Y111.401 F9000
G1 F3600
G1 X233.697 Y113.413 E0.16194
G1 X233.697 Y114.059 F9000
G1 F3600
G1 X231.039 Y111.401 E0.29629
G1 X230.393 Y111.401 F9000
G1 F3600
G1 X233.697 Y114.706 E0.46333
G1 X233.697 Y115.352 F9000
G1 F3600
G1 X229.746 Y111.401 E0.66303
G1 X229.1 Y111.401 F9000
G1 F3600
G1 X233.697 Y115.999 E0.89542
G1 X233.697 Y116.645 F9000
G1 F3600
G1 X228.453 Y111.401 E1.16048
G1 X227.807 Y111.401 F9000
G1 F3600
G1 X233.697 Y117.291 E1.45821
G1 X233.697 Y117.938 F9000
G1 F3600
G1 X227.161 Y111.401 E1.78863
G1 X226.514 Y111.401 F9000
G1 F3600
G1 X233.697 Y118.584 E2.15171
G1 X233.697 Y119.231 F9000
G1 F3600
G1 X225.868 Y111.401 E2.54748
G1 X225.221 Y111.401 F9000
G1 F3600
G1 X233.697 Y119.877 E2.97591
G1 X233.697 Y120.523 F9000
G1 F3600
G1 X224.575 Y111.401 E3.43703
G1 X223.928 Y111.401 F9000
G1 F3600
G1 X233.697 Y121.17 E3.93082
G1 X233.697 Y121.816 F9000
G1 F3600
G1 X223.282 Y111.401 E4.45728
G1 X222.636 Y111.401 F9000
G1 F3600
G1 X233.697 Y122.463 E5.01642
G1 X233.697 Y123.109 F9000
G1 F3600
G1 X221.989 Y111.401 E5.60824
G1 X221.343 Y111.401 F9000
G1 F3600
G1 X233.697 Y123.756 E6.23273
G1 X233.697 Y124.402 F9000
G1 F3600
G1 X220.696 Y111.401 E6.8899
G1 X220.05 Y111.401 F9000
G1 F3600
G1 X233.697 Y125.048 E7.57975
