; HEADER_BLOCK_START
; generated by OrcaSlicer 1.6.3 on 2023-06-27 at 18:50:12
; total layer number: 129
; HEADER_BLOCK_END

; THUMBNAIL_BLOCK_START
; THUMBNAIL_BLOCK_END

; external perimeters extrusion width = 0.40mm
; perimeters extrusion width = 0.45mm
; infill extrusion width = 0.45mm
; solid infill extrusion width = 0.40mm
; top infill extrusion width = 0.40mm
; support material extrusion width = 0.40mm
; first layer extrusion width = 0.50mm

; EXECUTABLE_BLOCK_START
EXCLUDE_OBJECT_DEFINE NAME=Dude_Chilling_Park.STL_id_0_copy_0 CENTER=165,165 POLYGON=[[110.024,136.578],[110.044,136.328],[110.102,136.084],[110.198,135.852],[110.33,135.638],[110.493,135.447],[110.684,135.284],[110.898,135.153],[111.13,135.057],[111.374,134.998],[111.624,134.978],[218.376,134.978],[218.626,134.998],[218.87,135.057],[219.102,135.153],[219.316,135.284],[219.507,135.447],[219.67,135.638],[219.802,135.852],[219.898,136.084],[219.956,136.328],[219.976,136.578],[219.976,179.828],[219.953,180.098],[219.885,180.361],[219.773,180.608],[219.622,180.833],[219.434,181.028],[219.216,181.19],[218.975,181.312],[180.367,194.983],[180.245,195.012],[180.12,195.022],[149.88,195.022],[149.755,195.012],[149.633,194.983],[111.025,181.312],[110.784,181.19],[110.566,181.028],[110.378,180.833],[110.227,180.608],[110.115,180.361],[110.047,180.098],[110.024,179.828],[110.024,136.578]]
M73 P0 R64
M73 C60
;TYPE:Custom
START_PRINT T_BED=60 T_EXTRUDER=200
G90
G21
M83 ; use relative distances for extrusion
; filament start gcode

    PRESSURE_ADVANCE_SELECT FILAMENT=PLA
M106 S0
;LAYER_CHANGE
;Z:0.2
;HEIGHT:0.2
;BEFORE_LAYER_CHANGE
;0.2
G92 E0

M204 S1000
G1 E-.8 F3600
G1 X104.482 Y131.972 F9000
G1 Z.2
G1 E.8 F3600
;TYPE:Skirt
;WIDTH:0.5
G1 F3000
G1 X105.93 Y131.587 E.0558
G1 X224.07 Y131.587 E4.40027
G1 X225.532 Y131.98 E.05638
G1 X226.599 Y133.053 E.05638
G1 X226.984 Y134.501 E.0558
G1 X226.984 Y181.214 E1.73988
G1 X226.591 Y182.676 E.05638
G1 X224.943 Y183.994 E.07862
G1 X180.918 Y197.797 E1.71847
G1 X180.12 Y197.887 E.02989
G1 X149.88 Y197.887 E1.12633
G1 X148.775 Y197.716 E.04164
G1 X105.057 Y183.994 E1.70666
G1 X103.78 Y183.181 E.05638
G1 X103.016 Y181.214 E.07862
G1 X103.016 Y134.501 E1.73988
G1 X103.409 Y133.039 E.05638
G1 X104.44 Y132.014 E.05415
G1 X104.766 Y132.392 F9000
G1 F3000
G1 X104.915 Y132.263 E.00735
G1 X105.93 Y132.044 E.03866
G1 X224.07 Y132.044 E4.40027
G1 X225.401 Y132.436 E.05169
G1 X226.308 Y133.486 E.05169
G1 X226.527 Y134.501 E.03866
G1 X226.527 Y181.214 E1.73988
G1 X226.135 Y182.545 E.05169
G1 X224.806 Y183.558 E.06225
G1 X180.811 Y197.353 E1.71731
M73 C59
G1 X180.12 Y197.43 E.02589
G1 X149.88 Y197.43 E1.12633
G1 X148.912 Y197.28 E.03648
G1 X105.194 Y183.558 E1.70666
G1 X104.041 Y182.786 E.05169
G1 X103.473 Y181.214 E.06225
G1 X103.473 Y134.501 E1.73988
G1 X103.865 Y133.17 E.05169
G1 X104.72 Y132.431 E.0421
; printing object Dude Chilling Park.STL id:0 copy 0
EXCLUDE_OBJECT_START NAME=Dude_Chilling_Park.STL_id_0_copy_0
G1 E-.8 F3600
G1 X111.005 Y134.564 F9000
G1 E.8 F3600
;TYPE:Support
G1 F3000
G1 X110.688 Y134.69 E.01268
G1 X110.404 Y134.859 E.01232
G1 X110.15 Y135.072 E.01235
G1 X109.926 Y135.331 E.01274
G1 X109.757 Y135.6 E.01186
G1 X109.627 Y135.905 E.01232
G1 X109.546 Y136.225 E.01232
G1 X109.516 Y136.566 E.01276
G1 X109.516 Y179.841 E1.61182
G1 X109.551 Y180.209 E.01377
G1 X109.645 Y180.554 E.0133
G1 X109.796 Y180.877 E.0133
G1 X110.04 Y181.214 E.01548
G1 X105.93 Y181.214 E.15309
G1 X105.93 Y134.501 E1.73988
G1 X110.984 Y134.501 E.18824
G1 E-.8 F3600
G1 X111.088 Y135.849 F9000
G1 X110.717 Y140.962
G1 X109.105 Y179.85
G1 E.8 F3600
G1 F3000
G1 X109.148 Y180.296 E.01669
G1 X109.234 Y180.626 E.01271
G1 X109.306 Y180.802 E.00708
G1 X106.341 Y180.802 E.11042
G1 X106.341 Y134.912 E1.70924
M73 P0 R63
G1 X109.741 Y134.912 E.12662
G1 X109.557 Y135.139 E.01089
G1 X109.398 Y135.399 E.01136
G1 X109.241 Y135.762 E.01472
G1 X109.142 Y136.145 E.01472
G1 X109.105 Y136.558 E.01546
G1 X109.105 Y179.85 E1.61244
G1 X108.597 Y179.861 F9000
G1 F3000
G1 X108.631 Y180.295 E.01621
G1 X106.849 Y180.295 E.06638
G1 X106.849 Y135.42 E1.67141
G1 X108.794 Y135.42 E.07244
G1 X108.644 Y136.046 E.02397
G1 X108.597 Y136.548 E.0188
G1 X108.597 Y179.861 E1.61322
G1 X108.089 Y179.787 F9000
G1 F3000
G1 X107.357 Y179.787 E.02727
G1 X107.357 Y135.928 E1.63357
G1 X108.134 Y135.928 E.02895
G1 X108.089 Y136.538 E.0228
G1 X108.089 Y179.787 E1.61084
G1 E-.8 F3600
G1 X110.718 Y179.819 F9000
G1 X218.864 Y180.589
G1 X224.07 Y181.214
G1 E.8 F3600
G1 F3000
G1 X219.96 Y181.214 E.15309
G1 X220.204 Y180.877 E.01549
G1 X220.355 Y180.554 E.0133
G1 X220.449 Y180.209 E.0133
G1 X220.484 Y179.841 E.01377
G1 X220.484 Y136.566 E1.61185
G1 X220.459 Y136.26 E.01143
G1 X220.388 Y135.949 E.01186
G1 X220.265 Y135.642 E.01232
G1 X220.095 Y135.358 E.01232
G1 X219.883 Y135.105 E.01232
G1 X219.634 Y134.887 E.01232
G1 X219.312 Y134.69 E.01407
G1 X218.996 Y134.564 E.01268
G1 X219.013 Y134.501 E.00245
G1 X224.07 Y134.501 E.18834
G1 X224.07 Y181.145 E1.73733
G1 X220.895 Y179.85 F9000
G1 F3000
G1 X220.895 Y136.557 E1.6125
G1 X220.855 Y136.134 E.01582
G1 X220.759 Y135.762 E.01431
G1 X220.602 Y135.399 E.01472
G1 X220.437 Y135.13 E.01177
G1 X220.26 Y134.912 E.01046
G1 X223.659 Y134.912 E.1266
G1 X223.659 Y180.802 E1.70924
G1 X220.694 Y180.802 E.11042
G1 X220.766 Y180.626 E.00709
G1 X220.852 Y180.296 E.01271
G1 X220.895 Y179.85 E.01669
G1 X221.403 Y179.861 F9000
G1 F3000
G1 X221.403 Y136.546 E1.6133
G1 X221.353 Y136.034 E.01916
G1 X221.206 Y135.42 E.02352
G1 X223.151 Y135.42 E.07244
G1 X223.151 Y180.295 E1.67141
G1 X221.369 Y180.295 E.06638
G1 X221.403 Y179.861 E.01622
G1 X221.911 Y179.787 F9000
G1 F3000
G1 X221.911 Y136.535 E1.61095
G1 X221.863 Y135.928 E.0227
G1 X222.643 Y135.928 E.02906
G1 X222.643 Y179.787 E1.63358
G1 X221.911 Y179.787 E.02727
G1 E-.8 F3600
G1 X219.21 Y180.174 F9000
G1 X180.947 Y185.958
G1 X180.772 Y185.994
G1 X180.626 Y186.066
G1 X180.51 Y186.154
G1 X180.44 Y186.233
G1 X180.628 Y186.397
G1 E.8 F3600
;TYPE:Outer wall
;WIDTH:0.499999
G1 F3000
G1 X180.52 Y186.736 E.01324
G1 X180.513 Y194.284 E.28113
G1 X180.401 Y194.503 E.00916
G1 X180.182 Y194.614 E.00915
G1 X149.939 Y194.623 E1.12646
G1 X149.851 Y194.615 E.00329
G1 X149.594 Y194.496 E.01053
G1 X149.487 Y194.284 E.00884
G1 X149.48 Y186.736 E.28112
G1 X149.406 Y186.452 E.01093
G1 X149.211 Y186.268 E.00998
G1 X149.092 Y186.223 E.00477
G1 X141.864 Y185.651 E.27002
G1 X134.192 Y184.828 E.28739
G1 X126.55 Y183.771 E.28738
G1 X118.943 Y182.481 E.28738
G1 X111.518 Y180.988 E.28207
G1 X111.018 Y180.81 E.01977
G1 X110.726 Y180.553 E.01451
G1 X110.536 Y180.212 E.01451
G1 X110.466 Y179.804 E.01544
G1 X110.466 Y136.701 E1.60541
G1 X110.526 Y136.221 E.01801
G1 X110.686 Y135.907 E.01313
G1 X110.946 Y135.644 E.01378
G1 X111.267 Y135.48 E.01343
G1 X111.647 Y135.421 E.01431
G1 X218.253 Y135.421 E3.97067
M73 P1 R63
G1 X218.733 Y135.481 E.01803
G1 X219.055 Y135.644 E.01344
G1 X219.31 Y135.9 E.01345
G1 X219.474 Y136.221 E.01345
G1 X219.534 Y136.701 E.01802
G1 X219.534 Y179.692 E1.60123
G1 X219.464 Y180.212 E.01956
G1 X219.274 Y180.553 E.01451
G1 X218.982 Y180.81 E.01451
G1 X218.6 Y180.964 E.01533
G1 X211.057 Y182.481 E.28657
G1 X203.45 Y183.771 E.28738
G1 X195.808 Y184.828 E.28738
G1 X188.135 Y185.651 E.28739
G1 X180.88 Y186.227 E.2711
G1 X180.678 Y186.364 E.00909
G1 X180.558 Y186.385
G1 X180.276 Y186.135 F9000
;TYPE:Inner wall
G1 F3000
G1 X180.175 Y186.272 E.00634
G1 X180.063 Y186.735 E.01777
G1 X180.056 Y194.157 E.27644
G1 X149.944 Y194.166 E1.12154
G1 X149.937 Y186.736 E.27673
G1 X149.855 Y186.354 E.01455
G1 X149.748 Y186.137 E.00901
G1 X149.428 Y185.864 E.01567
G1 X149.128 Y185.767 E.01177
G1 X141.907 Y185.196 E.26978
G1 X134.248 Y184.374 E.2869
G1 X126.619 Y183.319 E.28686
G1 X119.026 Y182.032 E.28686
G1 X111.619 Y180.542 E.28139
G1 X111.261 Y180.415 E.01414
G1 X111.087 Y180.261 E.00867
G1 X110.973 Y180.058 E.00867
G1 X110.923 Y179.765 E.01107
G1 X110.923 Y136.701 E1.60397
G1 X110.949 Y136.475 E.00849
G1 X111.061 Y136.178 E.01182
G1 X111.315 Y135.969 E.01225
G1 X111.682 Y135.878 E.0141
G1 X218.253 Y135.878 E3.96934
G1 X218.59 Y135.921 E.01267
G1 X218.859 Y136.095 E.01192
G1 X219.034 Y136.364 E.01196
G1 X219.077 Y136.701 E.01266
G1 X219.077 Y179.692 E1.60123
G1 X219.027 Y180.058 E.01377
G1 X218.913 Y180.261 E.00867
G1 X218.739 Y180.415 E.00867
G1 X218.469 Y180.524 E.01084
G1 X210.974 Y182.032 E.28473
G1 X203.381 Y183.319 E.28686
G1 X195.752 Y184.374 E.28686
G1 X188.093 Y185.196 E.2869
G1 X180.872 Y185.767 E.26978
G1 X180.704 Y185.802 E.00643
G1 X180.363 Y186.018 E.01502
G1 X180.312 Y186.087 E.00319
G1 X179.921 Y185.847 F9000
G1 F3000
G1 X179.809 Y185.982 E.00652
G1 X179.65 Y186.421 E.01739
G1 X179.606 Y186.735 E.01181
G1 X179.599 Y193.7 E.25944
G1 X150.401 Y193.709 E1.08752
G1 X150.394 Y186.735 E.25972
G1 X150.372 Y186.514 E.00828
G1 X150.191 Y185.982 E.02094
G1 X149.965 Y185.698 E.01352
G1 X149.543 Y185.409 E.01906
G1 X149.164 Y185.311 E.0146
G1 X141.949 Y184.741 E.26954
G1 X134.304 Y183.921 E.2864
G1 X126.689 Y182.867 E.28634
G1 X119.109 Y181.582 E.28634
G1 X111.698 Y180.091 E.28155
G1 X111.448 Y179.97 E.01037
G1 X111.381 Y179.727 E.00942
G1 X111.381 Y136.701 E1.60253
G1 X111.401 Y136.546 E.00583
G1 X111.492 Y136.392 E.00667
G1 X111.718 Y136.335 E.00869
G1 X218.253 Y136.335 E3.96801
G1 X218.412 Y136.355 E.00597
G1 X218.561 Y136.444 E.00646
G1 X218.619 Y136.701 E.00984
G1 X218.619 Y179.692 E1.60123
G1 X218.552 Y179.97 E.01067
G1 X218.337 Y180.084 E.00906
G1 X210.891 Y181.582 E.2829
G1 X203.311 Y182.867 E.28634
G1 X195.696 Y183.921 E.28634
G1 X188.051 Y184.741 E.2864
G1 X180.836 Y185.311 E.26954
G1 X180.489 Y185.395 E.01331
G1 X180.069 Y185.668 E.01867
G1 X179.959 Y185.801 E.00641
G1 X179.55 Y185.579 F9000
G1 F3000
G1 X179.411 Y185.757 E.00845
G1 X179.211 Y186.295 E.02135
G1 X179.149 Y186.735 E.01654
G1 X179.143 Y193.244 E.24244
G1 X150.857 Y193.251 E1.05351
G1 X150.851 Y186.735 E.24271
G1 X150.82 Y186.425 E.01159
G1 X150.665 Y185.911 E.02002
G1 X150.43 Y185.525 E.01685
G1 X150.037 Y185.174 E.01961
G1 X149.64 Y184.954 E.01689
G1 X149.2 Y184.856 E.01682
G1 X141.992 Y184.286 E.2693
G1 X134.36 Y183.467 E.2859
G1 X126.758 Y182.415 E.28582
G1 X119.192 Y181.133 E.28582
G1 X111.838 Y179.653 E.27943
G1 X111.838 Y136.792 E1.59642
G1 X218.162 Y136.792 E3.96019
G1 X218.162 Y179.653 E1.59642
G1 X210.808 Y181.133 E.27943
G1 X203.242 Y182.415 E.28582
G1 X195.64 Y183.467 E.28582
G1 X188.008 Y184.286 E.2859
G1 X180.8 Y184.856 E.2693
G1 X180.55 Y184.896 E.00943
G1 X180.14 Y185.057 E.01643
G1 X179.702 Y185.383 E.02031
G1 X179.587 Y185.531 E.007
G1 E-.8 F3600
G1 X217.101 Y136.929 F9000
G1 E.8 F3600
;TYPE:Bottom surface
;WIDTH:0.500232
G1 F6300
G1 X217.82 Y137.648 E.03788
G1 X217.82 Y138.294 E.0241
G1 X216.66 Y137.135 E.06112
G1 X216.013 Y137.135 E.0241
G1 X217.82 Y138.941 E.09521
G1 X217.82 Y139.588 E.0241
G1 X215.366 Y137.135 E.12929
G1 X214.72 Y137.135 E.0241
G1 X217.82 Y140.235 E.16337
G1 X217.82 Y140.881 E.0241
G1 X214.073 Y137.135 E.19746
G1 X213.426 Y137.135 E.0241
G1 X217.82 Y141.528 E.23154
G1 X217.82 Y142.175 E.0241
G1 X212.779 Y137.135 E.26563
G1 X212.133 Y137.135 E.0241
G1 X217.82 Y142.822 E.29971
G1 X217.82 Y143.468 E.0241
G1 X211.486 Y137.135 E.33379
G1 X210.839 Y137.135 E.0241
G1 X217.82 Y144.115 E.36788
G1 X217.82 Y144.762 E.0241
G1 X210.192 Y137.135 E.40196
G1 X209.546 Y137.135 E.0241
G1 X217.82 Y145.409 E.43604
G1 X217.82 Y146.055 E.0241
G1 X208.899 Y137.135 E.47013
G1 X208.252 Y137.135 E.0241
G1 X217.82 Y146.702 E.50421
G1 X217.82 Y147.349 E.0241
G1 X207.605 Y137.135 E.53829
G1 X206.959 Y137.135 E.0241
G1 X217.82 Y147.996 E.57238
G1 X217.82 Y148.642 E.0241
G1 X206.312 Y137.135 E.60646
G1 X205.665 Y137.135 E.0241
G1 X217.82 Y149.289 E.64055
G1 X217.82 Y149.936 E.0241
G1 X205.018 Y137.135 E.67463
G1 X204.372 Y137.135 E.0241
G1 X217.82 Y150.582 E.70871
G1 X217.82 Y151.229 E.0241
G1 X203.725 Y137.135 E.7428
G1 X203.078 Y137.135 E.0241
G1 X217.82 Y151.876 E.77688
G1 X217.82 Y152.523 E.0241
G1 X202.432 Y137.135 E.81096
G1 X201.785 Y137.135 E.0241
G1 X217.82 Y153.169 E.84505
G1 X217.82 Y153.816 E.0241
G1 X201.138 Y137.135 E.87913
G1 X200.491 Y137.135 E.0241
G1 X217.82 Y154.463 E.91321
G1 X217.82 Y155.11 E.0241
G1 X199.845 Y137.135 E.9473
G1 X199.198 Y137.135 E.0241
G1 X217.82 Y155.756 E.98138
G1 X217.82 Y156.403 E.0241
G1 X198.551 Y137.135 E1.01546
G1 X197.904 Y137.135 E.0241
G1 X217.82 Y157.05 E1.04955
G1 X217.82 Y157.697 E.0241
G1 X197.258 Y137.135 E1.08363
G1 X196.611 Y137.135 E.0241
G1 X217.82 Y158.343 E1.11772
G1 X217.82 Y158.99 E.0241
G1 X195.964 Y137.135 E1.1518
G1 X195.317 Y137.135 E.0241
G1 X217.82 Y159.637 E1.18588
G1 X217.82 Y160.284 E.0241
G1 X194.671 Y137.135 E1.21997
G1 X194.024 Y137.135 E.0241
G1 X217.82 Y160.93 E1.25405
G1 X217.82 Y161.577 E.0241
G1 X193.377 Y137.135 E1.28813
M73 C58
G1 X192.73 Y137.135 E.0241
G1 X217.82 Y162.224 E1.32222
G1 X217.82 Y162.87 E.0241
G1 X192.084 Y137.135 E1.3563
G1 X191.437 Y137.135 E.0241
G1 X217.82 Y163.517 E1.39038
G1 X217.82 Y164.164 E.0241
G1 X190.79 Y137.135 E1.42447
G1 X190.144 Y137.135 E.0241
G1 X217.82 Y164.811 E1.45855
G1 X217.82 Y165.457 E.0241
G1 X189.497 Y137.135 E1.49263
G1 X188.85 Y137.135 E.0241
G1 X217.82 Y166.104 E1.52672
G1 X217.82 Y166.751 E.0241
G1 X188.203 Y137.135 E1.5608
G1 X187.557 Y137.135 E.0241
G1 X217.82 Y167.398 E1.59489
M73 P2 R63
G1 X217.82 Y168.044 E.0241
G1 X186.91 Y137.135 E1.62897
G1 X186.263 Y137.135 E.0241
G1 X217.82 Y168.691 E1.66305
G1 X217.82 Y169.338 E.0241
G1 X185.616 Y137.135 E1.69714
G1 X184.97 Y137.135 E.0241
G1 X217.82 Y169.985 E1.73122
M73 P2 R62
G1 X217.82 Y170.631 E.0241
G1 X184.323 Y137.135 E1.7653
G1 X183.676 Y137.135 E.0241
G1 X217.82 Y171.278 E1.79939
G1 X217.82 Y171.925 E.0241
G1 X183.029 Y137.135 E1.83347
G1 X182.383 Y137.135 E.0241
G1 X217.82 Y172.572 E1.86755
G1 X217.82 Y173.218 E.0241
G1 X181.736 Y137.135 E1.90164
G1 X181.089 Y137.135 E.0241
G1 X217.82 Y173.865 E1.93572
G1 X217.82 Y174.512 E.0241
G1 X180.442 Y137.135 E1.9698
G1 X179.796 Y137.135 E.0241
G1 X217.82 Y175.158 E2.00389
G1 X217.82 Y175.805 E.0241
G1 X179.149 Y137.135 E2.03797
G1 X178.502 Y137.135 E.0241
G1 X217.82 Y176.452 E2.07206
G1 X217.82 Y177.099 E.0241
G1 X177.856 Y137.135 E2.10614
G1 X177.209 Y137.135 E.0241
G1 X217.82 Y177.745 E2.14022
G1 X217.82 Y178.392 E.0241
G1 X176.562 Y137.135 E2.17431
G1 X175.915 Y137.135 E.0241
G1 X217.82 Y179.039 E2.20839
G1 X217.82 Y179.372 E.01243
G1 X217.559 Y179.425 E.00991
G1 X175.269 Y137.135 E2.22873
G1 X174.622 Y137.135 E.0241
G1 X217.02 Y179.533 E2.23444
G1 X216.482 Y179.642 E.02047
G1 X173.975 Y137.135 E2.24015
G1 X173.328 Y137.135 E.0241
G1 X215.944 Y179.75 E2.24586
G1 X215.405 Y179.858 E.02047
G1 X172.682 Y137.135 E2.25156
G1 X172.035 Y137.135 E.0241
G1 X214.867 Y179.966 E2.25727
G1 X214.328 Y180.075 E.02047
G1 X171.388 Y137.135 E2.26298
G1 X170.741 Y137.135 E.0241
G1 X213.79 Y180.183 E2.26869
G1 X213.251 Y180.291 E.02047
G1 X170.095 Y137.135 E2.27439
G1 X169.448 Y137.135 E.0241
G1 X212.713 Y180.4 E2.2801
G1 X212.174 Y180.508 E.02047
G1 X168.801 Y137.135 E2.28581
G1 X168.154 Y137.135 E.0241
G1 X211.636 Y180.616 E2.29152
G1 X211.098 Y180.725 E.02047
G1 X167.508 Y137.135 E2.29722
G1 X166.861 Y137.135 E.0241
G1 X210.554 Y180.828 E2.30267
G1 X210.001 Y180.922 E.0209
G1 X166.214 Y137.135 E2.30761
G1 X165.568 Y137.135 E.0241
G1 X209.448 Y181.015 E2.31255
G1 X208.895 Y181.109 E.0209
G1 X164.921 Y137.135 E2.31749
G1 X164.274 Y137.135 E.0241
G1 X208.342 Y181.203 E2.32243
G1 X207.789 Y181.297 E.0209
G1 X163.627 Y137.135 E2.32737
G1 X162.981 Y137.135 E.0241
G1 X207.236 Y181.39 E2.33232
G1 X206.683 Y181.484 E.0209
G1 X162.334 Y137.135 E2.33726
G1 X161.687 Y137.135 E.0241
G1 X206.13 Y181.578 E2.3422
G1 X205.577 Y181.672 E.0209
G1 X161.04 Y137.135 E2.34714
G1 X160.394 Y137.135 E.0241
G1 X205.024 Y181.765 E2.35208
G1 X204.471 Y181.859 E.0209
G1 X159.747 Y137.135 E2.35702
G1 X159.1 Y137.135 E.0241
G1 X203.918 Y181.953 E2.36196
G1 X203.366 Y182.047 E.0209
G1 X158.453 Y137.135 E2.36691
G1 X157.807 Y137.135 E.0241
G1 X202.802 Y182.13 E2.3713
G1 X202.234 Y182.209 E.02137
G1 X157.16 Y137.135 E2.37544
G1 X156.513 Y137.135 E.0241
