; HEADER_BLOCK_START
; generated by OrcaSlicer 1.6.2 on 2023-05-17 at 18:27:47
; total layer number: 134
; HEADER_BLOCK_END

; THUMBNAIL_BLOCK_START
; THUMBNAIL_BLOCK_END

; external perimeters extrusion width = 0.40mm
; perimeters extrusion width = 0.45mm
; infill extrusion width = 0.45mm
; solid infill extrusion width = 0.40mm
; top infill extrusion width = 0.40mm
; support material extrusion width = 0.40mm
; first layer extrusion width = 0.50mm

; external perimeters extrusion width = 0.21mm
; perimeters extrusion width = 0.21mm
; infill extrusion width = 0.21mm
; solid infill extrusion width = 0.21mm
; top infill extrusion width = 0.21mm
; support material extrusion width = 0.40mm
; first layer extrusion width = 0.50mm

; EXECUTABLE_BLOCK_START
EXCLUDE_OBJECT_DEFINE NAME=Dude_Chilling_Park.STL_id_0_copy_0 CENTER=163.971,165.218 POLYGON=[[108.995,136.797],[109.015,136.545],[109.073,136.301],[109.169,136.071],[109.301,135.855],[109.463,135.665],[109.653,135.503],[109.869,135.371],[110.099,135.275],[110.343,135.217],[110.595,135.197],[217.345,135.197],[217.597,135.217],[217.841,135.275],[218.073,135.371],[218.287,135.503],[218.477,135.665],[218.641,135.855],[218.771,136.071],[218.867,136.301],[218.927,136.545],[218.947,136.797],[218.947,180.047],[218.923,180.317],[218.855,180.579],[218.743,180.825],[218.593,181.049],[218.405,181.245],[218.185,181.407],[217.945,181.531],[179.337,195.201],[179.215,195.229],[179.091,195.239],[148.849,195.239],[148.725,195.229],[148.603,195.201],[109.995,181.531],[109.753,181.407],[109.535,181.245],[109.349,181.049],[109.197,180.825],[109.085,180.579],[109.017,180.317],[108.995,180.047],[108.995,136.797]]
M73 P0 R70
M73 C64
;TYPE:Custom
START_PRINT T_BED=60 T_EXTRUDER=220
G90
G21
M83 ; use relative distances for extrusion
; filament start gcode

    PRESSURE_ADVANCE_SELECT FILAMENT=PLA
M106 S0
;LAYER_CHANGE
;Z:0.2
;HEIGHT:0.2
SET_VELOCITY_LIMIT ACCEL_TO_DECEL=250
M204 S500
G1 E-.8 F3000
G1 X103.453 Y132.189 Z.2 F9000
G1 E.8 F1800
;TYPE:Skirt
;WIDTH:0.5
G1 F3000
G1 X104.901 Y131.804 E.0558
G1 X223.041 Y131.804 E4.40027
G1 X224.503 Y132.197 E.05638
G1 X225.57 Y133.271 E.05638
G1 X225.955 Y134.718 E.0558
G1 X225.955 Y181.432 E1.73988
G1 X225.562 Y182.893 E.05638
G1 X223.914 Y184.212 E.07862
G1 X179.902 Y198.013 E1.71798
G1 X179.091 Y198.107 E.03041
G1 X148.849 Y198.107 E1.1264
G1 X147.738 Y197.933 E.0419
G1 X104.028 Y184.212 E1.70634
G1 X102.751 Y183.399 E.05638
G1 X101.987 Y181.431 E.07862
G1 X101.987 Y134.718 E1.73988
G1 X102.38 Y133.257 E.05638
G1 X103.411 Y132.232 E.05415
G1 X103.737 Y132.61 F9000
G1 F3000
G1 X103.886 Y132.481 E.00735
G1 X104.901 Y132.261 E.03866
G1 X223.041 Y132.261 E4.40027
M73 C63
G1 X224.372 Y132.653 E.05169
G1 X225.279 Y133.704 E.05169
G1 X225.498 Y134.718 E.03866
G1 X225.498 Y181.432 E1.73988
G1 X225.106 Y182.763 E.05169
G1 X223.777 Y183.776 E.06225
G1 X179.793 Y197.569 E1.71689
G1 X179.091 Y197.65 E.02633
G1 X148.849 Y197.65 E1.1264
G1 X147.874 Y197.497 E.03674
G1 X104.165 Y183.776 E1.70634
G1 X103.012 Y183.003 E.05169
G1 X102.444 Y181.431 E.06225
G1 X102.444 Y134.718 E1.73988
G1 X102.836 Y133.387 E.05169
G1 X103.691 Y132.649 E.0421
; printing object Dude Chilling Park.STL id:0 copy 0
EXCLUDE_OBJECT_START NAME=Dude_Chilling_Park.STL_id_0_copy_0
G1 E-.8
G1 X109.974 Y134.783 F9000
G1 E.8 F1800
;TYPE:Support
G1 F3000
G1 X109.951 Y134.789 E.00089
G1 X109.906 Y134.803 E.00173
G1 X109.656 Y134.908 E.01013
G1 X109.615 Y134.929 E.0017
G1 X109.375 Y135.076 E.01048
G1 X109.336 Y135.104 E.00179
G1 X109.12 Y135.289 E.01059
G1 X109.087 Y135.322 E.00173
G1 X108.902 Y135.538 E.01059
G1 X108.874 Y135.577 E.00179
G1 X108.727 Y135.817 E.01049
G1 X108.706 Y135.858 E.0017
G1 X108.596 Y136.121 E.01065
G1 X108.581 Y136.168 E.00182
G1 X108.516 Y136.442 E.01049
G1 X108.509 Y136.486 E.00167
G1 X108.486 Y136.759 E.01021
G1 X108.485 Y136.784 E.00093
G1 X108.485 Y180.06 E1.61185
G1 X108.486 Y180.085 E.00096
G1 X108.512 Y180.378 E.01093
G1 X108.52 Y180.428 E.00188
G1 X108.597 Y180.723 E.01137
G1 X108.614 Y180.771 E.0019
G1 X108.741 Y181.052 E.01148
G1 X108.766 Y181.097 E.0019
G1 X108.936 Y181.348 E.01132
G1 X108.967 Y181.386 E.00182
G1 X109.01 Y181.431 E.00231
G1 X104.901 Y181.431 E.15303
G1 X104.901 Y134.718 E1.73988
G1 X109.954 Y134.718 E.18822
G1 E-.8
G1 X110.058 Y136.065 F9000
G1 X109.685 Y141.21
G1 X108.074 Y180.068
G1 E.8 F1800
G1 F3000
G1 X108.076 Y180.112 E.00163
G1 X108.103 Y180.43 E.0119
G1 X108.118 Y180.514 E.00317
G1 X108.203 Y180.844 E.01267
G1 X108.232 Y180.925 E.00321
G1 X108.275 Y181.02 E.00389
G1 X105.312 Y181.02 E.11036
G1 X105.312 Y135.13 E1.70924
G1 X108.71 Y135.13 E.12654
G1 X108.579 Y135.283 E.00749
G1 X108.531 Y135.348 E.00302
G1 X108.368 Y135.616 E.01168
G1 X108.333 Y135.685 E.00287
G1 X108.21 Y135.978 E.01185
G1 X108.185 Y136.056 E.00306
G1 X108.112 Y136.362 E.01168
G1 X108.1 Y136.437 E.00282
G1 X108.076 Y136.733 E.0111
G1 X108.074 Y136.776 E.00157
G1 X108.074 Y180.068 E1.6125
G1 X107.566 Y180.079 F9000
G1 F3000
G1 X107.569 Y180.145 E.00244
G1 X107.601 Y180.512 E.01373
G1 X105.82 Y180.512 E.06632
G1 X105.82 Y135.638 E1.67141
G1 X107.762 Y135.638 E.07234
G1 X107.614 Y136.263 E.02393
G1 X107.596 Y136.375 E.00424
G1 X107.569 Y136.702 E.0122
G1 X107.566 Y136.765 E.00236
G1 X107.566 Y180.079 E1.6133
G1 X107.058 Y180.004 F9000
G1 F3000
G1 X106.328 Y180.004 E.02719
G1 X106.328 Y136.146 E1.63357
G1 X107.105 Y136.146 E.02896
G1 X107.062 Y136.67 E.0196
G1 X107.058 Y136.754 E.00314
G1 X107.058 Y180.004 E1.6109
G1 E-.8
G1 X109.687 Y180.037 F9000
G1 X217.837 Y180.806
G1 X223.041 Y181.432
G1 E.8 F1800
G1 F3000
G1 X218.93 Y181.432 E.15311
G1 X218.973 Y181.386 E.00232
G1 X219.004 Y181.348 E.00182
G1 X219.174 Y181.095 E.01136
G1 X219.2 Y181.049 E.00199
G1 X219.33 Y180.755 E.01198
G1 X219.346 Y180.709 E.00181
G1 X219.42 Y180.428 E.01082
G1 X219.428 Y180.378 E.00188
G1 X219.453 Y180.085 E.01093
G1 X219.455 Y180.06 E.00096
G1 X219.455 Y136.784 E1.61185
G1 X219.454 Y136.759 E.00093
G1 X219.431 Y136.486 E.01021
G1 X219.424 Y136.442 E.00167
G1 X219.359 Y136.169 E.01045
G1 X219.345 Y136.124 E.00174
G1 X219.236 Y135.86 E.01066
G1 X219.214 Y135.815 E.00186
G1 X219.064 Y135.574 E.01056
G1 X219.037 Y135.537 E.00172
G1 X218.853 Y135.322 E.01055
G1 X218.82 Y135.289 E.00173
G1 X218.604 Y135.104 E.01059
G1 X218.565 Y135.076 E.00179
G1 X218.325 Y134.929 E.01049
G1 X218.284 Y134.908 E.0017
G1 X218.019 Y134.797 E.0107
G1 X217.97 Y134.782 E.00193
G1 X217.967 Y134.781 E.00011
G1 X217.984 Y134.718 E.00242
G1 X223.041 Y134.718 E.18834
G1 X223.041 Y181.363 E1.73733
G1 X219.866 Y180.068 F9000
G1 F3000
G1 X219.866 Y136.776 E1.6125
G1 X219.864 Y136.733 E.00157
G1 X219.839 Y136.437 E.0111
G1 X219.827 Y136.362 E.00282
G1 X219.755 Y136.058 E.01161
G1 X219.731 Y135.983 E.00293
G1 X219.61 Y135.688 E.01189
G1 X219.572 Y135.613 E.00313
G1 X219.406 Y135.344 E.01179
G1 X219.36 Y135.281 E.00289
G1 X219.23 Y135.13 E.00743
G1 X222.63 Y135.13 E.12662
G1 X222.63 Y181.02 E1.70924
G1 X219.663 Y181.02 E.1105
G1 X219.713 Y180.906 E.00466
G1 X219.74 Y180.828 E.00306
G1 X219.822 Y180.514 E.01208
G1 X219.837 Y180.43 E.00317
G1 X219.864 Y180.112 E.0119
G1 X219.866 Y180.068 E.00163
G1 X220.374 Y180.079 F9000
G1 F3000
G1 X220.374 Y136.765 E1.6133
G1 X220.371 Y136.702 E.00236
G1 X220.344 Y136.375 E.0122
G1 X220.326 Y136.263 E.00424
G1 X220.178 Y135.638 E.02393
G1 X222.122 Y135.638 E.07241
G1 X222.122 Y180.512 E1.67141
G1 X220.339 Y180.512 E.06639
G1 X220.371 Y180.145 E.01373
G1 X220.374 Y180.079 E.00244
G1 X220.882 Y180.004 F9000
G1 F3000
G1 X220.882 Y136.754 E1.6109
G1 X220.878 Y136.67 E.00314
G1 X220.834 Y136.146 E.0196
G1 X221.614 Y136.146 E.02903
G1 X221.614 Y180.004 E1.63358
G1 X220.882 Y180.004 E.02727
G1 E-.8
G1 X218.193 Y180.36 F9000
G1 X178.93 Y186.112
G1 E.8 F1800
;TYPE:Inner wall
G1 F3000
G1 X178.831 Y186.198 E.00488
G1 X178.676 Y186.819 E.02384
G1 X178.67 Y194.019 E.26817
G1 X149.27 Y194.029 E1.09502
G1 X149.264 Y186.844 E.26758
G1 X149.148 Y186.276 E.02161
G1 X148.516 Y185.655 E.03301
G1 X140.91 Y185.059 E.28415
G1 X133.263 Y184.237 E.28649
G1 X125.644 Y183.184 E.28648
G1 X118.061 Y181.898 E.28646
G1 X110.559 Y180.388 E.28501
G1 X110.463 Y180.359 E.00375
G1 X110.367 Y180.299 E.00421
G1 X110.273 Y180.158 E.00632
G1 X110.249 Y179.996 E.00608
G1 X110.249 Y136.845 E1.60722
G1 X110.27 Y136.691 E.00578
G1 X110.319 Y136.596 E.00399
G1 X110.394 Y136.52 E.00397
G1 X110.482 Y136.475 E.0037
G1 X110.643 Y136.451 E.00607
G1 X217.39 Y136.459 E3.97589
M73 P1 R70
G1 X217.501 Y136.493 E.00434
G1 X217.624 Y136.599 E.00603
G1 X217.669 Y136.687 E.00369
G1 X217.69 Y136.845 E.00594
G1 X217.69 Y179.996 E1.60722
G1 X217.681 Y180.103 E.00398
G1 X217.64 Y180.215 E.00446
G1 X217.57 Y180.303 E.00418
G1 X217.478 Y180.359 E.004
G1 X209.879 Y181.898 E.28878
G1 X202.296 Y183.184 E.28647
G1 X194.679 Y184.237 E.2864
G1 X187.031 Y185.059 E.28649
G1 X179.462 Y185.653 E.28278
G1 X178.975 Y186.073 E.02396
G1 X179.289 Y186.406 F9000
G1 F3000
G1 X179.239 Y186.449 E.00244
G1 X179.133 Y186.875 E.01635
G1 X179.126 Y194.476 E.2831
G1 X148.814 Y194.486 E1.12904
G1 X148.807 Y186.891 E.28289
M73 P1 R69
G1 X148.728 Y186.504 E.01469
G1 X148.314 Y186.098 E.0216
G1 X140.868 Y185.514 E.2782
G1 X133.207 Y184.691 E.28699
G1 X125.574 Y183.635 E.287
G1 X117.977 Y182.347 E.28698
G1 X110.447 Y180.832 E.28609
G1 X110.293 Y180.785 E.00601
G1 X110.064 Y180.644 E.01001
G1 X109.897 Y180.435 E.00998
G1 X109.84 Y180.311 E.00508
G1 X109.807 Y180.18 E.00501
G1 X109.792 Y180.016 E.00615
G1 X109.792 Y136.826 E1.60866
G1 X109.834 Y136.55 E.01042
G1 X109.948 Y136.326 E.00933
G1 X110.125 Y136.149 E.00932
G1 X110.339 Y136.039 E.00896
G1 X110.624 Y135.994 E.01077
G1 X217.315 Y135.994 E3.97382
G1 X217.46 Y136.006 E.00542
G1 X217.709 Y136.085 E.00974
G1 X217.815 Y136.149 E.00462
G1 X217.994 Y136.328 E.00941
G1 X218.105 Y136.547 E.00914
G1 X218.147 Y136.826 E.01052
G1 X218.147 Y180.016 E1.60866
G1 X218.133 Y180.181 E.00615
G1 X218.041 Y180.438 E.01017
G1 X217.874 Y180.646 E.00997
G1 X217.648 Y180.785 E.00986
G1 X217.493 Y180.832 E.00603
G1 X209.962 Y182.347 E.28612
G1 X202.366 Y183.635 E.28699
G1 X194.735 Y184.691 E.28692
G1 X187.074 Y185.514 E.28699
G1 X179.647 Y186.097 E.27744
G1 X179.334 Y186.367 E.01541
G1 X179.648 Y186.7 F9000
;TYPE:Outer wall
G1 F3000
G1 X179.59 Y186.931 E.00887
G1 X179.583 Y194.517 E.28254
G1 X179.536 Y194.665 E.00579
G1 X179.443 Y194.792 E.00587
G1 X179.317 Y194.884 E.00581
G1 X179.168 Y194.933 E.00581
G1 X148.87 Y194.943 E1.1285
G1 X148.691 Y194.912 E.00677
G1 X148.548 Y194.838 E.006
G1 X148.406 Y194.665 E.00834
G1 X148.356 Y194.516 E.00585
G1 X148.35 Y186.937 E.2823
G1 X148.308 Y186.732 E.00777
G1 X148.113 Y186.541 E.0102
G1 X140.826 Y185.969 E.27225
G1 X133.151 Y185.144 E.2875
G1 X125.505 Y184.087 E.28751
G1 X117.894 Y182.797 E.28751
G1 X110.336 Y181.276 E.28717
G1 X110.123 Y181.211 E.00827
G1 X109.944 Y181.122 E.00745
G1 X109.761 Y180.989 E.00842
G1 X109.615 Y180.835 E.00792
G1 X109.496 Y180.659 E.00791
G1 X109.408 Y180.464 E.00799
G1 X109.354 Y180.258 E.0079
G1 X109.335 Y180.036 E.00832
G1 X109.335 Y136.807 E1.61011
G1 X109.353 Y136.598 E.00782
G1 X109.398 Y136.408 E.00728
G1 X109.475 Y136.224 E.00742
G1 X109.576 Y136.057 E.00728
G1 X109.705 Y135.907 E.00736
G1 X109.855 Y135.778 E.00736
G1 X110.022 Y135.676 E.00728
G1 X110.195 Y135.604 E.00698
G1 X110.397 Y135.554 E.00775
G1 X110.605 Y135.537 E.00778
G1 X217.334 Y135.537 E3.97525
G1 X217.53 Y135.554 E.00732
G1 X217.735 Y135.6 E.00783
G1 X217.918 Y135.676 E.00737
G1 X218.085 Y135.778 E.00728
G1 X218.235 Y135.907 E.00736
G1 X218.364 Y136.058 E.00739
G1 X218.467 Y136.224 E.00729
G1 X218.542 Y136.407 E.00736
G1 X218.587 Y136.598 E.00732
G1 X218.605 Y136.807 E.00782
G1 X218.605 Y180.036 E1.61011
G1 X218.585 Y180.258 E.00832
G1 X218.535 Y180.451 E.00743
G1 X218.443 Y180.66 E.0085
G1 X218.324 Y180.835 E.00787
G1 X218.178 Y180.99 E.00796
G1 X218.006 Y181.116 E.00793
G1 X217.818 Y181.211 E.00784
G1 X217.604 Y181.276 E.00832
G1 X210.046 Y182.797 E.28718
G1 X202.435 Y184.087 E.28751
G1 X194.79 Y185.144 E.28744
G1 X187.116 Y185.969 E.2875
G1 X179.833 Y186.541 E.27211
G1 X179.693 Y186.661 E.00686
G1 X179.601 Y186.694
G1 E-.8
G1 X217.553 Y137.662 F9000
G1 E.8 F1800
;TYPE:Bottom surface
;WIDTH:0.500045
G1 F6300
G1 X216.694 Y136.802 E.04529
G1 X216.047 Y136.802 E.02408
G1 X217.348 Y138.102 E.06852
G1 X217.348 Y138.749 E.02408
G1 X215.4 Y136.802 E.10257
G1 X214.754 Y136.802 E.02408
G1 X217.348 Y139.395 E.13663
G1 X217.348 Y140.042 E.02408
G1 X214.107 Y136.802 E.17069
G1 X213.461 Y136.802 E.02408
G1 X217.348 Y140.688 E.20475
G1 X217.348 Y141.335 E.02408
G1 X212.814 Y136.802 E.23881
G1 X212.168 Y136.802 E.02408
G1 X217.348 Y141.981 E.27286
G1 X217.348 Y142.628 E.02408
G1 X211.521 Y136.801 E.30692
G1 X210.875 Y136.801 E.02408
G1 X217.348 Y143.274 E.34098
G1 X217.348 Y143.921 E.02408
G1 X210.228 Y136.801 E.37504
G1 X209.582 Y136.801 E.02408
G1 X217.348 Y144.567 E.4091
G1 X217.348 Y145.214 E.02408
G1 X208.935 Y136.801 E.44316
G1 X208.289 Y136.801 E.02408
G1 X217.348 Y145.86 E.47721
G1 X217.348 Y146.507 E.02408
G1 X207.642 Y136.801 E.51127
G1 X206.996 Y136.801 E.02408
G1 X217.348 Y147.153 E.54533
G1 X217.348 Y147.799 E.02408
G1 X206.349 Y136.801 E.57939
G1 X205.703 Y136.801 E.02408
G1 X217.348 Y148.446 E.61345
G1 X217.348 Y149.092 E.02408
G1 X205.056 Y136.801 E.64751
G1 X204.41 Y136.801 E.02408
G1 X217.348 Y149.739 E.68156
G1 X217.348 Y150.385 E.02408
G1 X203.763 Y136.801 E.71562
G1 X203.117 Y136.801 E.02408
G1 X217.348 Y151.032 E.74968
G1 X217.348 Y151.678 E.02408
G1 X202.47 Y136.801 E.78374
G1 X201.824 Y136.801 E.02408
G1 X217.348 Y152.325 E.8178
G1 X217.348 Y152.971 E.02408
G1 X201.177 Y136.801 E.85186
G1 X200.531 Y136.801 E.02408
G1 X217.348 Y153.618 E.88591
G1 X217.348 Y154.264 E.02408
G1 X199.884 Y136.801 E.91997
G1 X199.237 Y136.801 E.02408
G1 X217.348 Y154.911 E.95403
G1 X217.348 Y155.557 E.02408
G1 X198.591 Y136.8 E.98809
G1 X197.944 Y136.8 E.02408
G1 X217.348 Y156.204 E1.02215
G1 X217.348 Y156.85 E.02408
G1 X197.298 Y136.8 E1.0562
M73 C62
G1 X196.651 Y136.8 E.02408
G1 X217.348 Y157.497 E1.09026
G1 X217.348 Y158.143 E.02408
G1 X196.005 Y136.8 E1.12432
G1 X195.358 Y136.8 E.02408
G1 X217.348 Y158.79 E1.15838
G1 X217.348 Y159.436 E.02408
G1 X194.712 Y136.8 E1.19244
G1 X194.065 Y136.8 E.02408
G1 X217.348 Y160.082 E1.2265
G1 X217.348 Y160.729 E.02408
G1 X193.419 Y136.8 E1.26055
G1 X192.772 Y136.8 E.02408
G1 X217.348 Y161.375 E1.29461
G1 X217.348 Y162.022 E.02408
G1 X192.126 Y136.8 E1.32867
G1 X191.479 Y136.8 E.02408
G1 X217.348 Y162.668 E1.36273
G1 X217.348 Y163.315 E.02408
G1 X190.833 Y136.8 E1.39679
G1 X190.186 Y136.8 E.02408
G1 X217.348 Y163.961 E1.43085
G1 X217.348 Y164.608 E.02408
G1 X189.54 Y136.8 E1.4649
G1 X188.893 Y136.8 E.02408
G1 X217.348 Y165.254 E1.49896
G1 X217.348 Y165.901 E.02408
G1 X188.247 Y136.8 E1.53302
G1 X187.6 Y136.8 E.02408
G1 X217.348 Y166.547 E1.56708
G1 X217.348 Y167.194 E.02408
G1 X186.954 Y136.8 E1.60114
G1 X186.307 Y136.8 E.02408
G1 X217.348 Y167.84 E1.6352
G1 X217.348 Y168.487 E.02408
G1 X185.661 Y136.8 E1.66925
G1 X185.014 Y136.799 E.02408
G1 X217.348 Y169.133 E1.70331
G1 X217.348 Y169.78 E.02408
G1 X184.367 Y136.799 E1.73737
G1 X183.721 Y136.799 E.02408
G1 X217.348 Y170.426 E1.77143
G1 X217.348 Y171.072 E.02408
G1 X183.074 Y136.799 E1.80549
G1 X182.428 Y136.799 E.02408
G1 X217.348 Y171.719 E1.83954
G1 X217.348 Y172.365 E.02408
G1 X181.781 Y136.799 E1.8736
G1 X181.135 Y136.799 E.02408
G1 X217.348 Y173.012 E1.90766
M73 P2 R69
G1 X217.348 Y173.658 E.02408
G1 X180.488 Y136.799 E1.94172
G1 X179.842 Y136.799 E.02408
G1 X217.348 Y174.305 E1.97578
G1 X217.348 Y174.951 E.02408
G1 X179.195 Y136.799 E2.00984
G1 X178.549 Y136.799 E.02408
G1 X217.348 Y175.598 E2.04389
G1 X217.348 Y176.244 E.02408
G1 X177.902 Y136.799 E2.07795
G1 X177.256 Y136.799 E.02408
G1 X217.348 Y176.891 E2.11201
G1 X217.348 Y177.537 E.02408
G1 X176.609 Y136.799 E2.14607
G1 X175.963 Y136.799 E.02408
G1 X217.348 Y178.184 E2.18013
G1 X217.348 Y178.83 E.02408
G1 X175.316 Y136.799 E2.21419
G1 X174.67 Y136.799 E.02408
G1 X217.348 Y179.477 E2.24824
G1 X217.344 Y180.028 E.02052
G1 X217.275 Y180.05 E.0027
