; HEADER_BLOCK_START
; generated by OrcaSlicer 1.6.3 on 2023-06-27 at 20:09:03
; total layer number: 129
; HEADER_BLOCK_END

; THUMBNAIL_BLOCK_START
; THUMBNAIL_BLOCK_END

; external perimeters extrusion width = 0.40mm
; perimeters extrusion width = 0.45mm
; infill extrusion width = 0.45mm
; solid infill extrusion width = 0.40mm
; top infill extrusion width = 0.40mm
; support material extrusion width = 0.40mm
; first layer extrusion width = 0.50mm

; EXECUTABLE_BLOCK_START
EXCLUDE_OBJECT_DEFINE NAME=Dude_Chilling_Park.STL_id_0_copy_0 CENTER=165,165 POLYGON=[[110.024,136.578],[110.044,136.328],[110.102,136.084],[110.198,135.852],[110.33,135.638],[110.493,135.447],[110.684,135.284],[110.898,135.153],[111.13,135.057],[111.374,134.998],[111.624,134.978],[218.376,134.978],[218.626,134.998],[218.87,135.057],[219.102,135.153],[219.316,135.284],[219.507,135.447],[219.67,135.638],[219.802,135.852],[219.898,136.084],[219.956,136.328],[219.976,136.578],[219.976,179.828],[219.953,180.098],[219.885,180.361],[219.773,180.608],[219.622,180.833],[219.434,181.028],[219.216,181.19],[218.975,181.312],[180.367,194.983],[180.245,195.012],[180.12,195.022],[149.88,195.022],[149.755,195.012],[149.633,194.983],[111.025,181.312],[110.784,181.19],[110.566,181.028],[110.378,180.833],[110.227,180.608],[110.115,180.361],[110.047,180.098],[110.024,179.828],[110.024,136.578]]
M73 P0 R65
M73 C60
;TYPE:Custom
START_PRINT T_BED=60 T_EXTRUDER=200
G90
G21
M83 ; use relative distances for extrusion
; filament start gcode

    PRESSURE_ADVANCE_SELECT FILAMENT=PLA
M106 S0
;LAYER_CHANGE
;Z:0.2
;HEIGHT:0.2
;BEFORE_LAYER_CHANGE
;0.2
G92 E0

M204 S1000
G1 E-.8 F3600
G1 X104.482 Y131.972 F9000
G1 Z.2
G1 E.8 F3600
;TYPE:Skirt
;WIDTH:0.5
G1 F3000
G1 X105.93 Y131.587 E.0558
G1 X224.07 Y131.587 E4.40027
G1 X225.532 Y131.98 E.05638
G1 X226.599 Y133.053 E.05638
G1 X226.984 Y134.501 E.0558
G1 X226.984 Y181.214 E1.73988
G1 X226.591 Y182.676 E.05638
G1 X224.943 Y183.994 E.07862
G1 X180.918 Y197.797 E1.71847
G1 X180.12 Y197.887 E.02989
G1 X149.88 Y197.887 E1.12633
G1 X148.775 Y197.716 E.04164
G1 X105.057 Y183.994 E1.70666
G1 X103.78 Y183.181 E.05638
G1 X103.016 Y181.214 E.07862
G1 X103.016 Y134.501 E1.73988
G1 X103.409 Y133.039 E.05638
G1 X104.44 Y132.014 E.05415
G1 X104.766 Y132.392 F9000
G1 F3000
G1 X104.915 Y132.263 E.00735
G1 X105.93 Y132.044 E.03866
G1 X224.07 Y132.044 E4.40027
G1 X225.401 Y132.436 E.05169
G1 X226.308 Y133.486 E.05169
G1 X226.527 Y134.501 E.03866
G1 X226.527 Y181.214 E1.73988
G1 X226.135 Y182.545 E.05169
G1 X224.806 Y183.558 E.06225
G1 X180.811 Y197.353 E1.71731
G1 X180.12 Y197.43 E.02589
G1 X149.88 Y197.43 E1.12633
G1 X148.912 Y197.28 E.03648
G1 X105.194 Y183.558 E1.70666
M73 P0 R64
G1 X104.041 Y182.786 E.05169
G1 X103.473 Y181.214 E.06225
G1 X103.473 Y134.501 E1.73988
G1 X103.865 Y133.17 E.05169
G1 X104.72 Y132.431 E.0421
; printing object Dude Chilling Park.STL id:0 copy 0
EXCLUDE_OBJECT_START NAME=Dude_Chilling_Park.STL_id_0_copy_0
G1 E-.8 F3600
G1 X111.005 Y134.564 F9000
G1 E.8 F3600
;TYPE:Support
G1 F3000
G1 X110.995 Y134.566 E.00036
G1 X110.95 Y134.581 E.00176
G1 X110.688 Y134.69 E.01057
G1 X110.646 Y134.711 E.00176
G1 X110.404 Y134.859 E.01057
G1 X110.366 Y134.887 E.00176
G1 X110.15 Y135.072 E.0106
G1 X110.115 Y135.107 E.00182
G1 X109.926 Y135.331 E.01092
G1 X109.9 Y135.367 E.00169
G1 X109.757 Y135.6 E.01018
G1 X109.735 Y135.642 E.00176
G1 X109.627 Y135.905 E.01057
G1 X109.612 Y135.949 E.00176
G1 X109.546 Y136.225 E.01057
G1 X109.539 Y136.272 E.00176
G1 X109.517 Y136.543 E.01013
G1 X109.516 Y136.566 E.00088
G1 X109.516 Y179.841 E1.61182
G1 X109.517 Y179.867 E.00095
G1 X109.542 Y180.159 E.01094
G1 X109.551 Y180.209 E.0019
G1 X109.628 Y180.506 E.01141
G1 X109.645 Y180.554 E.0019
G1 X109.771 Y180.833 E.01141
G1 X109.796 Y180.877 E.0019
G1 X109.967 Y181.131 E.01141
G1 X109.999 Y181.171 E.0019
G1 X110.04 Y181.214 E.0022
G1 X105.93 Y181.214 E.15309
G1 X105.93 Y134.501 E1.73988
G1 X110.984 Y134.501 E.18824
G1 E-.8 F3600
G1 X111.088 Y135.849 F9000
G1 X110.717 Y140.962
G1 X109.105 Y179.85
G1 E.8 F3600
G1 F3000
G1 X109.107 Y179.893 E.0016
G1 X109.134 Y180.211 E.01191
G1 X109.148 Y180.296 E.0032
G1 X109.234 Y180.626 E.01271
G1 X109.263 Y180.707 E.0032
G1 X109.306 Y180.802 E.00389
G1 X106.341 Y180.802 E.11042
G1 X106.341 Y134.912 E1.70924
G1 X109.741 Y134.912 E.12662
G1 X109.602 Y135.077 E.00805
G1 X109.557 Y135.139 E.00285
G1 X109.398 Y135.399 E.01136
G1 X109.362 Y135.47 E.00296
G1 X109.241 Y135.762 E.01177
G1 X109.216 Y135.838 E.00296
G1 X109.142 Y136.145 E.01177
G1 X109.13 Y136.223 E.00296
G1 X109.107 Y136.519 E.01103
G1 X109.105 Y136.558 E.00148
G1 X109.105 Y179.85 E1.61244
G1 X108.597 Y179.861 F9000
G1 F3000
G1 X108.6 Y179.925 E.0024
G1 X108.631 Y180.295 E.01381
G1 X106.849 Y180.295 E.06638
G1 X106.849 Y135.42 E1.67141
G1 X108.794 Y135.42 E.07244
G1 X108.644 Y136.046 E.02397
G1 X108.625 Y136.164 E.00445
G1 X108.6 Y136.489 E.01214
G1 X108.597 Y136.548 E.00222
G1 X108.597 Y179.861 E1.61322
G1 X108.089 Y179.787 F9000
G1 F3000
G1 X107.357 Y179.787 E.02727
G1 X107.357 Y135.928 E1.63357
G1 X108.134 Y135.928 E.02895
G1 X108.092 Y136.459 E.01984
G1 X108.089 Y136.538 E.00297
G1 X108.089 Y179.787 E1.61084
G1 E-.8 F3600
G1 X110.718 Y179.819 F9000
G1 X218.864 Y180.589
G1 X224.07 Y181.214
G1 E.8 F3600
G1 F3000
G1 X219.96 Y181.214 E.15309
G1 X220.001 Y181.171 E.00221
G1 X220.033 Y181.131 E.0019
G1 X220.204 Y180.877 E.01141
G1 X220.229 Y180.833 E.00189
G1 X220.355 Y180.554 E.01141
G1 X220.372 Y180.506 E.0019
G1 X220.449 Y180.209 E.01141
G1 X220.458 Y180.159 E.0019
G1 X220.483 Y179.867 E.01094
G1 X220.484 Y179.841 E.00095
G1 X220.484 Y136.566 E1.61185
G1 X220.483 Y136.54 E.00095
G1 X220.459 Y136.26 E.01048
G1 X220.452 Y136.215 E.00169
G1 X220.388 Y135.949 E.01018
G1 X220.373 Y135.905 E.00176
G1 X220.265 Y135.642 E.01057
G1 X220.243 Y135.6 E.00176
G1 X220.095 Y135.358 E.01057
G1 X220.067 Y135.32 E.00176
G1 X219.883 Y135.105 E.01057
G1 X219.85 Y135.071 E.00175
G1 X219.634 Y134.887 E.01057
G1 X219.596 Y134.859 E.00176
G1 X219.354 Y134.711 E.01057
G1 X219.312 Y134.69 E.00176
G1 X219.049 Y134.581 E.0106
G1 X219.002 Y134.566 E.00182
G1 X218.996 Y134.564 E.00026
G1 X219.013 Y134.501 E.00245
G1 X224.07 Y134.501 E.18834
G1 X224.07 Y181.145 E1.73733
G1 X220.895 Y179.85 F9000
G1 F3000
G1 X220.895 Y136.557 E1.6125
G1 X220.893 Y136.514 E.00159
G1 X220.867 Y136.21 E.01138
G1 X220.855 Y136.134 E.00285
G1 X220.784 Y135.838 E.01136
G1 X220.759 Y135.762 E.00296
G1 X220.638 Y135.47 E.01177
G1 X220.602 Y135.399 E.00296
G1 X220.437 Y135.13 E.01177
G1 X220.391 Y135.065 E.00296
G1 X220.26 Y134.912 E.00751
G1 X223.659 Y134.912 E.1266
G1 X223.659 Y180.802 E1.70924
G1 X220.694 Y180.802 E.11042
G1 X220.737 Y180.707 E.0039
G1 X220.766 Y180.626 E.0032
G1 X220.852 Y180.296 E.01271
G1 X220.866 Y180.211 E.0032
G1 X220.893 Y179.893 E.01191
G1 X220.895 Y179.85 E.0016
G1 X221.403 Y179.861 F9000
G1 F3000
G1 X221.403 Y136.546 E1.6133
G1 X221.4 Y136.482 E.00239
G1 X221.372 Y136.147 E.0125
G1 X221.353 Y136.034 E.00428
G1 X221.206 Y135.42 E.02352
G1 X223.151 Y135.42 E.07244
G1 X223.151 Y180.295 E1.67141
G1 X221.369 Y180.295 E.06638
G1 X221.4 Y179.925 E.01382
G1 X221.403 Y179.861 E.0024
G1 X221.911 Y179.787 F9000
G1 F3000
G1 X221.911 Y136.535 E1.61095
G1 X221.907 Y136.45 E.00319
G1 X221.863 Y135.928 E.0195
G1 X222.643 Y135.928 E.02906
G1 X222.643 Y179.787 E1.63358
G1 X221.911 Y179.787 E.02727
G1 E-.8 F3600
G1 X219.21 Y180.174 F9000
G1 X180.947 Y185.958
G1 X180.772 Y185.994
G1 X180.626 Y186.066
G1 X180.51 Y186.154
G1 X180.414 Y186.264
G1 X180.4 Y186.288
G1 X180.606 Y186.406
G1 E.8 F3600
;TYPE:Outer wall
G1 F3000
G1 X180.52 Y186.704 E.01153
G1 X180.513 Y194.284 E.28233
G1 X180.474 Y194.402 E.00464
G1 X180.401 Y194.503 E.00463
G1 X180.301 Y194.576 E.00463
G1 X180.182 Y194.614 E.00463
G1 X149.903 Y194.623 E1.12777
G1 X149.757 Y194.6 E.00552
G1 X149.637 Y194.539 E.005
G1 X149.526 Y194.402 E.00657
G1 X149.487 Y194.284 E.00464
G1 X149.48 Y186.704 E.28231
G1 X149.394 Y186.406 E.01155
G1 X149.158 Y186.228 E.01103
G1 X141.864 Y185.651 E.2725
G1 X134.193 Y184.828 E.28739
G1 X126.55 Y183.771 E.28738
G1 X118.943 Y182.481 E.28738
G1 X111.39 Y180.962 E.28692
G1 X111.191 Y180.901 E.00775
G1 X111.017 Y180.812 E.0073
G1 X110.859 Y180.696 E.0073
G1 X110.724 Y180.554 E.0073
G1 X110.614 Y180.392 E.0073
G1 X110.534 Y180.213 E.0073
G1 X110.484 Y180.024 E.0073
G1 X110.466 Y179.814 E.00785
G1 X110.466 Y136.592 E1.60984
G1 X110.482 Y136.397 E.00727
G1 X110.524 Y136.221 E.00676
G1 X110.594 Y136.053 E.00676
G1 X110.684 Y135.906 E.00644
G1 X110.807 Y135.76 E.00711
G1 X110.944 Y135.643 E.00672
G1 X111.099 Y135.548 E.00676
G1 X111.267 Y135.478 E.00676
G1 X111.443 Y135.436 E.00676
G1 X111.638 Y135.421 E.00727
G1 X218.362 Y135.421 E3.97508
M73 P1 R64
G1 X218.548 Y135.435 E.00696
G1 X218.734 Y135.479 E.00711
G1 X218.901 Y135.548 E.00672
G1 X219.056 Y135.643 E.00676
G1 X219.194 Y135.76 E.00676
G1 X219.312 Y135.898 E.00676
G1 X219.406 Y136.053 E.00676
G1 X219.476 Y136.221 E.00676
G1 X219.516 Y136.389 E.00644
G1 X219.534 Y136.593 E.00762
G1 X219.534 Y179.813 E1.6098
G1 X219.516 Y180.024 E.00785
G1 X219.466 Y180.213 E.0073
G1 X219.386 Y180.392 E.0073
G1 X219.276 Y180.554 E.0073
G1 X219.141 Y180.696 E.0073
G1 X218.983 Y180.812 E.0073
G1 X218.809 Y180.901 E.0073
G1 X218.61 Y180.962 E.00775
G1 X211.057 Y182.481 E.28692
G1 X203.45 Y183.771 E.28738
G1 X195.807 Y184.828 E.28738
G1 X188.136 Y185.651 E.28739
G1 X180.842 Y186.228 E.2725
G1 X180.654 Y186.37 E.00879
G1 X180.545 Y186.397
G1 X180.19 Y186.196 F9000
;TYPE:Inner wall
G1 F3000
G1 X180.063 Y186.639 E.01716
G1 X180.056 Y194.157 E.28002
G1 X149.944 Y194.166 E1.12154
G1 X149.937 Y186.64 E.2803
G1 X149.792 Y186.134 E.01962
G1 X149.327 Y185.783 E.02169
G1 X141.907 Y185.196 E.27723
G1 X134.248 Y184.374 E.28689
G1 X126.619 Y183.319 E.28686
G1 X119.026 Y182.032 E.28686
G1 X111.503 Y180.518 E.28581
G1 X111.363 Y180.475 E.00545
G1 X111.163 Y180.352 E.00877
G1 X111.081 Y180.266 E.0044
G1 X110.966 Y180.061 E.00877
G1 X110.923 Y179.794 E.01005
G1 X110.923 Y136.61 E1.60845
G1 X110.96 Y136.363 E.00932
G1 X111.056 Y136.174 E.00787
G1 X111.214 Y136.014 E.00839
G1 X111.408 Y135.914 E.00813
G1 X111.656 Y135.878 E.00932
G1 X218.478 Y135.888 E3.97873
G1 X218.693 Y135.956 E.00839
G1 X218.786 Y136.014 E.00408
G1 X218.941 Y136.168 E.00814
G1 X219.04 Y136.362 E.00813
G1 X219.077 Y136.612 E.00941
G1 X219.077 Y179.794 E1.60836
G1 X219.064 Y179.946 E.00568
G1 X218.985 Y180.168 E.00877
G1 X218.837 Y180.352 E.00877
G1 X218.637 Y180.475 E.00877
G1 X218.497 Y180.518 E.00545
G1 X210.974 Y182.032 E.28581
G1 X203.381 Y183.319 E.28686
G1 X195.752 Y184.374 E.28686
G1 X188.093 Y185.196 E.28689
G1 X180.673 Y185.783 E.27723
G1 X180.208 Y186.133 E.02168
G1 X180.207 Y186.139 E.00021
G1 X179.775 Y185.987 F9000
G1 F3000
G1 X179.606 Y186.575 E.02279
G1 X179.599 Y193.701 E.2654
G1 X150.401 Y193.709 E1.08753
G1 X150.394 Y186.576 E.26567
G1 X150.189 Y185.861 E.0277
G1 X149.496 Y185.338 E.03235
G1 X141.949 Y184.741 E.28196
G1 X134.304 Y183.921 E.2864
G1 X126.689 Y182.867 E.28634
G1 X119.109 Y181.582 E.28634
G1 X111.615 Y180.075 E.2847
G1 X111.466 Y180.008 E.00611
G1 X111.399 Y179.908 E.00448
G1 X111.381 Y179.775 E.005
G1 X111.381 Y136.628 E1.60705
G1 X111.411 Y136.469 E.00601
G1 X111.483 Y136.384 E.00417
G1 X111.55 Y136.35 E.00279
G1 X111.674 Y136.335 E.00464
G1 X218.408 Y136.341 E3.97544
G1 X218.485 Y136.365 E.003
G1 X218.57 Y136.437 E.00417
G1 X218.604 Y136.504 E.00279
G1 X218.619 Y136.632 E.00479
G1 X218.619 Y179.775 E1.60691
G1 X218.585 Y179.945 E.00646
G1 X218.534 Y180.008 E.003
G1 X218.465 Y180.05 E.003
G1 X210.891 Y181.582 E.28784
G1 X203.311 Y182.867 E.28634
G1 X195.696 Y183.921 E.28634
G1 X188.051 Y184.741 E.2864
G1 X180.504 Y185.338 E.28196
G1 X179.811 Y185.861 E.03233
G1 X179.792 Y185.929 E.00266
G1 X179.36 Y185.777 F9000
G1 F3000
G1 X179.149 Y186.51 E.02842
G1 X179.143 Y193.244 E.25079
G1 X150.857 Y193.251 E1.05351
G1 X150.851 Y186.511 E.25104
G1 X150.586 Y185.588 E.03577
G1 X149.665 Y184.892 E.04301
G1 X141.992 Y184.286 E.28668
G1 X134.36 Y183.467 E.2859
G1 X126.758 Y182.415 E.28582
G1 X119.192 Y181.133 E.28582
G1 X111.838 Y179.653 E.27943
M73 C59
G1 X111.838 Y136.792 E1.59642
G1 X218.162 Y136.792 E3.96019
G1 X218.162 Y179.653 E1.59642
G1 X210.808 Y181.133 E.27943
G1 X203.242 Y182.415 E.28582
G1 X195.64 Y183.467 E.28582
G1 X188.008 Y184.286 E.2859
G1 X180.335 Y184.892 E.28668
G1 X179.414 Y185.588 E.04299
G1 X179.376 Y185.719 E.0051
G1 E-.8 F3600
G1 X217.101 Y136.929 F9000
G1 E.8 F3600
;TYPE:Bottom surface
;WIDTH:0.500232
G1 F6300
G1 X217.82 Y137.648 E.03788
G1 X217.82 Y138.294 E.0241
G1 X216.66 Y137.135 E.06112
G1 X216.013 Y137.135 E.0241
G1 X217.82 Y138.941 E.09521
G1 X217.82 Y139.588 E.0241
G1 X215.366 Y137.135 E.12929
G1 X214.72 Y137.135 E.0241
G1 X217.82 Y140.235 E.16337
G1 X217.82 Y140.881 E.0241
G1 X214.073 Y137.135 E.19746
G1 X213.426 Y137.135 E.0241
G1 X217.82 Y141.528 E.23154
G1 X217.82 Y142.175 E.0241
G1 X212.779 Y137.135 E.26563
G1 X212.133 Y137.135 E.0241
G1 X217.82 Y142.822 E.29971
G1 X217.82 Y143.468 E.0241
G1 X211.486 Y137.135 E.33379
G1 X210.839 Y137.135 E.0241
G1 X217.82 Y144.115 E.36788
G1 X217.82 Y144.762 E.0241
G1 X210.192 Y137.135 E.40196
G1 X209.546 Y137.135 E.0241
G1 X217.82 Y145.409 E.43604
G1 X217.82 Y146.055 E.0241
G1 X208.899 Y137.135 E.47013
G1 X208.252 Y137.135 E.0241
G1 X217.82 Y146.702 E.50421
G1 X217.82 Y147.349 E.0241
G1 X207.605 Y137.135 E.53829
G1 X206.959 Y137.135 E.0241
G1 X217.82 Y147.996 E.57238
G1 X217.82 Y148.642 E.0241
G1 X206.312 Y137.135 E.60646
G1 X205.665 Y137.135 E.0241
G1 X217.82 Y149.289 E.64055
G1 X217.82 Y149.936 E.0241
G1 X205.018 Y137.135 E.67463
G1 X204.372 Y137.135 E.0241
G1 X217.82 Y150.582 E.70871
G1 X217.82 Y151.229 E.0241
G1 X203.725 Y137.135 E.7428
G1 X203.078 Y137.135 E.0241
G1 X217.82 Y151.876 E.77688
G1 X217.82 Y152.523 E.0241
G1 X202.432 Y137.135 E.81096
G1 X201.785 Y137.135 E.0241
G1 X217.82 Y153.169 E.84505
G1 X217.82 Y153.816 E.0241
G1 X201.138 Y137.135 E.87913
G1 X200.491 Y137.135 E.0241
G1 X217.82 Y154.463 E.91321
G1 X217.82 Y155.11 E.0241
G1 X199.845 Y137.135 E.9473
G1 X199.198 Y137.135 E.0241
G1 X217.82 Y155.756 E.98138
G1 X217.82 Y156.403 E.0241
G1 X198.551 Y137.135 E1.01546
G1 X197.904 Y137.135 E.0241
G1 X217.82 Y157.05 E1.04955
G1 X217.82 Y157.697 E.0241
G1 X197.258 Y137.135 E1.08363
G1 X196.611 Y137.135 E.0241
G1 X217.82 Y158.343 E1.11772
G1 X217.82 Y158.99 E.0241
G1 X195.964 Y137.135 E1.1518
G1 X195.317 Y137.135 E.0241
G1 X217.82 Y159.637 E1.18588
G1 X217.82 Y160.284 E.0241
G1 X194.671 Y137.135 E1.21997
G1 X194.024 Y137.135 E.0241
G1 X217.82 Y160.93 E1.25405
G1 X217.82 Y161.577 E.0241
G1 X193.377 Y137.135 E1.28813
G1 X192.73 Y137.135 E.0241
G1 X217.82 Y162.224 E1.32222
G1 X217.82 Y162.87 E.0241
G1 X192.084 Y137.135 E1.3563
G1 X191.437 Y137.135 E.0241
G1 X217.82 Y163.517 E1.39038
M73 P1 R63
G1 X217.82 Y164.164 E.0241
G1 X190.79 Y137.135 E1.42447
G1 X190.144 Y137.135 E.0241
G1 X217.82 Y164.811 E1.45855
G1 X217.82 Y165.457 E.0241
G1 X189.497 Y137.135 E1.49263
G1 X188.85 Y137.135 E.0241
G1 X217.82 Y166.104 E1.52672
G1 X217.82 Y166.751 E.0241
G1 X188.203 Y137.135 E1.5608
G1 X187.557 Y137.135 E.0241
G1 X217.82 Y167.398 E1.59489
G1 X217.82 Y168.044 E.0241
G1 X186.91 Y137.135 E1.62897
M73 P2 R63
G1 X186.263 Y137.135 E.0241
G1 X217.82 Y168.691 E1.66305
G1 X217.82 Y169.338 E.0241
G1 X185.616 Y137.135 E1.69714
G1 X184.97 Y137.135 E.0241
G1 X217.82 Y169.985 E1.73122
G1 X217.82 Y170.631 E.0241
G1 X184.323 Y137.135 E1.7653
G1 X183.676 Y137.135 E.0241
G1 X217.82 Y171.278 E1.79939
G1 X217.82 Y171.925 E.0241
G1 X183.029 Y137.135 E1.83347
G1 X182.383 Y137.135 E.0241
G1 X217.82 Y172.572 E1.86755
G1 X217.82 Y173.218 E.0241
G1 X181.736 Y137.135 E1.90164
G1 X181.089 Y137.135 E.0241
G1 X217.82 Y173.865 E1.93572
G1 X217.82 Y174.512 E.0241
G1 X180.442 Y137.135 E1.9698
G1 X179.796 Y137.135 E.0241
G1 X217.82 Y175.158 E2.00389
G1 X217.82 Y175.805 E.0241
G1 X179.149 Y137.135 E2.03797
G1 X178.502 Y137.135 E.0241
G1 X217.82 Y176.452 E2.07206
G1 X217.82 Y177.099 E.0241
G1 X177.856 Y137.135 E2.10614
G1 X177.209 Y137.135 E.0241
G1 X217.82 Y177.745 E2.14022
