; HEADER_BLOCK_START
; generated by OrcaSlicer 1.6.6 on 2023-08-27 at 19:03:38
; total layer number: 125
; HEADER_BLOCK_END

; THUMBNAIL_BLOCK_START
; THUMBNAIL_BLOCK_END

; external perimeters extrusion width = 0.40mm
; perimeters extrusion width = 0.46mm
; infill extrusion width = 0.64mm
; solid infill extrusion width = 0.56mm
; top infill extrusion width = 0.40mm
; support material extrusion width = 0.46mm
; first layer extrusion width = 0.50mm

; EXECUTABLE_BLOCK_START
EXCLUDE_OBJECT_DEFINE NAME=Dude_Chilling_Park.STL_id_0_copy_0 CENTER=165,165 POLYGON=[[110.024,136.578],[110.044,136.328],[110.102,136.084],[110.198,135.852],[110.33,135.638],[110.493,135.447],[110.684,135.284],[110.898,135.153],[111.13,135.057],[111.374,134.998],[111.624,134.978],[218.376,134.978],[218.626,134.998],[218.87,135.057],[219.102,135.153],[219.316,135.284],[219.507,135.447],[219.67,135.638],[219.802,135.852],[219.898,136.084],[219.956,136.328],[219.976,136.578],[219.976,179.828],[219.953,180.098],[219.885,180.361],[219.773,180.608],[219.622,180.833],[219.434,181.028],[219.216,181.19],[218.975,181.312],[180.367,194.983],[180.245,195.012],[180.12,195.022],[149.88,195.022],[149.755,195.012],[149.633,194.983],[111.025,181.312],[110.784,181.19],[110.566,181.028],[110.378,180.833],[110.227,180.608],[110.115,180.361],[110.047,180.098],[110.024,179.828],[110.024,136.578]]
M73 P0 R63
;TYPE:Custom
START_PRINT T_BED=60 T_EXTRUDER=220
G90
G21
M83 ; use relative distances for extrusion
; filament start gcode

    PRESSURE_ADVANCE_SELECT FILAMENT=PLA
M106 S0
;LAYER_CHANGE
;Z:0.2
;HEIGHT:0.2
;BEFORE_LAYER_CHANGE
;0.2
G92 E0

SET_VELOCITY_LIMIT ACCEL=5000 ACCEL_TO_DECEL=2500
G1 E-.8 F1800
G1 X106.383 Y134.148 F12000
G1 Z.2
G1 E.8 F1800
;TYPE:Skirt
;WIDTH:0.5
G1 F3000
G1 X109.706 Y132.595 E.1366
G1 X110.708 Y132.256 E.03941
G1 X111.624 Y132.156 E.03432
G1 X218.605 Y132.165 E3.98463
G1 X219.265 Y132.251 E.02481
G1 X219.957 Y132.452 E.02684
G1 X223.617 Y134.148 E.15023
G1 X224.775 Y135.123 E.05638
G1 X225.297 Y136.788 E.06499
G1 X225.297 Y181.544 E1.66699
G1 X224.904 Y183.006 E.05638
G1 X223.268 Y184.32 E.07818
G1 X180.918 Y197.797 E1.65532
G1 X180.12 Y197.887 E.02989
G1 X149.88 Y197.887 E1.12633
G1 X148.763 Y197.713 E.0421
G1 X106.732 Y184.32 E1.64304
G1 X105.459 Y183.502 E.05638
G1 X104.703 Y181.544 E.07818
G1 X104.703 Y136.788 E1.66699
G1 X105.096 Y135.326 E.05638
G1 X106.354 Y134.175 E.0635
G1 X106.577 Y134.562 F12000
G1 F3000
G1 X109.899 Y133.009 E.1366
G1 X110.815 Y132.7 E.03599
G1 X111.624 Y132.614 E.03032
G1 X218.569 Y132.621 E3.98329
M73 P0 R62
G1 X219.782 Y132.874 E.04617
G1 X223.423 Y134.562 E.14948
G1 X224.463 Y135.481 E.05169
G1 X224.84 Y136.788 E.05067
G1 X224.84 Y181.544 E1.66699
G1 X224.448 Y182.875 E.05169
G1 X223.129 Y183.885 E.06188
G1 X180.811 Y197.353 E1.65408
G1 X180.12 Y197.43 E.02589
G1 X149.88 Y197.43 E1.12633
G1 X148.902 Y197.277 E.03687
G1 X106.871 Y183.885 E1.64304
G1 X105.722 Y183.107 E.05169
G1 X105.16 Y181.544 E.06188
G1 X105.16 Y136.788 E1.66699
G1 X105.552 Y135.457 E.05169
G1 X106.547 Y134.588 E.04918
; printing object Dude Chilling Park.STL id:0 copy 0
G1 E-.8 F1800
EXCLUDE_OBJECT_START NAME=Dude_Chilling_Park.STL_id_0_copy_0
G1 X109.516 Y179.841 F12000
G1 E.8 F1800
;TYPE:Support
G1 F3000
G1 X109.517 Y179.867 E.00095
G1 X109.542 Y180.159 E.01094
G1 X109.551 Y180.209 E.0019
G1 X109.628 Y180.506 E.01141
G1 X109.645 Y180.554 E.0019
G1 X109.771 Y180.833 E.01141
G1 X109.796 Y180.877 E.0019
G1 X109.967 Y181.131 E.01141
G1 X109.999 Y181.171 E.0019
G1 X110.211 Y181.392 E.01141
G1 X110.249 Y181.426 E.0019
G1 X110.408 Y181.544 E.00737
G1 X107.617 Y181.544 E.10396
G1 X107.617 Y136.788 E1.66699
G1 X109.516 Y136.788 E.07074
G1 X109.516 Y179.773 E1.60102
G1 X109.472 Y181.132 F12000
G1 F3000
G1 X108.028 Y181.132 E.05376
G1 X108.028 Y137.199 E1.63635
G1 X109.105 Y137.199 E.0401
G1 X109.105 Y179.85 E1.58857
G1 X109.107 Y179.893 E.0016
G1 X109.134 Y180.211 E.01191
G1 X109.148 Y180.296 E.0032
G1 X109.234 Y180.626 E.01271
G1 X109.263 Y180.707 E.0032
G1 X109.403 Y181.018 E.01271
G1 X109.445 Y181.093 E.0032
G1 X109.472 Y181.132 E.00177
G1 E-.8 F1800
G1 X111.127 Y180.583 F12000
G1 X214.59 Y181.515
G1 X222.383 Y181.544
G1 E.8 F1800
G1 F3000
G1 X219.592 Y181.544 E.10396
G1 X219.751 Y181.426 E.00737
G1 X219.789 Y181.392 E.0019
G1 X220.001 Y181.171 E.01141
G1 X220.033 Y181.131 E.0019
G1 X220.204 Y180.877 E.01141
G1 X220.229 Y180.833 E.00189
G1 X220.355 Y180.554 E.01141
G1 X220.372 Y180.506 E.0019
G1 X220.449 Y180.209 E.01141
G1 X220.458 Y180.159 E.0019
G1 X220.483 Y179.867 E.01094
G1 X220.484 Y179.841 E.00095
G1 X220.484 Y136.788 E1.60357
G1 X222.383 Y136.788 E.07074
G1 X222.383 Y181.475 E1.66444
G1 X220.528 Y181.132 F12000
G1 F3000
G1 X220.555 Y181.093 E.00177
G1 X220.597 Y181.018 E.00319
G1 X220.737 Y180.707 E.01271
G1 X220.766 Y180.626 E.0032
G1 X220.852 Y180.296 E.01271
G1 X220.866 Y180.211 E.0032
G1 X220.893 Y179.893 E.01191
G1 X220.895 Y179.85 E.0016
G1 X220.895 Y137.199 E1.58857
G1 X221.972 Y137.199 E.0401
G1 X221.972 Y181.132 E1.63635
G1 X220.528 Y181.132 E.05376
G1 E-.8 F1800
G1 X218.852 Y180.599 F12000
G1 X149.507 Y186.173
G1 X149.317 Y186.34
G1 E.8 F1800
;TYPE:Outer wall
G1 F3000
G2 X149.018 Y186.206 I-.346 J.374 E.0124
G1 X141.864 Y185.651 E.26725
G1 X134.193 Y184.828 E.28738
G1 X126.55 Y183.771 E.28738
G1 X118.943 Y182.481 E.28738
G1 X111.39 Y180.962 E.28692
G3 X110.466 Y179.814 I.244 J-1.142 E.05941
G1 X110.466 Y136.592 E1.60984
G3 X111.638 Y135.421 I1.165 J-.006 E.06863
G1 X218.362 Y135.421 E3.97508
G1 X218.548 Y135.435 E.00696
G3 X219.534 Y136.593 I-.184 J1.154 E.06164
G1 X219.534 Y179.813 E1.6098
G3 X218.61 Y180.962 I-1.168 J.007 E.05941
G1 X211.057 Y182.481 E.28692
G1 X203.45 Y183.771 E.28738
G1 X195.807 Y184.828 E.28738
G1 X188.136 Y185.651 E.28738
G1 X180.982 Y186.206 E.26725
G2 X180.52 Y186.728 I.047 J.507 E.02858
G1 X180.521 Y194.208 E.2786
G3 X180.106 Y194.623 I-.416 J-.001 E.02425
G1 X149.894 Y194.623 E1.1253
G3 X149.479 Y194.208 I.001 J-.416 E.02425
G1 X149.48 Y186.73 E.27853
G2 X149.345 Y186.368 I-.509 J-.017 E.01476
G1 X149.653 Y186.025 F12000
;TYPE:Inner wall
G1 F3000
G1 X149.629 Y186.006 E.00114
G2 X149.082 Y185.753 I-.659 J.707 E.02283
G1 X141.906 Y185.196 E.26806
G1 X134.248 Y184.374 E.28687
G1 X126.619 Y183.319 E.28686
G1 X119.026 Y182.032 E.28686
G1 X111.503 Y180.518 E.28581
G3 X110.923 Y179.794 I.165 J-.726 E.03729
G1 X110.923 Y136.61 E1.60845
G3 X111.656 Y135.878 I.729 J-.003 E.04289
G1 X218.478 Y135.888 E3.97873
G3 X219.077 Y136.612 I-.111 J.701 E.03824
G1 X219.077 Y179.794 E1.60836
G3 X218.497 Y180.518 I-.745 J-.002 E.03729
G1 X210.974 Y182.032 E.28581
G1 X203.381 Y183.319 E.28686
G1 X195.752 Y184.374 E.28686
G1 X188.094 Y185.196 E.28687
G1 X180.918 Y185.753 E.26806
G2 X180.063 Y186.708 I.112 J.96 E.0522
G1 X180.064 Y194.166 E.27777
G1 X149.936 Y194.166 E1.12215
G1 X149.937 Y186.712 E.27762
G2 X149.753 Y186.146 I-.967 J.001 E.02255
G1 X149.678 Y186.056 E.00434
G1 X149.987 Y185.713 F12000
G1 F3000
G1 X149.941 Y185.672 E.00228
G2 X149.145 Y185.299 I-.973 J1.042 E.03327
G1 X141.948 Y184.741 E.26887
G1 X134.304 Y183.921 E.28636
G1 X126.689 Y182.867 E.28634
G1 X119.109 Y181.582 E.28634
G1 X111.615 Y180.075 E.2847
M73 P1 R62
G3 X111.381 Y179.775 I.038 J-.272 E.01569
G1 X111.381 Y136.628 E1.60705
G3 X111.674 Y136.335 I.265 J-.028 E.01769
G1 X218.408 Y136.341 E3.97544
G3 X218.619 Y136.632 I-.04 J.252 E.01486
G1 X218.619 Y179.775 E1.60691
G3 X218.385 Y180.075 I-.273 J.028 E.01569
G1 X210.891 Y181.582 E.2847
G1 X203.311 Y182.867 E.28634
G1 X195.696 Y183.921 E.28634
G1 X188.052 Y184.741 E.28636
G1 X180.855 Y185.299 E.26887
G2 X179.606 Y186.688 I.177 J1.415 E.07583
G1 X179.607 Y193.709 E.26149
G1 X150.393 Y193.709 E1.0881
G1 X150.394 Y186.694 E.26126
G2 X150.125 Y185.881 I-1.426 J.02 E.03241
G1 X150.012 Y185.744 E.00661
G1 E-.8 F1800
G1 X217.533 Y136.478 F12000
G1 E.8 F1800
;TYPE:Bottom surface
;WIDTH:0.501373
G1 F6300
G1 X218.277 Y137.222 E.03929
G1 X218.277 Y137.87 E.02422
G1 X217.09 Y136.684 E.06268
G1 X216.442 Y136.684 E.02422
G1 X218.277 Y138.519 E.09694
G1 X218.277 Y139.167 E.02422
G1 X215.793 Y136.684 E.13119
G1 X215.145 Y136.684 E.02422
G1 X218.277 Y139.815 E.16545
G1 X218.277 Y140.464 E.02422
G1 X214.497 Y136.684 E.1997
G1 X213.848 Y136.684 E.02422
G1 X218.277 Y141.112 E.23396
G1 X218.277 Y141.76 E.02422
G1 X213.2 Y136.684 E.26822
G1 X212.552 Y136.684 E.02422
G1 X218.277 Y142.409 E.30247
G1 X218.277 Y143.057 E.02422
G1 X211.903 Y136.684 E.33673
G1 X211.255 Y136.684 E.02422
G1 X218.277 Y143.705 E.37098
G1 X218.277 Y144.354 E.02422
G1 X210.606 Y136.684 E.40524
G1 X209.958 Y136.683 E.02422
G1 X218.277 Y145.002 E.4395
G1 X218.277 Y145.651 E.02422
G1 X209.31 Y136.683 E.47375
G1 X208.661 Y136.683 E.02422
G1 X218.277 Y146.299 E.50801
G1 X218.277 Y146.947 E.02422
G1 X208.013 Y136.683 E.54226
G1 X207.364 Y136.683 E.02422
G1 X218.277 Y147.596 E.57652
G1 X218.277 Y148.244 E.02422
G1 X206.716 Y136.683 E.61078
G1 X206.068 Y136.683 E.02422
G1 X218.277 Y148.892 E.64503
G1 X218.277 Y149.541 E.02422
G1 X205.419 Y136.683 E.67929
G1 X204.771 Y136.683 E.02422
G1 X218.277 Y150.189 E.71354
G1 X218.277 Y150.837 E.02422
G1 X204.122 Y136.683 E.7478
G1 X203.474 Y136.683 E.02422
G1 X218.277 Y151.486 E.78206
G1 X218.277 Y152.134 E.02422
G1 X202.826 Y136.683 E.81631
G1 X202.177 Y136.683 E.02422
G1 X218.277 Y152.782 E.85057
G1 X218.277 Y153.431 E.02422
G1 X201.529 Y136.683 E.88482
G1 X200.881 Y136.683 E.02422
G1 X218.277 Y154.079 E.91908
G1 X218.277 Y154.727 E.02422
G1 X200.232 Y136.683 E.95334
G1 X199.584 Y136.683 E.02422
G1 X218.277 Y155.376 E.98759
G1 X218.277 Y156.024 E.02422
G1 X198.935 Y136.683 E1.02185
G1 X198.287 Y136.683 E.02422
G1 X218.277 Y156.672 E1.0561
G1 X218.277 Y157.321 E.02422
G1 X197.639 Y136.683 E1.09036
G1 X196.99 Y136.683 E.02422
G1 X218.277 Y157.969 E1.12462
G1 X218.277 Y158.618 E.02422
G1 X196.342 Y136.683 E1.15887
G1 X195.693 Y136.683 E.02422
G1 X218.277 Y159.266 E1.19313
G1 X218.277 Y159.914 E.02422
G1 X195.045 Y136.683 E1.22738
G1 X194.397 Y136.683 E.02422
G1 X218.277 Y160.563 E1.26164
G1 X218.277 Y161.211 E.02422
G1 X193.748 Y136.683 E1.29589
G1 X193.1 Y136.682 E.02422
G1 X218.277 Y161.859 E1.33015
G1 X218.277 Y162.508 E.02422
G1 X192.451 Y136.682 E1.36441
G1 X191.803 Y136.682 E.02422
G1 X218.277 Y163.156 E1.39866
G1 X218.277 Y163.804 E.02422
G1 X191.155 Y136.682 E1.43292
G1 X190.506 Y136.682 E.02422
G1 X218.277 Y164.453 E1.46717
G1 X218.277 Y165.101 E.02422
G1 X189.858 Y136.682 E1.50143
G1 X189.209 Y136.682 E.02422
G1 X218.277 Y165.749 E1.53569
G1 X218.277 Y166.398 E.02422
G1 X188.561 Y136.682 E1.56994
G1 X187.913 Y136.682 E.02422
G1 X218.277 Y167.046 E1.6042
G1 X218.277 Y167.694 E.02422
G1 X187.264 Y136.682 E1.63845
G1 X186.616 Y136.682 E.02422
G1 X218.277 Y168.343 E1.67271
G1 X218.277 Y168.991 E.02422
G1 X185.968 Y136.682 E1.70697
G1 X185.319 Y136.682 E.02422
G1 X218.277 Y169.64 E1.74122
G1 X218.277 Y170.288 E.02422
G1 X184.671 Y136.682 E1.77548
G1 X184.022 Y136.682 E.02422
G1 X218.277 Y170.936 E1.80973
G1 X218.277 Y171.585 E.02422
G1 X183.374 Y136.682 E1.84399
G1 X182.726 Y136.682 E.02422
G1 X218.277 Y172.233 E1.87825
G1 X218.277 Y172.881 E.02422
G1 X182.077 Y136.682 E1.9125
G1 X181.429 Y136.682 E.02422
G1 X218.277 Y173.53 E1.94676
G1 X218.277 Y174.178 E.02422
G1 X180.78 Y136.682 E1.98101
G1 X180.132 Y136.682 E.02422
G1 X218.277 Y174.826 E2.01527
G1 X218.277 Y175.475 E.02422
G1 X179.484 Y136.682 E2.04953
G1 X178.835 Y136.682 E.02422
G1 X218.277 Y176.123 E2.08378
G1 X218.277 Y176.771 E.02422
G1 X178.187 Y136.682 E2.11804
G1 X177.538 Y136.682 E.02422
G1 X218.277 Y177.42 E2.15229
G1 X218.277 Y178.068 E.02422
G1 X176.89 Y136.682 E2.18655
G1 X176.242 Y136.681 E.02422
G1 X218.277 Y178.716 E2.2208
G1 X218.277 Y179.365 E.02422
G1 X175.593 Y136.681 E2.25506
G1 X174.945 Y136.681 E.02422
G1 X218.048 Y179.785 E2.27724
G1 X217.509 Y179.894 E.02055
G1 X174.297 Y136.681 E2.28301
G1 X173.648 Y136.681 E.02422
G1 X216.97 Y180.003 E2.28877
G1 X216.43 Y180.112 E.02055
G1 X173 Y136.681 E2.29454
G1 X172.351 Y136.681 E.02422
G1 X215.891 Y180.221 E2.3003
M73 P1 R61
G1 X215.352 Y180.33 E.02055
G1 X171.703 Y136.681 E2.30607
G1 X171.055 Y136.681 E.02422
G1 X214.812 Y180.439 E2.31183
G1 X214.273 Y180.548 E.02055
G1 X170.406 Y136.681 E2.3176
G1 X169.758 Y136.681 E.02422
G1 X213.734 Y180.657 E2.32336
G1 X213.195 Y180.766 E.02055
G1 X169.109 Y136.681 E2.32913
G1 X168.461 Y136.681 E.02422
G1 X212.655 Y180.875 E2.33489
G1 X212.116 Y180.984 E.02055
G1 X167.813 Y136.681 E2.34066
G1 X167.164 Y136.681 E.02422
G1 X211.577 Y181.094 E2.34642
G1 X211.038 Y181.203 E.02055
G1 X166.516 Y136.681 E2.35219
G1 X165.867 Y136.681 E.02422
G1 X210.489 Y181.302 E2.35746
G1 X209.935 Y181.396 E.02101
G1 X165.219 Y136.681 E2.36243
M73 P2 R61
G1 X164.571 Y136.681 E.02422
G1 X209.38 Y181.49 E2.3674
G1 X208.826 Y181.584 E.02101
G1 X163.922 Y136.681 E2.37237
G1 X163.274 Y136.681 E.02422
G1 X208.272 Y181.678 E2.37734
G1 X207.717 Y181.772 E.02101
G1 X162.626 Y136.681 E2.38231
G1 X161.977 Y136.681 E.02422
G1 X207.163 Y181.866 E2.38727
G1 X206.609 Y181.96 E.02101
G1 X161.329 Y136.681 E2.39224
G1 X160.68 Y136.681 E.02422
G1 X206.054 Y182.054 E2.39721
G1 X205.5 Y182.148 E.02101
G1 X160.032 Y136.68 E2.40218
G1 X159.384 Y136.68 E.02422
G1 X204.946 Y182.242 E2.40715
G1 X204.391 Y182.336 E.02101
G1 X158.735 Y136.68 E2.41212
G1 X158.087 Y136.68 E.02422
G1 X203.837 Y182.43 E2.41708
G1 X203.283 Y182.524 E.02101
G1 X157.438 Y136.68 E2.42205
G1 X156.79 Y136.68 E.02422
G1 X202.714 Y182.604 E2.42625
G1 X202.144 Y182.683 E.02148
G1 X156.142 Y136.68 E2.43041
G1 X155.493 Y136.68 E.02422
G1 X201.574 Y182.761 E2.43458
G1 X201.005 Y182.84 E.02148
G1 X154.845 Y136.68 E2.43874
G1 X154.196 Y136.68 E.02422
G1 X200.435 Y182.919 E2.44291
G1 X199.866 Y182.998 E.02148
G1 X153.548 Y136.68 E2.44707
G1 X152.9 Y136.68 E.02422
G1 X199.296 Y183.077 E2.45124
G1 X198.727 Y183.155 E.02148
G1 X152.251 Y136.68 E2.4554
G1 X151.603 Y136.68 E.02422
G1 X198.157 Y183.234 E2.45956
G1 X197.587 Y183.313 E.02148
G1 X150.955 Y136.68 E2.46373
G1 X150.306 Y136.68 E.02422
G1 X197.018 Y183.392 E2.46789
G1 X196.448 Y183.47 E.02148
G1 X149.658 Y136.68 E2.47206
G1 X149.009 Y136.68 E.02422
G1 X195.879 Y183.549 E2.47622
G3 X195.3 Y183.618 I-1.422 J-9.451 E.0218
G1 X148.361 Y136.68 E2.47987
G1 X147.713 Y136.68 E.02422
G1 X194.714 Y183.681 E2.4832
G1 X194.128 Y183.744 E.022
G1 X147.064 Y136.68 E2.48652
G1 X146.416 Y136.68 E.02422
G1 X193.543 Y183.807 E2.48984
G1 X192.957 Y183.87 E.022
G1 X145.767 Y136.68 E2.49316
G1 X145.119 Y136.68 E.02422
G1 X192.372 Y183.933 E2.49648
G1 X191.786 Y183.995 E.022
G1 X144.471 Y136.68 E2.49981
G1 X143.822 Y136.68 E.02422
G1 X191.201 Y184.058 E2.50313
G1 X190.615 Y184.121 E.022
G1 X143.174 Y136.679 E2.50645
G1 X142.525 Y136.679 E.02422
G1 X190.03 Y184.184 E2.50977
G1 X189.444 Y184.247 E.022
G1 X141.877 Y136.679 E2.51309
G1 X141.229 Y136.679 E.02422
G1 X188.859 Y184.31 E2.51642
G1 X188.273 Y184.372 E.022
G1 X140.58 Y136.679 E2.51974
G1 X139.932 Y136.679 E.02422
G1 X187.679 Y184.426 E2.52258
G1 X187.077 Y184.473 E.02254
G1 X139.284 Y136.679 E2.52505
G1 X138.635 Y136.679 E.02422
G1 X186.475 Y184.519 E2.52751
G1 X185.874 Y184.566 E.02254
G1 X137.987 Y136.679 E2.52998
G1 X137.338 Y136.679 E.02422
G1 X185.272 Y184.613 E2.53245
G1 X184.67 Y184.66 E.02254
G1 X136.69 Y136.679 E2.53492
G1 X136.042 Y136.679 E.02422
G1 X184.069 Y184.706 E2.53739
G1 X183.467 Y184.753 E.02254
G1 X135.393 Y136.679 E2.53986
G1 X134.745 Y136.679 E.02422
G1 X182.865 Y184.8 E2.54233
G1 X182.264 Y184.846 E.02254
G1 X134.096 Y136.679 E2.54479
G1 X133.448 Y136.679 E.02422
G1 X181.662 Y184.893 E2.54726
G1 X181.06 Y184.94 E.02254
G1 X132.8 Y136.679 E2.54973
G1 X132.151 Y136.679 E.02422
G1 X180.495 Y185.023 E2.55414
G1 X180.446 Y185.033 E.0019
G1 X180.057 Y185.233 E.01632
G1 X131.503 Y136.679 E2.56523
G1 X130.854 Y136.679 E.02422
G1 X179.712 Y185.536 E2.58127
G2 X179.449 Y185.922 I.826 J.846 E.01755
G1 X130.206 Y136.679 E2.60164
G1 X129.558 Y136.679 E.02422
G1 X179.287 Y186.408 E2.6273
G2 X179.263 Y187.033 I3.528 J.445 E.0234
G1 X128.909 Y136.679 E2.66032
G1 X128.261 Y136.679 E.02422
G1 X179.263 Y187.681 E2.69458
