; generated by SuperSlicer 2.5.59 on 2023-08-27 at 23:56:24 UTC


;
;

;
;
; 

; external perimeters extrusion width = 0.40mm
; perimeters extrusion width = 0.46mm
; infill extrusion width = 0.64mm
; solid infill extrusion width = 0.56mm
; top infill extrusion width = 0.40mm
; support material extrusion width = 0.46mm
; first layer extrusion width = 0.50mm

; external perimeters extrusion width = 0.20mm
; perimeters extrusion width = 0.20mm
; infill extrusion width = 0.64mm
; solid infill extrusion width = 0.56mm
; top infill extrusion width = 0.40mm
; support material extrusion width = 0.46mm
; first layer extrusion width = 0.50mm

; object:{"name":"Dude Chilling Park","id":"Dude Chilling Park.STL id:0 copy 0","object_center":[165.000000,165.000000,0.000000],"boundingbox_center":[165.000000,165.000000,8.819999],"boundingbox_size":[109.952072,60.043610,17.639997]}
EXCLUDE_OBJECT_DEFINE NAME=Dude_Chilling_Park_STL_id_0_copy_0 CENTER=165.000000,165.000000 POLYGON=[[110.023968,136.578208],[110.043672,136.327904],[110.102272,136.083776],[110.198360,135.851824],[110.329536,135.637744],[110.492592,135.446816],[110.683512,135.283776],[110.897592,135.152576],[111.129544,135.056496],[111.373672,134.997888],[111.623968,134.978192],[218.376032,134.978192],[218.626320,134.997888],[218.870448,135.056496],[219.102416,135.152576],[219.316496,135.283776],[219.507424,135.446816],[219.670464,135.637744],[219.801664,135.851824],[219.897744,136.083776],[219.956336,136.327904],[219.976048,136.578208],[219.976048,179.828352],[219.953072,180.098464],[219.884864,180.360816],[219.773280,180.607888],[219.621648,180.832592],[219.434240,181.028464],[219.216464,181.189872],[218.974544,181.312208],[180.367248,194.982656],[180.245184,195.011952],[180.120032,195.021808],[149.880000,195.021808],[149.754848,195.011952],[149.632784,194.982656],[111.025464,181.312208],[110.783560,181.189872],[110.565776,181.028464],[110.378368,180.832592],[110.226712,180.607888],[110.115168,180.360816],[110.046928,180.098464],[110.023968,179.828352],[110.023968,136.578208]]
; plater:{"center":[165.000000,165.000000,0.000000],"boundingbox_center":[165.000000,165.000000,8.819999],"boundingbox_size":[109.952072,60.043610,17.639997]}

M73 P0 R61
M73 P0 R61
;TYPE:Custom
; custom gcode: start_gcode
START_PRINT T_BED=60 T_EXTRUDER=210
; custom gcode end: start_gcode
M107
G21 ; set units to millimeters
G90 ; use absolute coordinates
M82 ; use absolute distances for extrusion
G92 E0
; custom gcode: start_filament_gcode
; Filament gcode

    PRESSURE_ADVANCE_SELECT FILAMENT=PLA
; custom gcode end: start_filament_gcode
;_TOOLCHANGE 0
M104 S210 ; set temperature
M109 S210 ; set temperature and wait for it to be reached
M190 S60 ; set bed temperature and wait for it to be reached
;LAYER_CHANGE
;Z:0.2
;HEIGHT:0.2
G1 Z0.2 F9000
M73 P0 R61
G1 E-0.8 F2400
M204 S1000
G1 X108.384 Y132.614 F9000
G1 E0 F1800
;TYPE:Skirt
;WIDTH:0.52
G1 X107.804 Y133.17 E0.03186
G1 X107.317 Y133.81 E0.06374
G1 X106.937 Y134.517 E0.0956
G1 X106.673 Y135.276 E0.12748
G1 X106.512 Y136.291 E0.16822
G1 X106.501 Y179.824 E1.89517
G1 X106.641 Y181.001 E1.9422
G1 X107.009 Y182.043 E1.98601
G1 X107.449 Y182.79 E2.02042
G1 X108.009 Y183.453 E2.05483
G1 X108.672 Y184.011 E2.08924
G1 X109.854 Y184.635 E2.14223
G1 X148.435 Y198.341 E3.76645
G1 X149.098 Y198.51 E3.79357
G1 X149.889 Y198.588 E3.82511
G1 X180.223 Y198.579 E5.02843
G1 X181.37 Y198.397 E5.07449
G1 X220.579 Y184.449 E6.7254
G1 X221.328 Y184.011 E6.7598
G1 X221.991 Y183.453 E6.79421
G1 X222.685 Y182.592 E6.83804
G1 X223.089 Y181.826 E6.87242
G1 X223.299 Y181.232 E6.89741
G1 X223.486 Y180.139 E6.9414
G1 X223.499 Y136.582 E8.66926
G1 X223.379 Y135.491 E8.71283
G1 X223.147 Y134.722 E8.74469
G1 X222.683 Y133.81 E8.78529
G1 X222.196 Y133.17 E8.81717
G1 X221.145 Y132.272 E8.87203
G1 X220.437 Y131.892 E8.9039
G1 X219.463 Y131.575 E8.9445
G1 X218.664 Y131.466 E8.97652
G1 X111.628 Y131.455 E13.22256
G1 X110.536 Y131.575 E13.26612
G1 X109.563 Y131.892 E13.30672
G1 X108.384 Y132.614 E13.36159
G1 X108.693 Y132.977 F9000
G1 F1800
G1 X108.166 Y133.48 E13.39049
G1 X107.724 Y134.059 E13.41939
G1 X107.378 Y134.7 E13.44829
G1 X107.137 Y135.387 E13.4772
G1 X106.988 Y136.328 E13.51497
G1 X106.978 Y179.824 E15.24043
G1 X107.103 Y180.881 E15.28266
G1 X107.345 Y181.629 E15.31386
G1 X107.844 Y182.523 E15.35447
G1 X108.353 Y183.123 E15.38567
G1 X108.956 Y183.628 E15.41687
G1 X110.013 Y184.185 E15.46428
G1 X148.595 Y197.891 E17.0885
G1 X149.889 Y198.111 E17.14056
G1 X180.223 Y198.102 E18.34388
M73 P0 R61
G1 X181.222 Y197.944 E18.38403
G1 X220.364 Y184.023 E20.03202
G1 X221.044 Y183.628 E20.06322
G1 X221.647 Y183.123 E20.09442
G1 X222.289 Y182.326 E20.13504
G1 X222.837 Y181.112 E20.18787
G1 X223.011 Y180.098 E20.22865
G1 X223.022 Y136.582 E21.95492
G1 X222.915 Y135.602 E21.99403
G1 X222.706 Y134.904 E22.02292
G1 X222.276 Y134.059 E22.06055
G1 X221.834 Y133.48 E22.08947
G1 X220.895 Y132.678 E22.13841
G1 X220.254 Y132.332 E22.16731
G1 X219.352 Y132.039 E22.20494
G1 X218.626 Y131.942 E22.23399
G1 X111.628 Y131.932 E26.47854
G1 X110.648 Y132.039 E26.51765
G1 X109.746 Y132.332 E26.55528
G1 X108.693 Y132.977 E26.60424
G92 E0
G1 E-0.8 F2400
; printing object Dude Chilling Park.STL id:0 copy 0
EXCLUDE_OBJECT_START NAME=Dude_Chilling_Park_STL_id_0_copy_0
; acceleration to travel
M204 S15000
G1 X176.106 Y183.093 F9000
; decel to extrusion
M204 S1000
G1 X180.6 Y186.434
; end travel
G1 E0 F1800
;TYPE:External perimeter
;WIDTH:0.499999
G1 X180.52 Y186.731 E0.01168
G1 X180.512 Y194.284 E0.29872
G1 X180.4 Y194.502 E0.30804
G1 X180.182 Y194.614 E0.31736
G1 X149.943 Y194.623 E1.46662
G1 X149.848 Y194.613 E1.47025
G1 X149.596 Y194.498 E1.48078
G1 X149.488 Y194.284 E1.48991
G1 X149.48 Y186.731 E1.77695
G1 X149.441 Y186.514 E1.78532
G1 X149.241 Y186.282 E1.79695
G1 X149.103 Y186.221 E1.8027
G1 X141.864 Y185.651 E2.07866
G1 X134.193 Y184.828 E2.37191
G1 X126.55 Y183.771 E2.66516
G1 X118.943 Y182.481 E2.9584
G1 X111.518 Y180.988 E3.24623
G1 X111.018 Y180.81 E3.2664
G1 X110.726 Y180.553 E3.2812
G1 X110.536 Y180.212 E3.29601
G1 X110.466 Y179.804 E3.31176
G1 X110.466 Y136.701 E4.94993
G1 X110.526 Y136.221 E4.96831
G1 X110.69 Y135.9 E4.98203
G1 X110.945 Y135.644 E4.99575
G1 X111.267 Y135.48 E5.00948
G1 X111.647 Y135.421 E5.02408
G1 X218.253 Y135.421 E9.07579
G1 X218.733 Y135.48 E9.09416
G1 X219.055 Y135.644 E9.10789
G1 X219.31 Y135.9 E9.12161
G1 X219.474 Y136.221 E9.13534
G1 X219.534 Y136.701 E9.15371
G1 X219.534 Y179.692 E10.78763
M73 P1 R61
G1 X219.464 Y180.212 E10.80759
G1 X219.274 Y180.553 E10.82239
G1 X218.982 Y180.81 E10.83719
G1 X218.6 Y180.964 E10.85284
G1 X211.057 Y182.481 E11.14526
G1 X203.45 Y183.771 E11.4385
G1 X195.807 Y184.828 E11.73174
G1 X188.136 Y185.651 E12.025
G1 X180.854 Y186.229 E12.3026
G1 X180.6 Y186.434 E12.31503
;WIPE_START
M204 S15000
G1 X180.201 Y186.455 F9000
;WIPE_END
M204 S1000
G1 X180.232 Y186.188
;TYPE:Internal perimeter
G1 F1800
G1 X180.149 Y186.307 E12.32055
G1 X180.063 Y186.731 E12.33699
G1 X180.055 Y194.157 E12.61922
G1 X149.945 Y194.166 E13.76358
G1 X149.937 Y186.731 E14.04615
G1 X149.893 Y186.443 E14.05723
G1 X149.784 Y186.186 E14.06784
G1 X149.44 Y185.862 E14.0858
G1 X149.139 Y185.766 E14.0978
G1 X141.907 Y185.196 E14.37351
G1 X134.248 Y184.374 E14.66626
G1 X126.619 Y183.319 E14.95897
G1 X119.026 Y182.032 E15.25169
G1 X111.619 Y180.542 E15.53882
G1 X111.261 Y180.415 E15.55325
G1 X111.087 Y180.261 E15.56209
G1 X110.973 Y180.058 E15.57094
G1 X110.923 Y179.765 E15.58224
G1 X110.923 Y136.701 E17.21894
G1 X110.95 Y136.471 E17.22773
G1 X111.064 Y136.172 E17.23993
G1 X111.314 Y135.97 E17.25212
G1 X111.682 Y135.878 E17.26656
G1 X218.253 Y135.878 E21.31692
G1 X218.59 Y135.921 E21.32983
G1 X218.859 Y136.095 E21.342
G1 X219.034 Y136.364 E21.3542
G1 X219.077 Y136.701 E21.36711
G1 X219.077 Y179.692 E23.00103
G1 X219.027 Y180.058 E23.01508
G1 X218.913 Y180.261 E23.02393
G1 X218.739 Y180.415 E23.03277
G1 X218.469 Y180.524 E23.04383
G1 X210.974 Y182.032 E23.33438
G1 X203.381 Y183.319 E23.62709
G1 X195.752 Y184.374 E23.9198
G1 X188.093 Y185.196 E24.21255
G1 X180.861 Y185.766 E24.48826
G1 X180.633 Y185.824 E24.4972
G1 X180.311 Y186.075 E24.51272
G1 X180.232 Y186.188 E24.51796
G1 X179.834 Y185.963 F9000
G1 F1800
G1 X179.702 Y186.195 E24.52809
G1 X179.606 Y186.73 E24.54878
G1 X179.598 Y193.7 E24.81365
G1 X150.402 Y193.708 E25.92331
G1 X150.394 Y186.73 E26.18853
G1 X150.341 Y186.354 E26.20297
G1 X150.188 Y185.968 E26.21876
G1 X149.866 Y185.615 E26.23692
G1 X149.554 Y185.407 E26.25115
G1 X149.175 Y185.31 E26.26604
G1 X141.949 Y184.741 E26.54151
G1 X134.304 Y183.921 E26.83374
G1 X126.689 Y182.867 E27.12593
G1 X119.109 Y181.582 E27.41811
G1 X111.698 Y180.091 E27.70541
G1 X111.448 Y179.97 E27.71598
G1 X111.381 Y179.727 E27.7256
G1 X111.381 Y136.701 E29.36084
G1 X111.401 Y136.542 E29.36691
G1 X111.489 Y136.393 E29.37351
G1 X111.718 Y136.335 E29.38248
G1 X218.253 Y136.335 E33.43148
M73 P1 R60
G1 X218.412 Y136.355 E33.43756
G1 X218.561 Y136.444 E33.44415
G1 X218.619 Y136.701 E33.45418
G1 X218.619 Y179.692 E35.08811
G1 X218.552 Y179.97 E35.09899
G1 X218.337 Y180.084 E35.10824
G1 X210.891 Y181.582 E35.39692
G1 X203.311 Y182.867 E35.6891
G1 X195.696 Y183.921 E35.98128
G1 X188.051 Y184.741 E36.27352
G1 X180.825 Y185.31 E36.54898
G1 X180.647 Y185.338 E36.55586
G1 X180.296 Y185.489 E36.57038
G1 X179.902 Y185.844 E36.59054
G1 X179.834 Y185.963 E36.59573
G92 E0
G1 E-0.8 F2400
; acceleration to travel
M204 S15000
G1 X214.888 Y139.976 F9000
; decel to extrusion
M204 S1000
G1 X217.558 Y136.472
; end travel
G1 E0 F1800
;TYPE:Solid infill
;WIDTH:0.5005
G1 F3600
G1 X218.482 Y137.396 E0.04971
G1 X218.482 Y138.042 F9000
G1 F3600
G1 X216.912 Y136.472 E0.1342
G1 X216.266 Y136.472 F9000
G1 F3600
G1 X218.482 Y138.689 E0.25347
G1 X218.482 Y139.335 F9000
G1 F3600
G1 X215.619 Y136.472 E0.40752
G1 X214.973 Y136.472 F9000
G1 F3600
G1 X218.482 Y139.981 E0.59635
G1 X218.482 Y140.628 F9000
G1 F3600
G1 X214.326 Y136.472 E0.81995
G1 X213.68 Y136.472 F9000
G1 F3600
G1 X218.482 Y141.274 E1.07834
G1 X218.482 Y141.921 F9000
G1 F3600
G1 X213.034 Y136.472 E1.3715
G1 X212.387 Y136.472 F9000
G1 F3600
G1 X218.482 Y142.567 E1.69944
G1 X218.482 Y143.214 F9000
G1 F3600
G1 X211.741 Y136.472 E2.06216
G1 X211.094 Y136.472 F9000
G1 F3600
G1 X218.482 Y143.86 E2.45965
G1 X218.482 Y144.506 F9000
G1 F3600
G1 X210.448 Y136.472 E2.89193
G1 X209.801 Y136.472 F9000
G1 F3600
G1 X218.482 Y145.153 E3.35898
G1 X218.482 Y145.799 F9000
G1 F3600
G1 X209.155 Y136.472 E3.86082
G1 X208.509 Y136.472 F9000
G1 F3600
G1 X218.482 Y146.446 E4.39743
G1 X218.482 Y147.092 F9000
G1 F3600
G1 X207.862 Y136.472 E4.96882
G1 X207.216 Y136.472 F9000
G1 F3600
G1 X218.482 Y147.738 E5.57499
G1 X218.482 Y148.385 F9000
G1 F3600
G1 X206.569 Y136.472 E6.21593
G1 X205.923 Y136.472 F9000
G1 F3600
G1 X218.482 Y149.031 E6.89166
G1 X218.482 Y149.678 F9000
G1 F3600
G1 X205.277 Y136.472 E7.60216
G1 X204.63 Y136.472 F9000
G1 F3600
G1 X218.482 Y150.324 E8.34745
G1 X218.482 Y150.97 F9000
G1 F3600
G1 X203.984 Y136.472 E9.12751
G1 X203.337 Y136.472 F9000
G1 F3600
G1 X218.482 Y151.617 E9.94235
G1 X218.482 Y152.263 F9000
G1 F3600
G1 X202.691 Y136.472 E10.79196
G1 X202.045 Y136.472 F9000
G1 F3600
G1 X218.482 Y152.91 E11.67636
G1 X218.482 Y153.556 F9000
G1 F3600
G1 X201.398 Y136.472 E12.59554
G1 X200.752 Y136.472 F9000
G1 F3600
G1 X218.482 Y154.202 E13.54949
G1 X218.482 Y154.849 F9000
G1 F3600
G1 X200.105 Y136.472 E14.53822
G1 X199.459 Y136.472 F9000
G1 F3600
G1 X218.482 Y155.495 E15.56173
G1 X218.482 Y156.142 F9000
G1 F3600
G1 X198.813 Y136.472 E16.62002
G1 X198.166 Y136.472 F9000
G1 F3600
G1 X218.482 Y156.788 E17.71309
G1 X218.482 Y157.434 F9000
G1 F3600
G1 X197.52 Y136.472 E18.84093
G1 X196.873 Y136.472 F9000
G1 F3600
G1 X218.482 Y158.081 E20.00356
G1 X218.482 Y158.727 F9000
G1 F3600
G1 X196.227 Y136.472 E21.20096
G1 X195.581 Y136.472 F9000
G1 F3600
G1 X218.482 Y159.374 E22.43314
G1 X218.482 Y160.02 F9000
G1 F3600
G1 X194.934 Y136.472 E23.7001
G1 X194.288 Y136.472 F9000
G1 F3600
G1 X218.482 Y160.667 E25.00184
G1 X218.482 Y161.313 F9000
G1 F3600
G1 X193.641 Y136.472 E26.33836
G1 X192.995 Y136.472 F9000
G1 F3600
G1 X218.482 Y161.959 E27.70966
G1 X218.482 Y162.606 F9000
G1 F3600
G1 X192.348 Y136.472 E29.11573
G1 X191.702 Y136.472 F9000
G1 F3600
G1 X218.482 Y163.252 E30.55658
G1 X218.482 Y163.899 F9000
G1 F3600
G1 X191.056 Y136.472 E32.03221
G1 X190.409 Y136.472 F9000
G1 F3600
G1 X218.482 Y164.545 E33.54262
G1 X218.482 Y165.191 F9000
G1 F3600
G1 X189.763 Y136.472 E35.08781
G1 X189.116 Y136.472 F9000
G1 F3600
G1 X218.482 Y165.838 E36.66778
G1 X218.482 Y166.484 F9000
G1 F3600
G1 X188.47 Y136.472 E38.28252
G1 X187.824 Y136.472 F9000
G1 F3600
G1 X218.482 Y167.131 E39.93205
G1 X218.482 Y167.777 F9000
G1 F3600
G1 X187.177 Y136.472 E41.61635
G1 X186.531 Y136.472 F9000
G1 F3600
G1 X218.482 Y168.423 E43.33543
G1 X218.482 Y169.07 F9000
G1 F3600
G1 X185.884 Y136.472 E45.08929
G1 X185.238 Y136.472 F9000
G1 F3600
G1 X218.482 Y169.716 E46.87793
G1 X218.482 Y170.363 F9000
G1 F3600
G1 X184.592 Y136.472 E48.70134
G1 X183.945 Y136.472 F9000
G1 F3600
G1 X218.482 Y171.009 E50.55954
G1 X218.482 Y171.655 F9000
G1 F3600
G1 X183.299 Y136.472 E52.45251
G1 X182.652 Y136.472 F9000
G1 F3600
G1 X218.482 Y172.302 E54.38026
G1 X218.482 Y172.948 F9000
G1 F3600
G1 X182.006 Y136.472 E56.34279
G1 X181.36 Y136.472 F9000
G1 F3600
G1 X218.482 Y173.595 E58.3401
G1 X218.482 Y174.241 F9000
G1 F3600
G1 X180.713 Y136.472 E60.37219
M73 P2 R60
G1 X180.067 Y136.472 F9000
G1 F3600
G1 X218.482 Y174.887 E62.43905
G1 X218.482 Y175.534 F9000
G1 F3600
G1 X179.42 Y136.472 E64.5407
G1 X178.774 Y136.472 F9000
G1 F3600
G1 X218.482 Y176.18 E66.67712
G1 X218.482 Y176.827 F9000
G1 F3600
G1 X178.128 Y136.472 E68.84832
G1 X177.481 Y136.472 F9000
G1 F3600
G1 X218.482 Y177.473 E71.0543
G1 X218.482 Y178.12 F9000
G1 F3600
G1 X176.835 Y136.472 E73.29506
M73 P3 R60
G1 X176.188 Y136.472 F9000
G1 F3600
G1 X218.482 Y178.766 E75.5706
G1 X218.482 Y179.412 F9000
G1 F3600
G1 X175.542 Y136.472 E77.88091
G1 X174.895 Y136.472 F9000
G1 F3600
G1 X218.363 Y179.939 E80.21958
G1 X217.825 Y180.048 F9000
G1 F3600
G1 X174.249 Y136.472 E82.56407
G1 X173.603 Y136.472 F9000
G1 F3600
G1 X217.287 Y180.156 E84.91438
G1 X216.748 Y180.264 F9000
G1 F3600
G1 X172.956 Y136.472 E87.27052
G1 X172.31 Y136.472 F9000
G1 F3600
G1 X216.21 Y180.372 E89.63248
G1 X215.672 Y180.48 F9000
G1 F3600
G1 X171.663 Y136.472 E92.00026
G1 X171.017 Y136.472 F9000
G1 F3600
G1 X215.134 Y180.589 E94.37387
G1 X214.596 Y180.697 F9000
G1 F3600
G1 X170.371 Y136.472 E96.7533
G1 X169.724 Y136.472 F9000
G1 F3600
G1 X214.058 Y180.805 E99.13856
G1 X213.519 Y180.913 F9000
G1 F3600
G1 X169.078 Y136.472 E101.52964
G1 X168.431 Y136.472 F9000
G1 F3600
G1 X212.981 Y181.022 E103.92654
G1 X212.443 Y181.13 F9000
G1 F3600
G1 X167.785 Y136.472 E106.32927
G1 X167.139 Y136.472 F9000
G1 F3600
G1 X211.905 Y181.238 E108.73782
G1 X211.367 Y181.346 F9000
G1 F3600
G1 X166.492 Y136.472 E111.1522
G1 X165.846 Y136.472 F9000
G1 F3600
G1 X210.828 Y181.454 E113.57235
G1 X210.275 Y181.547 F9000
G1 F3600
G1 X165.199 Y136.472 E115.99753
G1 X164.553 Y136.472 F9000
G1 F3600
G1 X209.722 Y181.641 E118.42776
G1 X209.17 Y181.735 F9000
G1 F3600
G1 X163.907 Y136.472 E120.86304
G1 X163.26 Y136.472 F9000
G1 F3600
G1 X208.617 Y181.829 E123.30335
G1 X208.064 Y181.922 F9000
G1 F3600
G1 X162.614 Y136.472 E125.74871
G1 X161.967 Y136.472 F9000
G1 F3600
G1 X207.511 Y182.016 E128.19911
G1 X206.959 Y182.11 F9000
G1 F3600
G1 X161.321 Y136.472 E130.65455
G1 X160.675 Y136.472 F9000
G1 F3600
G1 X206.406 Y182.203 E133.11503
G1 X205.853 Y182.297 F9000
G1 F3600
G1 X160.028 Y136.472 E135.58056
G1 X159.382 Y136.472 F9000
G1 F3600
G1 X205.301 Y182.391 E138.05113
M73 P3 R59
G1 X204.748 Y182.485 F9000
G1 F3600
G1 X158.735 Y136.472 E140.52674
G1 X158.089 Y136.472 F9000
G1 F3600
G1 X204.195 Y182.578 E143.00739
G1 X203.643 Y182.672 F9000
G1 F3600
G1 X157.442 Y136.472 E145.49308
G1 X156.796 Y136.472 F9000
G1 F3600
G1 X203.084 Y182.76 E147.98352
G1 X202.517 Y182.839 F9000
G1 F3600
G1 X156.15 Y136.472 E150.47819
G1 X155.503 Y136.472 F9000
G1 F3600
