; generated by SuperSlicer 2.5.59 on 2023-04-20 at 14:53:03 UTC


;
;

;
;
; 

; external perimeters extrusion width = 0.40mm
; perimeters extrusion width = 0.46mm
; infill extrusion width = 0.64mm
; solid infill extrusion width = 0.56mm
; top infill extrusion width = 0.40mm
; support material extrusion width = 0.46mm
; first layer extrusion width = 0.50mm

; external perimeters extrusion width = 0.20mm
; perimeters extrusion width = 0.20mm
; infill extrusion width = 0.64mm
; solid infill extrusion width = 0.56mm
; top infill extrusion width = 0.40mm
; support material extrusion width = 0.46mm
; first layer extrusion width = 0.50mm

; external perimeters extrusion width = 0.40mm
; perimeters extrusion width = 0.46mm
; infill extrusion width = 0.64mm
; solid infill extrusion width = 0.56mm
; top infill extrusion width = 0.40mm
; support material extrusion width = 0.46mm
; first layer extrusion width = 0.50mm

; external perimeters extrusion width = 0.20mm
; perimeters extrusion width = 0.20mm
; infill extrusion width = 0.64mm
; solid infill extrusion width = 0.56mm
; top infill extrusion width = 0.40mm
; support material extrusion width = 0.46mm
; first layer extrusion width = 0.50mm

; object:{"name":"Dude Chilling Park","id":"Dude Chilling Park.STL id:0 copy 0","object_center":[165.000000,131.978196,0.000000],"boundingbox_center":[165.000000,131.978196,8.819999],"boundingbox_size":[109.952072,60.043610,17.639997]}
EXCLUDE_OBJECT_DEFINE NAME=Dude_Chilling_Park_STL_id_0_copy_0 CENTER=165.000000,131.978196 POLYGON=[[110.023968,103.556400],[110.043672,103.306096],[110.102272,103.061976],[110.198360,102.830016],[110.329536,102.615936],[110.492592,102.425016],[110.683512,102.261968],[110.897592,102.130768],[111.129544,102.034696],[111.373672,101.976096],[111.623968,101.956392],[218.376032,101.956392],[218.626320,101.976096],[218.870448,102.034696],[219.102416,102.130768],[219.316496,102.261968],[219.507424,102.425016],[219.670464,102.615936],[219.801664,102.830016],[219.897744,103.061976],[219.956336,103.306096],[219.976048,103.556400],[219.976048,146.806544],[219.953072,147.076656],[219.884864,147.339008],[219.773280,147.586096],[219.621648,147.810784],[219.434240,148.006656],[219.216464,148.168064],[218.974544,148.290400],[180.367248,161.960848],[180.245184,161.990144],[180.120032,162.000000],[149.880000,162.000000],[149.754848,161.990144],[149.632784,161.960848],[111.025464,148.290400],[110.783560,148.168064],[110.565776,148.006656],[110.378368,147.810784],[110.226712,147.586096],[110.115168,147.339008],[110.046928,147.076656],[110.023968,146.806544],[110.023968,103.556400]]
; object:{"name":"Dude Chilling Park","id":"Dude Chilling Park.STL id:1 copy 0","object_center":[165.000001,198.021804,0.000000],"boundingbox_center":[165.000001,198.021804,8.819999],"boundingbox_size":[109.952072,60.043610,17.639997]}
EXCLUDE_OBJECT_DEFINE NAME=Dude_Chilling_Park_STL_id_1_copy_0 CENTER=165.000001,198.021804 POLYGON=[[110.023968,169.600000],[110.043672,169.349696],[110.102272,169.105584],[110.198360,168.873632],[110.329536,168.659552],[110.492592,168.468624],[110.683512,168.305568],[110.897592,168.174384],[111.129544,168.078304],[111.373672,168.019712],[111.623968,168.000000],[218.376032,168.000000],[218.626320,168.019712],[218.870448,168.078304],[219.102416,168.174384],[219.316496,168.305568],[219.507424,168.468624],[219.670464,168.659552],[219.801664,168.873632],[219.897744,169.105584],[219.956336,169.349696],[219.976048,169.600000],[219.976048,212.850160],[219.953072,213.120272],[219.884864,213.382608],[219.773280,213.629696],[219.621648,213.854400],[219.434240,214.050256],[219.216464,214.211664],[218.974544,214.334016],[180.367248,228.004464],[180.245184,228.033760],[180.120032,228.043616],[149.880000,228.043616],[149.754848,228.033760],[149.632784,228.004464],[111.025464,214.334016],[110.783560,214.211664],[110.565776,214.050256],[110.378368,213.854400],[110.226712,213.629696],[110.115168,213.382608],[110.046928,213.120272],[110.023968,212.850160],[110.023968,169.600000]]
; plater:{"center":[165.000000,165.000000,0.000000],"boundingbox_center":[165.000000,165.000000,8.819999],"boundingbox_size":[109.952073,126.087218,17.639997]}

M73 P0 R190
M73 P0 R190
;TYPE:Custom
; custom gcode: start_gcode
START_PRINT T_BED=60 T_EXTRUDER=200
; custom gcode end: start_gcode
M107
G21 ; set units to millimeters
G90 ; use absolute coordinates
M82 ; use absolute distances for extrusion
G92 E0
; custom gcode: start_filament_gcode
; Filament gcode

    PRESSURE_ADVANCE_SELECT FILAMENT=PLA
; custom gcode end: start_filament_gcode
;_TOOLCHANGE 0
M104 S200 ; set temperature
M109 S200 ; set temperature and wait for it to be reached
M190 S60 ; set bed temperature and wait for it to be reached
;LAYER_CHANGE
;Z:0.2
;HEIGHT:0.2
G1 Z0.2 F9000
M73 P0 R190
G1 E-0.8 F3000
M204 S1000
G1 X107.804 Y100.148 F9000
G1 E0 F1800
;TYPE:Skirt
;WIDTH:0.52
G1 X107.317 Y100.788 E0.03124
G1 X106.853 Y101.7 E0.07102
G1 X106.621 Y102.469 E0.10225
G1 X106.501 Y103.56 E0.14494
G1 X106.501 Y212.846 E4.39352
G1 X106.641 Y214.023 E4.43961
G1 X106.91 Y214.847 E4.47332
G1 X107.449 Y215.812 E4.51626
G1 X108.009 Y216.474 E4.54998
G1 X108.672 Y217.033 E4.5837
G1 X109.854 Y217.656 E4.63564
G1 X148.435 Y231.363 E6.22737
G1 X149.098 Y231.531 E6.25395
G1 X149.889 Y231.61 E6.28486
G1 X180.223 Y231.601 E7.46411
G1 X181.658 Y231.324 E7.52095
G1 X220.146 Y217.657 E9.10873
G1 X221.328 Y217.033 E9.16068
G1 X222.156 Y216.302 E9.20363
G1 X222.685 Y215.614 E9.23735
G1 X223.089 Y214.848 E9.27105
G1 X223.359 Y214.023 E9.30478
G1 X223.499 Y212.846 E9.35086
G1 X223.499 Y103.56 E13.59944
G1 X223.379 Y102.469 E13.64214
G1 X223.147 Y101.7 E13.67336
G1 X222.683 Y100.788 E13.71315
G1 X222.196 Y100.148 E13.74439
G1 X221.145 Y99.25 E13.79816
G1 X220.437 Y98.87 E13.82939
G1 X219.463 Y98.553 E13.86918
G1 X218.664 Y98.445 E13.90056
G1 X111.628 Y98.433 E18.06168
G1 X110.536 Y98.553 E18.10436
G1 X109.563 Y98.87 E18.14415
G1 X108.855 Y99.25 E18.17538
G1 X107.804 Y100.148 E18.22915
G1 X108.166 Y100.458 F9000
G1 F1800
G1 X107.724 Y101.037 E18.25748
G1 X107.294 Y101.882 E18.29435
G1 X107.085 Y102.58 E18.32268
G1 X106.978 Y103.56 E18.361
G1 X106.978 Y212.846 E22.60959
M73 P0 R189
G1 X107.103 Y213.903 E22.65097
G1 X107.345 Y214.651 E22.68154
G1 X107.844 Y215.545 E22.72134
G1 X108.353 Y216.145 E22.75192
G1 X108.956 Y216.649 E22.7825
G1 X110.013 Y217.207 E22.82895
G1 X148.595 Y230.913 E24.42069
G1 X149.173 Y231.06 E24.44385
G1 X149.889 Y231.133 E24.47184
G1 X180.223 Y231.124 E25.6511
G1 X181.499 Y230.874 E25.70165
G1 X219.986 Y217.207 E27.28942
G1 X221.044 Y216.649 E27.33589
G1 X221.812 Y215.972 E27.3757
G1 X222.289 Y215.347 E27.40628
G1 X222.655 Y214.651 E27.43684
G1 X222.897 Y213.903 E27.46743
G1 X223.022 Y212.846 E27.5088
G1 X223.022 Y103.56 E31.75738
G1 X222.915 Y102.58 E31.79572
G1 X222.706 Y101.882 E31.82403
G1 X222.276 Y101.037 E31.86091
G1 X221.834 Y100.458 E31.88924
G1 X220.895 Y99.657 E31.93721
G1 X220.254 Y99.311 E31.96553
G1 X219.352 Y99.017 E32.00241
G1 X218.626 Y98.92 E32.03088
G1 X111.628 Y98.91 E36.19054
G1 X110.648 Y99.017 E36.22887
G1 X109.746 Y99.311 E36.26574
G1 X109.105 Y99.657 E36.29406
G1 X108.166 Y100.458 E36.34204
G92 E0
G1 E-0.8 F3000
; printing object Dude Chilling Park.STL id:0 copy 0
EXCLUDE_OBJECT_START NAME=Dude_Chilling_Park_STL_id_0_copy_0
; acceleration to travel
M204 S3000
G1 X161.911 Y139.775 F9000
; decel to extrusion
M204 S1000
G1 X179.826 Y152.881
; end travel
G1 E0 F1800
;TYPE:Internal perimeter
;WIDTH:0.5
G1 X179.73 Y152.971 E0.0049
G1 X179.606 Y153.597 E0.02868
G1 X179.598 Y160.678 E0.2924
G1 X150.402 Y160.687 E1.37986
G1 X150.394 Y153.597 E1.64392
G1 X150.27 Y152.971 E1.6677
G1 X149.574 Y152.32 E1.70321
G1 X141.949 Y151.719 E1.98807
G1 X134.304 Y150.899 E2.27447
G1 X126.689 Y149.845 E2.5608
G1 X119.109 Y148.56 E2.84714
G1 X111.615 Y147.053 E3.13184
G1 X111.469 Y146.982 E3.1379
G1 X111.408 Y146.906 E3.14155
G1 X111.381 Y146.736 E3.14795
G1 X111.381 Y103.622 E4.75379
G1 X111.401 Y103.482 E4.75907
G1 X111.434 Y103.418 E4.76172
G1 X111.549 Y103.334 E4.76705
G1 X111.689 Y103.313 E4.77232
G1 X218.397 Y103.322 E8.74679
G1 X218.503 Y103.354 E8.75089
G1 X218.566 Y103.418 E8.75425
G1 X218.599 Y103.482 E8.7569
G1 X218.619 Y103.622 E8.76218
G1 X218.619 Y146.753 E10.36865
G1 X218.58 Y146.92 E10.37506
G1 X218.531 Y146.982 E10.378
G1 X218.447 Y147.034 E10.38168
G1 X210.891 Y148.56 E10.66879
G1 X203.311 Y149.845 E10.95513
G1 X195.696 Y150.899 E11.24147
G1 X188.051 Y151.719 E11.52786
G1 X180.426 Y152.319 E11.81272
G1 X179.826 Y152.881 E11.84333
G1 X180.198 Y153.159 F9000
G1 F1800
G1 X180.15 Y153.204 E11.84579
G1 X180.063 Y153.642 E11.86242
G1 X180.055 Y161.135 E12.14149
G1 X149.945 Y161.144 E13.26296
G1 X149.937 Y153.642 E13.54237
G1 X149.85 Y153.204 E13.559
G1 X149.378 Y152.763 E13.58307
G1 X141.907 Y152.174 E13.86222
G1 X134.248 Y151.352 E14.14911
G1 X126.619 Y150.297 E14.43596
G1 X119.026 Y149.01 E14.72282
G1 X111.503 Y147.497 E15.00864
G1 X111.363 Y147.453 E15.01409
G1 X111.163 Y147.33 E15.02286
G1 X111.015 Y147.146 E15.03163
G1 X110.966 Y147.039 E15.03604
G1 X110.923 Y146.772 E15.04608
G1 X110.923 Y103.588 E16.65453
G1 X110.96 Y103.341 E16.66385
G1 X111.059 Y103.146 E16.67198
G1 X111.214 Y102.992 E16.68011
G1 X111.408 Y102.893 E16.68825
G1 X111.656 Y102.856 E16.69756
G1 X218.465 Y102.865 E20.67581
G1 X218.693 Y102.934 E20.68468
G1 X218.786 Y102.992 E20.68876
G1 X218.941 Y103.146 E20.69689
G1 X219.04 Y103.341 E20.70502
G1 X219.077 Y103.588 E20.71434
G1 X219.077 Y146.772 E22.32279
G1 X219.064 Y146.924 E22.32847
G1 X218.985 Y147.146 E22.33724
G1 X218.837 Y147.33 E22.34601
G1 X218.637 Y147.453 E22.35479
G1 X218.497 Y147.497 E22.36024
G1 X210.974 Y149.01 E22.64605
G1 X203.381 Y150.297 E22.93291
G1 X195.752 Y151.352 E23.21977
G1 X188.093 Y152.174 E23.50666
G1 X180.622 Y152.763 E23.7858
G1 X180.198 Y153.159 E23.80742
G1 X180.57 Y153.437 F9000
;TYPE:External perimeter
G1 F1800
G1 X180.52 Y153.687 E23.81691
G1 X180.512 Y161.262 E24.09904
G1 X180.473 Y161.38 E24.10367
G1 X180.4 Y161.48 E24.10829
G1 X180.3 Y161.553 E24.11291
G1 X180.182 Y161.592 E24.11754
G1 X149.907 Y161.601 E25.24515
G1 X149.757 Y161.577 E25.25081
G1 X149.634 Y161.515 E25.25595
G1 X149.527 Y161.38 E25.26237
G1 X149.488 Y161.262 E25.267
G1 X149.48 Y153.687 E25.54912
G1 X149.43 Y153.437 E25.55861
G1 X149.183 Y153.206 E25.57124
G1 X141.864 Y152.63 E25.84466
G1 X134.193 Y151.806 E26.13205
G1 X126.55 Y150.749 E26.41943
G1 X118.943 Y149.459 E26.70681
G1 X111.39 Y147.94 E26.99374
G1 X111.191 Y147.879 E27.00149
G1 X111.017 Y147.791 E27.00878
G1 X110.859 Y147.674 E27.01608
G1 X110.724 Y147.532 E27.02338
G1 X110.614 Y147.37 E27.03068
G1 X110.534 Y147.191 E27.03797
G1 X110.484 Y147.002 E27.04527
G1 X110.466 Y146.792 E27.05312
G1 X110.466 Y103.57 E28.66296
G1 X110.482 Y103.375 E28.67023
G1 X110.524 Y103.199 E28.67699
G1 X110.594 Y103.031 E28.68375
G1 X110.688 Y102.877 E28.69051
G1 X110.806 Y102.739 E28.69727
G1 X110.944 Y102.621 E28.70403
G1 X111.099 Y102.526 E28.71079
G1 X111.267 Y102.457 E28.71755
G1 X111.443 Y102.414 E28.72431
G1 X111.638 Y102.399 E28.73158
G1 X218.362 Y102.399 E32.70666
G1 X218.533 Y102.412 E32.71303
G1 X218.733 Y102.457 E32.72069
G1 X218.901 Y102.526 E32.72744
G1 X219.056 Y102.621 E32.7342
G1 X219.194 Y102.739 E32.74096
G1 X219.312 Y102.877 E32.74772
G1 X219.406 Y103.031 E32.75448
G1 X219.476 Y103.199 E32.76124
G1 X219.518 Y103.375 E32.768
G1 X219.534 Y103.57 E32.77527
G1 X219.534 Y146.792 E34.38511
G1 X219.516 Y147.002 E34.39296
G1 X219.466 Y147.191 E34.40026
G1 X219.386 Y147.37 E34.40756
G1 X219.276 Y147.532 E34.41486
G1 X219.141 Y147.674 E34.42215
G1 X218.983 Y147.791 E34.42945
G1 X218.809 Y147.879 E34.43675
G1 X218.61 Y147.94 E34.4445
G1 X211.057 Y149.459 E34.73142
G1 X203.45 Y150.749 E35.0188
G1 X195.807 Y151.806 E35.30618
G1 X188.136 Y152.63 E35.59357
G1 X180.817 Y153.206 E35.86699
G1 X180.57 Y153.437 E35.87962
;WIPE_START
M204 S4000
G1 X180.173 Y153.485 F9000
;WIPE_END
G92 E0
G1 E-0.8 F3000
; acceleration to travel
M204 S3000
G1 X207.245 Y117.26 F9000
; decel to extrusion
M204 S1000
G1 X217.558 Y103.46
; end travel
G1 E0 F1800
;TYPE:Solid infill
;WIDTH:0.500497
G1 F3600
G1 X218.482 Y104.384 E0.04871
G1 X218.482 Y105.03 F9000
G1 F3600
G1 X216.912 Y103.46 E0.1315
G1 X216.266 Y103.46 F9000
G1 F3600
G1 X218.482 Y105.676 E0.24838
G1 X218.482 Y106.323 F9000
G1 F3600
G1 X215.619 Y103.46 E0.39933
G1 X214.973 Y103.46 F9000
G1 F3600
G1 X218.482 Y106.969 E0.58435
G1 X218.482 Y107.616 F9000
G1 F3600
G1 X214.327 Y103.46 E0.80346
G1 X213.68 Y103.46 F9000
G1 F3600
G1 X218.482 Y108.262 E1.05665
G1 X218.482 Y108.908 F9000
G1 F3600
G1 X213.034 Y103.46 E1.34392
G1 X212.388 Y103.46 F9000
G1 F3600
G1 X218.482 Y109.555 E1.66526
G1 X218.482 Y110.201 F9000
G1 F3600
G1 X211.741 Y103.46 E2.02069
G1 X211.095 Y103.46 F9000
G1 F3600
G1 X218.482 Y110.848 E2.41019
G1 X218.482 Y111.494 F9000
G1 F3600
G1 X210.449 Y103.46 E2.83377
G1 X209.802 Y103.46 F9000
G1 F3600
G1 X218.482 Y112.14 E3.29144
G1 X218.482 Y112.787 F9000
G1 F3600
G1 X209.156 Y103.461 E3.78318
G1 X208.51 Y103.461 F9000
G1 F3600
G1 X218.482 Y113.433 E4.309
G1 X218.482 Y114.08 F9000
G1 F3600
G1 X207.863 Y103.461 E4.8689
G1 X207.217 Y103.461 F9000
G1 F3600
G1 X218.482 Y114.726 E5.46288
G1 X218.482 Y115.372 F9000
G1 F3600
G1 X206.571 Y103.461 E6.09094
G1 X205.924 Y103.461 F9000
G1 F3600
G1 X218.482 Y116.019 E6.75307
G1 X218.482 Y116.665 F9000
G1 F3600
G1 X205.278 Y103.461 E7.44929
G1 X204.632 Y103.461 F9000
G1 F3600
G1 X218.482 Y117.312 E8.17958
G1 X218.482 Y117.958 F9000
G1 F3600
G1 X203.985 Y103.461 E8.94396
G1 X203.339 Y103.461 F9000
G1 F3600
G1 X218.482 Y118.605 E9.74241
G1 X218.482 Y119.251 F9000
G1 F3600
G1 X202.693 Y103.461 E10.57494
G1 X202.046 Y103.461 F9000
G1 F3600
G1 X218.482 Y119.897 E11.44156
G1 X218.482 Y120.544 F9000
G1 F3600
G1 X201.4 Y103.461 E12.34225
G1 X200.754 Y103.461 F9000
G1 F3600
G1 X218.482 Y121.19 E13.27702
G1 X218.482 Y121.837 F9000
G1 F3600
G1 X200.107 Y103.462 E14.24587
G1 X199.461 Y103.462 F9000
G1 F3600
G1 X218.482 Y122.483 E15.2488
G1 X218.482 Y123.129 F9000
G1 F3600
G1 X198.815 Y103.462 E16.2858
G1 X198.168 Y103.462 F9000
G1 F3600
G1 X218.482 Y123.776 E17.35689
G1 X218.482 Y124.422 F9000
G1 F3600
G1 X197.522 Y103.462 E18.46206
G1 X196.876 Y103.462 F9000
G1 F3600
G1 X218.482 Y125.069 E19.6013
G1 X218.482 Y125.715 F9000
G1 F3600
G1 X196.229 Y103.462 E20.77463
G1 X195.583 Y103.462 F9000
G1 F3600
G1 X218.482 Y126.361 E21.98203
M73 P1 R188
G1 X218.482 Y127.008 F9000
G1 F3600
G1 X194.937 Y103.462 E23.22351
G1 X194.29 Y103.462 F9000
G1 F3600
G1 X218.482 Y127.654 E24.49907
G1 X218.482 Y128.301 F9000
G1 F3600
G1 X193.644 Y103.462 E25.80871
G1 X192.998 Y103.462 F9000
G1 F3600
G1 X218.482 Y128.947 E27.15243
G1 X218.482 Y129.593 F9000
G1 F3600
G1 X192.351 Y103.462 E28.53023
G1 X191.705 Y103.462 F9000
G1 F3600
G1 X218.482 Y130.24 E29.94211
G1 X218.482 Y130.886 F9000
G1 F3600
G1 X191.059 Y103.462 E31.38807
G1 X190.412 Y103.463 F9000
G1 F3600
G1 X218.482 Y131.533 E32.8681
G1 X218.482 Y132.179 F9000
G1 F3600
G1 X189.766 Y103.463 E34.38222
G1 X189.12 Y103.463 F9000
G1 F3600
G1 X218.482 Y132.825 E35.93042
G1 X218.482 Y133.472 F9000
G1 F3600
G1 X188.473 Y103.463 E37.51269
G1 X187.827 Y103.463 F9000
G1 F3600
G1 X218.482 Y134.118 E39.12904
G1 X218.482 Y134.765 F9000
G1 F3600
G1 X187.181 Y103.463 E40.77947
G1 X186.534 Y103.463 F9000
G1 F3600
G1 X218.482 Y135.411 E42.46399
G1 X218.482 Y136.058 F9000
G1 F3600
G1 X185.888 Y103.463 E44.18258
G1 X185.242 Y103.463 F9000
G1 F3600
G1 X218.482 Y136.704 E45.93525
M73 P1 R188
G1 X218.482 Y137.35 F9000
G1 F3600
G1 X184.595 Y103.463 E47.72199
G1 X183.949 Y103.463 F9000
G1 F3600
G1 X218.482 Y137.997 E49.54282
G1 X218.482 Y138.643 F9000
G1 F3600
G1 X183.302 Y103.463 E51.39773
G1 X182.656 Y103.463 F9000
G1 F3600
G1 X218.482 Y139.29 E53.28672
G1 X218.482 Y139.936 F9000
G1 F3600
G1 X182.01 Y103.463 E55.20978
G1 X181.363 Y103.463 F9000
G1 F3600
G1 X218.482 Y140.582 E57.16693
G1 X218.482 Y141.229 F9000
G1 F3600
G1 X180.717 Y103.464 E59.15815
G1 X180.071 Y103.464 F9000
G1 F3600
G1 X218.482 Y141.875 E61.18345
