; generated by SuperSlicer 2.5.59 on 2023-06-30 at 06:05:04 UTC


;
;

;
;
; 

; external perimeters extrusion width = 0.40mm
; perimeters extrusion width = 0.46mm
; infill extrusion width = 0.64mm
; solid infill extrusion width = 0.56mm
; top infill extrusion width = 0.40mm
; support material extrusion width = 0.46mm
; first layer extrusion width = 0.50mm

; object:{"name":"Untitled","id":"Untitled.stl id:0 copy 0","object_center":[165.000000,164.999996,0.000000],"boundingbox_center":[165.000000,164.999996,2.069463],"boundingbox_size":[84.963303,128.778003,4.138926]}
EXCLUDE_OBJECT_DEFINE NAME=Untitled_stl_id_0_copy_0 CENTER=165.000000,164.999996 POLYGON=[[122.518352,197.383792],[122.677952,180.430176],[122.837848,163.476560],[149.568816,100.611000],[180.810992,100.611000],[207.481664,163.095360],[207.481664,197.383792],[180.810992,229.389008],[149.568816,229.389008],[122.518352,197.383792]]
; plater:{"center":[165.000000,164.999996,0.000000],"boundingbox_center":[165.000000,164.999996,2.069463],"boundingbox_size":[84.963303,128.778003,4.138926]}

M73 P0 R48
M73 P0 R48
;TYPE:Custom
; custom gcode: start_gcode
START_PRINT T_BED=70 T_EXTRUDER=235
; custom gcode end: start_gcode
M107
G21 ; set units to millimeters
G90 ; use absolute coordinates
M82 ; use absolute distances for extrusion
G92 E0
; custom gcode: start_filament_gcode
; Filament gcode

    PRESSURE_ADVANCE_SELECT FILAMENT=PETG
; custom gcode end: start_filament_gcode
;_TOOLCHANGE 0
M104 S235 ; set temperature
M109 S235 ; set temperature and wait for it to be reached
M190 S70 ; set bed temperature and wait for it to be reached
;LAYER_CHANGE
;Z:0.2
;HEIGHT:0.2
G1 Z0.2 F9000
M73 P0 R48
M73 P0 R48
G1 E-1 F2400
M204 S1000
G1 X146.234 Y99.193 F9000
G1 E0 F1800
;TYPE:Skirt
;WIDTH:0.52
G1 X119.475 Y162.119 E2.57696
G1 X119.179 Y163.538 E2.63159
G1 X118.861 Y197.281 E3.90327
G1 X118.965 Y198.187 E3.93763
G1 X119.739 Y199.715 E4.00217
G1 X146.816 Y231.752 E5.58297
G1 X147.987 Y232.674 E5.63916
G1 X149.653 Y233.069 E5.7037
G1 X180.727 Y233.069 E6.87473
G1 X182.211 Y232.76 E6.93187
G1 X183.581 Y231.732 E6.99641
G1 X210.279 Y199.695 E8.56802
M73 P0 R48
G1 X211.14 Y197.316 E8.66336
G1 X211.14 Y163.193 E9.9493
G1 X210.842 Y161.735 E10.00541
G1 X184.144 Y99.188 E12.56829
G1 X183.706 Y98.426 E12.60143
G1 X182.393 Y97.326 E12.66597
G1 X180.727 Y96.931 E12.7305
G1 X149.653 Y96.931 E13.90153
G1 X148.775 Y97.036 E13.93486
G1 X147.249 Y97.813 E13.9994
G1 X146.234 Y99.193 E14.06394
G1 X146.673 Y99.379 F9000
G1 F1800
G1 X119.914 Y162.306 E16.6409
G1 X119.656 Y163.543 E16.68851
G1 X119.338 Y197.286 E17.96019
G1 X120.103 Y199.407 E18.04516
G1 X147.18 Y231.444 E19.62596
G1 X148.106 Y232.198 E19.67096
G1 X149.653 Y232.592 E19.73115
G1 X180.727 Y232.592 E20.90218
G1 X181.921 Y232.364 E20.94801
G1 X183.215 Y231.427 E21.0082
G1 X209.912 Y199.389 E22.57981
G1 X210.663 Y197.316 E22.6629
G1 X210.663 Y163.193 E23.94885
G1 X210.403 Y161.922 E23.99775
G1 X183.705 Y99.375 E26.56063
G1 X182.275 Y97.802 E26.64077
G1 X180.727 Y97.408 E26.70096
G1 X149.653 Y97.408 E27.87199
G1 X147.641 Y98.109 E27.95229
G1 X146.673 Y99.379 E28.01248
G92 E0
G1 E-1 F2400
; printing object Untitled.stl id:0 copy 0
EXCLUDE_OBJECT_START NAME=Untitled_stl_id_0_copy_0
; acceleration to travel
M204 S3000
G1 X172.026 Y147.427 F9000
; decel to extrusion
M204 S1000
G1 X180.477 Y163.443
; end travel
G1 E0 F1800
;TYPE:External perimeter
;WIDTH:0.5
G1 X207.174 Y163.443 E0.96394
G1 X207.174 Y197.066 E2.17792
G1 X180.477 Y197.066 E3.14185
G1 X180.477 Y229.103 E4.29859
G1 X149.903 Y229.103 E5.40248
G1 X149.903 Y197.066 E6.55921
G1 X122.829 Y197.066 E7.53675
G1 X123.142 Y163.82 E8.73721
G1 X149.903 Y163.403 E9.70356
G1 X149.903 Y100.897 E11.9604
M73 P1 R47
G1 X180.477 Y100.897 E13.06429
G1 X180.477 Y163.443 E15.32261
;WIPE_START
M204 S4000
G1 X180.477 Y163.843 F9000
;WIPE_END
M204 S1000
G1 X180.02 Y163.443
;TYPE:Internal perimeter
G1 F1800
G1 X180.02 Y163.901 E15.33911
G1 X206.717 Y163.901 E16.30304
G1 X206.717 Y196.609 E17.48402
G1 X180.02 Y196.609 E18.44796
G1 X180.02 Y228.646 E19.60469
G1 X150.36 Y228.646 E20.67557
G1 X150.36 Y196.609 E21.83231
M73 P2 R47
G1 X123.291 Y196.609 E22.80969
G1 X123.595 Y164.27 E23.97739
G1 X150.36 Y163.853 E24.94389
G1 X150.36 Y101.354 E27.20048
G1 X180.02 Y101.354 E28.27136
G1 X180.02 Y163.443 E30.51318
G1 X179.563 Y163.443 F9000
G1 F1800
G1 X179.563 Y164.358 E30.54619
G1 X206.26 Y164.358 E31.51012
G1 X206.26 Y196.152 E32.65809
G1 X179.563 Y196.152 E33.62203
G1 X179.563 Y228.189 E34.77876
G1 X150.818 Y228.189 E35.81663
G1 X150.818 Y196.152 E36.97337
G1 X123.752 Y196.152 E37.9506
G1 X124.048 Y164.72 E39.08554
G1 X150.818 Y164.303 E40.0522
G1 X150.818 Y101.811 E42.30853
M73 P2 R47
G1 X179.563 Y101.811 E43.3464
G1 X179.563 Y163.443 E45.57172
G92 E0
G1 E-1 F2400
; acceleration to travel
M204 S3000
G1 X179.463 Y119.581 F9000
; decel to extrusion
M204 S1000
G1 X179.426 Y102.872
; end travel
G1 E0 F1800
;TYPE:Solid infill
;WIDTH:0.500646
G1 F3600
G1 X178.502 Y101.948 E0.04724
G1 X177.855 Y101.948 F9000
G1 F3600
G1 X179.426 Y103.518 E0.12753
G1 X179.426 Y104.165 F9000
G1 F3600
G1 X177.209 Y101.948 E0.24087
G1 X176.562 Y101.948 F9000
G1 F3600
G1 X179.426 Y104.811 E0.38726
G1 X179.426 Y105.457 F9000
G1 F3600
G1 X175.916 Y101.948 E0.56669
G1 X175.27 Y101.948 F9000
G1 F3600
G1 X179.426 Y106.104 E0.77918
G1 X179.426 Y106.75 F9000
G1 F3600
G1 X174.623 Y101.948 E1.02472
G1 X173.977 Y101.948 F9000
G1 F3600
G1 X179.426 Y107.397 E1.3033
G1 X179.426 Y108.043 F9000
G1 F3600
G1 X173.33 Y101.948 E1.61494
G1 X172.684 Y101.948 F9000
G1 F3600
G1 X179.426 Y108.689 E1.95962
G1 X179.426 Y109.336 F9000
G1 F3600
G1 X172.038 Y101.948 E2.33735
G1 X171.391 Y101.948 F9000
G1 F3600
G1 X179.426 Y109.982 E2.74814
G1 X179.426 Y110.629 F9000
G1 F3600
G1 X170.745 Y101.948 E3.19197
G1 X170.098 Y101.948 F9000
G1 F3600
G1 X179.426 Y111.275 E3.66885
G1 X179.426 Y111.921 F9000
G1 F3600
G1 X169.452 Y101.948 E4.17878
G1 X168.805 Y101.948 F9000
G1 F3600
G1 X179.426 Y112.568 E4.72176
G1 X179.426 Y113.214 F9000
G1 F3600
G1 X168.159 Y101.948 E5.29778
G1 X167.513 Y101.948 F9000
G1 F3600
G1 X179.426 Y113.861 E5.90686
G1 X179.426 Y114.507 F9000
G1 F3600
G1 X166.866 Y101.948 E6.54899
G1 X166.22 Y101.948 F9000
G1 F3600
G1 X179.426 Y115.154 E7.22417
G1 X179.426 Y115.8 F9000
G1 F3600
G1 X165.573 Y101.948 E7.93239
G1 X164.927 Y101.948 F9000
G1 F3600
G1 X179.426 Y116.446 E8.67366
G1 X179.426 Y117.093 F9000
G1 F3600
G1 X164.281 Y101.948 E9.44799
G1 X163.634 Y101.948 F9000
G1 F3600
G1 X179.426 Y117.739 E10.25536
G1 X179.426 Y118.386 F9000
G1 F3600
G1 X162.988 Y101.948 E11.09578
G1 X162.341 Y101.948 F9000
G1 F3600
G1 X179.426 Y119.032 E11.96926
G1 X179.426 Y119.678 F9000
G1 F3600
G1 X161.695 Y101.948 E12.87578
G1 X161.049 Y101.948 F9000
G1 F3600
G1 X179.426 Y120.325 E13.81535
G1 X179.426 Y120.971 F9000
G1 F3600
G1 X160.402 Y101.948 E14.78796
G1 X159.756 Y101.948 F9000
G1 F3600
G1 X179.426 Y121.618 E15.79363
G1 X179.426 Y122.264 F9000
G1 F3600
G1 X159.109 Y101.948 E16.83235
G1 X158.463 Y101.948 F9000
G1 F3600
G1 X179.426 Y122.91 E17.90412
G1 X179.426 Y123.557 F9000
G1 F3600
G1 X157.817 Y101.948 E19.00893
G1 X157.17 Y101.948 F9000
G1 F3600
G1 X179.426 Y124.203 E20.1468
G1 X179.426 Y124.85 F9000
G1 F3600
G1 X156.524 Y101.948 E21.31771
G1 X155.877 Y101.948 F9000
G1 F3600
G1 X179.426 Y125.496 E22.52168
G1 X179.426 Y126.142 F9000
G1 F3600
G1 X155.231 Y101.948 E23.75869
G1 X154.585 Y101.948 F9000
G1 F3600
G1 X179.426 Y126.789 E25.02875
G1 X179.426 Y127.435 F9000
G1 F3600
G1 X153.938 Y101.948 E26.33186
G1 X153.292 Y101.948 F9000
G1 F3600
G1 X179.426 Y128.082 E27.66803
G1 X179.426 Y128.728 F9000
G1 F3600
G1 X152.645 Y101.948 E29.03724
G1 X151.999 Y101.948 F9000
G1 F3600
G1 X179.426 Y129.374 E30.43949
G1 X179.426 Y130.021 F9000
G1 F3600
G1 X151.352 Y101.948 E31.8748
G1 X150.955 Y102.196 F9000
G1 F3600
G1 X179.426 Y130.667 E33.33045
G1 X179.426 Y131.314 F9000
G1 F3600
G1 X150.955 Y102.843 E34.7861
G1 X150.955 Y103.489 F9000
G1 F3600
G1 X179.426 Y131.96 E36.24175
G1 X179.426 Y132.607 F9000
G1 F3600
G1 X150.955 Y104.136 E37.6974
G1 X150.955 Y104.782 F9000
G1 F3600
G1 X179.426 Y133.253 E39.15305
G1 X179.426 Y133.899 F9000
G1 F3600
G1 X150.955 Y105.428 E40.6087
G1 X150.955 Y106.075 F9000
G1 F3600
G1 X179.426 Y134.546 E42.06435
M73 P3 R46
G1 X179.426 Y135.192 F9000
G1 F3600
G1 X150.955 Y106.721 E43.52
G1 X150.955 Y107.368 F9000
G1 F3600
G1 X179.426 Y135.839 E44.97565
G1 X179.426 Y136.485 F9000
G1 F3600
G1 X150.955 Y108.014 E46.4313
G1 X150.955 Y108.66 F9000
G1 F3600
G1 X179.426 Y137.131 E47.88695
G1 X179.426 Y137.778 F9000
G1 F3600
G1 X150.955 Y109.307 E49.3426
G1 X150.955 Y109.953 F9000
G1 F3600
G1 X179.426 Y138.424 E50.79825
G1 X179.426 Y139.071 F9000
G1 F3600
G1 X150.955 Y110.6 E52.2539
G1 X150.955 Y111.246 F9000
G1 F3600
G1 X179.426 Y139.717 E53.70955
G1 X179.426 Y140.363 F9000
G1 F3600
G1 X150.955 Y111.892 E55.1652
G1 X150.955 Y112.539 F9000
G1 F3600
G1 X179.426 Y141.01 E56.62085
G1 X179.426 Y141.656 F9000
G1 F3600
G1 X150.955 Y113.185 E58.0765
G1 X150.955 Y113.832 F9000
G1 F3600
G1 X179.426 Y142.303 E59.53215
G1 X179.426 Y142.949 F9000
G1 F3600
G1 X150.955 Y114.478 E60.98779
G1 X150.955 Y115.125 F9000
G1 F3600
G1 X179.426 Y143.595 E62.44344
G1 X179.426 Y144.242 F9000
G1 F3600
G1 X150.955 Y115.771 E63.89909
G1 X150.955 Y116.417 F9000
G1 F3600
G1 X179.426 Y144.888 E65.35474
G1 X179.426 Y145.535 F9000
G1 F3600
G1 X150.955 Y117.064 E66.81039
G1 X150.955 Y117.71 F9000
G1 F3600
G1 X179.426 Y146.181 E68.26604
M73 P4 R46
G1 X179.426 Y146.827 F9000
G1 F3600
G1 X150.955 Y118.357 E69.72169
G1 X150.955 Y119.003 F9000
G1 F3600
G1 X179.426 Y147.474 E71.17734
G1 X179.426 Y148.12 F9000
G1 F3600
G1 X150.955 Y119.649 E72.63299
G1 X150.955 Y120.296 F9000
G1 F3600
G1 X179.426 Y148.767 E74.08864
G1 X179.426 Y149.413 F9000
G1 F3600
G1 X150.955 Y120.942 E75.54429
G1 X150.955 Y121.589 F9000
G1 F3600
G1 X179.426 Y150.06 E76.99994
G1 X179.426 Y150.706 F9000
G1 F3600
G1 X150.955 Y122.235 E78.45559
G1 X150.955 Y122.881 F9000
G1 F3600
G1 X179.426 Y151.352 E79.91124
G1 X179.426 Y151.999 F9000
G1 F3600
G1 X150.955 Y123.528 E81.36689
G1 X150.955 Y124.174 F9000
G1 F3600
G1 X179.426 Y152.645 E82.82254
G1 X179.426 Y153.292 F9000
G1 F3600
G1 X150.955 Y124.821 E84.27819
G1 X150.955 Y125.467 F9000
G1 F3600
G1 X179.426 Y153.938 E85.73384
G1 X179.426 Y154.584 F9000
G1 F3600
G1 X150.955 Y126.113 E87.18949
G1 X150.955 Y126.76 F9000
G1 F3600
G1 X179.426 Y155.231 E88.64514
G1 X179.426 Y155.877 F9000
G1 F3600
G1 X150.955 Y127.406 E90.10079
G1 X150.955 Y128.053 F9000
G1 F3600
G1 X179.426 Y156.524 E91.55644
G1 X179.426 Y157.17 F9000
G1 F3600
G1 X150.955 Y128.699 E93.01209
G1 X150.955 Y129.345 F9000
G1 F3600
G1 X179.426 Y157.816 E94.46774
G1 X179.426 Y158.463 F9000
G1 F3600
G1 X150.955 Y129.992 E95.92339
G1 X150.955 Y130.638 F9000
G1 F3600
G1 X179.426 Y159.109 E97.37904
M73 P4 R46
G1 X179.426 Y159.756 F9000
G1 F3600
G1 X150.955 Y131.285 E98.83469
G1 X150.955 Y131.931 F9000
G1 F3600
G1 X179.426 Y160.402 E100.29033
G1 X179.426 Y161.048 F9000
G1 F3600
G1 X150.955 Y132.578 E101.74598
G1 X150.955 Y133.224 F9000
G1 F3600
G1 X179.426 Y161.695 E103.20163
G1 X179.426 Y162.341 F9000
G1 F3600
G1 X150.955 Y133.87 E104.65728
G1 X150.955 Y134.517 F9000
G1 F3600
G1 X179.426 Y162.988 E106.11293
G1 X179.426 Y163.634 F9000
G1 F3600
G1 X150.955 Y135.163 E107.56858
G1 X150.955 Y135.81 F9000
G1 F3600
G1 X179.426 Y164.28 E109.02423
G92 E0
G1 E-1 F2400
; acceleration to travel
M204 S3000
G1 X198.978 Y164.441 F9000
; decel to extrusion
M204 S1000
G1 X205.496 Y164.495
; end travel
G1 E0 F1800
G1 F3600
G1 X206.123 Y165.122 E0.03205
G1 X206.123 Y165.768 F9000
G1 F3600
G1 X204.85 Y164.495 E0.09714
G1 X204.203 Y164.495 F9000
G1 F3600
G1 X206.123 Y166.414 E0.19529
G1 X206.123 Y167.061 F9000
G1 F3600
G1 X203.557 Y164.495 E0.32649
G1 X202.91 Y164.495 F9000
G1 F3600
G1 X206.123 Y167.707 E0.49073
G1 X206.123 Y168.354 F9000
G1 F3600
G1 X202.264 Y164.495 E0.68802
G1 X201.618 Y164.495 F9000
G1 F3600
G1 X206.123 Y169 E0.91837
G1 X206.123 Y169.646 F9000
G1 F3600
G1 X200.971 Y164.495 E1.18176
G1 X200.325 Y164.495 F9000
G1 F3600
G1 X206.123 Y170.293 E1.4782
G1 X206.123 Y170.939 F9000
G1 F3600
G1 X199.678 Y164.495 E1.80769
G1 X199.032 Y164.495 F9000
G1 F3600
G1 X206.123 Y171.586 E2.17023
G1 X206.123 Y172.232 F9000
G1 F3600
G1 X198.386 Y164.495 E2.56582
G1 X197.739 Y164.495 F9000
G1 F3600
G1 X206.123 Y172.878 E2.99446
G1 X206.123 Y173.525 F9000
G1 F3600
G1 X197.093 Y164.495 E3.45615
G1 X196.446 Y164.495 F9000
G1 F3600
G1 X206.123 Y174.171 E3.95088
G1 X206.123 Y174.818 F9000
G1 F3600
G1 X195.8 Y164.495 E4.47867
G1 X195.154 Y164.495 F9000
G1 F3600
G1 X206.123 Y175.464 E5.0395
G1 X206.123 Y176.11 F9000
G1 F3600
G1 X194.507 Y164.495 E5.63339
G1 X193.861 Y164.495 F9000
G1 F3600
G1 X206.123 Y176.757 E6.26032
G1 X206.123 Y177.403 F9000
G1 F3600
G1 X193.214 Y164.495 E6.9203
G1 X192.568 Y164.495 F9000
G1 F3600
G1 X206.123 Y178.05 E7.61334
G1 X206.123 Y178.696 F9000
G1 F3600
G1 X191.922 Y164.495 E8.33942
G1 X191.275 Y164.495 F9000
G1 F3600
G1 X206.123 Y179.343 E9.09855
G1 X206.123 Y179.989 F9000
G1 F3600
G1 X190.629 Y164.495 E9.89073
G1 X189.982 Y164.495 F9000
G1 F3600
G1 X206.123 Y180.635 E10.71596
G1 X206.123 Y181.282 F9000
G1 F3600
G1 X189.336 Y164.495 E11.57424
G1 X188.69 Y164.495 F9000
G1 F3600
G1 X206.123 Y181.928 E12.46556
G1 X206.123 Y182.575 F9000
G1 F3600
G1 X188.043 Y164.495 E13.38994
G1 X187.397 Y164.495 F9000
G1 F3600
G1 X206.123 Y183.221 E14.34737
G1 X206.123 Y183.867 F9000
G1 F3600
G1 X186.75 Y164.495 E15.33784
G1 X186.104 Y164.495 F9000
G1 F3600
G1 X206.123 Y184.514 E16.36137
G1 X206.123 Y185.16 F9000
G1 F3600
G1 X185.457 Y164.495 E17.41794
G1 X184.811 Y164.495 F9000
G1 F3600
G1 X206.123 Y185.807 E18.50757
G1 X206.123 Y186.453 F9000
G1 F3600
G1 X184.165 Y164.495 E19.63024
G1 X183.518 Y164.495 F9000
G1 F3600
G1 X206.123 Y187.099 E20.78596
G1 X206.123 Y187.746 F9000
G1 F3600
G1 X182.872 Y164.495 E21.97473
G1 X182.225 Y164.495 F9000
G1 F3600
G1 X206.123 Y188.392 E23.19655
G1 X206.123 Y189.039 F9000
G1 F3600
G1 X181.579 Y164.495 E24.45142
G1 X180.933 Y164.495 F9000
G1 F3600
G1 X206.123 Y189.685 E25.73934
G1 X206.123 Y190.331 F9000
G1 F3600
G1 X180.286 Y164.495 E27.06031
G1 X179.64 Y164.495 F9000
G1 F3600
G1 X206.123 Y190.978 E28.41432
G1 X206.123 Y191.624 F9000
G1 F3600
G1 X150.955 Y136.456 E31.23494
G1 X150.955 Y137.102 F9000
G1 F3600
G1 X206.123 Y192.271 E34.05556
G1 X206.123 Y192.917 F9000
G1 F3600
G1 X150.955 Y137.749 E36.87618
G1 X150.955 Y138.395 F9000
G1 F3600
G1 X206.123 Y193.563 E39.69681
M73 P5 R45
G1 X206.123 Y194.21 F9000
G1 F3600
G1 X150.955 Y139.042 E42.51743
G1 X150.955 Y139.688 F9000
G1 F3600
G1 X206.123 Y194.856 E45.33805
G1 X206.123 Y195.503 F9000
G1 F3600
G1 X150.955 Y140.334 E48.15867
G1 X150.955 Y140.981 F9000
G1 F3600
G1 X205.989 Y196.015 E50.97243
G1 X205.342 Y196.015 F9000
G1 F3600
G1 X150.955 Y141.627 E53.75314
G1 X150.955 Y142.274 F9000
G1 F3600
G1 X204.696 Y196.015 E56.50081
G1 X204.05 Y196.015 F9000
G1 F3600
G1 X150.955 Y142.92 E59.21542
G1 X150.955 Y143.566 F9000
G1 F3600
G1 X203.403 Y196.015 E61.89699
G1 X202.757 Y196.015 F9000
G1 F3600
G1 X150.955 Y144.213 E64.5455
G1 X150.955 Y144.859 F9000
G1 F3600
G1 X202.11 Y196.015 E67.16097
G1 X201.464 Y196.015 F9000
G1 F3600
G1 X150.955 Y145.506 E69.74339
G1 X150.955 Y146.152 F9000
G1 F3600
G1 X200.818 Y196.015 E72.29276
G1 X200.171 Y196.015 F9000
G1 F3600
G1 X150.955 Y146.798 E74.80907
M73 P6 R45
G1 X150.955 Y147.445 F9000
G1 F3600
G1 X199.525 Y196.015 E77.29234
G1 X198.878 Y196.015 F9000
G1 F3600
G1 X150.955 Y148.091 E79.74257
G1 X150.955 Y148.738 F9000
G1 F3600
G1 X198.232 Y196.015 E82.15974
G1 X197.585 Y196.015 F9000
G1 F3600
G1 X150.955 Y149.384 E84.54386
G1 X150.955 Y150.031 F9000
G1 F3600
G1 X196.939 Y196.015 E86.89493
G1 X196.293 Y196.015 F9000
G1 F3600
G1 X150.955 Y150.677 E89.21296
G1 X150.955 Y151.323 F9000
G1 F3600
G1 X195.646 Y196.015 E91.49793
G1 X195 Y196.015 F9000
G1 F3600
G1 X150.955 Y151.97 E93.74986
G1 X150.955 Y152.616 F9000
G1 F3600
G1 X194.353 Y196.015 E95.96873
G1 X193.707 Y196.015 F9000
G1 F3600
G1 X150.955 Y153.263 E98.15456
M73 P6 R45
