; HEADER_BLOCK_START
; generated by OrcaSlicer 1.7.0-beta on 2023-10-01 at 09:48:19
; total layer number: 100
; HEADER_BLOCK_END

; THUMBNAIL_BLOCK_START
; THUMBNAIL_BLOCK_END

; external perimeters extrusion width = 0.40mm
; perimeters extrusion width = 0.46mm
; infill extrusion width = 0.64mm
; solid infill extrusion width = 0.56mm
; top infill extrusion width = 0.40mm
; support material extrusion width = 0.46mm
; first layer extrusion width = 0.50mm

; EXECUTABLE_BLOCK_START
EXCLUDE_OBJECT_DEFINE NAME=ebb36test.stl_id_0_copy_0 CENTER=161,157 POLYGON=[[134.93,147.801],[134.948,147.395],[134.98,147.132],[135.004,146.987],[135.099,146.581],[135.129,146.478],[135.232,146.181],[135.374,145.853],[135.403,145.794],[135.609,145.424],[135.709,145.271],[135.851,145.074],[150.056,126.91],[150.429,126.488],[150.875,126.143],[151.377,125.887],[151.919,125.73],[152.48,125.677],[169.52,125.677],[170.081,125.73],[170.623,125.887],[171.125,126.143],[171.571,126.488],[171.944,126.91],[186.147,145.071],[186.291,145.271],[186.389,145.421],[186.596,145.79],[186.626,145.853],[186.766,146.176],[186.871,146.478],[186.9,146.576],[186.995,146.984],[187.02,147.132],[187.051,147.393],[187.07,147.801],[187.07,151.04],[187.049,151.538],[187.02,151.813],[186.987,152.035],[186.882,152.529],[186.871,152.574],[186.735,153.017],[186.624,153.309],[186.544,153.495],[186.314,153.956],[169,188.323],[153,188.323],[135.686,153.955],[135.455,153.494],[135.376,153.309],[135.265,153.017],[135.129,152.574],[135.118,152.529],[135.013,152.035],[134.98,151.813],[134.951,151.537],[134.93,151.04],[134.93,147.801]]
M73 P0 R21
;TYPE:Custom
START_PRINT T_BED=110 T_EXTRUDER=260
G90
G21
M83 ; use relative distances for extrusion
; Filament gcode

    PRESSURE_ADVANCE_SELECT FILAMENT=ABS
M106 S0
;LAYER_CHANGE
;Z:0.2
;HEIGHT:0.2
;BEFORE_LAYER_CHANGE
;0.2
G92 E0

;_SET_FAN_SPEED_CHANGING_LAYER
SET_VELOCITY_LIMIT ACCEL=5000 ACCEL_TO_DECEL=2500
G1 E-.5 F2400
G1 X147.759 Y125.116 F12000
G1 Z.2
G1 E.5 F1800
;TYPE:Skirt
;WIDTH:0.5
G1 F3000
G1 X148.645 Y124.183 E.04527
G1 X149.554 Y123.545 E.03907
G1 X150.056 Y123.29 E.01984
G1 X151.107 Y122.931 E.03907
G1 X152.48 Y122.763 E.04869
G1 X169.794 Y122.776 E.60934
G1 X170.903 Y122.934 E.03944
G1 X171.954 Y123.295 E.03909
G1 X172.909 Y123.838 E.03868
G1 X173.755 Y124.558 E.03907
G1 X188.818 Y143.82 E.86059
G1 X189.583 Y145.413 E.06219
G1 X189.925 Y146.911 E.05408
G1 X189.984 Y151.04 E.14532
G1 X189.929 Y151.995 E.0337
G1 X189.731 Y153.133 E.04062
G1 X189.386 Y154.239 E.04078
G1 X188.889 Y155.316 E.04174
G1 X171.603 Y189.634 E1.35235
G1 X170.594 Y190.763 E.05327
G1 X169 Y191.237 E.05853
G1 X153 Y191.237 E.56311
G1 X151.538 Y190.844 E.05327
G1 X150.397 Y189.634 E.05853
G1 X132.756 Y154.587 E1.38089
G1 X132.27 Y153.135 E.05389
G1 X132.022 Y151.229 E.06763
G1 X132.024 Y147.585 E.12825
G1 X132.138 Y146.489 E.03878
G1 X132.29 Y145.824 E.024
G1 X132.661 Y144.788 E.03875
G1 X133.41 Y143.48 E.05304
G1 X147.735 Y125.147 E.81878
G1 X148.095 Y125.429 F12000
G1 F3000
G1 X148.119 Y125.397 E.00141
G1 X148.925 Y124.545 E.04128
G1 X149.761 Y123.953 E.03605
G1 X150.693 Y123.527 E.03605
G1 X151.234 Y123.37 E.01984
G1 X152.48 Y123.22 E.04416
G1 X169.751 Y123.231 E.60783
G1 X170.774 Y123.373 E.03637
G1 X171.747 Y123.702 E.03613
G1 X172.629 Y124.2 E.03566
G1 X173.412 Y124.86 E.03605
G1 X188.422 Y144.048 E.85736
G1 X189.158 Y145.58 E.05982
G1 X189.47 Y146.945 E.04928
G1 X189.527 Y151.04 E.14411
G1 X189.472 Y151.966 E.03266
G1 X189.282 Y153.045 E.03855
G1 X188.952 Y154.093 E.03869
G1 X188.481 Y155.11 E.03945
G1 X171.195 Y189.428 E1.35235
G1 X170.246 Y190.441 E.04884
G1 X169 Y190.78 E.04543
G1 X153 Y190.78 E.56311
G1 X151.669 Y190.388 E.04884
G1 X150.805 Y189.428 E.04543
G1 X133.167 Y154.387 E1.38066
G1 X132.718 Y153.047 E.04974
G1 X132.478 Y151.199 E.06556
G1 X132.48 Y147.619 E.12601
G1 X132.584 Y146.591 E.03637
G1 X132.735 Y145.926 E.024
G1 X133.087 Y144.954 E.03635
G1 X133.771 Y143.761 E.0484
G1 X148.07 Y125.46 E.81737
; printing object ebb36test.stl id:0 copy 0
G1 E-.5 F2400
EXCLUDE_OBJECT_START NAME=ebb36test.stl_id_0_copy_0
G1 X166.435 Y143.952 F12000
G1 E.5 F1800
;TYPE:Outer wall
G1 F3000
G1 X166.435 Y126.027 E.63085
G1 X169.504 Y126.027 E.10799
G1 X170.015 Y126.075 E.01808
G1 X170.503 Y126.219 E.01791
G3 X172.092 Y128.036 I-1.069 J2.538 E.08793
G2 X174.498 Y132.897 I13.441 J-3.626 E.19211
G1 X175.204 Y133.726 E.03835
G1 X185.608 Y144.974 E.53922
G1 X186.003 Y145.471 E.02236
G3 X186.672 Y147.182 I-3.952 J2.533 E.06506
G1 X186.72 Y147.815 E.02234
G1 X186.72 Y151.028 E.11311
G3 X184.551 Y155.49 I-5.762 J-.043 E.18047
G1 X173.077 Y164.504 E.51354
G1 X172.255 Y165.244 E.03893
G1 X171.519 Y166.049 E.03837
G2 X168.65 Y171.776 I11.119 J9.153 E.22733
G1 X168.65 Y187.973 E.57004
G1 X153.35 Y187.973 E.53848
G1 X153.35 Y171.776 E.57004
G2 X149.745 Y165.244 I-13.819 J3.367 E.26566
G1 X148.923 Y164.504 E.03893
G1 X137.449 Y155.49 E.51354
M73 P1 R21
G3 X135.28 Y151.028 I3.594 J-4.505 E.18047
G1 X135.28 Y147.814 E.11311
G3 X136.392 Y144.974 I4.323 J.055 E.10973
G1 X146.796 Y133.726 E.53922
G2 X148.52 Y131.377 I-10.783 J-9.722 E.10272
G1 X148.707 Y131.066 E.01278
G2 X149.908 Y128.036 I-13.221 J-6.991 E.11494
G1 X150.086 Y127.545 E.01835
G3 X151.984 Y126.075 I2.463 J1.221 E.08746
G1 X152.496 Y126.027 E.0181
G1 X155.615 Y126.027 E.10975
G1 X155.615 Y143.928 E.62999
G1 X166.395 Y143.952 E.3794
G1 E-.5 F2400
G1 X166.394 Y144.288 F12000
G1 X163.198 Y148.957
G1 X162.835 Y149.338
G1 X162.407 Y149.643
G1 X161.929 Y149.861
G1 X161.418 Y149.985
G1 X160.893 Y150.01
G1 X160.373 Y149.935
G1 X159.877 Y149.763
G1 X158.914 Y149.212
G1 E.5 F1800
;TYPE:Inner wall
G1 F3000
G1 X158.936 Y149.24 E.00128
G1 X159.351 Y149.6 E.01931
G1 X159.826 Y149.874 E.01931
G1 X160.345 Y150.053 E.01931
G1 X160.888 Y150.131 E.01931
G1 X161.436 Y150.105 E.01931
G1 X161.969 Y149.976 E.01931
G1 X162.468 Y149.748 E.01931
G1 X162.915 Y149.43 E.01931
G1 X163.294 Y149.033 E.01931
G1 X163.59 Y148.571 E.01931
G1 X163.794 Y148.062 E.01931
G1 X163.898 Y147.523 E.01931
G1 X163.898 Y146.974 E.01931
G1 X163.794 Y146.436 E.01931
G1 X163.59 Y145.926 E.01931
G1 X163.294 Y145.465 E.01931
G1 X162.915 Y145.068 E.01931
G1 X162.468 Y144.749 E.01931
G1 X162.176 Y144.616 E.01131
G1 X162.223 Y144.4 E.00779
G1 X166.892 Y144.41 E.16433
G1 X166.892 Y126.484 E.63088
G1 X169.482 Y126.484 E.09114
G3 X171.658 Y128.18 I-.002 J2.247 E.10454
G2 X173.475 Y132.257 I13.387 J-3.522 E.1578
G2 X174.862 Y134.03 I11.452 J-7.532 E.07929
G1 X185.26 Y145.272 E.53895
G3 X186.263 Y147.832 I-2.872 J2.601 E.09892
G1 X186.263 Y151.014 E.11198
G3 X184.257 Y155.139 I-5.304 J-.028 E.16695
G1 X172.782 Y164.154 E.51356
G1 X171.933 Y164.92 E.04025
G1 X171.169 Y165.755 E.03985
G2 X168.193 Y171.712 I11.495 J9.463 E.23635
G1 X168.193 Y187.516 E.5562
G1 X153.807 Y187.516 E.5063
G1 X153.807 Y171.712 E.5562
G1 X153.48 Y170.564 E.04201
G2 X150.067 Y164.92 I-13.995 J4.609 E.23412
G1 X149.218 Y164.154 E.04025
G1 X137.742 Y155.139 E.51357
G3 X135.737 Y151.013 I3.299 J-4.154 E.16696
G1 X135.737 Y147.831 E.11198
G3 X136.74 Y145.272 I3.864 J.037 E.09892
G1 X147.138 Y134.03 E.53895
G1 X147.863 Y133.178 E.03936
G1 X148.536 Y132.238 E.04067
G1 X149.109 Y131.285 E.03915
G2 X150.342 Y128.18 I-13.614 J-7.203 E.11782
G3 X150.983 Y127.079 I2.421 J.674 E.04532
G3 X152.518 Y126.484 I1.52 J1.644 E.05933
G1 X155.158 Y126.484 E.0929
G1 X155.158 Y144.384 E.62996
G1 X159.817 Y144.394 E.16398
G1 X159.871 Y144.597 E.0074
G1 X159.351 Y144.898 E.02115
G1 X158.936 Y145.257 E.01931
G1 X158.597 Y145.688 E.01931
G1 X158.346 Y146.176 E.01931
G1 X158.191 Y146.702 E.01931
G1 X158.139 Y147.249 E.01931
G1 X158.191 Y147.795 E.01931
G1 X158.346 Y148.321 E.01931
G1 X158.597 Y148.809 E.01931
G1 X158.889 Y149.18 E.01662
G1 E-.5 F2400
G1 X159.422 Y149.5 F12000
G1 X159.877 Y149.763
G1 X160.373 Y149.935
G1 X160.893 Y150.01
G1 X161.418 Y149.985
G1 X181.372 Y147.941
G1 X181.638 Y148.146
G1 E.5 F1800
;TYPE:Outer wall
G1 F3000
G1 X181.654 Y148.125 E.00093
G1 X182.048 Y147.822 E.01749
G1 X182.507 Y147.632 E.01749
G1 X183 Y147.567 E.01749
G1 X183.493 Y147.632 E.01749
G1 X183.952 Y147.822 E.01749
G1 X184.346 Y148.125 E.01749
G1 X184.649 Y148.519 E.01749
G1 X184.839 Y148.978 E.01749
G1 X184.904 Y149.471 E.01749
G1 X184.839 Y149.964 E.01749
G1 X184.649 Y150.423 E.01749
G1 X184.346 Y150.817 E.01749
G1 X183.952 Y151.12 E.01749
G1 X183.493 Y151.31 E.01749
G1 X183 Y151.375 E.01749
G1 X182.507 Y151.31 E.01749
G1 X182.048 Y151.12 E.01749
G1 X181.654 Y150.817 E.01749
G1 X181.351 Y150.423 E.01749
G1 X181.161 Y149.964 E.01749
G1 X181.096 Y149.471 E.01749
G1 X181.161 Y148.978 E.01749
G1 X181.351 Y148.519 E.01749
G1 X181.614 Y148.177 E.01516
G1 X181.365 Y147.77 F12000
;TYPE:Inner wall
G1 F3000
G1 X181.818 Y147.423 E.02007
G1 X182.388 Y147.187 E.02173
G1 X183 Y147.106 E.02173
G1 X183.612 Y147.187 E.02173
G1 X184.182 Y147.423 E.02173
G1 X184.672 Y147.799 E.02173
G1 X185.048 Y148.289 E.02172
G1 X185.284 Y148.859 E.02173
G1 X185.365 Y149.471 E.02173
G1 X185.284 Y150.083 E.02173
G1 X185.048 Y150.653 E.02173
G1 X184.672 Y151.143 E.02173
G1 X184.182 Y151.519 E.02173
G1 X183.612 Y151.755 E.02173
G1 X183 Y151.836 E.02173
G1 X182.388 Y151.755 E.02173
G1 X181.818 Y151.519 E.02173
G1 X181.328 Y151.143 E.02173
G1 X180.952 Y150.653 E.02173
G1 X180.716 Y150.083 E.02173
G1 X180.635 Y149.471 E.02173
G1 X180.716 Y148.859 E.02173
G1 X180.952 Y148.289 E.02173
G1 X181.328 Y147.799 E.02173
G1 X181.333 Y147.795 E.00024
G1 E-.5 F2400
G1 X161.418 Y149.985 F12000
G1 X160.893 Y150.01
G1 X139 Y147.229
G1 X138.42 Y147.305
G1 X137.879 Y147.529
G1 X137.414 Y147.885
G1 X137.065 Y148.354
G1 X137.037 Y148.458
G1 X137.343 Y148.539
G1 E.5 F1800
;TYPE:Outer wall
G1 F3000
G1 X137.351 Y148.519 E.00076
G1 X137.654 Y148.125 E.01749
G1 X138.048 Y147.822 E.01749
G1 X138.507 Y147.632 E.01749
G1 X139 Y147.567 E.01749
G1 X139.493 Y147.632 E.01749
G1 X139.952 Y147.822 E.01749
G1 X140.346 Y148.125 E.01749
G1 X140.649 Y148.519 E.01749
G1 X140.839 Y148.978 E.01749
G1 X140.904 Y149.471 E.01749
G1 X140.839 Y149.964 E.01749
G1 X140.649 Y150.423 E.01749
G1 X140.346 Y150.817 E.01749
G1 X139.952 Y151.12 E.01749
G1 X139.493 Y151.31 E.01749
G1 X139 Y151.375 E.01749
G1 X138.507 Y151.31 E.01749
G1 X138.048 Y151.12 E.01749
G1 X137.654 Y150.817 E.01749
G1 X137.351 Y150.423 E.01749
G1 X137.161 Y149.964 E.01749
G1 X137.096 Y149.471 E.01749
G1 X137.161 Y148.978 E.01749
G1 X137.328 Y148.576 E.01532
G1 X136.981 Y148.251 F12000
;TYPE:Inner wall
G1 F3000
G1 X137.328 Y147.799 E.02007
G1 X137.818 Y147.423 E.02173
G1 X138.388 Y147.187 E.02173
G1 X139 Y147.106 E.02173
G1 X139.612 Y147.187 E.02173
G1 X140.182 Y147.423 E.02173
G1 X140.672 Y147.799 E.02173
G1 X141.048 Y148.289 E.02172
G1 X141.284 Y148.859 E.02173
G1 X141.365 Y149.471 E.02173
G1 X141.284 Y150.083 E.02173
G1 X141.048 Y150.653 E.02173
G1 X140.672 Y151.143 E.02173
G1 X140.182 Y151.519 E.02173
G1 X139.612 Y151.755 E.02173
G1 X139 Y151.836 E.02172
G1 X138.388 Y151.755 E.02173
G1 X137.818 Y151.519 E.02173
G1 X137.328 Y151.143 E.02173
G1 X136.952 Y150.653 E.02173
G1 X136.716 Y150.083 E.02173
G1 X136.635 Y149.471 E.02173
G1 X136.716 Y148.859 E.02173
G1 X136.952 Y148.289 E.02173
G1 X136.956 Y148.283 E.00024
G1 E-.5 F2400
G1 X137.414 Y147.885 F12000
G1 X137.879 Y147.529
G1 X138.42 Y147.305
G1 X139 Y147.229
G1 X158.558 Y149.499
G1 E.5 F1800
G1 F3000
G1 X158.604 Y149.557 E.00261
G1 X159.085 Y149.974 E.02238
G1 X159.635 Y150.292 E.02238
G1 X160.236 Y150.5 E.02238
G1 X160.866 Y150.59 E.02238
G1 X161.501 Y150.56 E.02238
G1 X162.119 Y150.41 E.02238
G1 X162.698 Y150.146 E.02238
G1 X163.216 Y149.777 E.02238
G1 X163.655 Y149.317 E.02238
G1 X163.998 Y148.782 E.02238
G1 X164.235 Y148.191 E.02238
G1 X164.355 Y147.567 E.02238
G1 X164.355 Y146.931 E.02238
G1 X164.235 Y146.306 E.02238
G1 X163.998 Y145.716 E.02238
G1 X163.655 Y145.181 E.02238
G1 X163.348 Y144.859 E.01564
G1 X167.349 Y144.868 E.14083
G1 X167.349 Y126.941 E.63092
G1 X169.46 Y126.941 E.0743
G3 X171.224 Y128.324 I.014 J1.798 E.08516
G1 X171.54 Y129.364 E.03824
G1 X171.971 Y130.454 E.04128
G1 X172.501 Y131.523 E.04199
G1 X173.093 Y132.509 E.04046
G1 X173.777 Y133.461 E.04125
G1 X174.52 Y134.333 E.04033
G1 X184.913 Y145.569 E.53867
G3 X185.806 Y147.849 I-2.523 J2.303 E.08812
G1 X185.806 Y148.347 E.01754
G1 X185.585 Y148.391 E.00792
G1 X185.447 Y148.058 E.01269
G1 X184.998 Y147.473 E.02596
G1 X184.413 Y147.024 E.02596
G1 X183.731 Y146.741 E.02596
G1 X183 Y146.645 E.02596
G1 X182.269 Y146.741 E.02596
G1 X181.587 Y147.024 E.02596
G1 X181.002 Y147.473 E.02596
M73 P2 R21
G1 X180.553 Y148.058 E.02596
G1 X180.271 Y148.74 E.02596
G1 X180.174 Y149.471 E.02596
G1 X180.271 Y150.202 E.02596
G1 X180.553 Y150.884 E.02596
G1 X181.002 Y151.469 E.02596
G1 X181.587 Y151.918 E.02596
G1 X182.269 Y152.2 E.02596
G1 X183 Y152.297 E.02596
G1 X183.731 Y152.2 E.02596
G1 X184.413 Y151.918 E.02596
G1 X184.998 Y151.469 E.02596
G1 X185.447 Y150.884 E.02596
G1 X185.585 Y150.551 E.01269
G1 X185.806 Y150.595 E.00792
G3 X185.646 Y152.249 I-6.551 J.202 E.05866
G3 X183.963 Y154.789 I-4.761 J-1.327 E.109
G1 X172.488 Y163.804 E.51358
G1 X171.611 Y164.595 E.04157
G1 X170.818 Y165.461 E.04133
G2 X168.085 Y170.421 I12.462 J10.1 E.20036
G1 X167.736 Y171.648 E.04489
G1 X167.736 Y187.059 E.54235
G1 X154.264 Y187.059 E.47413
G1 X154.264 Y171.648 E.54235
G1 X153.915 Y170.421 E.04489
G2 X150.389 Y164.595 I-14.433 J4.753 E.24174
G1 X149.512 Y163.804 E.04157
G1 X138.036 Y154.789 E.5136
G3 X136.194 Y150.998 I3.005 J-3.803 E.15344
G1 X136.194 Y150.595 E.01421
G1 X136.415 Y150.551 E.00792
G1 X136.553 Y150.884 E.01269
G1 X137.002 Y151.469 E.02596
G1 X137.587 Y151.918 E.02596
G1 X138.269 Y152.2 E.02596
G1 X139 Y152.297 E.02596
G1 X139.731 Y152.2 E.02596
G1 X140.413 Y151.918 E.02596
G1 X140.998 Y151.469 E.02596
G1 X141.447 Y150.884 E.02596
G1 X141.729 Y150.202 E.02596
G1 X141.826 Y149.471 E.02596
G1 X141.729 Y148.74 E.02596
G1 X141.447 Y148.058 E.02596
G1 X140.998 Y147.473 E.02596
G1 X140.413 Y147.024 E.02596
G1 X139.731 Y146.741 E.02596
G1 X139 Y146.645 E.02596
G1 X138.269 Y146.741 E.02596
G1 X137.587 Y147.024 E.02596
G1 X137.002 Y147.473 E.02596
G1 X136.553 Y148.058 E.02596
G1 X136.415 Y148.391 E.01269
G1 X136.194 Y148.347 E.00792
G3 X136.233 Y147.325 I6.882 J-.249 E.03602
G3 X137.087 Y145.569 I3.272 J.505 E.06976
G1 X147.48 Y134.333 E.53867
G1 X148.224 Y133.46 E.04037
G1 X148.918 Y132.49 E.042
G1 X149.51 Y131.504 E.04046
G1 X150.029 Y130.454 E.04125
G1 X150.46 Y129.364 E.04125
G3 X150.916 Y127.938 I13.666 J3.577 E.05271
G3 X152.54 Y126.941 I1.598 J.784 E.07075
G1 X154.701 Y126.941 E.07606
G1 X154.701 Y144.84 E.62992
G1 X158.676 Y144.849 E.1399
G1 X158.211 Y145.44 E.02648
G1 X157.919 Y146.005 E.02238
G1 X157.74 Y146.616 E.02238
G1 X157.68 Y147.249 E.02238
G1 X157.74 Y147.882 E.02238
G1 X157.919 Y148.492 E.02238
G1 X158.211 Y149.057 E.02238
G1 X158.533 Y149.467 E.01837
G1 X158.202 Y149.786 F12000
G1 F3000
G1 X158.272 Y149.874 E.00394
G1 X158.818 Y150.348 E.02545
G1 X159.445 Y150.709 E.02546
G1 X160.128 Y150.946 E.02545
G1 X160.844 Y151.049 E.02545
G1 X161.566 Y151.014 E.02545
G1 X162.269 Y150.844 E.02545
G1 X162.927 Y150.543 E.02545
G1 X163.516 Y150.124 E.02545
G1 X164.015 Y149.6 E.02545
G1 X164.406 Y148.992 E.02545
G1 X164.675 Y148.32 E.02545
G1 X164.812 Y147.61 E.02545
G1 X164.812 Y146.887 E.02545
G1 X164.675 Y146.177 E.02545
G1 X164.332 Y145.319 E.03254
G1 X167.806 Y145.326 E.12229
G1 X167.806 Y127.398 E.63096
G1 X169.439 Y127.398 E.05746
G3 X170.79 Y128.468 I.02 J1.363 E.06567
G1 X171.108 Y129.514 E.03847
G1 X171.553 Y130.64 E.04262
G1 X172.1 Y131.743 E.04332
G1 X172.711 Y132.76 E.04177
G1 X173.417 Y133.743 E.04257
G1 X174.178 Y134.637 E.04132
G1 X184.566 Y145.867 E.5384
G3 X185.124 Y146.74 I-2.264 J2.063 E.03666
G1 X184.958 Y146.866 E.00734
G1 X184.643 Y146.625 E.01395
G1 X183.851 Y146.296 E.0302
G1 X183 Y146.184 E.0302
G1 X182.149 Y146.296 E.0302
G1 X181.357 Y146.625 E.0302
G1 X180.676 Y147.147 E.0302
G1 X180.154 Y147.828 E.0302
G1 X179.825 Y148.62 E.0302
G1 X179.713 Y149.471 E.0302
G1 X179.825 Y150.322 E.0302
G1 X180.154 Y151.114 E.0302
G1 X180.676 Y151.795 E.0302
G1 X181.357 Y152.317 E.0302
G1 X182.149 Y152.646 E.0302
