; HEADER_BLOCK_START
; generated by OrcaSlicer 1.7.0-beta on 2023-09-11 at 17:14:56
; total layer number: 115
; HEADER_BLOCK_END

; THUMBNAIL_BLOCK_START
; THUMBNAIL_BLOCK_END

; external perimeters extrusion width = 0.40mm
; perimeters extrusion width = 0.46mm
; infill extrusion width = 0.64mm
; solid infill extrusion width = 0.56mm
; top infill extrusion width = 0.40mm
; support material extrusion width = 0.46mm
; first layer extrusion width = 0.50mm

; EXECUTABLE_BLOCK_START
EXCLUDE_OBJECT_DEFINE NAME=ebbforprinted5x3.stl_id_0_copy_0 CENTER=165,165 POLYGON=[[138.93,149.301],[138.948,148.895],[138.98,148.632],[139.004,148.487],[139.099,148.081],[139.129,147.978],[139.232,147.681],[139.374,147.353],[139.403,147.294],[139.609,146.924],[139.709,146.771],[139.851,146.574],[154.056,128.41],[154.429,127.988],[154.875,127.643],[155.377,127.387],[155.919,127.23],[156.48,127.177],[173.52,127.177],[174.081,127.23],[174.623,127.387],[175.125,127.643],[175.571,127.988],[175.944,128.41],[190.147,146.571],[190.291,146.771],[190.389,146.921],[190.596,147.29],[190.626,147.353],[190.766,147.676],[190.871,147.978],[190.9,148.076],[190.995,148.484],[191.02,148.632],[191.051,148.893],[191.07,149.301],[191.07,152.54],[191.049,153.038],[191.02,153.313],[190.987,153.535],[190.882,154.029],[190.871,154.074],[190.735,154.517],[173,202.823],[157,202.823],[139.265,154.517],[139.129,154.074],[139.118,154.029],[139.013,153.535],[138.98,153.313],[138.951,153.037],[138.93,152.54],[138.93,149.301]]
M73 P0 R29
;TYPE:Custom
START_PRINT T_BED=110 T_EXTRUDER=260
G90
G21
M83 ; use relative distances for extrusion
; Filament gcode
PRESSURE_ADVANCE_SELECT FILAMENT=ASA
M106 S0
;LAYER_CHANGE
;Z:0.2
;HEIGHT:0.2
;BEFORE_LAYER_CHANGE
;0.2
G92 E0

;_SET_FAN_SPEED_CHANGING_LAYER
SET_VELOCITY_LIMIT ACCEL=5000 ACCEL_TO_DECEL=2500
G1 E-.5 F2400
G1 X151.759 Y126.616 F12000
G1 Z.2
G1 E.5 F1800
;TYPE:Skirt
;WIDTH:0.5
G1 F3000
G1 X152.651 Y125.679 E.04571
G1 X153.554 Y125.045 E.03899
G1 X154.565 Y124.588 E.03924
G1 X155.107 Y124.431 E.01993
G1 X156.48 Y124.263 E.0489
G1 X173.794 Y124.276 E.61197
G1 X174.893 Y124.431 E.03924
G1 X175.944 Y124.79 E.03924
G1 X176.909 Y125.338 E.03924
G1 X177.755 Y126.058 E.03924
G1 X192.817 Y145.317 E.86419
G1 X193.34 Y146.29 E.03906
G1 X193.584 Y146.915 E.02372
G1 X193.926 Y148.415 E.05436
G1 X193.984 Y152.54 E.14581
G1 X193.928 Y153.501 E.03405
G1 X193.73 Y154.635 E.04068
G1 X193.36 Y155.813 E.04363
G1 X175.736 Y203.827 E1.80783
G1 X174.863 Y205.064 E.0535
G1 X173 Y205.737 E.07001
G1 X157 Y205.737 E.56553
G1 X155.538 Y205.344 E.0535
G1 X154.264 Y203.827 E.07001
G1 X136.64 Y155.813 E1.80783
G1 X136.27 Y154.635 E.04363
G1 X136.072 Y153.501 E.04068
G1 X136.022 Y152.728 E.0274
G1 X136.016 Y149.301 E.12111
G1 X136.139 Y147.985 E.04673
G1 X136.416 Y146.915 E.03906
G1 X136.66 Y146.29 E.02372
G1 X137.412 Y144.977 E.0535
G1 X151.735 Y126.647 E.82219
G1 X152.095 Y126.929 F12000
G1 F3000
G1 X152.119 Y126.897 E.00141
G1 X152.93 Y126.04 E.0417
G1 X153.761 Y125.453 E.03596
G1 X154.263 Y125.197 E.01993
G1 X155.234 Y124.87 E.03621
G1 X156.48 Y124.72 E.04435
G1 X173.751 Y124.731 E.61046
G1 X174.766 Y124.87 E.03621
G1 X175.737 Y125.197 E.03621
G1 X176.629 Y125.7 E.03621
G1 X177.412 Y126.36 E.03621
G1 X192.42 Y145.545 E.86094
G1 X192.755 Y146.126 E.02372
G1 X193.159 Y147.082 E.03665
G1 X193.47 Y148.449 E.04956
G1 X193.527 Y152.54 E.14461
G1 X193.472 Y153.472 E.03301
G1 X193.282 Y154.547 E.0386
G1 X192.931 Y155.655 E.04108
G1 X175.307 Y203.67 E1.80783
G1 X174.48 Y204.784 E.04905
G1 X173 Y205.28 E.05517
G1 X157 Y205.28 E.56553
G1 X155.669 Y204.888 E.04905
G1 X154.693 Y203.67 E.05517
G1 X137.069 Y155.655 E1.80783
G1 X136.718 Y154.547 E.04108
G1 X136.528 Y153.472 E.0386
G1 X136.478 Y152.698 E.0274
G1 X136.473 Y149.301 E.12007
G1 X136.584 Y148.086 E.04312
G1 X136.733 Y147.432 E.02372
G1 X137.086 Y146.457 E.03665
G1 X137.773 Y145.258 E.04883
G1 X152.07 Y126.96 E.82078
; printing object ebbforprinted5x3.stl id:0 copy 0
G1 E-.5 F2400
EXCLUDE_OBJECT_START NAME=ebbforprinted5x3.stl_id_0_copy_0
G1 X172.65 Y202.473 F12000
G1 E.5 F1800
;TYPE:Outer wall
G1 F3000
G1 X157.35 Y202.473 E.54079
G1 X157.35 Y173.276 E1.032
G2 X153.745 Y166.744 I-13.819 J3.367 E.26681
G1 X152.923 Y166.004 E.0391
G1 X141.449 Y156.99 E.51576
G1 X140.897 Y156.495 E.0262
G3 X139.328 Y153.268 I4.247 J-4.059 E.12889
G1 X139.28 Y152.528 E.0262
G1 X139.28 Y149.314 E.1136
G3 X140.392 Y146.474 I4.324 J.055 E.1102
G1 X150.796 Y135.226 E.54155
G2 X153.908 Y129.536 I-10.091 J-9.215 E.23146
G1 X154.086 Y129.045 E.01843
G1 X154.339 Y128.618 E.01758
G3 X156.496 Y127.527 I2.196 J1.664 E.08844
G1 X158.727 Y127.527 E.07884
G1 X158.727 Y137.327 E.34639
G1 X171.427 Y137.327 E.44889
G1 X171.427 Y127.527 E.34639
G1 X173.504 Y127.527 E.0734
G1 X174.016 Y127.575 E.01818
G3 X175.914 Y129.045 I-.564 J2.69 E.08784
G3 X176.403 Y130.562 I-14.05 J5.366 E.05637
G2 X179.204 Y135.226 I13.079 J-4.681 E.19353
G1 X189.608 Y146.474 E.54155
G3 X190.72 Y149.314 I-3.212 J2.896 E.1102
G1 X190.72 Y152.528 E.11359
G1 X190.672 Y153.268 E.0262
G3 X189.103 Y156.495 I-5.815 J-.832 E.12889
G1 X188.551 Y156.99 E.0262
G1 X177.077 Y166.004 E.51576
G1 X176.255 Y166.744 E.0391
G1 X175.519 Y167.549 E.03853
G2 X172.65 Y173.276 I11.119 J9.153 E.22832
G1 X172.65 Y202.433 E1.03059
G1 X172.193 Y202.016 F12000
;TYPE:Inner wall
G1 F3000
G1 X157.807 Y202.016 E.50848
G1 X157.807 Y173.212 E1.0181
G1 X157.48 Y172.064 E.04219
G2 X154.067 Y166.42 I-13.995 J4.609 E.23514
G1 X153.218 Y165.654 E.04042
G1 X141.743 Y156.639 E.51578
G3 X139.737 Y152.513 I3.3 J-4.154 E.16767
G1 X139.737 Y149.332 E.11247
G3 X140.739 Y146.772 I3.865 J.037 E.09935
G1 X151.138 Y135.53 E.54128
G2 X154.342 Y129.68 I-10.423 J-9.511 E.238
G3 X154.988 Y128.576 I2.41 J.669 E.04573
G3 X156.518 Y127.984 I1.515 J1.645 E.05937
G1 X158.27 Y127.984 E.06192
G1 X158.27 Y137.784 E.34639
G1 X171.884 Y137.784 E.4812
G1 X171.884 Y127.984 E.34639
M73 P1 R29
G1 X173.482 Y127.984 E.05648
G3 X175.658 Y129.68 I-.002 J2.247 E.10499
G2 X177.277 Y133.428 I12.892 J-3.346 E.14488
G1 X177.475 Y133.757 E.0136
G2 X178.862 Y135.53 I11.452 J-7.532 E.07963
G1 X189.261 Y146.772 E.54128
G3 X190.263 Y149.332 I-2.862 J2.597 E.09935
G1 X190.263 Y152.513 E.11247
G3 X188.257 Y156.639 I-5.306 J-.029 E.16767
G1 X176.782 Y165.654 E.51578
G1 X175.933 Y166.42 E.04042
G1 X175.169 Y167.255 E.04002
G2 X172.193 Y173.212 I11.495 J9.463 E.23737
G1 X172.193 Y201.976 E1.01668
G1 E-.5 F2400
G1 X172.315 Y173.229 F12000
G1 X172.635 Y172.101
G1 X173.016 Y171.075
G1 X173.471 Y170.084
G1 X173.995 Y169.129
G1 X174.59 Y168.21
G1 X175.262 Y167.333
G1 X186.935 Y153.205
G1 X186.979 Y152.872
G1 E.5 F1800
;TYPE:Outer wall
G1 F3000
G1 X186.507 Y152.81 E.01681
G1 X186.048 Y152.62 E.01757
G1 X185.654 Y152.317 E.01756
G1 X185.351 Y151.923 E.01757
G1 X185.161 Y151.464 E.01757
G1 X185.096 Y150.971 E.01757
G1 X185.161 Y150.478 E.01757
G1 X185.351 Y150.019 E.01757
G1 X185.654 Y149.625 E.01757
G1 X186.048 Y149.322 E.01757
G1 X186.507 Y149.132 E.01757
G1 X187 Y149.067 E.01757
G1 X187.493 Y149.132 E.01757
G1 X187.952 Y149.322 E.01757
G1 X188.346 Y149.625 E.01757
G1 X188.649 Y150.019 E.01757
G1 X188.839 Y150.478 E.01757
G1 X188.904 Y150.971 E.01757
G1 X188.839 Y151.464 E.01757
G1 X188.649 Y151.923 E.01757
G1 X188.346 Y152.317 E.01757
G1 X187.952 Y152.62 E.01757
G1 X187.493 Y152.81 E.01757
G1 X187.019 Y152.872 E.0169
G1 X186.955 Y153.33 F12000
;TYPE:Inner wall
G1 F3000
G1 X186.388 Y153.255 E.02022
G1 X185.818 Y153.019 E.02182
G1 X185.328 Y152.643 E.02182
G1 X184.952 Y152.153 E.02182
G1 X184.716 Y151.583 E.02182
G1 X184.635 Y150.971 E.02182
G1 X184.716 Y150.359 E.02182
G1 X184.952 Y149.789 E.02182
G1 X185.328 Y149.299 E.02182
G1 X185.818 Y148.923 E.02182
G1 X186.388 Y148.687 E.02182
G1 X187 Y148.606 E.02182
G1 X187.612 Y148.687 E.02182
G1 X188.182 Y148.923 E.02182
G1 X188.672 Y149.299 E.02182
G1 X189.048 Y149.789 E.02182
G1 X189.284 Y150.359 E.02182
G1 X189.365 Y150.971 E.02182
G1 X189.284 Y151.583 E.02182
G1 X189.048 Y152.153 E.02182
G1 X188.672 Y152.643 E.02182
G1 X188.182 Y153.019 E.02182
G1 X187.612 Y153.255 E.02182
G1 X187 Y153.336 E.02182
G1 X186.995 Y153.335 E.00018
G1 E-.5 F2400
G1 X142.979 Y152.872 F12000
G1 E.5 F1800
;TYPE:Outer wall
G1 F3000
G1 X142.507 Y152.81 E.01681
G1 X142.048 Y152.62 E.01757
G1 X141.654 Y152.317 E.01757
G1 X141.351 Y151.923 E.01757
G1 X141.161 Y151.464 E.01757
G1 X141.096 Y150.971 E.01757
G1 X141.161 Y150.478 E.01757
G1 X141.351 Y150.019 E.01757
G1 X141.654 Y149.625 E.01757
G1 X142.048 Y149.322 E.01757
G1 X142.507 Y149.132 E.01757
G1 X143 Y149.067 E.01757
G1 X143.493 Y149.132 E.01757
G1 X143.952 Y149.322 E.01757
G1 X144.346 Y149.625 E.01757
G1 X144.649 Y150.019 E.01757
G1 X144.839 Y150.478 E.01757
G1 X144.904 Y150.971 E.01757
G1 X144.839 Y151.464 E.01757
G1 X144.649 Y151.923 E.01757
G1 X144.346 Y152.317 E.01757
G1 X143.952 Y152.62 E.01757
G1 X143.493 Y152.81 E.01757
G1 X143.019 Y152.872 E.01691
G1 X142.955 Y153.33 F12000
;TYPE:Inner wall
G1 F3000
G1 X142.388 Y153.255 E.02022
G1 X141.818 Y153.019 E.02182
G1 X141.328 Y152.643 E.02182
G1 X140.952 Y152.153 E.02182
G1 X140.716 Y151.583 E.02182
G1 X140.635 Y150.971 E.02182
G1 X140.716 Y150.359 E.02182
G1 X140.952 Y149.789 E.02182
G1 X141.328 Y149.299 E.02182
G1 X141.818 Y148.923 E.02182
G1 X142.388 Y148.687 E.02182
G1 X143 Y148.606 E.02182
G1 X143.612 Y148.687 E.02182
G1 X144.182 Y148.923 E.02182
G1 X144.672 Y149.299 E.02182
G1 X145.048 Y149.789 E.02182
G1 X145.284 Y150.359 E.02182
G1 X145.365 Y150.971 E.02182
G1 X145.284 Y151.583 E.02182
G1 X145.048 Y152.153 E.02182
G1 X144.672 Y152.643 E.02182
G1 X144.182 Y153.019 E.02182
G1 X143.612 Y153.255 E.02182
G1 X143 Y153.336 E.02182
G1 X142.995 Y153.335 E.00018
G1 E-.5 F2400
G1 X166.073 Y145.172 F12000
G1 E.5 F1800
G1 F3000
G1 X166.358 Y145.096 E.01042
G1 X166.949 Y144.82 E.02307
G1 X167.484 Y144.445 E.02307
G1 X167.945 Y143.984 E.02307
G1 X168.32 Y143.449 E.02307
G1 X168.595 Y142.858 E.02307
G1 X168.764 Y142.227 E.02307
G1 X168.821 Y141.577 E.02307
G1 X168.764 Y140.927 E.02307
G1 X168.595 Y140.296 E.02307
G1 X168.32 Y139.705 E.02307
G1 X167.945 Y139.17 E.02307
G1 X167.484 Y138.709 E.02307
G1 X167.09 Y138.433 E.017
G1 X167.15 Y138.241 E.00711
G1 X172.341 Y138.241 E.18347
G1 X172.341 Y128.441 E.34639
G1 X173.46 Y128.441 E.03956
G3 X175.224 Y129.824 I.014 J1.798 E.08553
G1 X175.54 Y130.864 E.0384
G1 X175.971 Y131.954 E.04145
G1 X176.497 Y133.016 E.04189
G1 X177.093 Y134.009 E.04093
G1 X177.777 Y134.961 E.04142
G1 X178.52 Y135.833 E.04051
G1 X188.913 Y147.069 E.54101
G3 X189.806 Y149.349 I-2.514 J2.299 E.08849
G1 X189.806 Y149.847 E.01762
G1 X189.585 Y149.891 E.00796
G1 X189.447 Y149.558 E.01274
G1 X188.998 Y148.973 E.02607
G1 X188.413 Y148.524 E.02607
G1 X187.731 Y148.241 E.02607
G1 X187 Y148.145 E.02607
G1 X186.269 Y148.241 E.02607
G1 X185.587 Y148.524 E.02607
G1 X185.002 Y148.973 E.02607
G1 X184.553 Y149.558 E.02607
G1 X184.271 Y150.24 E.02607
G1 X184.174 Y150.971 E.02607
G1 X184.271 Y151.702 E.02607
G1 X184.553 Y152.384 E.02607
G1 X185.002 Y152.969 E.02607
G1 X185.587 Y153.418 E.02607
G1 X186.269 Y153.7 E.02607
G1 X187 Y153.797 E.02607
G1 X187.731 Y153.7 E.02607
G1 X188.413 Y153.418 E.02607
G1 X188.998 Y152.969 E.02607
G1 X189.447 Y152.384 E.02607
G1 X189.585 Y152.051 E.01274
G1 X189.806 Y152.095 E.00796
G3 X189.646 Y153.75 I-6.552 J.202 E.05893
G3 X187.964 Y156.289 I-4.763 J-1.329 E.10944
G1 X176.488 Y165.304 E.51581
G1 X175.611 Y166.095 E.04175
G1 X174.818 Y166.961 E.04151
G2 X172.085 Y171.921 I12.463 J10.1 E.20123
G1 X171.736 Y173.148 E.04508
G1 X171.736 Y201.559 E1.00419
G1 X158.264 Y201.559 E.47617
G1 X158.264 Y173.148 E1.00419
G1 X157.915 Y171.921 E.04508
G2 X154.389 Y166.095 I-14.433 J4.753 E.24278
G1 X153.512 Y165.304 E.04175
G1 X142.037 Y156.289 E.51581
G3 X140.194 Y152.499 I3.006 J-3.804 E.1541
G1 X140.194 Y152.095 E.01428
G1 X140.415 Y152.051 E.00796
G1 X140.553 Y152.384 E.01274
G1 X141.002 Y152.969 E.02607
G1 X141.587 Y153.418 E.02607
G1 X142.269 Y153.7 E.02607
G1 X143 Y153.797 E.02607
G1 X143.731 Y153.7 E.02607
G1 X144.413 Y153.418 E.02607
G1 X144.998 Y152.969 E.02607
G1 X145.447 Y152.384 E.02607
G1 X145.729 Y151.702 E.02607
G1 X145.826 Y150.971 E.02607
G1 X145.729 Y150.24 E.02607
G1 X145.447 Y149.558 E.02607
G1 X144.998 Y148.973 E.02607
G1 X144.413 Y148.524 E.02607
G1 X143.731 Y148.241 E.02607
G1 X143 Y148.145 E.02607
G1 X142.269 Y148.241 E.02607
G1 X141.587 Y148.524 E.02607
G1 X141.002 Y148.973 E.02607
G1 X140.553 Y149.558 E.02607
G1 X140.415 Y149.891 E.01274
G1 X140.194 Y149.847 E.00796
G3 X140.234 Y148.821 I6.883 J-.249 E.03635
G3 X141.087 Y147.069 I3.271 J.51 E.06988
G1 X151.48 Y135.833 E.54101
G1 X152.223 Y134.961 E.04051
G1 X152.907 Y134.009 E.04142
G1 X153.51 Y133.004 E.04142
G1 X154.029 Y131.954 E.04142
G1 X154.46 Y130.864 E.04142
G3 X154.916 Y129.438 I13.666 J3.577 E.05294
G3 X156.54 Y128.441 I1.598 J.784 E.07105
G1 X157.813 Y128.441 E.04501
G1 X157.813 Y138.241 E.34639
G1 X163.004 Y138.241 E.18347
G1 X163.064 Y138.433 E.00711
G1 X162.67 Y138.709 E.017
G1 X162.209 Y139.17 E.02307
G1 X161.834 Y139.705 E.02307
G1 X161.559 Y140.296 E.02307
G1 X161.39 Y140.927 E.02307
G1 X161.333 Y141.577 E.02307
G1 X161.39 Y142.227 E.02307
G1 X161.559 Y142.858 E.02307
G1 X161.834 Y143.449 E.02307
G1 X162.209 Y143.984 E.02307
G1 X162.67 Y144.445 E.02307
G1 X163.205 Y144.82 E.02307
G1 X163.796 Y145.096 E.02307
G1 X164.081 Y145.172 E.01042
G1 X164.081 Y145.382 E.00744
G1 X163.796 Y145.459 E.01042
G1 X163.205 Y145.734 E.02307
G1 X162.67 Y146.109 E.02307
G1 X162.209 Y146.57 E.02307
G1 X161.834 Y147.105 E.02307
G1 X161.559 Y147.696 E.02307
G1 X161.39 Y148.327 E.02307
G1 X161.333 Y148.977 E.02307
G1 X161.39 Y149.627 E.02307
G1 X161.559 Y150.258 E.02307
G1 X161.834 Y150.849 E.02307
G1 X162.209 Y151.384 E.02307
G1 X162.67 Y151.845 E.02307
G1 X163.205 Y152.22 E.02307
G1 X163.796 Y152.496 E.02307
G1 X164.427 Y152.664 E.02307
G1 X165.08 Y152.722 E.02317
G1 X165.74 Y152.661 E.02343
G1 X166.358 Y152.496 E.0226
G1 X166.949 Y152.22 E.02307
G1 X167.484 Y151.845 E.02307
G1 X167.945 Y151.384 E.02307
G1 X168.32 Y150.849 E.02307
G1 X168.595 Y150.258 E.02307
G1 X168.764 Y149.627 E.02307
G1 X168.821 Y148.977 E.02307
G1 X168.764 Y148.327 E.02307
G1 X168.595 Y147.696 E.02307
G1 X168.32 Y147.105 E.02307
G1 X167.945 Y146.57 E.02307
G1 X167.484 Y146.109 E.02307
G1 X166.949 Y145.734 E.02307
G1 X166.358 Y145.459 E.02307
G1 X166.073 Y145.382 E.01042
G1 X166.073 Y145.212 E.00602
G1 X167.093 Y145.277 F12000
G1 F3000
G1 X167.779 Y144.797 E.02959
G1 X168.297 Y144.279 E.0259
G1 X168.717 Y143.679 E.0259
G1 X169.027 Y143.015 E.0259
G1 X169.216 Y142.307 E.0259
G1 X169.28 Y141.577 E.0259
G1 X169.216 Y140.847 E.0259
G1 X169.027 Y140.14 E.0259
G1 X168.717 Y139.476 E.0259
G1 X168.173 Y138.698 E.03354
G1 X172.798 Y138.698 E.16349
G1 X172.798 Y128.898 E.34639
G3 X173.758 Y128.928 I.32 J5.098 E.03398
G3 X174.79 Y129.968 I-.305 J1.335 E.05465
G1 X175.108 Y131.014 E.03864
G1 X175.553 Y132.14 E.04278
G1 X176.095 Y133.236 E.04322
G1 X176.711 Y134.26 E.04225
G1 X177.417 Y135.243 E.04275
G1 X178.178 Y136.137 E.0415
G1 X188.566 Y147.367 E.54074
G3 X189.126 Y148.242 I-2.306 J2.092 E.03687
G1 X188.959 Y148.367 E.00736
G1 X188.643 Y148.125 E.01408
G1 X187.851 Y147.796 E.03033
G1 X187 Y147.684 E.03033
G1 X186.149 Y147.796 E.03033
G1 X185.357 Y148.125 E.03033
G1 X184.676 Y148.647 E.03033
G1 X184.154 Y149.328 E.03033
G1 X183.825 Y150.12 E.03033
G1 X183.713 Y150.971 E.03033
G1 X183.825 Y151.822 E.03033
G1 X184.154 Y152.614 E.03033
G1 X184.676 Y153.295 E.03033
G1 X185.357 Y153.817 E.03033
G1 X186.149 Y154.146 E.03033
G1 X187 Y154.258 E.03033
G1 X187.851 Y154.146 E.03033
G1 X188.643 Y153.817 E.03033
G1 X189.038 Y153.515 E.01758
G1 X189.203 Y153.632 E.00717
G3 X187.67 Y155.939 I-4.313 J-1.205 E.09952
G1 X176.193 Y164.954 E.51583
G1 X175.288 Y165.77 E.04307
G1 X174.467 Y166.668 E.043
G2 X171.65 Y171.779 I12.833 J10.405 E.20739
G1 X171.279 Y173.085 E.04797
G1 X171.279 Y201.102 E.99029
G1 X158.721 Y201.102 E.44386
G1 X158.721 Y173.085 E.99029
G1 X158.35 Y171.779 E.04797
G2 X154.712 Y165.77 I-14.871 J4.897 E.25043
G1 X153.807 Y164.954 E.04307
G1 X142.33 Y155.939 E.51583
