; generated by SuperSlicer 2.5.59 on 2023-02-04 at 05:03:23 UTC


;
;

;
;
; 

; external perimeters extrusion width = 0.40mm
; perimeters extrusion width = 0.46mm
; infill extrusion width = 0.64mm
; solid infill extrusion width = 0.56mm
; top infill extrusion width = 0.40mm
; support material extrusion width = 0.46mm
; first layer extrusion width = 0.50mm

; object:{"name":"fan_cover","id":"fan_cover.stl id:0 copy 0","object_center":[165.000000,165.000000,0.000000],"boundingbox_center":[165.000000,165.000000,7.425000],"boundingbox_size":[50.488224,52.882229,14.850000]}
; plater:{"center":[165.000000,165.000000,0.000000],"boundingbox_center":[165.000000,165.000000,7.425000],"boundingbox_size":[50.488224,52.882229,14.850000]}

M73 P0 R24


; Pre-Processed for Cancel-Object support by preprocess_cancellation v0.2.0
; 1 known objects
EXCLUDE_OBJECT_DEFINE NAME=fan_cover_stl_id_0_copy_0 CENTER=162.919,152.602 POLYGON=[[139.956,138.759],[139.956,191.241],[190.043,191.241],[190.043,138.759]]
;TYPE:Custom
; custom gcode: start_gcode
START_PRINT T_BED=110 T_EXTRUDER=240
; custom gcode end: start_gcode
M107
G21 ; set units to millimeters
G90 ; use absolute coordinates
M82 ; use absolute distances for extrusion
G92 E0
; custom gcode: start_filament_gcode
; Filament gcode

    PRESSURE_ADVANCE_SELECT FILAMENT=ABS
; custom gcode end: start_filament_gcode
;_TOOLCHANGE 0
M104 S240 ; set temperature
M109 S240 ; set temperature and wait for it to be reached
M190 S110 ; set bed temperature and wait for it to be reached
;LAYER_CHANGE
;Z:0.2
;HEIGHT:0.2
G1 Z0.2 F9000
M73 P0 R24
G1 E-0.5 F3000
M204 S1000
G1 X144.756 Y142.981 F9000
G1 E0 F1800
;TYPE:Skirt
;WIDTH:0.52
G1 X142.524 Y145.413 E0.12703
G1 X141.291 Y147.033 E0.20538
G1 X139.541 Y149.832 E0.33241
G1 X138.624 Y151.65 E0.41076
G1 X137.415 Y154.722 E0.53779
G1 X136.847 Y156.678 E0.61614
G1 X136.22 Y159.919 E0.74317
G1 X136.019 Y161.945 E0.82152
G1 X135.995 Y165.246 E0.94854
G1 X136.165 Y167.254 E1.0261
G1 X136.434 Y169.035 E1.09538
G1 X137.213 Y172.243 E1.2224
G1 X137.864 Y174.147 E1.29984
G1 X138.558 Y175.811 E1.36923
G1 X140.092 Y178.735 E1.49627
G1 X141.2 Y180.443 E1.57461
G1 X143.242 Y183.037 E1.70165
G1 X153.437 Y193.914 E2.27528
G1 X154.717 Y194.843 E2.33616
G1 X156.494 Y195.238 E2.40621
G1 X173.539 Y195.238 E3.06206
G1 X175.099 Y194.936 E3.12322
G1 X176.602 Y193.908 E3.19327
G1 X186.631 Y183.178 E3.75842
G1 X187.92 Y181.634 E3.83584
G1 X188.969 Y180.196 E3.90432
G1 X189.928 Y178.697 E3.97279
G1 X190.794 Y177.142 E4.04127
G1 X192.141 Y174.129 E4.16829
G1 X192.798 Y172.201 E4.24665
G1 X193.259 Y170.49 E4.31484
G1 X193.616 Y168.74 E4.3836
G1 X193.992 Y165.46 E4.51063
G1 X194.037 Y163.424 E4.58899
G1 X193.804 Y160.113 E4.71669
G1 X193.527 Y158.373 E4.78448
G1 X193.141 Y156.636 E4.85296
G1 X192.569 Y154.681 E4.93132
G1 X191.961 Y153.014 E4.99961
G1 X191.247 Y151.379 E5.06827
G1 X189.668 Y148.48 E5.1953
G1 X188.683 Y146.998 E5.26378
G1 X187.609 Y145.579 E5.33225
G1 X186.45 Y144.228 E5.40073
G1 X185.211 Y142.951 E5.46921
G1 X183.7 Y141.586 E5.54756
G1 X181.058 Y139.607 E5.67459
G1 X179.546 Y138.669 E5.74307
G1 X177.979 Y137.825 E5.81154
G1 X176.126 Y136.979 E5.8899
G1 X174.464 Y136.348 E5.95833
G1 X172.763 Y135.82 E6.02686
G1 X169.537 Y135.12 E6.15388
G1 X167.772 Y134.895 E6.22236
G1 X165.996 Y134.78 E6.29083
G1 X163.959 Y134.781 E6.36919
G1 X160.673 Y135.087 E6.49622
G1 X158.671 Y135.461 E6.57457
G1 X155.495 Y136.362 E6.7016
G1 X153.596 Y137.095 E6.77995
G1 X150.638 Y138.562 E6.90698
G1 X148.905 Y139.631 E6.98533
G1 X146.265 Y141.614 E7.11236
G1 X144.756 Y142.981 E7.19071
G1 X145.098 Y143.314 F9000
G1 F1800
G1 X142.885 Y145.725 E7.31662
G1 X141.687 Y147.298 E7.39272
G1 X139.953 Y150.073 E7.51862
G1 X139.063 Y151.839 E7.59473
G1 X137.864 Y154.883 E7.72063
G1 X137.312 Y156.783 E7.79673
G1 X136.691 Y159.995 E7.92264
G1 X136.495 Y161.963 E7.99874
G1 X136.472 Y165.235 E8.12464
G1 X136.637 Y167.187 E8.20004
G1 X136.901 Y168.936 E8.2681
G1 X137.673 Y172.116 E8.394
M73 P1 R24
G1 X138.306 Y173.968 E8.46929
G1 X138.987 Y175.602 E8.53746
G1 X140.508 Y178.5 E8.66337
G1 X141.583 Y180.159 E8.73946
G1 X143.608 Y182.73 E8.86537
G1 X153.785 Y193.587 E9.43798
G1 X154.828 Y194.366 E9.48808
G1 X156.494 Y194.761 E9.55397
G1 X173.539 Y194.761 E10.20982
G1 X174.827 Y194.53 E10.26018
G1 X176.253 Y193.582 E10.32608
G1 X186.282 Y182.853 E10.89122
G1 X187.536 Y181.351 E10.9665
G1 X188.568 Y179.937 E11.03385
G1 X189.512 Y178.464 E11.1012
G1 X190.364 Y176.935 E11.16856
G1 X191.7 Y173.948 E11.29445
G1 X192.338 Y172.075 E11.37056
G1 X192.792 Y170.392 E11.43767
G1 X193.144 Y168.671 E11.50526
G1 X193.516 Y165.42 E11.63116
G1 X193.56 Y163.442 E11.70728
G1 X193.33 Y160.163 E11.83378
G1 X193.056 Y158.45 E11.90052
G1 X192.676 Y156.742 E11.96788
G1 X192.121 Y154.843 E12.04399
G1 X191.523 Y153.203 E12.11118
G1 X190.822 Y151.594 E12.17869
G1 X189.256 Y148.721 E12.30459
G1 X188.287 Y147.264 E12.37194
G1 X187.23 Y145.868 E12.43929
G1 X186.09 Y144.54 E12.50665
G1 X184.87 Y143.285 E12.574
G1 X183.403 Y141.959 E12.65011
G1 X180.784 Y139.997 E12.77601
G1 X179.296 Y139.075 E12.84336
G1 X177.754 Y138.246 E12.91071
G1 X175.955 Y137.424 E12.98682
G1 X174.32 Y136.803 E13.05413
G1 X172.648 Y136.283 E13.12153
G1 X170.948 Y135.866 E13.18888
G1 X169.225 Y135.554 E13.25624
G1 X165.967 Y135.256 E13.38213
G1 X163.989 Y135.258 E13.45824
G1 X160.731 Y135.56 E13.58414
G1 X158.787 Y135.923 E13.66025
G1 X155.639 Y136.817 E13.78615
G1 X153.794 Y137.529 E13.86225
G1 X150.863 Y138.983 E13.98816
G1 X149.179 Y140.021 E14.06426
G1 X146.563 Y141.986 E14.19016
G1 X145.098 Y143.314 E14.26627
G1 X145.439 Y143.647 F9000
G1 F1800
G1 X143.246 Y146.036 E14.39105
G1 X142.084 Y147.563 E14.4649
G1 X140.365 Y150.313 E14.58968
G1 X139.501 Y152.027 E14.66353
G1 X138.314 Y155.044 E14.78831
G1 X137.778 Y156.887 E14.86216
G1 X137.162 Y160.071 E14.98695
G1 X136.972 Y161.981 E15.0608
G1 X136.949 Y165.224 E15.18557
G1 X137.109 Y167.12 E15.25881
G1 X137.368 Y168.838 E15.32566
G1 X138.133 Y171.989 E15.45043
G1 X138.748 Y173.788 E15.52359
G1 X139.417 Y175.394 E15.59052
G1 X140.923 Y178.266 E15.7153
G1 X141.967 Y179.876 E15.78915
G1 X143.973 Y182.424 E15.91394
G1 X154.132 Y193.261 E16.48552
G1 X154.947 Y193.89 E16.5251
G1 X156.494 Y194.284 E16.58656
G1 X173.539 Y194.284 E17.24241
G1 X174.56 Y194.118 E17.28222
G1 X175.905 Y193.257 E17.34367
G1 X185.934 Y182.527 E17.90882
G1 X187.152 Y181.068 E17.98195
G1 X188.168 Y179.679 E18.04818
G1 X189.097 Y178.23 E18.11441
G1 X189.935 Y176.727 E18.18064
G1 X191.258 Y173.766 E18.30541
G1 X191.878 Y171.949 E18.37927
G1 X192.325 Y170.293 E18.44528
G1 X192.672 Y168.602 E18.51172
G1 X193.041 Y165.38 E18.6365
G1 X193.083 Y163.461 E18.71036
G1 X192.855 Y160.213 E18.83566
G1 X192.585 Y158.527 E18.90136
G1 X192.21 Y156.847 E18.96759
G1 X191.672 Y155.005 E19.04145
G1 X191.084 Y153.391 E19.10753
G1 X190.396 Y151.81 E19.1739
G1 X188.844 Y148.962 E19.29868
G1 X187.89 Y147.529 E19.36491
G1 X186.851 Y146.158 E19.43113
G1 X185.729 Y144.853 E19.49736
G1 X184.529 Y143.618 E19.56359
G1 X183.105 Y142.332 E19.63745
G1 X181.756 Y141.263 E19.70368
G1 X180.344 Y140.279 E19.76991
G1 X177.53 Y138.667 E19.89468
G1 X175.784 Y137.87 E19.96854
G1 X174.176 Y137.258 E20.03473
G1 X172.532 Y136.746 E20.101
G1 X169.363 Y136.058 E20.22577
G1 X167.656 Y135.843 E20.292
G1 X165.938 Y135.732 E20.35823
G1 X164.019 Y135.734 E20.43209
G1 X160.79 Y136.034 E20.55686
G1 X158.903 Y136.386 E20.63072
G1 X155.784 Y137.272 E20.75549
G1 X153.993 Y137.963 E20.82935
G1 X151.088 Y139.404 E20.95413
G1 X149.454 Y140.411 E21.02798
G1 X146.861 Y142.358 E21.15276
G1 X145.439 Y143.647 E21.22662
G92 E0
G1 E-0.5 F3000
; printing object fan_cover.stl id:0 copy 0
EXCLUDE_OBJECT_START NAME=fan_cover_stl_id_0_copy_0
; acceleration to travel
M204 S3000
G1 X166.579 Y156.501 F9000
; decel to extrusion
M204 S1000
G1 X173.625 Y160.786
; end travel
G1 E0 F1800
;TYPE:Internal perimeter
;WIDTH:0.5
G1 X173.264 Y161.437 E0.02747
G1 X172.976 Y162.198 E0.05744
G1 X172.801 Y162.991 E0.08739
G1 X172.742 Y163.803 E0.1174
G1 X172.8 Y164.614 E0.14737
G1 X172.976 Y165.408 E0.17735
G1 X173.262 Y166.164 E0.20716
G1 X173.587 Y166.76 E0.23218
G1 X174.143 Y167.517 E0.26681
G1 X174.733 Y168.094 E0.29722
G1 X175.382 Y168.566 E0.32683
G1 X175.972 Y168.888 E0.35159
G1 X176.732 Y169.183 E0.38164
G1 X177.652 Y169.376 E0.4163
G1 X178.329 Y169.424 E0.44134
G1 X179.135 Y169.372 E0.47112
G1 X179.931 Y169.202 E0.50109
G1 X180.693 Y168.92 E0.53106
G1 X181.407 Y168.531 E0.56105
G1 X182.057 Y168.042 E0.59102
G1 X182.63 Y167.465 E0.621
G1 X183.11 Y166.816 E0.65079
G1 X183.436 Y166.22 E0.67582
G1 X183.772 Y165.342 E0.71047
G1 X183.936 Y164.543 E0.74054
G1 X183.984 Y163.873 E0.76531
G1 X183.937 Y163.071 E0.7949
G1 X183.772 Y162.264 E0.8253
G1 X183.436 Y161.386 E0.85994
G1 X183.11 Y160.79 E0.88498
G1 X182.63 Y160.14 E0.91477
G1 X182.057 Y159.563 E0.94474
G1 X181.407 Y159.075 E0.97471
G1 X180.88 Y158.787 E0.99684
G1 X180.692 Y158.685 E1.00473
G1 X179.931 Y158.403 E1.03467
G1 X179.135 Y158.234 E1.06465
G1 X178.329 Y158.181 E1.09442
G1 X178.083 Y158.199 E1.10355
G1 X177.652 Y158.23 E1.11947
G1 X176.732 Y158.423 E1.15413
G1 X175.972 Y158.717 E1.18418
G1 X175.382 Y159.039 E1.20894
G1 X174.724 Y159.518 E1.23896
G1 X174.063 Y160.188 E1.27364
G1 X173.656 Y160.732 E1.29869
G1 X173.625 Y160.786 E1.30098
G1 X174.025 Y161.008 F9000
G1 F1800
G1 X173.679 Y161.63 E1.32723
G1 X173.415 Y162.329 E1.35476
G1 X173.254 Y163.057 E1.38226
G1 X173.2 Y163.803 E1.40982
G1 X173.254 Y164.548 E1.43735
G1 X173.415 Y165.277 E1.46488
G1 X173.678 Y165.972 E1.49231
G1 X173.974 Y166.514 E1.51504
G1 X174.489 Y167.216 E1.54716
G1 X175.029 Y167.744 E1.57497
G1 X175.627 Y168.179 E1.60227
G1 X176.165 Y168.473 E1.62484
G1 X176.862 Y168.743 E1.65241
G1 X177.715 Y168.922 E1.68456
G1 X178.331 Y168.966 E1.70731
G1 X179.073 Y168.918 E1.73471
G1 X179.803 Y168.762 E1.76224
G1 X180.503 Y168.503 E1.78976
G1 X181.159 Y168.145 E1.8173
G1 X181.756 Y167.697 E1.84483
G1 X182.282 Y167.167 E1.87236
G1 X182.724 Y166.569 E1.89978
G1 X183.02 Y166.027 E1.92252
G1 X183.331 Y165.213 E1.95465
G1 X183.482 Y164.48 E1.98225
G1 X183.526 Y163.87 E2.00482
G1 X183.483 Y163.131 E2.0321
G1 X183.331 Y162.392 E2.0599
G1 X183.02 Y161.578 E2.09203
G1 X182.724 Y161.037 E2.11478
G1 X182.282 Y160.439 E2.14219
G1 X181.756 Y159.909 E2.16972
G1 X181.159 Y159.46 E2.19725
G1 X180.662 Y159.189 E2.21813
G1 X180.503 Y159.102 E2.2248
G1 X179.803 Y158.843 E2.25231
G1 X179.073 Y158.688 E2.27985
G1 X178.331 Y158.639 E2.30725
G1 X178.115 Y158.655 E2.31522
G1 X177.715 Y158.683 E2.33
G1 X176.862 Y158.862 E2.36214
G1 X176.165 Y159.133 E2.38972
G1 X175.627 Y159.426 E2.41229
G1 X175.023 Y159.866 E2.43984
G1 X174.41 Y160.487 E2.472
G1 X174.04 Y160.981 E2.49475
G1 X174.025 Y161.008 E2.4959
G1 X174.425 Y161.23 F9000
;TYPE:External perimeter
G1 F1800
G1 X174.095 Y161.823 E2.52092
G1 X173.854 Y162.46 E2.54601
G1 X173.708 Y163.123 E2.57107
G1 X173.658 Y163.803 E2.59619
G1 X173.707 Y164.481 E2.62127
G1 X173.854 Y165.146 E2.64636
G1 X174.095 Y165.781 E2.67139
G1 X174.361 Y166.268 E2.69184
G1 X174.836 Y166.916 E2.72146
G1 X175.325 Y167.394 E2.74667
G1 X175.872 Y167.793 E2.77165
G1 X176.357 Y168.057 E2.79202
G1 X176.992 Y168.303 E2.81712
G1 X177.779 Y168.468 E2.84675
G1 X178.332 Y168.508 E2.86721
G1 X179.01 Y168.464 E2.89224
G1 X179.675 Y168.322 E2.91732
G1 X180.313 Y168.086 E2.9424
G1 X180.911 Y167.76 E2.9675
G1 X181.455 Y167.351 E2.99258
G1 X181.934 Y166.868 E3.01767
M73 P2 R24
G1 X182.338 Y166.322 E3.0427
G1 X182.604 Y165.835 E3.06316
G1 X182.891 Y165.085 E3.09278
G1 X183.028 Y164.418 E3.11789
G1 X183.068 Y163.866 E3.13827
G1 X183.029 Y163.19 E3.16324
G1 X182.891 Y162.521 E3.18844
G1 X182.604 Y161.77 E3.21806
G1 X182.338 Y161.283 E3.23852
G1 X181.934 Y160.737 E3.26355
G1 X181.455 Y160.254 E3.28864
G1 X180.911 Y159.846 E3.31372
G1 X180.443 Y159.59 E3.33337
G1 X180.313 Y159.519 E3.33882
G1 X179.675 Y159.283 E3.3639
G1 X179.01 Y159.142 E3.38898
G1 X178.332 Y159.098 E3.41401
G1 X178.148 Y159.111 E3.42083
G1 X177.779 Y159.137 E3.43447
G1 X176.992 Y159.302 E3.4641
G1 X176.357 Y159.548 E3.4892
G1 X175.872 Y159.813 E3.50958
G1 X175.322 Y160.214 E3.53467
G1 X174.757 Y160.786 E3.5643
G1 X174.425 Y161.23 E3.58476
;WIPE_START
M204 S4000
G1 X174.025 Y161.218 F9000
;WIPE_END
G92 E0
G1 E-0.5 F3000
; acceleration to travel
M204 S3000
G1 X161.75 Y180.08 F9000
; decel to extrusion
M204 S1000
G1 X157.659 Y186.367
; end travel
G1 E0 F1800
;TYPE:Internal perimeter
G1 X155.484 Y185.491 E0.08643
G1 X154.175 Y184.869 E0.13987
G1 X152.904 Y184.165 E0.19343
G1 X151.678 Y183.385 E0.247
G1 X150.789 Y182.744 E0.2874
G1 X150.508 Y182.536 E0.30027
G1 X149.384 Y181.61 E0.35395
G1 X148.322 Y180.62 E0.40751
G1 X147.566 Y179.826 E0.44793
G1 X147.327 Y179.571 E0.46081
G1 X146.392 Y178.455 E0.51447
G1 X145.528 Y177.287 E0.56803
G1 X144.93 Y176.368 E0.60846
G1 X144.742 Y176.074 E0.62134
G1 X144.026 Y174.806 E0.67499
G1 X143.391 Y173.5 E0.72855
G1 X142.971 Y172.487 E0.76899
G1 X142.839 Y172.163 E0.78188
G1 X142.368 Y170.786 E0.83552
G1 X141.983 Y169.387 E0.88902
G1 X141.684 Y167.966 E0.94257
G1 X141.522 Y166.88 E0.98303
G1 X141.473 Y166.534 E0.99592
G1 X141.35 Y165.084 E1.04954
G1 X141.316 Y163.633 E1.10305
G1 X141.37 Y162.182 E1.15659
G1 X141.477 Y161.09 E1.19706
G1 X141.514 Y160.742 E1.20997
G1 X141.746 Y159.306 E1.26357
G1 X142.065 Y157.889 E1.31711
G1 X142.37 Y156.834 E1.35761
G1 X142.469 Y156.499 E1.3705
G1 X142.96 Y155.13 E1.4241
G1 X143.533 Y153.796 E1.47763
G1 X144.026 Y152.815 E1.51812
G1 X144.185 Y152.502 E1.53103
G1 X144.917 Y151.247 E1.58462
G1 X145.724 Y150.04 E1.63815
G1 X146.389 Y149.165 E1.67866
G1 X146.602 Y148.887 E1.69157
G1 X147.551 Y147.787 E1.74514
G1 X148.565 Y146.748 E1.79866
G1 X149.379 Y146.009 E1.83919
G1 X149.639 Y145.774 E1.8521
G1 X150.774 Y144.867 E1.90566
G1 X151.961 Y144.031 E1.95918
G1 X152.896 Y143.453 E1.9997
G1 X153.195 Y143.27 E2.01264
G1 X154.476 Y142.585 E2.06618
G1 X155.795 Y141.98 E2.1197
G1 X156.822 Y141.583 E2.16027
G1 X157.148 Y141.457 E2.17317
G1 X158.533 Y141.018 E2.22671
G1 X159.94 Y140.665 E2.28022
G1 X161.022 Y140.463 E2.32077
G1 X161.367 Y140.399 E2.33371
G1 X162.807 Y140.22 E2.38723
G1 X164.256 Y140.13 E2.44074
G1 X165.707 Y140.129 E2.49424
G1 X166.813 Y140.196 E2.53509
G1 X167.156 Y140.217 E2.54775
G1 X168.597 Y140.393 E2.60126
G1 X170.024 Y140.658 E2.65476
G1 X171.432 Y141.009 E2.70827
G1 X172.816 Y141.446 E2.76178
G1 X174.171 Y141.966 E2.81529
G1 X175.491 Y142.569 E2.86879
G1 X176.772 Y143.252 E2.9223
G1 X178.009 Y144.012 E2.97581
G1 X179.197 Y144.846 E3.02931
G1 X180.331 Y145.751 E3.08283
G1 X181.408 Y146.724 E3.13633
G1 X182.423 Y147.761 E3.18984
G1 X183.373 Y148.858 E3.24334
G1 X184.254 Y150.012 E3.29685
G1 X185.063 Y151.217 E3.35036
G1 X185.796 Y152.47 E3.40386
G1 X186.451 Y153.765 E3.45738
G1 X187.026 Y155.098 E3.51088
G1 X187.517 Y156.463 E3.56439
G1 X187.925 Y157.856 E3.61789
G1 X188.246 Y159.272 E3.6714
G1 X188.48 Y160.704 E3.72492
G1 X188.625 Y162.148 E3.77841
G1 X188.682 Y163.598 E3.83192
G1 X188.65 Y165.049 E3.88543
G1 X188.53 Y166.496 E3.93894
G1 X188.321 Y167.932 E3.99245
G1 X188.024 Y169.353 E4.04595
G1 X187.641 Y170.753 E4.09946
G1 X187.172 Y172.126 E4.15296
G1 X186.621 Y173.469 E4.20647
G1 X185.988 Y174.775 E4.25998
G1 X185.277 Y176.04 E4.31349
G1 X184.489 Y177.259 E4.36699
G1 X183.628 Y178.428 E4.4205
G1 X182.697 Y179.541 E4.47401
G1 X181.7 Y180.596 E4.52751
G1 X180.64 Y181.587 E4.58102
G1 X179.521 Y182.512 E4.63453
G1 X178.348 Y183.366 E4.68803
G1 X177.125 Y184.147 E4.74154
G1 X175.856 Y184.852 E4.79505
G1 X174.546 Y185.477 E4.84856
G1 X172.374 Y186.356 E4.93492
G1 X172.374 Y189.881 E5.06488
G1 X157.659 Y189.881 E5.6074
G1 X157.659 Y186.367 E5.73694
G1 X157.201 Y186.676 F9000
G1 F1800
G1 X155.3 Y185.91 E5.8125
G1 X153.966 Y185.275 E5.86698
G1 X152.67 Y184.558 E5.92157
G1 X151.421 Y183.764 E5.97615
G1 X150.52 Y183.113 E6.01713
G1 X150.227 Y182.897 E6.03054
G1 X149.083 Y181.954 E6.08519
G1 X148 Y180.945 E6.13976
G1 X147.233 Y180.14 E6.18076
G1 X146.985 Y179.874 E6.19417
G1 X146.032 Y178.738 E6.24881
G1 X145.153 Y177.548 E6.30338
G1 X144.546 Y176.616 E6.34438
