; generated by SuperSlicer 2.5.59 on 2023-02-22 at 07:12:14 UTC


;
;

;
;
; 

; external perimeters extrusion width = 0.40mm
; perimeters extrusion width = 0.46mm
; infill extrusion width = 0.64mm
; solid infill extrusion width = 0.56mm
; top infill extrusion width = 0.40mm
; support material extrusion width = 0.46mm
; first layer extrusion width = 0.50mm

; external perimeters extrusion width = 0.40mm
; perimeters extrusion width = 0.46mm
; infill extrusion width = 0.64mm
; solid infill extrusion width = 0.56mm
; top infill extrusion width = 0.40mm
; support material extrusion width = 0.46mm
; first layer extrusion width = 0.50mm

; object:{"name":"Fan_Cover(1)","id":"Fan_Cover(1).stl id:0 copy 0","object_center":[142.159793,148.393608,0.000000],"boundingbox_center":[142.159793,148.393608,7.425436],"boundingbox_size":[50.488205,52.882095,14.850871]}
; object:{"name":"Fan_Cover(1)","id":"Fan_Cover(1).stl id:1 copy 0","object_center":[187.840167,181.606469,0.000000],"boundingbox_center":[187.840167,181.606469,7.425436],"boundingbox_size":[50.488205,52.882095,14.850871]}
; plater:{"center":[164.999980,165.000039,0.000000],"boundingbox_center":[164.999980,165.000039,7.425436],"boundingbox_size":[96.168579,86.094956,14.850871]}

M73 P0 R61


; Pre-Processed for Cancel-Object support by preprocess_cancellation v0.2.0
; 2 known objects
EXCLUDE_OBJECT_DEFINE NAME=Fan_Cover_1_stl_id_0_copy_0 CENTER=140.369,136.495 POLYGON=[[117.116,122.153],[117.116,174.635],[167.202,174.635],[167.202,122.153]]
EXCLUDE_OBJECT_DEFINE NAME=Fan_Cover_1_stl_id_1_copy_0 CENTER=186.142,169.678 POLYGON=[[162.796,155.366],[162.796,207.848],[212.882,207.848],[212.882,155.366]]
;TYPE:Custom
; custom gcode: start_gcode
START_PRINT T_BED=110 T_EXTRUDER=245
; custom gcode end: start_gcode
M107
G21 ; set units to millimeters
G90 ; use absolute coordinates
M82 ; use absolute distances for extrusion
G92 E0
; custom gcode: start_filament_gcode
; Filament gcode

    PRESSURE_ADVANCE_SELECT FILAMENT=ABS
; custom gcode end: start_filament_gcode
;_TOOLCHANGE 0
M104 S245 ; set temperature
M109 S245 ; set temperature and wait for it to be reached
M190 S110 ; set bed temperature and wait for it to be reached
;LAYER_CHANGE
;Z:0.1
;HEIGHT:0.1
G1 Z0.1 F9000
M73 P0 R61
G1 E-0.5 F3000
M204 S1000
G1 X121.756 Y125.832 F9000
G1 E0 F1800
;TYPE:Skirt
;WIDTH:0.52
G1 X120.487 Y127.121 E0.0375
G1 X119.159 Y128.664 E0.07969
G1 X118.024 Y130.16 E0.11861
G1 X117.01 Y131.698 E0.15678
G1 X116.032 Y133.416 E0.19776
G1 X114.716 Y136.26 E0.26271
G1 X113.583 Y139.702 E0.33783
G1 X113.179 Y141.464 E0.3753
G1 X112.857 Y143.474 E0.41749
G1 X112.675 Y145.343 E0.45641
G1 X112.617 Y147.154 E0.49395
G1 X112.673 Y148.993 E0.53211
G1 X112.862 Y150.964 E0.57315
G1 X113.422 Y154.046 E0.63806
G1 X113.896 Y155.794 E0.6756
G1 X115.162 Y159.191 E0.75075
G1 X115.945 Y160.819 E0.78819
G1 X116.949 Y162.589 E0.83036
G1 X118.88 Y165.384 E0.90078
G1 X120.19 Y166.94 E0.94294
G1 X130.248 Y177.64 E1.24732
G1 X130.914 Y178.226 E1.2657
G1 X176.594 Y211.439 E2.43632
G1 X177.487 Y211.95 E2.45765
G1 X179.384 Y212.346 E2.49782
G1 X196.328 Y212.346 E2.84901
G1 X198.203 Y211.96 E2.88869
G1 X199.79 Y210.846 E2.92886
G1 X209.812 Y200.155 E3.2326
G1 X211.144 Y198.563 E3.27562
G1 X212.213 Y197.101 E3.31316
G1 X213.937 Y194.251 E3.38219
G1 X214.855 Y192.36 E3.42576
G1 X216.028 Y189.244 E3.49479
G1 X216.858 Y185.92 E3.56578
G1 X217.202 Y183.649 E3.6134
G1 X217.38 Y180.324 E3.68242
G1 X217.168 Y176.904 E3.75345
G1 X216.811 Y174.635 E3.80104
G1 X215.977 Y171.411 E3.87006
G1 X214.742 Y168.214 E3.9411
G1 X213.717 Y166.16 E3.98868
G1 X211.949 Y163.338 E4.0577
G1 X210.674 Y161.667 E4.10127
G1 X208.419 Y159.216 E4.1703
G1 X205.696 Y156.877 E4.24471
G1 X158.515 Y122.596 E5.4535
G1 X156.976 Y121.64 E5.49104
G1 X155.382 Y120.78 E5.52858
G1 X153.739 Y120.019 E5.56612
G1 X151.777 Y119.265 E5.60968
G1 X148.287 Y118.298 E5.68475
G1 X144.996 Y117.792 E5.75377
G1 X143.188 Y117.673 E5.79131
G1 X141.377 Y117.665 E5.82885
G1 X139.569 Y117.769 E5.86639
G1 X137.549 Y118.022 E5.90858
G1 X135.704 Y118.369 E5.94749
G1 X133.919 Y118.828 E5.98569
G1 X132.045 Y119.444 E6.02658
G1 X130.54 Y120.036 E6.06011
G1 X128.869 Y120.814 E6.0983
G1 X126.009 Y122.46 E6.16671
G1 X124.525 Y123.495 E6.20422
G1 X121.756 Y125.832 E6.27931
G1 X122.091 Y126.201 F9000
G1 F1800
G1 X120.843 Y127.469 E6.31618
G1 X119.539 Y128.987 E6.35767
G1 X118.439 Y130.437 E6.39539
G1 X117.443 Y131.946 E6.43286
G1 X116.478 Y133.64 E6.47327
G1 X115.174 Y136.456 E6.53759
G1 X114.062 Y139.841 E6.61143
G1 X113.665 Y141.574 E6.64828
G1 X113.35 Y143.55 E6.68977
G1 X113.173 Y145.362 E6.72749
G1 X113.115 Y147.141 E6.7644
G1 X113.169 Y148.948 E6.80185
G1 X113.355 Y150.891 E6.84232
G1 X113.91 Y153.943 E6.90661
G1 X114.376 Y155.661 E6.94351
G1 X115.622 Y159 E7.01739
G1 X116.394 Y160.6 E7.0542
G1 X117.381 Y162.341 E7.09568
G1 X119.28 Y165.087 E7.16489
G1 X120.569 Y166.617 E7.20636
G1 X130.611 Y177.298 E7.51022
G1 X131.207 Y177.823 E7.52667
G1 X176.887 Y211.036 E8.69728
M73 P0 R60
G1 X179.384 Y211.848 E8.75171
G1 X196.328 Y211.847 E9.1029
G1 X197.914 Y211.54 E9.13638
G1 X199.426 Y210.505 E9.17436
G1 X209.449 Y199.814 E9.4781
G1 X210.743 Y198.267 E9.51991
G1 X212.621 Y195.554 E9.5883
G1 X213.623 Y193.776 E9.6306
G1 X214.973 Y190.765 E9.699
G1 X215.557 Y189.082 E9.73591
G1 X216.371 Y185.818 E9.80565
G1 X216.705 Y183.607 E9.85199
G1 X216.882 Y180.312 E9.92038
G1 X216.672 Y176.953 E9.99014
G1 X216.324 Y174.745 E10.03646
G1 X215.924 Y173.011 E10.07336
G1 X215.418 Y171.303 E10.11027
G1 X214.185 Y168.197 E10.17953
G1 X213.423 Y166.665 E10.21501
G1 X212.519 Y165.1 E10.25247
G1 X211.383 Y163.404 E10.29477
G1 X209.302 Y160.843 E10.36317
G1 X207.876 Y159.385 E10.40544
G1 X205.382 Y157.264 E10.47329
G1 X158.228 Y123.004 E11.68138
G1 X156.715 Y122.065 E11.71829
G1 X155.148 Y121.22 E11.7552
G1 X153.531 Y120.473 E11.79211
G1 X151.627 Y119.74 E11.8344
G1 X148.196 Y118.788 E11.9082
G1 X144.935 Y118.286 E11.97659
G1 X143.158 Y118.171 E12.01349
G1 X141.378 Y118.164 E12.0504
G1 X139.6 Y118.266 E12.0873
G1 X137.614 Y118.516 E12.1288
G1 X135.826 Y118.852 E12.16651
G1 X134.073 Y119.302 E12.20401
G1 X132.225 Y119.909 E12.24433
G1 X130.747 Y120.489 E12.27723
G1 X129.107 Y121.252 E12.31472
G1 X126.271 Y122.884 E12.38256
G1 X124.812 Y123.903 E12.41943
G1 X122.091 Y126.201 E12.49326
G1 X122.426 Y126.57 F9000
G1 F1800
G1 X121.2 Y127.817 E12.5295
G1 X119.918 Y129.31 E12.57029
G1 X118.853 Y130.714 E12.60681
G1 X117.875 Y132.194 E12.64358
G1 X116.923 Y133.864 E12.68341
G1 X115.633 Y136.652 E12.74711
G1 X114.541 Y139.979 E12.81968
G1 X114.151 Y141.683 E12.8559
G1 X113.842 Y143.626 E12.89669
G1 X113.672 Y145.38 E12.93321
G1 X113.614 Y147.129 E12.96949
G1 X113.666 Y148.902 E13.00624
G1 X113.848 Y150.818 E13.04613
G1 X114.398 Y153.84 E13.10979
G1 X114.857 Y155.528 E13.14606
G1 X116.083 Y158.809 E13.21866
G1 X116.842 Y160.382 E13.25486
G1 X117.814 Y162.093 E13.29563
G1 X119.681 Y164.791 E13.36365
G1 X120.949 Y166.294 E13.40441
G1 X130.975 Y176.957 E13.70776
G1 X131.5 Y177.42 E13.72228
G1 X177.18 Y210.632 E14.89289
G1 X179.384 Y211.349 E14.94093
G1 X196.328 Y211.349 E15.29212
G1 X197.629 Y211.116 E15.31952
G1 X199.062 Y210.164 E15.35517
G1 X209.085 Y199.473 E15.65891
G1 X210.342 Y197.971 E15.69951
G1 X212.202 Y195.283 E15.76727
G1 X213.175 Y193.558 E15.80831
G1 X214.512 Y190.575 E15.87607
G1 X215.085 Y188.921 E15.91234
G1 X215.883 Y185.715 E15.98083
G1 X216.209 Y183.565 E16.0259
G1 X216.383 Y180.301 E16.09365
G1 X216.176 Y177.002 E16.16215
G1 X215.838 Y174.855 E16.2072
G1 X215.445 Y173.15 E16.24347
G1 X214.948 Y171.472 E16.27974
G1 X213.738 Y168.419 E16.34781
G1 X212.977 Y166.887 E16.38328
G1 X212.089 Y165.351 E16.42004
G1 X210.987 Y163.706 E16.46108
G1 X208.925 Y161.169 E16.52884
G1 X207.542 Y159.755 E16.56985
G1 X205.069 Y157.652 E16.63713
G1 X157.941 Y123.412 E17.84452
G1 X156.454 Y122.489 E17.8808
G1 X154.913 Y121.66 E17.91707
G1 X153.324 Y120.926 E17.95335
G1 X151.477 Y120.216 E17.99437
G1 X148.105 Y119.278 E18.0669
G1 X144.875 Y118.781 E18.13466
G1 X143.128 Y118.668 E18.17093
G1 X141.378 Y118.662 E18.20721
G1 X139.631 Y118.764 E18.24348
G1 X137.679 Y119.011 E18.28426
G1 X135.947 Y119.336 E18.32078
G1 X134.227 Y119.776 E18.35758
G1 X132.405 Y120.374 E18.39734
G1 X129.346 Y121.69 E18.46636
G1 X127.662 Y122.611 E18.50614
G1 X125.099 Y124.31 E18.56987
G1 X122.426 Y126.57 E18.64242
G1 X122.761 Y126.939 F9000
G1 F1800
G1 X121.557 Y128.165 E18.67803
G1 X120.298 Y129.634 E18.71813
G1 X119.268 Y130.991 E18.75344
G1 X118.307 Y132.442 E18.78951
G1 X117.369 Y134.088 E18.82878
G1 X116.091 Y136.849 E18.89184
G1 X115.02 Y140.118 E18.96314
G1 X114.638 Y141.792 E18.99874
G1 X114.335 Y143.703 E19.03883
G1 X114.17 Y145.399 E19.07415
G1 X114.112 Y147.117 E19.10979
G1 X114.162 Y148.856 E19.14585
G1 X114.341 Y150.744 E19.18515
G1 X114.885 Y153.737 E19.2482
G1 X115.337 Y155.396 E19.28383
G1 X115.97 Y157.223 E19.32392
G1 X116.624 Y158.797 E19.35925
G1 X117.392 Y160.357 E19.39529
G1 X118.246 Y161.844 E19.43084
G1 X120.082 Y164.494 E19.49765
G1 X121.329 Y165.971 E19.53772
G1 X131.338 Y176.615 E19.84054
G1 X131.793 Y177.016 E19.85313
G1 X177.474 Y210.229 E21.02375
G1 X179.384 Y210.85 E21.06539
G1 X196.328 Y210.85 E21.41658
G1 X197.351 Y210.685 E21.43805
G1 X198.699 Y209.823 E21.47121
G1 X208.721 Y199.132 E21.77495
G1 X209.818 Y197.831 E21.81022
G1 X210.958 Y196.288 E21.84999
G1 X212.634 Y193.517 E21.91712
G1 X213.472 Y191.791 E21.95688
G1 X214.613 Y188.76 E22.02401
G1 X215.395 Y185.612 E22.09124
G1 X215.712 Y183.523 E22.13503
G1 X215.885 Y180.289 E22.20215
G1 X215.68 Y177.052 E22.2694
G1 X215.352 Y174.965 E22.31317
G1 X214.967 Y173.29 E22.34881
G1 X214.479 Y171.641 E22.38445
G1 X213.292 Y168.641 E22.45131
G1 X212.53 Y167.109 E22.48678
G1 X211.658 Y165.603 E22.52285
G1 X210.59 Y164.009 E22.56262
G1 X208.548 Y161.495 E22.62974
G1 X207.207 Y160.125 E22.66949
G1 X204.755 Y158.039 E22.7362
G1 X157.655 Y123.82 E23.94289
G1 X156.193 Y122.914 E23.97853
G1 X154.679 Y122.1 E24.01418
G1 X153.117 Y121.38 E24.04982
G1 X151.327 Y120.691 E24.08958
G1 X148.015 Y119.768 E24.16084
G1 X144.814 Y119.276 E24.22796
G1 X143.098 Y119.166 E24.2636
G1 X141.378 Y119.161 E24.29924
G1 X139.662 Y119.261 E24.33488
G1 X137.743 Y119.505 E24.37497
M73 P1 R60
G1 X136.068 Y119.819 E24.41029
G1 X134.381 Y120.251 E24.44638
G1 X132.584 Y120.839 E24.48557
G1 X129.584 Y122.128 E24.55326
G1 X127.924 Y123.036 E24.59247
G1 X125.386 Y124.718 E24.65558
G1 X122.761 Y126.939 E24.72686
G92 E0
G1 E-0.5 F3000
; printing object Fan_Cover(1).stl id:0 copy 0
EXCLUDE_OBJECT_START NAME=Fan_Cover_1_stl_id_0_copy_0
; acceleration to travel
M204 S3000
G1 X142.767 Y139.327 F9000
; decel to extrusion
M204 S1000
G1 X149.436 Y143.457
; end travel
G1 E0 F1800
;TYPE:Internal perimeter
;WIDTH:0.5
G1 X149.024 Y144.205 E0.017
G1 X148.656 Y145.183 E0.03778
G1 X148.436 Y146.249 E0.05944
G1 X148.369 Y147.197 E0.07835
G1 X148.442 Y148.221 E0.09878
G1 X148.662 Y149.225 E0.11923
G1 X149.022 Y150.183 E0.13958
G1 X149.479 Y151.02 E0.15856
G1 X150.13 Y151.898 E0.1803
G1 X150.87 Y152.63 E0.20101
G1 X151.688 Y153.235 E0.22125
G1 X152.519 Y153.689 E0.2401
G1 X153.483 Y154.055 E0.26059
G1 X154.552 Y154.283 E0.28235
G1 X155.504 Y154.351 E0.30135
G1 X156.54 Y154.28 E0.322
G1 X157.602 Y154.039 E0.34367
G1 X158.494 Y153.706 E0.3626
G1 X159.394 Y153.215 E0.38302
G1 X160.217 Y152.598 E0.40346
G1 X160.942 Y151.87 E0.42391
G1 X161.553 Y151.05 E0.44425
G1 X162.01 Y150.212 E0.46325
G1 X162.397 Y149.19 E0.48499
G1 X162.612 Y148.172 E0.50569
G1 X162.678 Y147.157 E0.52593
G1 X162.609 Y146.2 E0.54501
G1 X162.376 Y145.141 E0.56659
G1 X162.042 Y144.245 E0.58561
G1 X161.556 Y143.347 E0.60592
G1 X160.932 Y142.51 E0.62669
G1 X160.155 Y141.747 E0.64836
G1 X159.393 Y141.177 E0.66728
G1 X158.492 Y140.686 E0.6877
G1 X157.529 Y140.328 E0.70815
G1 X156.524 Y140.111 E0.7286
G1 X155.505 Y140.042 E0.74893
G1 X155.028 Y140.076 E0.75844
G1 X154.552 Y140.11 E0.76793
G1 X153.483 Y140.338 E0.78969
G1 X152.519 Y140.704 E0.81019
G1 X151.688 Y141.158 E0.82903
G1 X150.86 Y141.77 E0.84951
G1 X150.089 Y142.546 E0.87128
G1 X149.517 Y143.31 E0.89028
G1 X149.436 Y143.457 E0.8936
G1 X149.855 Y143.687 F9000
G1 F1800
G1 X149.46 Y144.406 E0.90992
G1 X149.118 Y145.316 E0.92927
G1 X148.911 Y146.315 E0.94955
G1 X148.848 Y147.197 E0.96715
G1 X148.917 Y148.153 E0.98622
G1 X149.122 Y149.089 E1.00529
G1 X149.458 Y149.983 E1.02429
G1 X149.884 Y150.762 E1.04194
G1 X150.492 Y151.584 E1.0623
G1 X151.182 Y152.266 E1.08159
G1 X151.946 Y152.83 E1.10049
G1 X152.72 Y153.253 E1.11803
G1 X153.618 Y153.594 E1.13715
G1 X154.619 Y153.808 E1.15752
G1 X155.505 Y153.871 E1.17519
G1 X156.47 Y153.805 E1.19443
G1 X157.465 Y153.579 E1.21473
G1 X158.294 Y153.27 E1.23234
G1 X159.135 Y152.811 E1.25139
G1 X159.902 Y152.236 E1.27047
G1 X160.579 Y151.557 E1.28954
G1 X161.149 Y150.791 E1.30853
G1 X161.574 Y150.012 E1.3262
G1 X161.936 Y149.055 E1.34655
G1 X162.137 Y148.106 E1.36584
G1 X162.198 Y147.159 E1.38474
G1 X162.134 Y146.269 E1.40248
G1 X161.916 Y145.276 E1.4227
G1 X161.605 Y144.444 E1.44038
G1 X161.151 Y143.605 E1.45935
G1 X160.571 Y142.825 E1.47869
G1 X159.843 Y142.112 E1.49898
G1 X159.134 Y141.581 E1.51659
G1 X158.293 Y141.122 E1.53565
G1 X157.395 Y140.788 E1.55472
G1 X156.457 Y140.586 E1.5738
G1 X155.505 Y140.521 E1.59278
G1 X155.062 Y140.553 E1.60163
G1 X154.619 Y140.585 E1.61045
G1 X153.618 Y140.798 E1.63082
G1 X152.72 Y141.14 E1.64993
G1 X151.946 Y141.562 E1.66748
G1 X151.174 Y142.133 E1.68658
G1 X150.452 Y142.859 E1.70696
G1 X149.92 Y143.57 E1.72463
G1 X149.855 Y143.687 E1.72729
G1 X150.275 Y143.918 F9000
G1 F1800
G1 X149.896 Y144.606 E1.74292
G1 X149.579 Y145.45 E1.76084
G1 X149.387 Y146.38 E1.77975
G1 X149.328 Y147.197 E1.79603
G1 X149.392 Y148.084 E1.81373
G1 X149.583 Y148.953 E1.83143
G1 X149.894 Y149.783 E1.84907
G1 X150.288 Y150.504 E1.8654
G1 X150.855 Y151.27 E1.88437
G1 X151.494 Y151.901 E1.90224
G1 X152.204 Y152.426 E1.91981
G1 X152.921 Y152.817 E1.93605
G1 X153.754 Y153.134 E1.95379
G1 X154.687 Y153.333 E1.97276
G1 X155.506 Y153.392 E1.9891
G1 X156.4 Y153.331 E2.00694
G1 X157.328 Y153.12 E2.02586
G1 X158.095 Y152.834 E2.04216
G1 X158.875 Y152.408 E2.05984
G1 X159.587 Y151.874 E2.07755
G1 X160.215 Y151.243 E2.09525
G1 X160.745 Y150.532 E2.11289
G1 X161.138 Y149.812 E2.12922
G1 X161.475 Y148.92 E2.14819
G1 X161.661 Y148.041 E2.16606
G1 X161.718 Y147.16 E2.18362
G1 X161.659 Y146.338 E2.20002
G1 X161.455 Y145.412 E2.21888
G1 X161.168 Y144.642 E2.23524
G1 X160.747 Y143.863 E2.25285
G1 X160.209 Y143.141 E2.27077
G1 X159.53 Y142.476 E2.28968
G1 X158.875 Y141.985 E2.30597
G1 X158.094 Y141.559 E2.32367
G1 X157.26 Y141.249 E2.34137
G1 X156.39 Y141.061 E2.35908
G1 X155.506 Y141.001 E2.37671
G1 X155.096 Y141.03 E2.38488
G1 X154.687 Y141.06 E2.39305
G1 X153.754 Y141.259 E2.41202
G1 X152.921 Y141.575 E2.42976
G1 X152.204 Y141.967 E2.446
G1 X151.487 Y142.496 E2.46373
G1 X150.815 Y143.173 E2.48271
G1 X150.323 Y143.83 E2.49905
G1 X150.275 Y143.918 E2.50105
G1 X150.694 Y144.149 F9000
G1 F1800
G1 X150.331 Y144.807 E2.51599
G1 X150.04 Y145.583 E2.53248
G1 X149.862 Y146.446 E2.55002
G1 X149.808 Y147.197 E2.56499
G1 X149.867 Y148.015 E2.58131
G1 X150.043 Y148.817 E2.59765
G1 X150.331 Y149.583 E2.61394
G1 X150.692 Y150.245 E2.62894
G1 X151.218 Y150.955 E2.64651
G1 X151.806 Y151.537 E2.66297
G1 X152.462 Y152.022 E2.67921
G1 X153.121 Y152.382 E2.69414
G1 X153.89 Y152.674 E2.7105
G1 X154.754 Y152.858 E2.72809
G1 X155.507 Y152.912 E2.7431
G1 X156.331 Y152.856 E2.75953
G1 X157.19 Y152.66 E2.77707
G1 X157.896 Y152.397 E2.79205
G1 X158.616 Y152.004 E2.80837
G1 X159.273 Y151.512 E2.8247
G1 X159.852 Y150.93 E2.84104
G1 X160.341 Y150.274 E2.85732
G1 X160.702 Y149.611 E2.87233
G1 X161.015 Y148.785 E2.88991
G1 X161.186 Y147.976 E2.90636
G1 X161.239 Y147.162 E2.92259
G1 X161.185 Y146.407 E2.93764
G1 X160.995 Y145.548 E2.95514
G1 X160.731 Y144.841 E2.97017
G1 X160.342 Y144.121 E2.98644
G1 X159.848 Y143.457 E3.00292
G1 X159.218 Y142.84 E3.02046
G1 X158.615 Y142.388 E3.03544
G1 X157.895 Y141.995 E3.05176
G1 X157.126 Y141.709 E3.0681
G1 X156.323 Y141.537 E3.08443
G1 X155.507 Y141.481 E3.10071
