; HEADER_BLOCK_START
; generated by OrcaSlicer 1.6.6 on 2023-08-28 at 19:30:26
; total layer number: 338
; HEADER_BLOCK_END

; THUMBNAIL_BLOCK_START
; THUMBNAIL_BLOCK_END

; external perimeters extrusion width = 0.40mm
; perimeters extrusion width = 0.46mm
; infill extrusion width = 0.64mm
; solid infill extrusion width = 0.56mm
; top infill extrusion width = 0.40mm
; support material extrusion width = 0.46mm
; first layer extrusion width = 0.50mm

; external perimeters extrusion width = 0.40mm
; perimeters extrusion width = 0.46mm
; infill extrusion width = 0.64mm
; solid infill extrusion width = 0.56mm
; top infill extrusion width = 0.40mm
; support material extrusion width = 0.46mm
; first layer extrusion width = 0.50mm

; EXECUTABLE_BLOCK_START
EXCLUDE_OBJECT_DEFINE NAME=Filament_Runout_2020.stl_id_0_copy_0 CENTER=195.3,165 POLYGON=[[178.8,157.554],[181.517,138.617],[181.682,137.955],[181.947,137.326],[182.306,136.746],[182.75,136.228],[183.268,135.784],[183.849,135.425],[184.477,135.16],[185.14,134.995],[185.33,134.978],[197.67,134.978],[197.86,134.995],[198.523,135.16],[199.151,135.425],[199.732,135.784],[200.25,136.228],[200.694,136.746],[201.053,137.326],[211.8,158.978],[211.8,170.978],[201.053,192.629],[200.694,193.209],[200.25,193.728],[199.732,194.172],[199.151,194.53],[198.523,194.795],[197.86,194.961],[197.67,194.978],[185.819,195.022],[185.33,194.978],[185.14,194.961],[184.477,194.795],[183.849,194.53],[183.268,194.172],[182.75,193.728],[182.306,193.209],[181.947,192.629],[181.682,192],[181.517,191.338],[178.8,172.266],[178.8,157.554]]
EXCLUDE_OBJECT_DEFINE NAME=Optical_Runout_Sensor_With_Stabilizer.stl_id_1_copy_0 CENTER=143.5,165 POLYGON=[[118.2,155],[124.161,150],[137.527,150],[168.8,155],[168.8,175],[137.527,180],[124.161,180],[118.2,175],[118.2,155]]
M73 P0 R49
M73 C7
;TYPE:Custom
START_PRINT T_BED=110 T_EXTRUDER=260
G90
G21
M83 ; use relative distances for extrusion
; Filament gcode
PRESSURE_ADVANCE_SELECT FILAMENT=ASA
M106 S0
;LAYER_CHANGE
;Z:0.2
;HEIGHT:0.2
;BEFORE_LAYER_CHANGE
;0.2
G92 E0

SET_VELOCITY_LIMIT ACCEL=5000 ACCEL_TO_DECEL=2500
G1 E-.5 F2400
G1 X122.288 Y147.767 F12000
G1 Z.2
G1 E.5 F1800
;TYPE:Skirt
;WIDTH:0.5
G1 F3000
G1 X123.465 Y147.17 E.04663
G1 X184.443 Y132.165 E2.21963
G1 X185.14 Y132.081 E.02479
G1 X197.86 Y132.081 E.44963
G1 X199.228 Y132.333 E.04915
G1 X200.283 Y132.74 E.03999
G1 X201.627 Y133.57 E.05583
G1 X202.464 Y134.332 E.03999
G1 X214.161 Y149.606 E.68002
G1 X214.758 Y151.373 E.06591
G1 X214.758 Y178.627 E.9633
G1 X214.159 Y180.397 E.06605
G1 X203.009 Y194.98 E.64885
G1 X202.145 Y195.941 E.04568
G1 X201.264 Y196.65 E.03999
G1 X200.683 Y197.009 E.02412
G1 X199.228 Y197.623 E.05583
G1 X197.86 Y197.875 E.04914
G1 X185.14 Y197.875 E.44963
G1 X184.445 Y197.791 E.02472
G1 X123.467 Y182.83 E2.21926
G1 X122.288 Y182.233 E.0467
G1 X116.327 Y177.233 E.275
G1 X115.46 Y175.992 E.0535
G1 X115.286 Y175 E.0356
G1 X115.286 Y155 E.70692
G1 X115.679 Y153.538 E.0535
G1 X116.327 Y152.767 E.0356
G1 X122.258 Y147.793 E.27359
G1 X122.551 Y148.143 F12000
G1 F3000
G1 X122.582 Y148.117 E.00141
G1 X123.574 Y147.614 E.03932
G1 X184.552 Y132.609 E2.21963
G1 X185.14 Y132.538 E.0209
G1 X197.86 Y132.538 E.44963
G1 X199.117 Y132.776 E.04521
G1 X200.106 Y133.161 E.0375
G1 X201.33 Y133.918 E.05086
G1 X202.116 Y134.63 E.0375
G1 X213.798 Y149.883 E.6791
G1 X214.301 Y151.373 E.05557
G1 X214.301 Y178.627 E.9633
M73 P0 R48
G1 X213.796 Y180.119 E.05569
G1 X202.646 Y194.702 E.64885
G1 X201.848 Y195.594 E.0423
G1 X201.33 Y196.038 E.02412
G1 X200.443 Y196.62 E.0375
G1 X199.117 Y197.179 E.05086
G1 X197.86 Y197.418 E.04521
G1 X185.14 Y197.418 E.44963
G1 X184.554 Y197.347 E.02084
G1 X123.576 Y182.386 E2.21926
G1 X122.582 Y181.883 E.03938
G1 X116.621 Y176.883 E.275
G1 X115.853 Y175.727 E.04905
G1 X115.743 Y175 E.02598
G1 X115.743 Y155 E.70692
G1 X116.135 Y153.669 E.04905
G1 X116.621 Y153.117 E.02598
G1 X122.521 Y148.169 E.27217
; printing object Filament_Runout_2020.stl id:0 copy 0
G1 E-.5 F2400
EXCLUDE_OBJECT_START NAME=Filament_Runout_2020.stl_id_0_copy_0
G1 X211.844 Y178.627 F12000
G1 E.5 F1800
;TYPE:Support
G1 F3000
G1 X202.096 Y178.627 E.34454
G1 X202.1 Y175.214 E.12061
G2 X202.157 Y175.031 I-.327 J-.203 E.00684
G1 X202.157 Y154.924 E.71071
G2 X202.1 Y154.741 I-.385 J.02 E.00685
G1 X202.096 Y151.373 E.11906
G1 X211.844 Y151.373 E.34454
G1 X211.844 Y178.558 E.96088
G1 X202.569 Y175.083 F12000
G1 F3000
G1 X202.569 Y154.872 E.71438
G1 X202.511 Y154.648 E.00818
G1 X202.508 Y151.784 E.10122
G1 X211.432 Y151.784 E.31544
G1 X211.432 Y178.215 E.93422
G1 X202.508 Y178.215 E.31544
G1 X202.511 Y175.307 E.10278
G1 X202.569 Y175.083 E.00818
G1 X203.076 Y175.148 F12000
G1 F3000
G1 X203.076 Y154.808 E.71892
G1 X203.019 Y154.584 E.00819
G1 X203.016 Y152.292 E.08099
G1 X210.925 Y152.292 E.27952
G1 X210.925 Y177.707 E.89832
G1 X203.016 Y177.707 E.27952
G1 X203.019 Y175.372 E.08255
G1 X203.076 Y175.148 E.00819
G1 X203.584 Y175.212 F12000
G1 F3000
G1 X203.584 Y154.744 E.72346
G1 X203.527 Y154.519 E.0082
G1 X203.525 Y152.8 E.06076
G1 X210.417 Y152.8 E.2436
G1 X210.417 Y177.199 E.86242
G1 X203.525 Y177.199 E.2436
G1 X203.527 Y175.436 E.06232
G1 X203.584 Y175.212 E.0082
G1 X204.092 Y175.276 F12000
G1 F3000
G1 X204.092 Y154.68 E.72799
G1 X204.033 Y153.308 E.04853
G1 X209.909 Y153.308 E.20768
G1 X209.909 Y176.692 E.82651
G1 X204.033 Y176.692 E.20768
G1 X204.092 Y175.276 E.05008
G1 X204.6 Y175.34 F12000
G1 F3000
G1 X204.6 Y154.615 E.73253
G3 X204.542 Y153.816 I1.534 J-.514 E.02864
G1 X209.401 Y153.816 E.17176
G1 X209.401 Y176.184 E.79061
G1 X204.542 Y176.184 E.17176
G3 X204.6 Y175.34 I1.679 J-.307 E.03021
G1 X205.108 Y175.404 F12000
G1 F3000
G1 X205.108 Y154.324 E.74511
G1 X208.893 Y154.324 E.13379
G1 X208.893 Y175.676 E.75471
G1 X205.038 Y175.676 E.13626
G1 X205.108 Y175.404 E.00991
G1 X205.616 Y175.168 F12000
G1 F3000
G1 X205.616 Y154.832 E.71881
G1 X208.385 Y154.832 E.09789
G1 X208.385 Y175.168 E.71881
G1 X205.616 Y175.168 E.09789
G1 X206.124 Y174.66 F12000
G1 F3000
G1 X206.124 Y155.339 E.68291
G1 X207.877 Y155.339 E.06199
G1 X207.877 Y174.66 E.68291
G1 X206.124 Y174.66 E.06199
G1 X206.632 Y174.152 F12000
G1 F3000
G1 X206.632 Y155.847 E.647
G1 X207.37 Y155.847 E.02609
G1 X207.37 Y174.152 E.647
G1 X206.632 Y174.152 E.02609
G1 E-.5 F2400
G1 X201.15 Y175.002 F12000
G1 E.5 F1800
;TYPE:Outer wall
G1 F3000
G1 X201.133 Y191.295 E.57588
G1 X200.985 Y191.889 E.02165
G1 X200.741 Y192.468 E.0222
G1 X200.41 Y193.002 E.0222
G1 X200.002 Y193.48 E.0222
G1 X199.525 Y193.888 E.0222
G1 X198.99 Y194.218 E.0222
G1 X198.412 Y194.462 E.0222
G1 X197.817 Y194.611 E.02164
G1 X185.182 Y194.611 E.4466
G1 X184.588 Y194.462 E.02164
G1 X184.01 Y194.218 E.0222
G1 X183.475 Y193.888 E.0222
G1 X182.998 Y193.48 E.0222
G1 X182.59 Y193.002 E.0222
G1 X182.266 Y192.479 E.02174
G1 X182.015 Y191.889 E.02268
G1 X181.867 Y191.295 E.02163
G1 X181.85 Y174.833 E.58186
G1 X179.15 Y172.121 E.13526
G1 X179.15 Y157.703 E.50961
G1 X181.85 Y155.128 E.13189
G1 X181.867 Y138.66 E.58205
G1 X182.015 Y138.066 E.02165
G1 X182.259 Y137.487 E.0222
G1 X182.59 Y136.953 E.0222
G1 X182.998 Y136.476 E.0222
G1 X183.475 Y136.067 E.0222
G1 X184.01 Y135.737 E.0222
G1 X184.588 Y135.493 E.0222
G1 X185.182 Y135.345 E.02164
G1 X185.629 Y135.345 E.01577
G1 X197.817 Y135.345 E.43082
G1 X198.412 Y135.493 E.02164
G1 X198.99 Y135.737 E.0222
G1 X199.525 Y136.067 E.0222
G1 X200.002 Y136.476 E.0222
G1 X200.41 Y136.953 E.0222
G1 X200.741 Y137.487 E.0222
G1 X200.985 Y138.066 E.0222
G1 X201.133 Y138.66 E.02165
G1 X201.15 Y155.44 E.5931
G1 X201.207 Y155.426 E.00207
G1 X201.207 Y174.53 E.67524
G1 X201.15 Y174.515 E.00207
G1 X201.15 Y174.962 E.01581
G1 X200.693 Y175.002 F12000
;TYPE:Inner wall
G1 F3000
G1 X200.676 Y191.239 E.5739
G3 X197.761 Y194.153 I-3.54 J-.625 E.15516
G1 X185.239 Y194.153 E.44263
G3 X182.324 Y191.239 I.627 J-3.542 E.15514
G1 X182.307 Y174.644 E.58655
G1 X179.607 Y171.932 E.13525
G1 X179.607 Y157.899 E.49602
M73 P1 R48
G1 X182.307 Y155.324 E.13188
G1 X182.324 Y138.717 E.58698
G3 X185.239 Y135.802 I3.54 J.625 E.15516
G1 X185.629 Y135.802 E.01379
G1 X197.761 Y135.802 E.42884
G3 X200.676 Y138.717 I-.625 J3.54 E.15516
G1 X200.694 Y156.03 E.61193
G1 X200.75 Y156.015 E.00205
G1 X200.75 Y173.94 E.63358
G1 X200.694 Y173.926 E.00205
G1 X200.693 Y174.962 E.03662
G1 X200.236 Y175.001 F12000
G1 F3000
G1 X200.219 Y191.182 E.57193
G3 X197.705 Y193.696 I-3.077 J-.563 E.13365
G1 X185.295 Y193.696 E.43866
G3 X182.781 Y191.182 I.564 J-3.077 E.13365
G1 X182.764 Y174.455 E.59123
G1 X180.064 Y171.744 E.13524
G1 X180.064 Y158.095 E.48243
G1 X182.764 Y155.519 E.13187
G1 X182.781 Y138.773 E.59191
G3 X185.295 Y136.259 I3.077 J.563 E.13365
G1 X185.629 Y136.259 E.0118
G1 X197.705 Y136.259 E.42685
G3 X200.219 Y138.773 I-.563 J3.077 E.13365
G1 X200.238 Y156.619 E.63077
G1 X200.293 Y156.604 E.00203
G1 X200.293 Y173.351 E.59192
G1 X200.238 Y173.337 E.00203
G1 X200.236 Y174.961 E.05743
G1 X199.779 Y175.001 F12000
G1 F3000
G1 X199.762 Y191.126 E.56995
G3 X197.649 Y193.239 I-2.615 J-.501 E.11214
G1 X185.351 Y193.239 E.43469
G3 X183.238 Y191.126 I.502 J-2.615 E.11214
G1 X183.22 Y174.266 E.59592
G1 X180.521 Y171.555 E.13523
G1 X180.521 Y158.29 E.46885
G1 X183.22 Y155.715 E.13186
G1 X183.238 Y138.83 E.59684
G3 X185.351 Y136.716 I2.615 J.501 E.11214
G1 X185.629 Y136.716 E.00982
G1 X197.649 Y136.716 E.42487
G3 X199.762 Y138.83 I-.502 J2.615 E.11214
G1 X199.781 Y157.208 E.6496
G1 X199.836 Y157.194 E.002
G1 X199.836 Y172.762 E.55026
G1 X199.781 Y172.748 E.002
G1 X199.779 Y174.961 E.07823
G1 E-.5 F2400
G1 X195.306 Y144.782 F12000
G1 X194.98 Y143.994
G1 X194.46 Y143.317
G1 X193.784 Y142.798
G1 X193.092 Y142.512
G1 X192.964 Y142.822
G1 E.5 F1800
;TYPE:Outer wall
G1 F3000
G1 X193.614 Y143.091 E.02488
G1 X194.221 Y143.557 E.02702
G1 X194.686 Y144.163 E.02702
G1 X194.979 Y144.87 E.02702
G1 X195.079 Y145.628 E.02702
G1 X194.979 Y146.386 E.02702
G1 X194.833 Y146.739 E.01351
G1 X194.686 Y147.092 E.01351
G1 X194.221 Y147.699 E.02702
G1 X193.614 Y148.164 E.02702
G1 X192.908 Y148.457 E.02702
G1 X192.15 Y148.556 E.02702
G1 X191.392 Y148.457 E.02702
G1 X190.752 Y148.192 E.02447
G1 X190.686 Y148.164 E.00255
G1 X190.079 Y147.699 E.02702
G1 X189.614 Y147.092 E.02702
G1 X189.321 Y146.386 E.02702
G1 X189.221 Y145.628 E.02702
G1 X189.321 Y144.87 E.02702
G1 X189.614 Y144.163 E.02702
G1 X190.079 Y143.557 E.02702
G1 X190.686 Y143.091 E.02702
G1 X191.392 Y142.799 E.02702
G1 X192.078 Y142.709 E.02447
G1 X192.15 Y142.699 E.00255
G1 X192.908 Y142.799 E.02702
G1 X192.927 Y142.807 E.00073
G1 X193.062 Y142.368 F12000
;TYPE:Inner wall
G1 F3000
G1 X193.845 Y142.692 E.02994
G1 X194.547 Y143.231 E.03128
G1 X195.086 Y143.933 E.03128
G1 X195.424 Y144.75 E.03128
G1 X195.54 Y145.628 E.03128
G1 X195.424 Y146.505 E.03128
G1 X195.255 Y146.914 E.01564
G1 X195.086 Y147.323 E.01564
G1 X194.547 Y148.025 E.03128
G1 X193.845 Y148.563 E.03128
G1 X193.027 Y148.902 E.03128
G1 X192.15 Y149.017 E.03128
G1 X191.273 Y148.902 E.03128
G1 X190.577 Y148.614 E.0266
G1 X190.455 Y148.563 E.00468
G1 X189.753 Y148.025 E.03128
G1 X189.214 Y147.323 E.03128
G1 X188.876 Y146.505 E.03128
G1 X188.76 Y145.628 E.03128
G1 X188.876 Y144.75 E.03128
G1 X189.214 Y143.933 E.03128
G1 X189.753 Y143.231 E.03128
G1 X190.455 Y142.692 E.03128
G1 X191.273 Y142.354 E.03128
G1 X192.019 Y142.255 E.02659
G1 X192.15 Y142.238 E.00468
G1 X193.025 Y142.353 E.0312
G1 X193.227 Y141.942 F12000
G1 F3000
G1 X194.075 Y142.293 E.03246
G1 X194.873 Y142.905 E.03553
G1 X195.485 Y143.702 E.03553
G1 X195.87 Y144.631 E.03553
G1 X196.001 Y145.628 E.03553
G1 X195.87 Y146.624 E.03553
G1 X195.485 Y147.553 E.03553
G1 X194.873 Y148.351 E.03553
G1 X194.075 Y148.963 E.03553
G1 X193.147 Y149.347 E.03553
G1 X192.15 Y149.478 E.03553
G1 X191.153 Y149.347 E.03553
G1 X190.403 Y149.036 E.02872
G1 X190.225 Y148.963 E.00681
G1 X189.427 Y148.351 E.03553
G1 X188.815 Y147.553 E.03553
G1 X188.43 Y146.624 E.03553
G1 X188.299 Y145.628 E.03553
G1 X188.43 Y144.631 E.03553
G1 X188.815 Y143.702 E.03553
G1 X189.427 Y142.905 E.03553
G1 X190.225 Y142.293 E.03553
G1 X191.153 Y141.908 E.03553
G1 X191.959 Y141.802 E.02872
G1 X192.15 Y141.777 E.00681
G1 X193.147 Y141.908 E.03553
G1 X193.19 Y141.926 E.00166
G1 X193.392 Y141.515 F12000
G1 F3000
G1 X194.306 Y141.894 E.03498
G1 X195.199 Y142.579 E.03978
G1 X195.884 Y143.472 E.03979
G1 X196.315 Y144.512 E.03979
G1 X196.462 Y145.628 E.03978
G1 X196.315 Y146.744 E.03978
G1 X195.884 Y147.784 E.03979
G1 X195.199 Y148.677 E.03978
G1 X194.306 Y149.362 E.03978
G1 X193.266 Y149.793 E.03979
G1 X192.15 Y149.94 E.03978
G1 X191.034 Y149.793 E.03978
G1 X190.228 Y149.459 E.03085
G1 X189.994 Y149.362 E.00894
G1 X189.101 Y148.677 E.03978
G1 X188.416 Y147.784 E.03978
G1 X187.985 Y146.744 E.03979
G1 X187.838 Y145.628 E.03978
G1 X187.985 Y144.512 E.03978
G1 X188.416 Y143.472 E.03979
G1 X189.101 Y142.579 E.03978
G1 X189.994 Y141.894 E.03978
G1 X191.034 Y141.463 E.03979
G1 X191.899 Y141.349 E.03085
G1 X192.15 Y141.316 E.00894
G1 X193.266 Y141.463 E.03979
G1 X193.355 Y141.5 E.00339
G1 E-.5 F2400
G1 X194.98 Y143.994 F12000
G1 X195.306 Y144.782
G1 X195.417 Y145.628
G1 X195.417 Y184.328
G1 X195.306 Y185.173
G1 X194.98 Y185.961
G1 X194.46 Y186.638
G1 X193.784 Y187.157
G1 X192.996 Y187.484
G1 X192.15 Y187.595
G1 X192.046 Y187.581
G1 X192.09 Y187.249
G1 E.5 F1800
;TYPE:Outer wall
G1 F3000
G1 X191.392 Y187.157 E.02488
G1 X190.686 Y186.864 E.02702
G1 X190.079 Y186.399 E.02702
G1 X189.614 Y185.792 E.02702
G1 X189.321 Y185.086 E.02702
G1 X189.221 Y184.328 E.02702
G1 X189.321 Y183.57 E.02702
G1 X189.614 Y182.863 E.02702
G1 X190.079 Y182.257 E.02702
G1 X190.686 Y181.791 E.02702
G1 X191.392 Y181.499 E.02702
G1 X192.078 Y181.409 E.02447
G1 X192.15 Y181.399 E.00255
G1 X192.908 Y181.499 E.02702
G1 X193.614 Y181.791 E.02702
G1 X194.221 Y182.257 E.02702
G1 X194.686 Y182.863 E.02702
G1 X194.714 Y182.93 E.00255
G1 X194.979 Y183.57 E.02447
G1 X195.079 Y184.328 E.02702
G1 X194.979 Y185.086 E.02702
G1 X194.833 Y185.439 E.01351
G1 X194.686 Y185.792 E.01351
G1 X194.221 Y186.399 E.02702
G1 X193.614 Y186.864 E.02702
G1 X193.261 Y187.01 E.01351
G1 X192.908 Y187.157 E.01351
G1 X192.15 Y187.256 E.02702
G1 X192.13 Y187.254 E.00073
G1 X192.112 Y187.713 F12000
;TYPE:Inner wall
G1 F3000
G1 X191.273 Y187.602 E.02994
G1 X190.455 Y187.263 E.03128
G1 X189.753 Y186.725 E.03128
G1 X189.214 Y186.023 E.03128
G1 X188.876 Y185.205 E.03128
G1 X188.76 Y184.328 E.03128
G1 X188.876 Y183.45 E.03128
G1 X189.214 Y182.633 E.03128
G1 X189.753 Y181.931 E.03128
G1 X190.455 Y181.392 E.03128
G1 X191.273 Y181.054 E.03128
G1 X192.019 Y180.955 E.0266
G1 X192.15 Y180.938 E.00468
G1 X193.027 Y181.054 E.03128
G1 X193.845 Y181.392 E.03128
G1 X194.547 Y181.931 E.03128
G1 X195.086 Y182.633 E.03128
G1 X195.136 Y182.755 E.00468
G1 X195.424 Y183.45 E.0266
G1 X195.54 Y184.328 E.03128
G1 X195.424 Y185.205 E.03128
G1 X195.255 Y185.614 E.01564
G1 X195.086 Y186.023 E.01564
G1 X194.547 Y186.725 E.03128
G1 X193.845 Y187.263 E.03128
G1 X193.436 Y187.433 E.01564
G1 X193.027 Y187.602 E.01564
G1 X192.152 Y187.717 E.0312
G1 X192.064 Y188.167 F12000
G1 F3000
G1 X191.153 Y188.047 E.03246
G1 X190.225 Y187.663 E.03553
G1 X189.427 Y187.051 E.03553
G1 X188.815 Y186.253 E.03553
G1 X188.43 Y185.324 E.03553
G1 X188.299 Y184.328 E.03553
G1 X188.43 Y183.331 E.03553
G1 X188.815 Y182.402 E.03553
G1 X189.427 Y181.605 E.03553
G1 X190.225 Y180.993 E.03553
G1 X191.153 Y180.608 E.03553
G1 X191.959 Y180.502 E.02872
G1 X192.15 Y180.477 E.00681
G1 X193.147 Y180.608 E.03553
G1 X194.075 Y180.993 E.03553
G1 X194.873 Y181.605 E.03553
G1 X195.485 Y182.402 E.03553
G1 X195.559 Y182.58 E.00681
G1 X195.87 Y183.331 E.02872
G1 X196.001 Y184.328 E.03553
G1 X195.87 Y185.324 E.03553
G1 X195.677 Y185.789 E.01777
G1 X195.485 Y186.253 E.01777
G1 X194.873 Y187.051 E.03553
G1 X194.075 Y187.663 E.03553
G1 X193.611 Y187.855 E.01777
G1 X193.147 Y188.047 E.01777
G1 X192.15 Y188.178 E.03553
G1 X192.103 Y188.172 E.00166
G1 X192.015 Y188.622 F12000
G1 F3000
G1 X191.034 Y188.493 E.03498
G1 X189.994 Y188.062 E.03979
G1 X189.101 Y187.377 E.03979
G1 X188.416 Y186.484 E.03978
G1 X187.985 Y185.444 E.03979
G1 X187.838 Y184.328 E.03978
