; HEADER_BLOCK_START
; generated by OrcaSlicer 1.6.6 on 2023-08-27 at 23:01:43
; total layer number: 50
; HEADER_BLOCK_END

; THUMBNAIL_BLOCK_START
; THUMBNAIL_BLOCK_END

; external perimeters extrusion width = 0.40mm
; perimeters extrusion width = 0.46mm
; infill extrusion width = 0.64mm
; solid infill extrusion width = 0.56mm
; top infill extrusion width = 0.40mm
; support material extrusion width = 0.46mm
; first layer extrusion width = 0.50mm

; external perimeters extrusion width = 0.40mm
; perimeters extrusion width = 0.46mm
; infill extrusion width = 0.64mm
; solid infill extrusion width = 0.56mm
; top infill extrusion width = 0.40mm
; support material extrusion width = 0.46mm
; first layer extrusion width = 0.50mm

; EXECUTABLE_BLOCK_START
EXCLUDE_OBJECT_DEFINE NAME=filamentsensor_fixed.stl_id_0_copy_0 CENTER=165,180 POLYGON=[[147.5,173],[147.504,172.839],[147.51,172.752],[147.529,172.582],[147.541,172.507],[147.576,172.328],[147.592,172.263],[147.645,172.08],[147.663,172.026],[147.735,171.838],[147.753,171.795],[147.845,171.604],[147.862,171.573],[147.975,171.381],[147.989,171.36],[148.123,171.17],[148.133,171.158],[148.289,170.972],[148.468,170.793],[148.657,170.633],[148.669,170.624],[148.859,170.489],[148.881,170.474],[149.072,170.362],[149.104,170.345],[149.295,170.252],[149.337,170.235],[149.526,170.163],[149.579,170.145],[149.763,170.092],[149.828,170.077],[150.006,170.041],[150.082,170.03],[150.252,170.011],[150.339,170.005],[150.5,170],[179.5,170],[179.661,170.005],[179.748,170.011],[179.918,170.03],[179.994,170.041],[180.172,170.077],[180.237,170.092],[180.421,170.145],[180.474,170.163],[180.663,170.235],[180.705,170.252],[180.896,170.345],[180.928,170.362],[181.119,170.474],[181.141,170.489],[181.331,170.624],[181.343,170.633],[181.532,170.793],[181.711,170.972],[181.867,171.158],[181.877,171.17],[182.011,171.36],[182.025,171.381],[182.138,171.573],[182.155,171.604],[182.247,171.795],[182.265,171.838],[182.337,172.026],[182.355,172.08],[182.408,172.263],[182.424,172.328],[182.459,172.507],[182.471,172.582],[182.49,172.752],[182.496,172.839],[182.5,173],[182.5,187],[182.496,187.162],[182.49,187.248],[182.471,187.418],[182.459,187.494],[182.424,187.673],[182.408,187.737],[182.355,187.92],[182.337,187.974],[182.265,188.163],[182.247,188.206],[182.155,188.397],[182.138,188.428],[182.025,188.62],[182.011,188.64],[181.877,188.831],[181.867,188.843],[181.711,189.028],[181.532,189.207],[181.343,189.368],[181.331,189.377],[181.141,189.511],[181.119,189.526],[180.928,189.638],[180.896,189.655],[180.705,189.748],[180.663,189.765],[180.474,189.838],[180.421,189.856],[180.237,189.909],[180.172,189.924],[179.994,189.959],[179.918,189.97],[179.748,189.989],[179.661,189.996],[179.5,190],[150.5,190],[150.339,189.996],[150.252,189.989],[150.082,189.97],[150.006,189.959],[149.828,189.924],[149.763,189.909],[149.579,189.856],[149.526,189.838],[149.337,189.765],[149.295,189.748],[149.104,189.655],[149.072,189.638],[148.881,189.526],[148.859,189.511],[148.669,189.377],[148.657,189.368],[148.468,189.207],[148.289,189.028],[148.133,188.843],[148.123,188.831],[147.989,188.64],[147.975,188.62],[147.862,188.428],[147.845,188.397],[147.753,188.206],[147.735,188.163],[147.663,187.974],[147.645,187.92],[147.592,187.737],[147.576,187.673],[147.541,187.494],[147.529,187.418],[147.51,187.248],[147.504,187.162],[147.5,187],[147.5,173]]
EXCLUDE_OBJECT_DEFINE NAME=filamentsensor.stl_id_1_copy_0 CENTER=165,150 POLYGON=[[147.5,143],[147.504,142.838],[147.51,142.752],[147.529,142.581],[147.541,142.506],[147.576,142.327],[147.592,142.263],[147.645,142.079],[147.663,142.025],[147.735,141.837],[147.753,141.794],[147.845,141.603],[147.862,141.572],[147.975,141.38],[147.989,141.359],[148.123,141.169],[148.133,141.157],[148.289,140.971],[148.293,140.968],[148.468,140.792],[148.472,140.789],[148.657,140.632],[148.669,140.623],[148.859,140.488],[148.881,140.474],[149.072,140.361],[149.104,140.344],[149.295,140.252],[149.337,140.234],[149.526,140.162],[149.579,140.144],[149.763,140.091],[149.828,140.076],[150.006,140.04],[150.082,140.029],[150.252,140.01],[150.339,140.004],[150.5,140],[179.5,140],[179.661,140.004],[179.748,140.01],[179.918,140.029],[179.994,140.04],[180.172,140.076],[180.236,140.091],[180.421,140.144],[180.474,140.162],[180.663,140.234],[180.705,140.252],[180.896,140.344],[180.928,140.361],[181.119,140.474],[181.141,140.488],[181.331,140.623],[181.343,140.632],[181.528,140.789],[181.532,140.792],[181.707,140.968],[181.711,140.971],[181.867,141.157],[181.877,141.169],[182.011,141.359],[182.025,141.38],[182.138,141.572],[182.155,141.603],[182.247,141.794],[182.265,141.837],[182.337,142.025],[182.355,142.079],[182.408,142.263],[182.424,142.327],[182.459,142.506],[182.471,142.581],[182.49,142.752],[182.496,142.838],[182.5,143],[182.5,157],[182.496,157.161],[182.49,157.247],[182.471,157.418],[182.459,157.493],[182.424,157.672],[182.408,157.736],[182.355,157.92],[182.337,157.974],[182.265,158.162],[182.247,158.205],[182.155,158.396],[182.138,158.427],[182.025,158.619],[182.011,158.64],[181.877,158.83],[181.867,158.842],[181.711,159.028],[181.707,159.031],[181.532,159.207],[181.528,159.21],[181.343,159.367],[181.331,159.376],[181.141,159.511],[181.119,159.525],[180.928,159.638],[180.896,159.655],[180.705,159.747],[180.663,159.765],[180.474,159.837],[180.421,159.855],[180.236,159.908],[180.172,159.923],[179.994,159.959],[179.918,159.97],[179.748,159.989],[179.661,159.995],[179.5,160],[150.5,160],[150.339,159.995],[150.252,159.989],[150.082,159.97],[150.006,159.959],[149.828,159.923],[149.763,159.908],[149.579,159.855],[149.526,159.837],[149.337,159.765],[149.295,159.747],[149.104,159.655],[149.072,159.638],[148.881,159.525],[148.859,159.511],[148.669,159.376],[148.657,159.367],[148.472,159.21],[148.468,159.207],[148.293,159.031],[148.289,159.028],[148.133,158.842],[148.123,158.83],[147.989,158.64],[147.975,158.619],[147.862,158.427],[147.845,158.396],[147.753,158.205],[147.735,158.162],[147.663,157.974],[147.645,157.92],[147.592,157.736],[147.576,157.672],[147.541,157.493],[147.529,157.418],[147.51,157.247],[147.504,157.161],[147.5,157],[147.5,143]]
M73 P0 R16
;TYPE:Custom
START_PRINT T_BED=110 T_EXTRUDER=260
G90
G21
M83 ; use relative distances for extrusion
; Filament gcode
PRESSURE_ADVANCE_SELECT FILAMENT=ASA
M106 S0
;LAYER_CHANGE
;Z:0.2
;HEIGHT:0.2
;BEFORE_LAYER_CHANGE
;0.2
G92 E0

SET_VELOCITY_LIMIT ACCEL=5000 ACCEL_TO_DECEL=2500
G1 E-.5 F2400
G1 X146.232 Y138.907 F12000
G1 Z.2
G1 E.5 F1800
;TYPE:Skirt
;WIDTH:0.5
G1 F3000
G1 X147.166 Y138.116 E.04328
G1 X148.468 Y137.447 E.05173
G1 X149.888 Y137.118 E.05152
G1 X179.503 Y137.085 E1.04677
G1 X180.589 Y137.188 E.03855
G1 X181.532 Y137.447 E.03457
G1 X182.631 Y137.984 E.04325
G1 X183.415 Y138.568 E.03454
G1 X184.091 Y139.274 E.03456
G1 X184.757 Y140.292 E.04299
G1 X185.202 Y141.434 E.04331
G1 X185.382 Y142.395 E.03456
G1 X185.414 Y187 E1.57663
G1 X185.35 Y187.86 E.03046
G1 X185.202 Y188.565 E.02547
G1 X184.643 Y189.918 E.05175
G1 X183.772 Y191.088 E.05156
G1 X182.641 Y192.01 E.05157
G1 X181.306 Y192.63 E.05202
G1 X179.875 Y192.901 E.05149
G1 X150.368 Y192.912 E1.04295
G1 X148.923 Y192.699 E.05161
G1 X147.581 Y192.142 E.05137
G1 X146.402 Y191.263 E.05199
G1 X145.485 Y190.132 E.05144
G1 X144.87 Y188.805 E.05169
G1 X144.599 Y187.372 E.05158
G1 X144.586 Y143 E1.56837
G1 X144.65 Y142.139 E.03048
G1 X144.798 Y141.433 E.02551
G1 X145.357 Y140.081 E.05171
G1 X146.208 Y138.939 E.05034
G1 X146.555 Y139.23 F12000
G1 F3000
G1 X147.602 Y138.377 E.04773
G1 X148.827 Y137.806 E.04777
G1 X150.145 Y137.555 E.04743
G1 X179.503 Y137.543 E1.03768
G1 X180.495 Y137.635 E.03522
G1 X181.366 Y137.873 E.03189
G1 X182.398 Y138.377 E.04058
G1 X183.119 Y138.917 E.03187
G1 X183.743 Y139.569 E.03189
G1 X184.346 Y140.493 E.039
G1 X184.764 Y141.564 E.04063
G1 X184.928 Y142.451 E.03189
G1 X184.957 Y187 E1.57464
G1 X184.764 Y188.435 E.05116
G1 X184.25 Y189.684 E.04774
G1 X183.448 Y190.766 E.04759
G1 X182.406 Y191.617 E.04757
G1 X181.175 Y192.192 E.04801
G1 X179.855 Y192.444 E.04753
G1 X150.497 Y192.457 E1.03768
G1 X149.054 Y192.261 E.05146
G1 X147.815 Y191.75 E.0474
G1 X146.726 Y190.94 E.04795
G1 X145.878 Y189.898 E.04749
G1 X145.308 Y188.675 E.0477
G1 X145.103 Y187.799 E.03179
G1 X145.045 Y187.102 E.02472
G1 X145.043 Y143 E1.55885
G1 X145.236 Y141.564 E.05121
G1 X145.75 Y140.315 E.04772
G1 X146.531 Y139.262 E.04634
; printing object filamentsensor_fixed.stl id:0 copy 0
G1 E-.5 F2400
EXCLUDE_OBJECT_START NAME=filamentsensor_fixed.stl_id_0_copy_0
G1 X148.667 Y171.092 F12000
G1 E.5 F1800
;TYPE:Outer wall
G1 F3000
G1 X148.707 Y171.052 E.00204
G3 X150.508 Y170.35 I1.8 J1.955 E.06991
G1 X151.483 Y170.35 E.03448
G1 X179.495 Y170.35 E.99012
G3 X182.15 Y173.008 I-.002 J2.657 E.14748
G1 X182.152 Y177.504 E.15891
G2 X182.25 Y179.013 I14.283 J-.168 E.05351
G1 X182.25 Y180.987 E.06977
G2 X182.152 Y182.497 I14.137 J1.675 E.05351
G1 X182.15 Y186.993 E.15891
G3 X179.492 Y189.651 I-2.657 J0 E.14756
G1 X150.505 Y189.65 E1.0246
M73 P1 R16
G3 X147.85 Y186.993 I.002 J-2.657 E.14744
G1 X147.849 Y181.499 E.19421
G2 X147.811 Y180 I-42.899 J.34 E.05298
G2 X147.849 Y178.502 I-42.985 J-1.841 E.05298
G1 X147.85 Y173.008 E.19421
G3 X148.414 Y171.37 I2.657 J-.001 E.06235
G1 X148.64 Y171.122 E.01186
G1 X149.002 Y171.401 F12000
;TYPE:Inner wall
G1 F3000
G1 X149.017 Y171.388 E.00071
G3 X150.518 Y170.807 I1.49 J1.619 E.05822
G1 X151.483 Y170.807 E.03412
G1 X179.485 Y170.807 E.98976
G3 X181.693 Y173.017 I.008 J2.2 E.12279
G1 X181.695 Y177.694 E.1653
G2 X181.695 Y182.306 I-2.742 J2.306 E.61854
G1 X181.693 Y186.984 E.16533
G3 X179.482 Y189.193 I-2.2 J.01 E.12287
G1 X150.515 Y189.193 E1.02388
G3 X148.307 Y186.984 I-.008 J-2.2 E.12276
G1 X148.306 Y182.219 E.16841
G1 X148.494 Y182.157 E.00699
G2 X148.494 Y177.843 I2.858 J-2.156 E.63158
G1 X148.306 Y177.781 E.007
G1 X148.307 Y173.017 E.1684
G3 X148.774 Y171.651 I2.2 J-.01 E.05199
G1 X148.975 Y171.43 E.01055
G1 X149.327 Y171.724 F12000
G1 F3000
G3 X150.528 Y171.264 I1.18 J1.283 E.04654
G1 X151.483 Y171.264 E.03376
G1 X179.475 Y171.264 E.9894
G3 X181.236 Y173.027 I.018 J1.743 E.09811
G1 X181.238 Y176.66 E.12841
G2 X181.238 Y183.34 I-2.28 J3.34 E.62028
G1 X181.236 Y186.974 E.12844
G3 X179.472 Y188.736 I-1.743 J.019 E.09819
G1 X150.525 Y188.736 E1.02316
G3 X148.764 Y186.974 I-.018 J-1.743 E.09808
G1 X148.763 Y183.102 E.13687
G2 X148.763 Y176.898 I2.588 J-3.102 E.64707
G1 X148.764 Y173.026 E.13687
G3 X149.298 Y171.751 I1.743 J-.019 E.05024
G1 E-.5 F2400
G1 X154.134 Y177.943 F12000
G1 X154.306 Y178.199
G1 X154.457 Y178.474
G1 X154.586 Y178.77
G1 X154.682 Y179.063
G1 X154.754 Y179.376
G1 X154.798 Y179.689
G1 X154.809 Y179.961
G1 X154.474 Y179.975
G1 E.5 F1800
;TYPE:Outer wall
G1 F3000
G1 X154.475 Y180.004 E.00102
G3 X148.386 Y180.968 I-3.122 J-.007 E.31149
G3 X148.28 Y179.594 I3.986 J-.998 E.04894
G3 X151.14 Y176.882 I3.034 J.336 E.15143
G3 X154.462 Y179.719 I.213 J3.115 E.17105
G1 X154.472 Y179.935 E.00764
G1 E-.5 F2400
G1 X154.808 Y179.921 F12000
G1 X178.405 Y176.582
G1 X178.716 Y176.547
G1 X179.025 Y176.539
G1 X179.347 Y176.561
G1 X179.658 Y176.612
G1 X179.962 Y176.692
G1 X180.208 Y176.903
G1 X180.432 Y177.132
G1 X181.596 Y178.388
G1 E.5 F1800
G1 F3000
G1 X181.599 Y178.408 E.00071
G3 X181.783 Y178.941 I-2.077 J1.014 E.02
G3 X181.785 Y181.052 I-2.821 J1.058 E.07624
G3 X181.461 Y181.841 I-2.109 J-.407 E.03033
G3 X178.74 Y176.882 I-2.518 J-1.845 E.44286
G3 X181.081 Y177.715 I.199 J3.147 E.09029
G3 X181.459 Y178.16 I-1.559 J1.707 E.0207
G1 X181.575 Y178.353 E.00796
G1 X181.782 Y178.173 F12000
;TYPE:Gap infill
;WIDTH:0.154283
G1 F3000
G1 X181.858 Y178.273 E.00108
;WIDTH:0.149631
G3 X181.919 Y178.44 I-.243 J.183 E.00149
;WIDTH:0.102921
G1 X181.947 Y178.559 E.00057
G1 X181.782 Y178.173 F12000
;WIDTH:0.128602
G1 F3000
G1 X181.706 Y178.073 E.00083
G1 E-.5 F2400
G1 X181.947 Y181.441 F12000
G1 E.5 F1800
;WIDTH:0.10292
G1 F3000
G1 X181.919 Y181.56 E.00057
;WIDTH:0.148226
G3 X181.862 Y181.721 I-.283 J-.008 E.00141
;WIDTH:0.156357
G1 X181.784 Y181.824 E.00113
;WIDTH:0.129639
G1 X181.706 Y181.927 E.00087
G1 E-.5 F2400
G1 X181.806 Y172.811 F12000
G1 X181.033 Y172.57
G1 E.5 F1800
;TYPE:Bottom surface
;WIDTH:0.503785
G1 F6300
G1 X180.441 Y171.977 E.02985
G2 X179.418 Y171.607 I-.996 J1.152 E.03964
G1 X180.893 Y173.082 E.07434
G1 X180.893 Y173.734 E.02324
G1 X178.766 Y171.607 E.1072
G1 X178.115 Y171.607 E.02323
G1 X180.894 Y174.386 E.14007
G1 X180.894 Y175.038 E.02324
G1 X177.463 Y171.607 E.17293
G1 X176.811 Y171.607 E.02323
G1 X180.894 Y175.69 E.2058
G1 X180.894 Y176.074 E.0137
G2 X180.432 Y175.879 I-1.301 J2.439 E.01792
G1 X176.159 Y171.607 E.21533
G1 X175.508 Y171.607 E.02323
G1 X179.564 Y175.663 E.20447
G2 X178.871 Y175.621 I-.623 J4.54 E.02479
G1 X174.856 Y171.607 E.20235
G1 X174.204 Y171.607 E.02323
G1 X178.268 Y175.67 E.20482
G2 X177.737 Y175.792 I1.236 J6.625 E.0194
G1 X173.552 Y171.607 E.21094
G1 X172.9 Y171.607 E.02323
G1 X177.255 Y175.962 E.21949
G2 X176.816 Y176.173 I.954 J2.543 E.01742
G1 X172.249 Y171.607 E.23018
G1 X171.597 Y171.607 E.02323
G1 X176.415 Y176.425 E.24284
G2 X176.052 Y176.714 I1.328 J2.04 E.01655
G1 X170.945 Y171.607 E.2574
G1 X170.293 Y171.607 E.02323
G1 X175.724 Y177.037 E.27372
G2 X175.43 Y177.395 I1.877 J1.844 E.01652
G1 X169.642 Y171.607 E.29174
G1 X168.99 Y171.607 E.02323
G1 X175.171 Y177.787 E.31151
G2 X174.948 Y178.216 I2.254 J1.444 E.01725
G1 X168.338 Y171.607 E.33312
G1 X167.686 Y171.607 E.02323
G1 X174.769 Y178.69 E.35699
G2 X174.642 Y179.214 I2.824 J.964 E.01926
G1 X167.035 Y171.607 E.38342
G1 X166.383 Y171.607 E.02323
G1 X174.571 Y179.796 E.41273
G2 X174.596 Y180.471 I3.719 J.203 E.0241
G1 X165.731 Y171.607 E.44678
G1 X165.079 Y171.607 E.02323
G1 X175.107 Y181.634 E.50538
G1 E-.5 F2400
G1 X180.577 Y183.846 F12000
G1 E.5 F1800
G1 F6300
G1 X180.893 Y184.161 E.01592
G1 X180.891 Y184.812 E.02318
M73 P2 R16
G1 X180.261 Y184.181 E.03176
G3 X179.737 Y184.309 I-1.677 J-5.765 E.01924
G1 X180.89 Y185.462 E.05812
G1 X180.889 Y186.112 E.02318
G1 X179.152 Y184.376 E.08752
G3 X178.478 Y184.353 I-.184 J-4.621 E.02406
G1 X180.887 Y186.762 E.12142
G3 X180.838 Y187.365 I-1.78 J.157 E.02164
G1 X177.312 Y183.839 E.17768
G1 E-.5 F2400
G1 X180.776 Y187.955 F12000
G1 E.5 F1800
G1 F6300
G1 X164.428 Y171.607 E.82399
G1 X163.776 Y171.607 E.02323
G1 X180.295 Y188.126 E.8326
G1 X180.16 Y188.223 E.00593
G1 X179.858 Y188.34 E.01155
G1 X163.124 Y171.607 E.84339
G1 X162.472 Y171.607 E.02323
G1 X179.259 Y188.394 E.84608
G1 X178.608 Y188.394 E.02323
G1 X161.821 Y171.607 E.84608
G1 X161.169 Y171.607 E.02323
G1 X177.956 Y188.394 E.84608
G1 X177.304 Y188.394 E.02323
G1 X160.517 Y171.606 E.84608
G1 X159.865 Y171.606 E.02323
G1 X176.652 Y188.394 E.84608
G1 X176 Y188.394 E.02323
G1 X159.213 Y171.606 E.84608
G1 X158.562 Y171.606 E.02323
G1 X175.349 Y188.394 E.84608
G1 X174.697 Y188.394 E.02323
G1 X157.91 Y171.606 E.84608
G1 X157.258 Y171.606 E.02323
G1 X174.045 Y188.394 E.84608
G1 X173.393 Y188.394 E.02323
G1 X156.606 Y171.606 E.84608
G1 X155.955 Y171.606 E.02323
G1 X172.742 Y188.394 E.84608
G1 X172.09 Y188.394 E.02323
G1 X155.303 Y171.606 E.84608
G1 X154.651 Y171.606 E.02323
G1 X171.438 Y188.394 E.84608
G1 X170.786 Y188.394 E.02323
G1 X153.999 Y171.606 E.84608
G1 X153.348 Y171.606 E.02323
G1 X170.135 Y188.394 E.84608
G1 X169.483 Y188.394 E.02323
G1 X152.696 Y171.606 E.84608
G1 X152.044 Y171.606 E.02323
G1 X168.831 Y188.394 E.84608
G1 X168.179 Y188.394 E.02323
G1 X151.393 Y171.607 E.84605
G1 X150.745 Y171.611 E.02307
G1 X167.528 Y188.394 E.84583
G1 X166.876 Y188.394 E.02323
G1 X150.14 Y171.658 E.84349
G2 X149.698 Y171.868 I.439 J1.497 E.01751
G1 X166.224 Y188.394 E.83292
G1 X165.572 Y188.393 E.02323
G1 X155.315 Y178.136 E.51699
G2 X153.218 Y176.039 I-3.974 J1.877 E.10781
G1 X149.375 Y172.196 E.19366
G2 X149.163 Y172.636 I.845 J.679 E.01754
G1 X152.234 Y175.707 E.1548
G2 X151.496 Y175.621 I-.839 J3.963 E.02653
G1 X149.107 Y173.232 E.12041
G1 X149.107 Y173.883 E.02322
G1 X150.871 Y175.647 E.08892
G2 X150.314 Y175.743 I.247 J3.119 E.02015
G1 X149.107 Y174.535 E.06088
G1 X149.106 Y175.186 E.02322
