; HEADER_BLOCK_START
; generated by OrcaSlicer 1.7.0-beta on 2023-10-03 at 12:40:09
; total layer number: 2
; HEADER_BLOCK_END

; THUMBNAIL_BLOCK_START
; THUMBNAIL_BLOCK_END

; external perimeters extrusion width = 0.40mm
; perimeters extrusion width = 0.46mm
; infill extrusion width = 0.64mm
; solid infill extrusion width = 0.56mm
; top infill extrusion width = 0.40mm
; first layer extrusion width = 0.50mm

; EXECUTABLE_BLOCK_START
EXCLUDE_OBJECT_DEFINE NAME=First_Layer_Square_0.2_1_.stl_id_0_copy_0 CENTER=160,153 POLYGON=[[103.75,96.75],[216.25,96.75],[216.25,209.25],[103.75,209.25],[103.75,96.75]]
M73 P0 R11
;TYPE:Custom
START_PRINT T_BED=60 T_EXTRUDER=220
G90
G21
M83 ; use relative distances for extrusion
; filament start gcode

    PRESSURE_ADVANCE_SELECT FILAMENT=PLA
M106 S0
;LAYER_CHANGE
;Z:0.2
;HEIGHT:0.2
;BEFORE_LAYER_CHANGE
;0.2
G92 E0

G1 E-.8 F1800
;_SET_FAN_SPEED_CHANGING_LAYER
SET_VELOCITY_LIMIT ACCEL=2000 ACCEL_TO_DECEL=1000
G1 X101.229 Y95.288 F36000
G1 Z.2
G1 E.8 F1800
;TYPE:Skirt
;WIDTH:0.5
G1 F3000
G1 X102.302 Y94.221 E.05638
G1 X103.75 Y93.836 E.0558
G1 X216.25 Y93.836 E4.1902
G1 X217.712 Y94.229 E.05638
G1 X218.779 Y95.302 E.05638
G1 X219.164 Y96.75 E.0558
G1 X219.164 Y209.25 E4.1902
G1 X218.771 Y210.712 E.05638
G1 X217.698 Y211.779 E.05638
G1 X216.25 Y212.164 E.0558
G1 X103.75 Y212.164 E4.1902
M73 P1 R11
G1 X102.288 Y211.771 E.05638
G1 X101.221 Y210.698 E.05638
G1 X100.836 Y209.25 E.0558
G1 X100.836 Y96.75 E4.1902
G1 X101.219 Y95.327 E.05489
G1 X101.673 Y95.46 F36000
G1 F3000
G1 X101.685 Y95.419 E.00162
G1 X102.735 Y94.512 E.05169
G1 X103.75 Y94.293 E.03866
G1 X216.25 Y94.293 E4.1902
G1 X217.581 Y94.685 E.05169
G1 X218.488 Y95.735 E.05169
G1 X218.707 Y96.75 E.03866
G1 X218.707 Y209.25 E4.1902
M73 P2 R11
G1 X218.315 Y210.581 E.05169
G1 X217.265 Y211.488 E.05169
G1 X216.25 Y211.707 E.03866
G1 X103.75 Y211.707 E4.1902
G1 X102.419 Y211.315 E.05169
G1 X101.512 Y210.265 E.05169
G1 X101.293 Y209.25 E.03866
G1 X101.293 Y96.75 E4.1902
G1 X101.661 Y95.499 E.04858
; printing object First_Layer_Square_0.2(1).stl id:0 copy 0
G1 E-.56 F1800
;WIPE_START
G1 F3000
G1 X101.685 Y95.419 E-.02003
G1 X102.379 Y94.82 E-.21997
;WIPE_END
EXCLUDE_OBJECT_START NAME=First_Layer_Square_0.2_1_.stl_id_0_copy_0
G1 X215.9 Y208.9 F36000
M73 P3 R11
G1 E.8 F1800
;TYPE:Outer wall
G1 F3000
G1 X104.1 Y208.9 E4.16413
G1 X104.1 Y97.1 E4.16413
G1 X215.9 Y97.1 E4.16413
G1 X215.9 Y208.892 E4.16383
M73 P4 R11
G1 X215.443 Y208.443 F36000
;TYPE:Inner wall
G1 F3000
G1 X104.557 Y208.443 E4.13008
G1 X104.557 Y97.557 E4.13008
G1 X215.443 Y97.557 E4.13008
M73 P5 R10
G1 X215.443 Y208.435 E4.12978
G1 X214.986 Y207.986 F36000
G1 F3000
G1 X105.014 Y207.986 E4.09603
G1 X105.014 Y98.014 E4.09603
M73 P6 R10
G1 X214.986 Y98.014 E4.09603
G1 X214.986 Y207.978 E4.09573
G1 X214.529 Y207.529 F36000
G1 F3000
G1 X105.471 Y207.529 E4.06198
M73 P7 R10
G1 X105.471 Y98.471 E4.06198
G1 X214.529 Y98.471 E4.06198
G1 X214.529 Y207.521 E4.06168
M73 P8 R10
G1 E-.8 F1800
G1 X213.466 Y98.608 F36000
G1 E.8 F1800
;TYPE:Bottom surface
;WIDTH:0.500977
G1 F6300
G1 X214.186 Y99.329 E.03803
G1 X214.186 Y99.976 E.02418
G1 X213.024 Y98.814 E.06136
G1 X212.376 Y98.814 E.02418
G1 X214.186 Y100.624 E.09556
G1 X214.186 Y101.272 E.02418
G1 X211.728 Y98.814 E.12975
G1 X211.08 Y98.814 E.02418
G1 X214.186 Y101.92 E.16395
G1 X214.186 Y102.568 E.02418
G1 X210.432 Y98.814 E.19814
G1 X209.785 Y98.814 E.02418
G1 X214.186 Y103.215 E.23234
G1 X214.186 Y103.863 E.02418
G1 X209.137 Y98.814 E.26653
G1 X208.489 Y98.814 E.02418
G1 X214.186 Y104.511 E.30073
G1 X214.186 Y105.159 E.02418
G1 X207.841 Y98.814 E.33492
G1 X207.193 Y98.814 E.02418
G1 X214.186 Y105.807 E.36912
G1 X214.186 Y106.454 E.02418
G1 X206.546 Y98.814 E.40331
G1 X205.898 Y98.814 E.02418
G1 X214.186 Y107.102 E.4375
G1 X214.186 Y107.75 E.02418
G1 X205.25 Y98.814 E.4717
G1 X204.602 Y98.814 E.02418
G1 X214.186 Y108.398 E.50589
G1 X214.186 Y109.046 E.02418
G1 X203.954 Y98.814 E.54009
G1 X203.307 Y98.814 E.02418
G1 X214.186 Y109.693 E.57428
G1 X214.186 Y110.341 E.02418
G1 X202.659 Y98.814 E.60848
G1 X202.011 Y98.814 E.02418
G1 X214.186 Y110.989 E.64267
G1 X214.186 Y111.637 E.02418
G1 X201.363 Y98.814 E.67687
G1 X200.715 Y98.814 E.02418
G1 X214.186 Y112.285 E.71106
G1 X214.186 Y112.932 E.02418
G1 X200.068 Y98.814 E.74526
G1 X199.42 Y98.814 E.02418
G1 X214.186 Y113.58 E.77945
G1 X214.186 Y114.228 E.02418
G1 X198.772 Y98.814 E.81365
G1 X198.124 Y98.814 E.02418
G1 X214.186 Y114.876 E.84784
G1 X214.186 Y115.523 E.02418
G1 X197.477 Y98.814 E.88204
M73 P9 R10
G1 X196.829 Y98.814 E.02418
G1 X214.186 Y116.171 E.91623
G1 X214.186 Y116.819 E.02418
G1 X196.181 Y98.814 E.95043
G1 X195.533 Y98.814 E.02418
G1 X214.186 Y117.467 E.98462
G1 X214.186 Y118.115 E.02418
G1 X194.885 Y98.814 E1.01882
G1 X194.238 Y98.814 E.02418
G1 X214.186 Y118.762 E1.05301
G1 X214.186 Y119.41 E.02418
G1 X193.59 Y98.814 E1.0872
G1 X192.942 Y98.814 E.02418
G1 X214.186 Y120.058 E1.1214
G1 X214.186 Y120.706 E.02418
G1 X192.294 Y98.814 E1.15559
G1 X191.646 Y98.814 E.02418
G1 X214.186 Y121.354 E1.18979
G1 X214.186 Y122.001 E.02418
G1 X190.999 Y98.814 E1.22398
G1 X190.351 Y98.814 E.02418
G1 X214.186 Y122.649 E1.25818
G1 X214.186 Y123.297 E.02418
G1 X189.703 Y98.814 E1.29237
G1 X189.055 Y98.814 E.02418
G1 X214.186 Y123.945 E1.32657
G1 X214.186 Y124.593 E.02418
G1 X188.407 Y98.814 E1.36076
G1 X187.76 Y98.814 E.02418
G1 X214.186 Y125.24 E1.39496
G1 X214.186 Y125.888 E.02418
G1 X187.112 Y98.814 E1.42915
G1 X186.464 Y98.814 E.02418
G1 X214.186 Y126.536 E1.46335
G1 X214.186 Y127.184 E.02418
G1 X185.816 Y98.814 E1.49754
M73 P10 R10
G1 X185.169 Y98.814 E.02418
G1 X214.186 Y127.831 E1.53174
G1 X214.186 Y128.479 E.02418
G1 X184.521 Y98.814 E1.56593
G1 X183.873 Y98.814 E.02418
G1 X214.186 Y129.127 E1.60013
G1 X214.186 Y129.775 E.02418
G1 X183.225 Y98.814 E1.63432
G1 X182.577 Y98.814 E.02418
G1 X214.186 Y130.423 E1.66851
G1 X214.186 Y131.07 E.02418
G1 X181.93 Y98.814 E1.70271
G1 X181.282 Y98.814 E.02418
G1 X214.186 Y131.718 E1.7369
G1 X214.186 Y132.366 E.02418
G1 X180.634 Y98.814 E1.7711
G1 X179.986 Y98.814 E.02418
G1 X214.186 Y133.014 E1.80529
G1 X214.186 Y133.662 E.02418
G1 X179.338 Y98.814 E1.83949
G1 X178.691 Y98.814 E.02418
G1 X214.186 Y134.309 E1.87368
G1 X214.186 Y134.957 E.02418
G1 X178.043 Y98.814 E1.90788
G1 X177.395 Y98.814 E.02418
G1 X214.186 Y135.605 E1.94207
M73 P11 R10
G1 X214.186 Y136.253 E.02418
G1 X176.747 Y98.814 E1.97627
G1 X176.099 Y98.814 E.02418
G1 X214.186 Y136.901 E2.01046
G1 X214.186 Y137.548 E.02418
G1 X175.452 Y98.814 E2.04466
G1 X174.804 Y98.814 E.02418
G1 X214.186 Y138.196 E2.07885
G1 X214.186 Y138.844 E.02418
G1 X174.156 Y98.814 E2.11305
G1 X173.508 Y98.814 E.02418
G1 X214.186 Y139.492 E2.14724
G1 X214.186 Y140.14 E.02418
G1 X172.86 Y98.814 E2.18144
G1 X172.213 Y98.814 E.02418
G1 X214.186 Y140.787 E2.21563
G1 X214.186 Y141.435 E.02418
G1 X171.565 Y98.814 E2.24983
G1 X170.917 Y98.814 E.02418
G1 X214.186 Y142.083 E2.28402
G1 X214.186 Y142.731 E.02418
G1 X170.269 Y98.814 E2.31821
M73 P12 R10
G1 X169.622 Y98.814 E.02418
G1 X214.186 Y143.378 E2.35241
G1 X214.186 Y144.026 E.02418
G1 X168.974 Y98.814 E2.3866
G1 X168.326 Y98.814 E.02418
G1 X214.186 Y144.674 E2.4208
G1 X214.186 Y145.322 E.02418
G1 X167.678 Y98.814 E2.45499
G1 X167.03 Y98.814 E.02418
G1 X214.186 Y145.97 E2.48919
G1 X214.186 Y146.617 E.02418
G1 X166.383 Y98.814 E2.52338
G1 X165.735 Y98.814 E.02418
G1 X214.186 Y147.265 E2.55758
G1 X214.186 Y147.913 E.02418
G1 X165.087 Y98.814 E2.59177
G1 X164.439 Y98.814 E.02418
G1 X214.186 Y148.561 E2.62597
G1 X214.186 Y149.209 E.02418
G1 X163.791 Y98.814 E2.66016
M73 P13 R10
G1 X163.144 Y98.814 E.02418
G1 X214.186 Y149.856 E2.69436
G1 X214.186 Y150.504 E.02418
G1 X162.496 Y98.814 E2.72855
G1 X161.848 Y98.814 E.02418
G1 X214.186 Y151.152 E2.76275
G1 X214.186 Y151.8 E.02418
G1 X161.2 Y98.814 E2.79694
G1 X160.552 Y98.814 E.02418
G1 X214.186 Y152.448 E2.83114
G1 X214.186 Y153.095 E.02418
G1 X159.905 Y98.814 E2.86533
G1 X159.257 Y98.814 E.02418
G1 X214.186 Y153.743 E2.89952
M73 P13 R9
G1 X214.186 Y154.391 E.02418
G1 X158.609 Y98.814 E2.93372
M73 P14 R9
G1 X157.961 Y98.814 E.02418
G1 X214.186 Y155.039 E2.96791
G1 X214.186 Y155.686 E.02418
G1 X157.314 Y98.814 E3.00211
G1 X156.666 Y98.814 E.02418
G1 X214.186 Y156.334 E3.0363
G1 X214.186 Y156.982 E.02418
G1 X156.018 Y98.814 E3.0705
G1 X155.37 Y98.814 E.02418
G1 X214.186 Y157.63 E3.10469
G1 X214.186 Y158.278 E.02418
G1 X154.722 Y98.814 E3.13889
G1 X154.075 Y98.814 E.02418
G1 X214.186 Y158.925 E3.17308
G1 X214.186 Y159.573 E.02418
G1 X153.427 Y98.814 E3.20728
M73 P15 R9
G1 X152.779 Y98.814 E.02418
G1 X214.186 Y160.221 E3.24147
G1 X214.186 Y160.869 E.02418
G1 X152.131 Y98.814 E3.27567
G1 X151.483 Y98.814 E.02418
G1 X214.186 Y161.517 E3.30986
G1 X214.186 Y162.164 E.02418
G1 X150.836 Y98.814 E3.34406
G1 X150.188 Y98.814 E.02418
G1 X214.186 Y162.812 E3.37825
G1 X214.186 Y163.46 E.02418
G1 X149.54 Y98.814 E3.41245
G1 X148.892 Y98.814 E.02418
G1 X214.186 Y164.108 E3.44664
G1 X214.186 Y164.756 E.02418
G1 X148.244 Y98.814 E3.48084
M73 P16 R9
G1 X147.597 Y98.814 E.02418
G1 X214.186 Y165.403 E3.51503
G1 X214.186 Y166.051 E.02418
G1 X146.949 Y98.814 E3.54922
G1 X146.301 Y98.814 E.02418
G1 X214.186 Y166.699 E3.58342
G1 X214.186 Y167.347 E.02418
G1 X145.653 Y98.814 E3.61761
G1 X145.006 Y98.814 E.02418
G1 X214.186 Y167.994 E3.65181
G1 X214.186 Y168.642 E.02418
G1 X144.358 Y98.814 E3.686
G1 X143.71 Y98.814 E.02418
G1 X214.186 Y169.29 E3.7202
M73 P17 R9
G1 X214.186 Y169.938 E.02418
G1 X143.062 Y98.814 E3.75439
G1 X142.414 Y98.814 E.02418
G1 X214.186 Y170.586 E3.78859
G1 X214.186 Y171.233 E.02418
G1 X141.767 Y98.814 E3.82278
G1 X141.119 Y98.814 E.02418
G1 X214.186 Y171.881 E3.85698
G1 X214.186 Y172.529 E.02418
G1 X140.471 Y98.814 E3.89117
G1 X139.823 Y98.814 E.02418
G1 X214.186 Y173.177 E3.92537
M73 P18 R9
G1 X214.186 Y173.825 E.02418
G1 X139.175 Y98.814 E3.95956
G1 X138.528 Y98.814 E.02418
G1 X214.186 Y174.472 E3.99376
G1 X214.186 Y175.12 E.02418
G1 X137.88 Y98.814 E4.02795
G1 X137.232 Y98.814 E.02418
G1 X214.186 Y175.768 E4.06215
G1 X214.186 Y176.416 E.02418
G1 X136.584 Y98.814 E4.09634
G1 X135.936 Y98.814 E.02418
G1 X214.186 Y177.064 E4.13053
M73 P19 R9
G1 X214.186 Y177.711 E.02418
G1 X135.289 Y98.814 E4.16473
G1 X134.641 Y98.814 E.02418
G1 X214.186 Y178.359 E4.19892
G1 X214.186 Y179.007 E.02418
G1 X133.993 Y98.814 E4.23312
G1 X133.345 Y98.814 E.02418
G1 X214.186 Y179.655 E4.26731
G1 X214.186 Y180.303 E.02418
G1 X132.697 Y98.814 E4.30151
G1 X132.05 Y98.814 E.02418
G1 X214.186 Y180.95 E4.3357
M73 P20 R9
G1 X214.186 Y181.598 E.02418
G1 X131.402 Y98.814 E4.3699
G1 X130.754 Y98.814 E.02418
G1 X214.186 Y182.246 E4.40409
G1 X214.186 Y182.894 E.02418
G1 X130.106 Y98.814 E4.43829
G1 X129.459 Y98.814 E.02418
G1 X214.186 Y183.541 E4.47248
G1 X214.186 Y184.189 E.02418
G1 X128.811 Y98.814 E4.50668
G1 X128.163 Y98.814 E.02418
G1 X214.186 Y184.837 E4.54087
M73 P21 R9
G1 X214.186 Y185.485 E.02418
G1 X127.515 Y98.814 E4.57507
G1 X126.867 Y98.814 E.02418
G1 X214.186 Y186.133 E4.60926
G1 X214.186 Y186.78 E.02418
G1 X126.22 Y98.814 E4.64346
G1 X125.572 Y98.814 E.02418
G1 X214.186 Y187.428 E4.67765
G1 X214.186 Y188.076 E.02418
G1 X124.924 Y98.814 E4.71185
G1 X124.276 Y98.814 E.02418
G1 X214.186 Y188.724 E4.74604
M73 P22 R9
G1 X214.186 Y189.372 E.02418
G1 X123.628 Y98.814 E4.78023
G1 X122.981 Y98.814 E.02418
G1 X214.186 Y190.019 E4.81443
M73 P22 R8
G1 X214.186 Y190.667 E.02418
G1 X122.333 Y98.814 E4.84862
G1 X121.685 Y98.814 E.02418
G1 X214.186 Y191.315 E4.88282
G1 X214.186 Y191.963 E.02418
G1 X121.037 Y98.814 E4.91701
M73 P23 R8
G1 X120.389 Y98.814 E.02418
G1 X214.186 Y192.611 E4.95121
G1 X214.186 Y193.258 E.02418
G1 X119.742 Y98.814 E4.9854
G1 X119.094 Y98.814 E.02418
G1 X214.186 Y193.906 E5.0196
G1 X214.186 Y194.554 E.02418
G1 X118.446 Y98.814 E5.05379
G1 X117.798 Y98.814 E.02418
G1 X214.186 Y195.202 E5.08799
M73 P24 R8
G1 X214.186 Y195.849 E.02418
G1 X117.151 Y98.814 E5.12218
G1 X116.503 Y98.814 E.02418
G1 X214.186 Y196.497 E5.15638
G1 X214.186 Y197.145 E.02418
G1 X115.855 Y98.814 E5.19057
G1 X115.207 Y98.814 E.02418
G1 X214.186 Y197.793 E5.22477
G1 X214.186 Y198.441 E.02418
G1 X114.559 Y98.814 E5.25896
M73 P25 R8
G1 X113.912 Y98.814 E.02418
G1 X214.186 Y199.088 E5.29316
G1 X214.186 Y199.736 E.02418
G1 X113.264 Y98.814 E5.32735
G1 X112.616 Y98.814 E.02418
G1 X214.186 Y200.384 E5.36155
G1 X214.186 Y201.032 E.02418
G1 X111.968 Y98.814 E5.39574
G1 X111.32 Y98.814 E.02418
G1 X214.186 Y201.68 E5.42993
M73 P26 R8
G1 X214.186 Y202.327 E.02418
G1 X110.673 Y98.814 E5.46413
G1 X110.025 Y98.814 E.02418
G1 X214.186 Y202.975 E5.49832
G1 X214.186 Y203.623 E.02418
G1 X109.377 Y98.814 E5.53252
G1 X108.729 Y98.814 E.02418
G1 X214.186 Y204.271 E5.56671
M73 P27 R8
G1 X214.186 Y204.919 E.02418
G1 X108.081 Y98.814 E5.60091
G1 X107.434 Y98.814 E.02418
G1 X214.186 Y205.566 E5.6351
G1 X214.186 Y206.214 E.02418
G1 X106.786 Y98.814 E5.6693
G1 X106.138 Y98.814 E.02418
G1 X214.186 Y206.862 E5.70349
G1 X214.186 Y207.186 E.0121
G1 X213.862 Y207.186 E.01208
G1 X105.814 Y99.138 E5.70351
M73 P28 R8
G1 X105.814 Y99.786 E.02418
G1 X213.214 Y207.186 E5.66931
G1 X212.567 Y207.186 E.02418
G1 X105.814 Y100.433 E5.63512
G1 X105.814 Y101.081 E.02418
G1 X211.919 Y207.186 E5.60092
G1 X211.271 Y207.186 E.02418
G1 X105.814 Y101.729 E5.56673
M73 P29 R8
G1 X105.814 Y102.377 E.02418
G1 X210.623 Y207.186 E5.53253
G1 X209.975 Y207.186 E.02418
G1 X105.814 Y103.025 E5.49834
G1 X105.814 Y103.672 E.02418
G1 X209.328 Y207.186 E5.46415
G1 X208.68 Y207.186 E.02418
G1 X105.814 Y104.32 E5.42995
G1 X105.814 Y104.968 E.02418
G1 X208.032 Y207.186 E5.39576
M73 P30 R8
G1 X207.384 Y207.186 E.02418
G1 X105.814 Y105.616 E5.36156
G1 X105.814 Y106.263 E.02418
G1 X206.737 Y207.186 E5.32737
G1 X206.089 Y207.186 E.02418
G1 X105.814 Y106.911 E5.29317
G1 X105.814 Y107.559 E.02418
G1 X205.441 Y207.186 E5.25898
G1 X204.793 Y207.186 E.02418
G1 X105.814 Y108.207 E5.22478
M73 P31 R7
G1 X105.814 Y108.855 E.02418
G1 X204.145 Y207.186 E5.19059
G1 X203.498 Y207.186 E.02418
G1 X105.814 Y109.502 E5.15639
G1 X105.814 Y110.15 E.02418
G1 X202.85 Y207.186 E5.1222
G1 X202.202 Y207.186 E.02418
G1 X105.814 Y110.798 E5.088
G1 X105.814 Y111.446 E.02418
G1 X201.554 Y207.186 E5.05381
M73 P32 R7
G1 X200.906 Y207.186 E.02418
G1 X105.814 Y112.094 E5.01961
G1 X105.814 Y112.741 E.02418
G1 X200.259 Y207.186 E4.98542
G1 X199.611 Y207.186 E.02418
G1 X105.814 Y113.389 E4.95122
G1 X105.814 Y114.037 E.02418
G1 X198.963 Y207.186 E4.91703
G1 X198.315 Y207.186 E.02418
G1 X105.814 Y114.685 E4.88284
M73 P33 R7
G1 X105.814 Y115.333 E.02418
G1 X197.667 Y207.186 E4.84864
G1 X197.02 Y207.186 E.02418
G1 X105.814 Y115.98 E4.81445
G1 X105.814 Y116.628 E.02418
G1 X196.372 Y207.186 E4.78025
G1 X195.724 Y207.186 E.02418
G1 X105.814 Y117.276 E4.74606
G1 X105.814 Y117.924 E.02418
G1 X195.076 Y207.186 E4.71186
M73 P34 R7
G1 X194.429 Y207.186 E.02418
G1 X105.814 Y118.571 E4.67767
G1 X105.814 Y119.219 E.02418
G1 X193.781 Y207.186 E4.64347
G1 X193.133 Y207.186 E.02418
G1 X105.814 Y119.867 E4.60928
G1 X105.814 Y120.515 E.02418
G1 X192.485 Y207.186 E4.57508
G1 X191.837 Y207.186 E.02418
G1 X105.814 Y121.163 E4.54089
G1 X105.814 Y121.81 E.02418
G1 X191.19 Y207.186 E4.50669
M73 P35 R7
G1 X190.542 Y207.186 E.02418
G1 X105.814 Y122.458 E4.4725
G1 X105.814 Y123.106 E.02418
G1 X189.894 Y207.186 E4.4383
G1 X189.246 Y207.186 E.02418
G1 X105.814 Y123.754 E4.40411
G1 X105.814 Y124.402 E.02418
G1 X188.598 Y207.186 E4.36991
G1 X187.951 Y207.186 E.02418
G1 X105.814 Y125.049 E4.33572
G1 X105.814 Y125.697 E.02418
G1 X187.303 Y207.186 E4.30152
M73 P36 R7
G1 X186.655 Y207.186 E.02418
G1 X105.814 Y126.345 E4.26733
G1 X105.814 Y126.993 E.02418
G1 X186.007 Y207.186 E4.23314
G1 X185.359 Y207.186 E.02418
G1 X105.814 Y127.641 E4.19894
G1 X105.814 Y128.288 E.02418
G1 X184.712 Y207.186 E4.16475
G1 X184.064 Y207.186 E.02418
G1 X105.814 Y128.936 E4.13055
G1 X105.814 Y129.584 E.02418
M73 P37 R7
G1 X183.416 Y207.186 E4.09636
G1 X182.768 Y207.186 E.02418
G1 X105.814 Y130.232 E4.06216
G1 X105.814 Y130.88 E.02418
G1 X182.12 Y207.186 E4.02797
G1 X181.473 Y207.186 E.02418
G1 X105.814 Y131.527 E3.99377
