; generated by SuperSlicer 2.5.59 on 2023-04-26 at 22:39:37 UTC


;
;

;
;
; 

; external perimeters extrusion width = 0.40mm
; perimeters extrusion width = 0.46mm
; infill extrusion width = 0.64mm
; solid infill extrusion width = 0.56mm
; top infill extrusion width = 0.40mm
; support material extrusion width = 0.46mm
; first layer extrusion width = 0.50mm

; external perimeters extrusion width = 0.40mm
; perimeters extrusion width = 0.46mm
; infill extrusion width = 0.64mm
; solid infill extrusion width = 0.56mm
; top infill extrusion width = 0.40mm
; support material extrusion width = 0.46mm
; first layer extrusion width = 0.50mm

; object:{"name":"Flywoo Firefly Hex Nano Insta360 SMO 4K mount v2","id":"Flywoo Firefly Hex Nano Insta360 SMO 4K mount v2.stl id:0 copy 0","object_center":[177.271473,159.240824,0.000000],"boundingbox_center":[177.271473,159.240824,22.919718],"boundingbox_size":[24.989037,27.160816,45.839436]}
EXCLUDE_OBJECT_DEFINE NAME=Flywoo_Firefly_Hex_Nano_Insta360_SMO_4K_mount_v2_stl_id_0_copy_0 CENTER=177.271473,159.240824 POLYGON=[[164.776944,147.993104],[164.827888,147.630496],[164.931232,147.279200],[165.084784,146.946784],[165.285264,146.640352],[165.528352,146.366480],[165.808816,146.131088],[166.120688,145.939184],[166.457232,145.794880],[166.811248,145.701296],[167.175136,145.660416],[187.367792,145.660416],[187.731696,145.701296],[188.085728,145.794880],[188.422256,145.939184],[188.734112,146.131088],[189.014592,146.366480],[189.257696,146.640352],[189.458160,146.946784],[189.611712,147.279200],[189.715056,147.630496],[189.765984,147.993104],[189.763392,148.359280],[189.707360,148.721136],[184.777472,172.691840],[184.760432,172.725312],[184.710480,172.756528],[184.631024,172.783328],[184.527472,172.803888],[184.406896,172.816832],[184.277472,172.821232],[170.276480,172.821232],[170.147072,172.816832],[170.026480,172.803888],[169.922912,172.783328],[169.843456,172.756528],[169.793520,172.725312],[169.776480,172.691840],[164.835600,148.721136],[164.779536,148.359280],[164.776944,147.993104]]
; object:{"name":"Insta_SMO_4K","id":"Insta_SMO_4K.stl id:1 copy 0","object_center":[153.545526,164.999753,0.000000],"boundingbox_center":[153.545526,164.999753,6.000500],"boundingbox_size":[26.624439,55.717747,12.001000]}
EXCLUDE_OBJECT_DEFINE NAME=Insta_SMO_4K_stl_id_1_copy_0 CENTER=153.545526,164.999753 POLYGON=[[140.233312,151.294064],[140.233424,138.567072],[140.254432,138.499072],[140.285424,138.420064],[140.367408,138.228064],[140.575376,137.906032],[140.620384,137.849040],[140.656368,137.811040],[140.771360,137.691024],[140.839376,137.631024],[140.899360,137.580016],[141.041344,137.479008],[141.296336,137.332000],[141.347344,137.308992],[141.497344,137.249984],[141.592336,137.219968],[141.712336,137.190960],[141.976336,137.152960],[142.033328,137.144944],[142.079328,137.142944],[142.924336,137.140880],[153.450336,137.141152],[153.714336,137.168144],[153.854336,137.195136],[154.101328,137.272112],[154.185344,137.302112],[154.292336,137.352096],[154.483360,137.461088],[154.643360,137.579072],[154.714368,137.636080],[154.737360,137.656064],[154.858368,137.774064],[154.910384,137.834064],[155.030400,137.993040],[155.090400,138.085040],[155.137408,138.162032],[155.216416,138.311040],[155.257424,138.411024],[155.294416,138.511040],[155.317424,138.584032],[155.329440,138.631024],[166.696672,185.462256],[166.805712,186.041232],[166.857744,186.628240],[166.851792,187.216240],[166.788832,187.802224],[166.667856,188.378240],[166.491920,188.940240],[166.260944,189.482272],[165.977984,189.998288],[165.646016,190.484320],[165.268048,190.936336],[164.848064,191.348368],[164.389104,191.717408],[163.896112,192.040432],[163.374144,192.312464],[162.828160,192.532496],[162.263168,192.697536],[161.685184,192.807584],[161.098176,192.858624],[160.509168,192.853664],[159.924176,192.789696],[159.348160,192.669760],[158.786144,192.492784],[158.244144,192.262816],[157.728112,191.979856],[141.119376,181.212000],[140.930352,181.086032],[140.728352,180.907024],[140.649360,180.820032],[140.585344,180.747040],[140.539344,180.688048],[140.526336,180.671056],[140.461328,180.574048],[140.336320,180.349056],[140.284304,180.222064],[140.234304,180.067056],[140.234288,180.033072],[140.234256,179.515072],[140.233312,151.335072],[140.233312,151.294064]]
; plater:{"center":[164.999649,164.999753,0.000000],"boundingbox_center":[164.999649,164.999753,22.919718],"boundingbox_size":[49.532685,55.717747,45.839436]}

M73 P0 R74
;TYPE:Custom
; custom gcode: start_gcode
START_PRINT T_BED=60 T_EXTRUDER=220
; custom gcode end: start_gcode
M107
G21 ; set units to millimeters
G90 ; use absolute coordinates
M82 ; use absolute distances for extrusion
G92 E0
; custom gcode: start_filament_gcode
; Filament gcode
; custom gcode end: start_filament_gcode
;_TOOLCHANGE 0
M109 S220 ; set temperature and wait for it to be reached
M190 S60 ; set bed temperature and wait for it to be reached
;LAYER_CHANGE
;Z:0.2
;HEIGHT:0.2
G1 Z0.2 F9000
M204 S1000
G1 X138.039 Y134.988
;TYPE:Skirt
;WIDTH:0.52
G1 F1800
G1 X137.662 Y135.389 E0.02183
G1 X136.802 Y136.757 E0.08595
G1 X136.574 Y137.349 E0.11111
G1 X136.295 Y138.814 E0.17025
G1 X136.272 Y141.247 E0.26677
G1 X136.263 Y178.158 E1.73103
G1 X136.284 Y179.702 E1.79228
G1 X136.387 Y180.523 E1.82509
G1 X136.524 Y181.127 E1.84964
G1 X137.064 Y182.434 E1.90577
G1 X137.997 Y183.641 E1.96628
G1 X153.356 Y197.125 E2.77705
G1 X154.393 Y197.808 E2.8263
G1 X155.505 Y198.394 E2.87618
G1 X156.654 Y198.861 E2.92536
G1 X157.856 Y199.217 E2.9751
G1 X159.073 Y199.451 E3.02426
G1 X160.326 Y199.567 E3.07417
G1 X161.56 Y199.558 E3.12312
G1 X162.815 Y199.427 E3.17319
G1 X164.831 Y198.942 E3.25541
G1 X166.368 Y198.323 E3.32117
G1 X167.471 Y197.725 E3.37093
G1 X169.152 Y196.503 E3.4534
G1 X189.164 Y176.496 E4.57593
G1 X189.881 Y175.535 E4.6235
G1 X191.072 Y173.34 E4.72256
G1 X191.56 Y171.753 E4.78842
G1 X193.836 Y148.764 E5.70483
G1 X193.769 Y147.069 E5.77215
G1 X193.54 Y146.131 E5.81043
G1 X193.177 Y145.237 E5.84871
G1 X192.314 Y143.918 E5.91125
G1 X191.64 Y143.227 E5.94953
G1 X190.873 Y142.642 E5.98781
G1 X190.028 Y142.175 E6.02609
G1 X189.125 Y141.836 E6.06437
G1 X154.894 Y133.468 E7.46226
G1 X153.729 Y133.302 E7.50895
G1 X151.996 Y133.256 E7.57771
G1 X142.003 Y133.263 E7.97415
G1 X140.853 Y133.408 E8.02012
G1 X139.455 Y133.949 E8.07956
G1 X138.906 Y134.284 E8.10507
G1 X138.039 Y134.988 E8.14939
G1 X138.386 Y135.315 F9000
G1 F1800
G1 X138.009 Y135.716 E8.17122
G1 X137.247 Y136.929 E8.22805
G1 X137.019 Y137.521 E8.2532
G1 X136.772 Y138.819 E8.30562
G1 X136.749 Y141.247 E8.40197
G1 X136.74 Y178.158 E9.86621
G1 X136.76 Y179.676 E9.92642
G1 X136.853 Y180.418 E9.95607
G1 X136.989 Y181.021 E9.98062
G1 X137.468 Y182.18 E10.03036
G1 X138.341 Y183.31 E10.087
G1 X153.625 Y196.731 E10.89388
G1 X154.622 Y197.39 E10.9413
G1 X155.692 Y197.955 E10.98928
G1 X156.797 Y198.406 E11.03664
G1 X157.953 Y198.75 E11.0845
G1 X159.125 Y198.977 E11.13184
G1 X160.33 Y199.089 E11.17984
G1 X161.519 Y199.083 E11.227
G1 X162.726 Y198.959 E11.27515
G1 X164.697 Y198.484 E11.35556
G1 X166.148 Y197.9 E11.41761
G1 X167.209 Y197.326 E11.46548
G1 X168.853 Y196.131 E11.54611
G1 X188.826 Y176.159 E12.66658
G1 X189.461 Y175.307 E12.70873
G1 X190.653 Y173.112 E12.80779
G1 X191.085 Y171.706 E12.86617
G1 X193.361 Y148.717 E13.78257
G1 X193.297 Y147.135 E13.84539
G1 X193.082 Y146.266 E13.8809
G1 X192.744 Y145.437 E13.91641
G1 X191.957 Y144.235 E13.97342
G1 X191.333 Y143.592 E14.00893
G1 X190.623 Y143.048 E14.04444
G1 X189.84 Y142.613 E14.07995
G1 X189.003 Y142.297 E14.11546
G1 X154.781 Y133.931 E15.51299
G1 X153.675 Y133.776 E15.55729
G1 X151.996 Y133.733 E15.62392
G1 X142.003 Y133.741 E16.02033
G1 X140.943 Y133.877 E16.06275
G1 X139.704 Y134.356 E16.11543
G1 X139.155 Y134.691 E16.14094
G1 X138.386 Y135.315 E16.18022
G1 X138.734 Y135.642 F9000
G1 F1800
G1 X138.357 Y136.043 E16.20204
G1 X137.692 Y137.1 E16.25157
G1 X137.465 Y137.692 E16.27673
G1 X137.249 Y138.823 E16.32242
G1 X137.226 Y141.248 E16.4186
G1 X137.217 Y178.158 E17.88282
G1 X137.318 Y180.313 E17.96837
G1 X137.455 Y180.916 E17.99292
G1 X137.872 Y181.926 E18.03628
G1 X138.685 Y182.979 E18.08905
G1 X153.894 Y196.337 E18.89203
G1 X154.852 Y196.972 E18.93762
G1 X155.878 Y197.516 E18.98371
G1 X156.941 Y197.95 E19.02925
G1 X158.051 Y198.283 E19.07522
G1 X159.177 Y198.502 E19.12073
G1 X160.334 Y198.612 E19.16684
G1 X161.477 Y198.607 E19.2122
G1 X162.637 Y198.49 E19.25843
M73 P0 R74
G1 X164.563 Y198.026 E19.33702
G1 X165.927 Y197.477 E19.39536
G1 X166.948 Y196.927 E19.44136
G1 X168.555 Y195.759 E19.52015
G1 X188.488 Y175.822 E20.63855
G1 X189.042 Y175.08 E20.67529
G1 X190.233 Y172.885 E20.77435
G1 X190.61 Y171.659 E20.82523
G1 X192.886 Y148.67 E21.74163
G1 X192.824 Y147.201 E21.79996
G1 X192.625 Y146.4 E21.8327
G1 X192.31 Y145.637 E21.86544
G1 X191.6 Y144.551 E21.91692
G1 X191.027 Y143.958 E21.94965
G1 X190.373 Y143.454 E21.98239
G1 X189.652 Y143.052 E22.01513
G1 X188.881 Y142.759 E22.04787
G1 X154.668 Y134.395 E23.44504
G1 X153.621 Y134.25 E23.48696
G1 X151.996 Y134.21 E23.55145
G1 X142.004 Y134.218 E23.94783
G1 X141.032 Y134.346 E23.98671
G1 X139.953 Y134.763 E24.03262
G1 X138.734 Y135.642 E24.09224
G92 E0
; printing object Flywoo Firefly Hex Nano Insta360 SMO 4K mount v2.stl id:0 copy 0
EXCLUDE_OBJECT_START NAME=Flywoo_Firefly_Hex_Nano_Insta360_SMO_4K_mount_v2_stl_id_0_copy_0
; acceleration to travel
M204 S3000
G1 X167.989 Y159.774 F9000
; decel to extrusion
M204 S1000
G1 X177.741 Y167.818
; end travel
;TYPE:Support material
;WIDTH:0.5
G1 F1800
G1 X178.342 Y167.713 E0.02317
G1 X178.853 Y167.561 E0.04343
G1 X179.303 Y167.373 E0.062
G1 X179.807 Y167.09 E0.08394
G1 X180.238 Y166.776 E0.1042
G1 X180.599 Y166.447 E0.12278
G1 X180.952 Y166.047 E0.14304
G1 X181.279 Y165.572 E0.16498
G1 X181.525 Y165.107 E0.18497
G1 X181.854 Y164.305 E0.2179
G1 X182.028 Y163.997 E0.23138
G1 X182.239 Y163.705 E0.24504
G1 X182.481 Y163.439 E0.2587
G1 X182.75 Y163.201 E0.27236
G1 X183.044 Y162.995 E0.28602
G1 X183.36 Y162.823 E0.29968
G1 X183.692 Y162.686 E0.31334
G1 X184.038 Y162.588 E0.327
G1 X184.392 Y162.528 E0.34063
G1 X185.019 Y162.495 E0.36452
G1 X185.444 Y162.058 E0.38768
G1 X185.475 Y160.875 E0.43266
G1 X185.549 Y159.935 E0.4685
G1 X185.608 Y159.493 E0.48545
G1 X187.299 Y159.403 E0.54982
G1 X187.299 Y170.443 E0.96942
M73 P1 R74
G1 X187.247 Y170.632 E0.97687
G1 X187.387 Y171.34 E1.00428
G1 X186.196 Y173.534 E1.09919
G1 X178.877 Y173.535 E1.37735
G1 X177.906 Y171.628 E1.45867
G1 X177.881 Y171.138 E1.47732
G1 X177.803 Y170.706 E1.49401
G1 X177.736 Y169.971 E1.52205
G1 X177.756 Y169.711 E1.53196
G1 X177.742 Y169.502 E1.53994
G1 X177.741 Y167.818 E1.60391
; acceleration to travel
M204 S3000
G1 X184.626 Y170.924 F9000
; decel to extrusion
M204 S1000
G1 X186.921 Y171.959
; end travel
G1 F1800
G1 X186.921 Y159.734 E2.06854
G1 X186.413 Y159.761 E2.08787
G1 X186.413 Y172.483 E2.57137
G1 X186.011 Y173.224 E2.60341
G1 X185.905 Y173.224 E2.60743
G1 X185.905 Y159.788 E3.11806
G1 X185.882 Y159.79 E3.11895
G1 X185.858 Y159.968 E3.12578
G1 X185.785 Y160.891 E3.16099
G1 X185.752 Y162.188 E3.21028
G1 X185.397 Y162.552 E3.2296
G1 X185.397 Y173.224 E3.63519
G1 X184.889 Y173.224 E3.65449
G1 X184.889 Y162.813 E4.05016
G1 X184.382 Y162.845 E4.0695
G1 X184.382 Y173.224 E4.46395
G1 X183.874 Y173.224 E4.48325
G1 X183.874 Y162.958 E4.87342
G1 X183.494 Y163.104 E4.88889
G1 X183.366 Y163.174 E4.89443
G1 X183.366 Y173.224 E5.27639
G1 X182.858 Y173.224 E5.2957
G1 X182.858 Y163.521 E5.66447
G1 X182.699 Y163.661 E5.67253
G1 X182.481 Y163.901 E5.68488
G1 X182.35 Y164.082 E5.69334
G1 X182.35 Y173.224 E6.04079
G1 X181.842 Y173.224 E6.06009
G1 X181.842 Y165.152 E6.36686
G1 X181.549 Y165.726 E6.39134
G1 X181.334 Y166.044 E6.40592
G1 X181.334 Y173.224 E6.6788
G1 X180.827 Y173.224 E6.6981
G1 X180.827 Y166.659 E6.94761
G1 X180.319 Y167.104 E6.97328
G1 X180.319 Y173.224 E7.20586
G1 X179.811 Y173.224 E7.22516
G1 X179.811 Y167.447 E7.4447
G1 X179.488 Y167.628 E7.45878
G1 X179.303 Y167.71 E7.46645
G1 X179.303 Y173.224 E7.67602
G1 X179.068 Y173.224 E7.68496
G1 X178.795 Y172.688 E7.70779
G1 X178.795 Y167.905 E7.88961
G1 X178.287 Y168.04 E7.90958
G1 X178.287 Y172.124 E8.06482
G92 E0
; acceleration to travel
M204 S3000
G1 X177.539 Y165.637 F9000
; decel to extrusion
M204 S1000
G1 X177.29 Y163.475
; end travel
G1 F1800
G1 X177.146 Y163.449 E0.00555
G1 X177.029 Y163.362 E0.01111
G1 X176.963 Y163.232 E0.01666
G1 X176.96 Y163.111 E0.02123
G1 X176.988 Y163.016 E0.025
G1 X177.029 Y162.955 E0.0278
G1 X177.146 Y162.868 E0.03335
G1 X177.216 Y162.847 E0.03615
G1 X177.362 Y162.855 E0.0417
G1 X177.489 Y162.928 E0.04726
G1 X177.557 Y163.025 E0.05177
G1 X177.586 Y163.122 E0.05559
G1 X177.569 Y163.267 E0.06115
G1 X177.489 Y163.389 E0.0667
G1 X177.419 Y163.438 E0.06992
G1 X177.29 Y163.475 E0.07504
G92 E0
; acceleration to travel
M204 S3000
G1 X175.73 Y163.94 F9000
; decel to extrusion
M204 S1000
G1 X175.21 Y164.095
; end travel
;TYPE:Internal perimeter
G1 F1800
G1 X175.24 Y164.179 E0.00338
G1 X175.53 Y164.619 E0.02344
G1 X175.914 Y164.982 E0.04349
G1 X176.371 Y165.245 E0.06355
G1 X176.877 Y165.397 E0.08361
G1 X177.404 Y165.427 E0.10366
G1 X177.923 Y165.336 E0.12372
G1 X178.408 Y165.127 E0.14377
G1 X178.831 Y164.812 E0.16383
G1 X178.996 Y164.615 E0.17357
G1 X179.17 Y164.407 E0.18388
G1 X179.407 Y163.936 E0.20394
G1 X179.529 Y163.422 E0.224
G1 X179.529 Y162.895 E0.24405
G1 X179.407 Y162.381 E0.26411
G1 X179.17 Y161.91 E0.28417
G1 X178.831 Y161.505 E0.30422
G1 X178.408 Y161.19 E0.32428
G1 X177.923 Y160.981 E0.34433
G1 X177.404 Y160.89 E0.36439
G1 X177.062 Y160.91 E0.3774
G1 X176.877 Y160.92 E0.38445
G1 X176.371 Y161.072 E0.4045
G1 X175.914 Y161.336 E0.42456
G1 X175.53 Y161.698 E0.44461
G1 X175.24 Y162.139 E0.46467
G1 X175.06 Y162.634 E0.48473
G1 X174.999 Y163.159 E0.50478
G1 X175.06 Y163.683 E0.52484
G1 X175.21 Y164.095 E0.54151
G1 X175.636 Y163.93 F9000
G1 F1800
G1 X175.652 Y163.972 E0.5432
G1 X175.883 Y164.324 E0.5592
G1 X176.189 Y164.612 E0.57519
G1 X176.554 Y164.823 E0.59119
G1 X176.957 Y164.944 E0.60719
G1 X177.377 Y164.968 E0.62318
G1 X177.791 Y164.895 E0.63917
G1 X178.178 Y164.728 E0.65517
G1 X178.515 Y164.477 E0.67117
G1 X178.646 Y164.322 E0.67887
G1 X178.786 Y164.155 E0.68716
G1 X178.975 Y163.778 E0.70316
G1 X179.072 Y163.369 E0.71915
G1 X179.072 Y162.948 E0.73515
G1 X178.975 Y162.539 E0.75114
G1 X178.786 Y162.163 E0.76714
G1 X178.515 Y161.84 E0.78313
G1 X178.178 Y161.589 E0.79913
G1 X177.791 Y161.422 E0.81512
G1 X177.377 Y161.349 E0.83112
G1 X177.088 Y161.366 E0.8421
G1 X176.957 Y161.374 E0.84711
G1 X176.554 Y161.494 E0.86311
G1 X176.189 Y161.705 E0.8791
G1 X175.883 Y161.993 E0.8951
G1 X175.652 Y162.345 E0.91109
G1 X175.508 Y162.741 E0.92709
G1 X175.459 Y163.159 E0.94308
G1 X175.508 Y163.577 E0.95908
G1 X175.636 Y163.93 E0.97338
G1 X176.063 Y163.766 F9000
;TYPE:External perimeter
G1 F1800
G1 X176.235 Y164.028 E0.98532
G1 X176.464 Y164.243 E0.99725
G1 X176.736 Y164.4 E1.00918
G1 X177.037 Y164.49 E1.02112
G1 X177.35 Y164.509 E1.03305
G1 X177.659 Y164.454 E1.04499
G1 X177.948 Y164.33 E1.05692
G1 X178.2 Y164.142 E1.06886
G1 X178.296 Y164.028 E1.07453
G1 X178.401 Y163.902 E1.08079
G1 X178.542 Y163.621 E1.09272
G1 X178.615 Y163.316 E1.10466
G1 X178.615 Y163.002 E1.11659
G1 X178.542 Y162.696 E1.12853
G1 X178.401 Y162.415 E1.14046
G1 X178.2 Y162.175 E1.15239
G1 X177.948 Y161.987 E1.16433
G1 X177.659 Y161.863 E1.17626
G1 X177.35 Y161.808 E1.1882
G1 X177.115 Y161.822 E1.19715
G1 X177.037 Y161.827 E1.20013
G1 X176.736 Y161.917 E1.21206
G1 X176.464 Y162.074 E1.224
G1 X176.235 Y162.289 E1.23593
G1 X176.063 Y162.552 E1.24787
G1 X175.956 Y162.847 E1.2598
G1 X175.919 Y163.159 E1.27174
G1 X175.956 Y163.47 E1.28367
G1 X176.063 Y163.766 E1.2956
;WIPE_START
M204 S4000
G1 X175.856 Y164.108 F9000
;WIPE_END
G92 E0
; acceleration to travel
M204 S3000
G1 X172.217 Y161.562
; decel to extrusion
M204 S1000
G1 X171.004 Y160.714
; end travel
;TYPE:Internal perimeter
G1 F1800
G1 X170.926 Y159.727 E0.03762
G1 X170.789 Y158.688 E0.07747
G1 X170.584 Y157.596 E0.11968
G1 X170.351 Y156.627 E0.15756
