; HEADER_BLOCK_START
; generated by OrcaSlicer 1.6.6 on 2023-08-30 at 11:31:11
; total layer number: 55
; HEADER_BLOCK_END

; THUMBNAIL_BLOCK_START
; THUMBNAIL_BLOCK_END

; external perimeters extrusion width = 0.40mm
; perimeters extrusion width = 0.46mm
; infill extrusion width = 0.64mm
; solid infill extrusion width = 0.56mm
; top infill extrusion width = 0.40mm
; first layer extrusion width = 0.50mm

; external perimeters extrusion width = 0.40mm
; perimeters extrusion width = 0.46mm
; infill extrusion width = 0.64mm
; solid infill extrusion width = 0.56mm
; top infill extrusion width = 0.40mm
; first layer extrusion width = 0.50mm

; external perimeters extrusion width = 0.40mm
; perimeters extrusion width = 0.46mm
; infill extrusion width = 0.64mm
; solid infill extrusion width = 0.56mm
; top infill extrusion width = 0.40mm
; first layer extrusion width = 0.50mm

; external perimeters extrusion width = 0.40mm
; perimeters extrusion width = 0.46mm
; infill extrusion width = 0.64mm
; solid infill extrusion width = 0.56mm
; top infill extrusion width = 0.40mm
; first layer extrusion width = 0.50mm

; EXECUTABLE_BLOCK_START
EXCLUDE_OBJECT_DEFINE NAME=Foam_board_foot.stl_id_0_copy_0 CENTER=206.117,165 POLYGON=[[188.017,119.058],[188.162,118.279],[188.216,118.022],[188.279,117.768],[188.349,117.516],[188.428,117.267],[188.514,117.021],[188.608,116.779],[188.709,116.541],[188.945,116.058],[189.065,115.838],[189.192,115.623],[189.477,115.19],[189.628,114.982],[189.785,114.781],[189.945,114.588],[190.113,114.399],[190.287,114.214],[190.469,114.034],[190.657,113.858],[190.852,113.688],[191.053,113.523],[191.26,113.365],[191.473,113.212],[191.692,113.067],[191.916,112.928],[192.145,112.796],[192.378,112.672],[192.616,112.556],[193.102,112.347],[193.35,112.254],[193.6,112.17],[193.853,112.095],[194.107,112.028],[194.623,111.919],[194.883,111.877],[195.143,111.844],[195.403,111.82],[195.662,111.805],[195.919,111.797],[196.175,111.798],[196.436,111.808],[196.694,111.825],[199.64,112.292],[218.787,115.324],[220.26,115.558],[220.376,115.591],[220.434,115.62],[220.436,115.621],[220.488,115.657],[220.517,115.681],[220.539,115.702],[220.583,115.753],[220.586,115.758],[220.62,115.811],[220.638,115.847],[224.217,123.233],[190.517,218.203],[188.017,218.203],[188.017,119.058]]
EXCLUDE_OBJECT_DEFINE NAME=Foam_board_foot.stl_id_1_copy_0 CENTER=164.893,165 POLYGON=[[146.793,119.058],[146.938,118.279],[146.992,118.022],[147.055,117.768],[147.125,117.516],[147.204,117.267],[147.29,117.021],[147.384,116.779],[147.485,116.541],[147.721,116.058],[147.841,115.838],[147.968,115.623],[148.252,115.19],[148.404,114.982],[148.561,114.781],[148.721,114.588],[148.888,114.399],[149.063,114.214],[149.244,114.034],[149.433,113.858],[149.627,113.688],[149.829,113.523],[150.036,113.365],[150.249,113.212],[150.468,113.067],[150.692,112.928],[150.92,112.796],[151.154,112.672],[151.391,112.556],[151.878,112.347],[152.126,112.254],[152.376,112.17],[152.629,112.095],[152.883,112.028],[153.399,111.919],[153.659,111.877],[153.919,111.844],[154.179,111.82],[154.438,111.805],[154.695,111.797],[154.951,111.798],[155.212,111.808],[155.47,111.825],[158.416,112.292],[177.563,115.324],[179.036,115.558],[179.152,115.591],[179.21,115.62],[179.212,115.621],[179.264,115.657],[179.293,115.681],[179.315,115.702],[179.359,115.753],[179.362,115.758],[179.395,115.811],[179.413,115.847],[182.993,123.233],[149.293,218.203],[146.793,218.203],[146.793,119.058]]
EXCLUDE_OBJECT_DEFINE NAME=Foam_board_clip.stl_id_2_copy_0 CENTER=123.818,161.888 POLYGON=[[105.842,158.43],[111.45,152.437],[111.478,152.408],[111.526,152.367],[111.53,152.364],[111.587,152.328],[111.614,152.314],[111.649,152.3],[111.709,152.281],[111.712,152.281],[111.775,152.27],[111.897,152.273],[114.848,152.7],[129.606,154.837],[135.509,155.692],[135.751,155.749],[135.993,155.814],[136.227,155.885],[136.461,155.964],[136.694,156.05],[136.925,156.144],[137.154,156.246],[137.381,156.355],[137.826,156.596],[138.041,156.727],[138.253,156.864],[138.461,157.008],[138.664,157.159],[139.056,157.481],[139.245,157.651],[139.428,157.826],[139.605,158.008],[139.775,158.194],[139.94,158.385],[140.098,158.581],[140.249,158.781],[140.394,158.985],[140.531,159.193],[140.662,159.404],[140.785,159.618],[140.901,159.834],[141.01,160.052],[141.111,160.273],[141.205,160.494],[141.292,160.717],[141.451,161.189],[141.518,161.425],[141.579,161.664],[141.632,161.907],[141.678,162.152],[141.717,162.399],[141.748,162.649],[141.786,163.154],[141.793,163.406],[141.792,163.658],[141.783,163.911],[141.767,164.164],[141.709,164.667],[141.668,164.918],[141.619,165.167],[141.563,165.413],[141.499,165.658],[141.427,165.9],[141.348,166.139],[141.262,166.375],[141.168,166.607],[141.068,166.835],[140.962,167.058],[140.849,167.278],[140.73,167.492],[140.605,167.702],[140.475,167.906],[140.339,168.106],[140.199,168.299],[139.888,168.689],[139.726,168.873],[139.558,169.053],[139.383,169.229],[139.202,169.401],[139.015,169.568],[138.821,169.729],[138.418,170.034],[138.21,170.177],[137.997,170.313],[137.78,170.442],[137.559,170.565],[137.104,170.789],[136.871,170.89],[136.636,170.984],[136.398,171.07],[136.157,171.149],[135.915,171.22],[135.671,171.283],[135.426,171.338],[135.181,171.385],[134.935,171.424],[134.689,171.456],[134.443,171.48],[134.199,171.496],[133.955,171.504],[133.712,171.506],[133.472,171.5],[133.233,171.486],[132.737,171.436],[132.495,171.4],[132.252,171.356],[132.009,171.304],[131.767,171.245],[131.525,171.178],[131.285,171.102],[130.81,170.929],[106.502,160.841],[106.062,159.234],[105.842,158.43]]
EXCLUDE_OBJECT_DEFINE NAME=Foam_board_clip.stl_id_3_copy_0 CENTER=123.818,140.69 POLYGON=[[105.842,137.232],[111.45,131.239],[111.478,131.21],[111.526,131.17],[111.53,131.166],[111.587,131.13],[111.614,131.117],[111.649,131.102],[111.709,131.084],[111.712,131.083],[111.775,131.073],[111.897,131.075],[114.848,131.503],[129.606,133.64],[135.509,134.495],[135.751,134.552],[135.993,134.617],[136.227,134.688],[136.461,134.766],[136.694,134.853],[136.925,134.947],[137.154,135.049],[137.381,135.158],[137.826,135.399],[138.041,135.529],[138.253,135.667],[138.461,135.811],[138.664,135.962],[139.056,136.283],[139.245,136.453],[139.428,136.629],[139.605,136.81],[139.775,136.996],[139.94,137.188],[140.098,137.384],[140.249,137.584],[140.394,137.788],[140.531,137.995],[140.662,138.206],[140.785,138.42],[140.901,138.636],[141.01,138.855],[141.111,139.075],[141.205,139.297],[141.292,139.52],[141.451,139.992],[141.518,140.228],[141.579,140.467],[141.632,140.709],[141.678,140.954],[141.717,141.202],[141.748,141.452],[141.786,141.956],[141.793,142.208],[141.792,142.461],[141.783,142.713],[141.767,142.966],[141.709,143.47],[141.668,143.72],[141.619,143.969],[141.563,144.216],[141.499,144.461],[141.427,144.702],[141.348,144.941],[141.262,145.177],[141.168,145.409],[141.068,145.637],[140.962,145.861],[140.849,146.08],[140.73,146.295],[140.605,146.505],[140.475,146.709],[140.339,146.908],[140.199,147.102],[139.888,147.491],[139.726,147.675],[139.558,147.856],[139.383,148.032],[139.202,148.203],[139.015,148.37],[138.821,148.531],[138.418,148.837],[138.21,148.979],[137.997,149.115],[137.78,149.245],[137.559,149.367],[137.104,149.592],[136.871,149.693],[136.636,149.787],[136.398,149.873],[136.157,149.951],[135.915,150.022],[135.671,150.085],[135.426,150.14],[135.181,150.187],[134.935,150.227],[134.689,150.258],[134.443,150.282],[134.199,150.298],[133.955,150.307],[133.712,150.308],[133.472,150.302],[133.233,150.289],[132.737,150.238],[132.495,150.202],[132.252,150.159],[132.009,150.107],[131.767,150.048],[131.525,149.98],[131.285,149.905],[130.81,149.731],[106.502,139.644],[106.062,138.036],[105.842,137.232]]
M73 P0 R28
;TYPE:Custom
START_PRINT T_BED=60 T_EXTRUDER=220
G90
G21
M83 ; use relative distances for extrusion
; filament start gcode

    PRESSURE_ADVANCE_SELECT FILAMENT=PLA
M106 S0
;LAYER_CHANGE
;Z:0.2
;HEIGHT:0.2
;BEFORE_LAYER_CHANGE
;0.2
G92 E0

SET_VELOCITY_LIMIT ACCEL=5000 ACCEL_TO_DECEL=2500
G1 E-.8 F1800
G1 X109.502 Y129.071 F12000
G1 Z.2
G1 E.8 F1800
;TYPE:Skirt
;WIDTH:0.5
G1 F3000
G1 X110.1 Y128.626 E.0278
G1 X150.159 Y109.915 E1.64677
G1 X151.586 Y109.366 E.05694
G1 X152.991 Y109.034 E.05378
G1 X154.915 Y108.884 E.07188
G1 X196.327 Y108.888 E1.54245
G1 X197.15 Y108.947 E.03072
G1 X220.715 Y112.679 E.88866
G1 X221.421 Y112.878 E.02729
G1 X222.273 Y113.356 E.0364
G1 X222.763 Y113.821 E.02514
G1 X223.172 Y114.411 E.02676
G1 X223.481 Y115.175 E.03067
G1 X225.139 Y121.26 E.23494
G1 X225.085 Y122.969 E.06369
G1 X193.275 Y216.016 E3.66257
G1 X192.43 Y217.272 E.05638
G1 X190.522 Y217.988 E.07588
G1 X146.778 Y217.988 E1.62932
G1 X145.318 Y217.587 E.05638
G1 X144.401 Y216.737 E.04657
G1 X106.272 Y161.913 E2.48727
G1 X105.862 Y161.049 E.03563
G1 X105.176 Y158.54 E.09689
G1 X105.09 Y157.838 E.02633
G1 X105.09 Y136.641 E.78953
G1 X105.546 Y135.076 E.06072
G1 X109.05 Y129.586 E.24256
G1 X109.475 Y129.101 E.02402
G1 X109.808 Y129.41 F12000
G1 F3000
G1 X110.337 Y129.017 E.02453
G1 X150.352 Y110.329 E1.64496
G1 X151.71 Y109.805 E.05419
G1 X153.055 Y109.486 E.0515
G1 X154.921 Y109.341 E.0697
G1 X196.304 Y109.344 E1.54135
G1 X197.079 Y109.398 E.02894
G1 X220.644 Y113.131 E.88866
G1 X221.266 Y113.308 E.02409
G1 X221.911 Y113.656 E.02728
G1 X222.36 Y114.054 E.02234
G1 X222.72 Y114.54 E.02253
G1 X222.975 Y115.089 E.02253
G1 X224.698 Y121.381 E.24298
G1 X224.653 Y122.822 E.0537
G1 X192.842 Y215.868 E3.66257
G1 X192.041 Y217.001 E.05169
G1 X190.522 Y217.531 E.05992
G1 X146.78 Y217.53 E1.6292
G1 X145.451 Y217.132 E.05169
G1 X144.776 Y216.476 E.03504
G1 X106.647 Y161.652 E2.48727
G1 X106.301 Y160.924 E.03004
G1 X105.619 Y158.43 E.0963
G1 X105.547 Y157.838 E.0222
G1 X105.547 Y136.641 E.78953
G1 X105.932 Y135.321 E.0512
G1 X109.417 Y129.858 E.24137
G1 X109.782 Y129.44 E.02066
; printing object Foam_board_foot.stl id:0 copy 0
G1 E-.8 F1800
EXCLUDE_OBJECT_START NAME=Foam_board_foot.stl_id_0_copy_0
G1 X190.167 Y125.38 F12000
G1 E.8 F1800
;TYPE:Outer wall
G1 F3000
G1 X190.167 Y214.72 E3.32756
M73 P1 R27
G2 X188.367 Y214.725 I4.514 J1782.455 E.06704
G1 X188.367 Y119.344 E3.55257
G3 X190.058 Y115.001 I7.902 J.574 E.17622
G3 X196.416 Y112.161 I5.965 J4.819 E.26924
G1 X196.658 Y112.174 E.00899
G1 X220.172 Y115.898 E.88675
G3 X220.324 Y116.108 I-.008 J.166 E.01107
G3 X220.105 Y116.972 I-2.42 J-.155 E.0334
G3 X218.92 Y117.522 I-.998 J-.599 E.05163
G1 X196.435 Y113.961 E.84792
G2 X200.063 Y124.022 I-.411 J5.833 E.86553
G1 X205.382 Y118.887 E.27539
G3 X205.97 Y118.702 I.475 J.482 E.02383
G1 X219.796 Y120.892 E.52138
G3 X220.061 Y120.995 I-.121 J.703 E.01068
G1 X221.85 Y122.137 E.07903
G1 X221.033 Y123.417 E.05654
G2 X220.877 Y123.651 I3.164 J2.278 E.0105
G1 X219.466 Y122.751 E.06233
G2 X219.079 Y122.601 I-.565 J.884 E.01557
G1 X206.584 Y120.621 E.47119
G2 X205.98 Y120.812 I-.093 J.757 E.02433
G1 X201.334 Y125.297 E.24052
G3 X191.122 Y125.675 I-5.318 J-5.516 E.41668
G1 X190.58 Y125.194 E.02697
G1 X190.204 Y125.364 E.01537
G1 X189.773 Y125.056 F12000
;TYPE:Inner wall
G1 F3000
G1 X189.71 Y125.084 E.00255
G1 X189.71 Y214.262 E3.32153
G1 X188.824 Y214.268 E.033
G1 X188.824 Y119.374 E3.53447
G3 X191.755 Y114.003 I7.349 J.526 E.235
G3 X196.393 Y112.618 I4.265 J5.822 E.18382
G1 X196.61 Y112.629 E.0081
G1 X219.83 Y116.307 E.87565
G3 X219.267 Y117.061 I-.788 J-.001 E.03756
G3 X218.972 Y117.068 I-.166 J-.777 E.01107
G1 X196.48 Y113.505 E.84817
G2 X200.375 Y124.356 I-.456 J6.288 E.93345
G1 X205.68 Y119.235 E.27466
G3 X205.924 Y119.157 I.197 J.199 E.0099
G1 X219.7 Y121.34 E.51949
G3 X219.835 Y121.393 I-.064 J.358 E.00545
G1 X221.218 Y122.276 E.06113
G1 X220.742 Y123.023 E.03299
G1 X219.692 Y122.353 E.04639
G2 X219.175 Y122.154 I-.753 J1.181 E.02078
G1 X206.63 Y120.166 E.47309
G2 X205.682 Y120.465 I-.137 J1.22 E.03814
G1 X201.022 Y124.963 E.24124
G3 X191.414 Y125.324 I-5.005 J-5.182 E.39204
G1 X190.662 Y124.656 E.03745
G1 X189.809 Y125.04 E.03484
G1 X189.378 Y124.733 F12000
G1 F3000
G1 X189.281 Y124.776 E.00395
G1 X189.281 Y121.697 E.11469
G1 X189.512 Y121.66 E.0087
G1 X189.667 Y122.128 E.01836
G2 X190.797 Y124.094 I6.281 J-2.301 E.0849
G1 X189.415 Y124.716 E.05647
G1 X189.738 Y124.069 F12000
G1 F3000
G1 X189.738 Y123.745 E.0121
G1 X189.937 Y123.687 E.00768
G1 X190.08 Y123.916 E.01004
G1 X189.775 Y124.053 E.01247
G1 X189.766 Y123.499 F12000
;TYPE:Gap infill
;WIDTH:0.321024
G1 F3000
G1 X189.523 Y122.479 E.02375
G1 X189.51 Y123.211 F12000
;WIDTH:0.195074
G1 F3000
G1 X190.035 Y123.421 E.00702
G1 X190.941 Y124.28 F12000
;WIDTH:0.472056
G1 F3000
G1 X191.198 Y124.532 E.01257
G2 X198.602 Y126.032 I4.822 J-4.78 E.28015
G1 X198.989 Y125.857 E.01482
G1 X199.376 Y125.651 E.01533
G1 X199.728 Y125.435 E.01445
G1 X200.06 Y125.201 E.0142
G1 X200.401 Y124.929 E.01525
G1 X205.383 Y120.137 E.24175
G3 X205.643 Y119.916 I5.699 J6.444 E.0119
;WIDTH:0.558188
G1 X205.751 Y119.842 E.0055
;WIDTH:0.601544
G1 X205.859 Y119.768 E.00596
;WIDTH:0.616596
G1 X206.348 Y119.456 E.02717
G1 X205.506 Y119.721 F12000
;WIDTH:0.600384
G1 F3000
G1 X206.089 Y119.697 E.02652
;WIDTH:0.557414
G1 X206.219 Y119.696 E.00545
;WIDTH:0.514444
G1 X206.349 Y119.694 E.00499
;WIDTH:0.474598
G3 X206.687 Y119.726 I-.637 J8.562 E.01193
G1 X219.257 Y121.718 E.4477
G3 X220.289 Y121.954 I-5.279 J25.435 E.03725
G1 X219.67 Y121.568 F12000
;WIDTH:0.460167
G1 F3000
G1 X219.634 Y121.68 E.00398
;WIDTH:0.509281
G1 X219.598 Y121.791 E.00445
;WIDTH:0.472631
G3 X220.788 Y122.527 I-6.618 J12.029 E.049
G1 E-.8 F1800
G1 X204.608 Y119.932 F12000
G1 X200.462 Y123.934
G1 X200.209 Y124.178
G1 X199.95 Y124.412
G1 X199.66 Y124.644
G1 X199.353 Y124.861
G1 X199.03 Y125.059
G1 X198.692 Y125.239
G1 X198.345 Y125.396
G1 X197.988 Y125.531
G1 X197.621 Y125.644
G1 X197.23 Y125.738
G1 X196.873 Y125.799
G1 X196.495 Y125.841
G1 X196.118 Y125.859
G1 X195.742 Y125.853
G1 X195.372 Y125.825
G1 X195.027 Y125.778
G1 X194.653 Y125.704
G1 X194.288 Y125.608
G1 X193.918 Y125.484
G1 X193.587 Y125.351
G1 X193.263 Y125.197
G1 X192.912 Y125.003
G1 X192.59 Y124.798
G1 X192.282 Y124.572
G1 X191.988 Y124.326
G1 X191.14 Y123.568
G1 X190.886 Y123.252
G1 X190.681 Y122.927
G1 X190.492 Y122.577
G1 X190.341 Y122.256
G1 X190.211 Y121.929
G1 X190.092 Y121.545
G1 X190.036 Y121.149
G1 X189.997 Y120.791
G1 X189.971 Y120.43
G1 X189.955 Y120.028
G1 X189.953 Y119.647
G1 X189.976 Y119.264
G1 X190.026 Y118.865
G1 X190.092 Y118.509
G1 X190.18 Y118.157
G1 X190.301 Y117.776
G1 X190.438 Y117.422
G1 X190.605 Y117.065
G1 X190.772 Y116.756
G1 X190.956 Y116.46
G1 X191.176 Y116.148
G1 X191.424 Y115.84
G1 X191.661 Y115.58
G1 X191.916 Y115.331
G1 X192.219 Y115.072
G1 X192.524 Y114.841
G1 X192.842 Y114.632
G1 X193.174 Y114.442
G1 X193.535 Y114.265
G1 X193.87 Y114.126
G1 X194.213 Y114.008
G1 X194.617 Y113.898
G1 X194.969 Y113.824
G1 X195.341 Y113.771
G1 X195.73 Y113.74
G1 X196.078 Y113.734
G1 X196.456 Y113.749
G1 X219.517 Y116.61
G1 E.8 F1800
;WIDTH:0.470825
G1 F3000
G3 X219.022 Y116.627 I-.3 J-1.496 E.01736
G1 X196.536 Y113.067 E.79381
G2 X196.369 Y113.059 I-.227 J2.838 E.00582
;WIDTH:0.470907
G2 X189.27 Y120.062 I-.346 J6.75 E.39117
G1 X189.286 Y120.507 E.01554
;WIDTH:0.508988
G1 X189.299 Y120.702 E.00739
;WIDTH:0.536853
G1 X189.313 Y120.912 E.00847
;WIDTH:0.563411
G1 X189.366 Y121.452 E.02302
G1 E-.8 F1800
G1 X189.267 Y125.033 F12000
G1 E.8 F1800
;WIDTH:0.471684
G1 F3000
G1 X189.267 Y214.037 E3.10969
; stop printing object Foam_board_foot.stl id:0 copy 0
; printing object Foam_board_foot.stl id:1 copy 0
M73 P2 R27
G1 E-.8 F1800
EXCLUDE_OBJECT_END NAME=Foam_board_foot.stl_id_0_copy_0
EXCLUDE_OBJECT_START NAME=Foam_board_foot.stl_id_1_copy_0
G1 X148.943 Y125.38 F12000
G1 E.8 F1800
;TYPE:Outer wall
;WIDTH:0.5
G1 F3000
G1 X148.943 Y214.72 E3.32756
G2 X147.143 Y214.725 I4.514 J1782.455 E.06704
G1 X147.143 Y119.344 E3.55257
G3 X148.833 Y115.001 I7.902 J.574 E.17622
G3 X155.192 Y112.161 I5.965 J4.819 E.26924
G1 X155.433 Y112.174 E.00899
G1 X178.948 Y115.898 E.88675
G3 X179.1 Y116.108 I-.008 J.166 E.01107
G3 X178.881 Y116.972 I-2.42 J-.155 E.0334
G3 X177.696 Y117.522 I-.998 J-.599 E.05163
G1 X155.211 Y113.961 E.84792
