; HEADER_BLOCK_START
; generated by OrcaSlicer 1.6.4-beta3 on 2023-08-17 at 14:51:09
; total layer number: 125
; HEADER_BLOCK_END

; THUMBNAIL_BLOCK_START
; THUMBNAIL_BLOCK_END

; external perimeters extrusion width = 0.40mm
; perimeters extrusion width = 0.46mm
; infill extrusion width = 0.64mm
; solid infill extrusion width = 0.56mm
; top infill extrusion width = 0.40mm
; first layer extrusion width = 0.50mm

; EXECUTABLE_BLOCK_START
EXCLUDE_OBJECT_DEFINE NAME=foot.stl_id_0_copy_0 CENTER=165,165 POLYGON=[[128.783,134.02],[128.791,133.838],[128.814,133.661],[128.853,133.491],[128.907,133.327],[128.976,133.173],[129.06,133.028],[129.157,132.894],[129.267,132.772],[132.772,129.267],[132.894,129.157],[133.028,129.06],[133.173,128.976],[133.327,128.907],[133.49,128.853],[133.661,128.814],[133.838,128.791],[134.02,128.783],[193.724,128.783],[193.766,128.784],[193.847,128.79],[193.925,128.803],[193.998,128.822],[194.071,128.848],[194.142,128.881],[195.158,129.467],[199.918,132.215],[200.93,132.8],[200.981,132.83],[201.027,132.865],[201.071,132.906],[201.11,132.953],[201.143,133.005],[201.17,133.06],[201.191,133.118],[201.205,133.177],[201.214,133.242],[201.217,133.308],[201.217,162.831],[201.211,162.97],[201.195,163.116],[201.16,163.289],[201.102,163.461],[201.065,163.538],[201.02,163.616],[200.912,163.763],[200.829,163.85],[163.85,200.829],[163.763,200.912],[163.691,200.97],[163.619,201.019],[163.453,201.105],[163.287,201.16],[163.116,201.195],[162.97,201.211],[162.831,201.217],[133.308,201.217],[133.243,201.214],[133.178,201.205],[133.118,201.191],[133.059,201.17],[133.003,201.142],[132.951,201.108],[132.904,201.069],[132.865,201.027],[132.83,200.98],[132.799,200.928],[132.215,199.918],[131.528,198.728],[130.154,196.348],[129.467,195.158],[128.881,194.142],[128.848,194.071],[128.822,193.998],[128.803,193.925],[128.79,193.847],[128.784,193.766],[128.783,193.724],[128.783,134.02]]
M73 P0 R57
;TYPE:Custom
START_PRINT T_BED=105 T_EXTRUDER=260
G90
G21
M83 ; use relative distances for extrusion
; Filament gcode
M106 S0
;LAYER_CHANGE
;Z:0.2
;HEIGHT:0.2
;BEFORE_LAYER_CHANGE
;0.2
G92 E0

G1 E-.5 F1800
SET_VELOCITY_LIMIT ACCEL=5000 ACCEL_TO_DECEL=2500
G1 X130.389 Y132.077 F48000
G1 Z.2
G1 E.5 F4800
;TYPE:Skirt
;WIDTH:0.5
G1 F7200
G1 X133.396 Y129.108 E.14936
G1 X134.496 Y128.518 E.04413
G1 X135.674 Y128.278 E.0425
G1 X190.405 Y128.268 E1.9345
G1 X191.133 Y128.341 E.02584
G1 X191.679 Y128.492 E.02003
G1 X192.243 Y128.763 E.02212
G1 X192.725 Y129.118 E.02115
G1 X193.418 Y130.007 E.03986
G1 X193.654 Y130.602 E.02263
G1 X193.767 Y131.27 E.02395
G1 X193.774 Y164.928 E1.18967
G1 X193.718 Y165.516 E.02087
G1 X193.517 Y166.187 E.02475
G1 X193.205 Y166.765 E.02323
G1 X192.752 Y167.316 E.0252
G1 X167.316 Y192.752 E1.27148
G1 X166.765 Y193.205 E.0252
G1 X166.107 Y193.549 E.02626
G1 X165.513 Y193.719 E.02181
G1 X164.928 Y193.774 E.02077
G1 X131.472 Y193.774 E1.18255
G1 X130.934 Y193.728 E.01906
G1 X130.329 Y193.563 E.02217
G1 X129.362 Y192.97 E.04011
G1 X128.9 Y192.453 E.0245
G1 X128.579 Y191.891 E.02288
G1 X128.341 Y191.133 E.02809
G1 X128.268 Y190.403 E.02593
G1 X128.268 Y135.962 E1.92424
G1 X128.321 Y135.28 E.02418
G1 X128.518 Y134.496 E.02857
G1 X128.872 Y133.745 E.02935
G1 X129.382 Y133.071 E.02986
G1 X130.36 Y132.105 E.04861
; printing object foot.stl id:0 copy 0
G1 E-.35 F1800
;WIPE_START
G1 F7200
G1 X131.072 Y131.403 E-.1425
;WIPE_END
G1 E-.0075 F1800
EXCLUDE_OBJECT_START NAME=foot.stl_id_0_copy_0
G1 X180.005 Y176.194 F48000
G1 E.5 F4800
;TYPE:Outer wall
;WIDTH:0.554124
G1 F7200
G1 X179.83 Y176.397 E.01058
;WIDTH:0.514164
G1 X179.656 Y176.6 E.00975
;WIDTH:0.474204
G1 X179.481 Y176.803 E.00892
;WIDTH:0.434244
G1 X179.211 Y177.101 E.01219
;WIDTH:0.408582
G1 X178.94 Y177.4 E.01139
;WIDTH:0.38292
G3 X177.289 Y179.041 I-24.478 J-22.975 E.06123
;WIDTH:0.421517
G1 X176.989 Y179.309 E.01177
;WIDTH:0.460114
G1 X176.69 Y179.578 E.01297
;WIDTH:0.503924
G1 X176.485 Y179.752 E.0096
;WIDTH:0.547734
G1 X176.279 Y179.927 E.01051
;WIDTH:0.591544
G1 X176.074 Y180.101 E.01143
G1 E-.35 F1800
;WIPE_START
G1 F7200
G1 X176.279 Y179.927 E-.03838
G1 X176.485 Y179.752 E-.03838
G1 X176.69 Y179.578 E-.03838
G1 X176.833 Y179.45 E-.02736
;WIPE_END
G1 E-.0075 F1800
G1 X155.353 Y187.069 F48000
G1 E.5 F4800
;WIDTH:0.499999
G1 F7200
G1 X154.703 Y187.741 E.03303
G1 X153.91 Y188.31 E.0345
G1 X153.025 Y188.725 E.03454
G1 X152.079 Y188.971 E.03454
G1 X151.104 Y189.04 E.03454
G1 X150.134 Y188.929 E.03452
G1 X149.239 Y188.66 E.03303
G1 X148.37 Y188.216 E.03451
G1 X147.595 Y187.62 E.03454
G1 X146.943 Y186.892 E.03454
G1 X146.435 Y186.058 E.03452
G1 X146.099 Y185.186 E.03303
G1 X145.917 Y184.227 E.0345
G3 X145.917 Y183.207 I29.84 J-.51 E.03605
G1 X146.088 Y182.288 E.03304
G1 X146.382 Y181.505 E.02956
G1 X146.918 Y180.576 E.03793
G1 X147.565 Y179.843 E.03454
G1 X148.334 Y179.24 E.03454
G3 X150.094 Y178.513 I3.538 J6.063 E.06751
G3 X151.372 Y178.399 I1.381 J8.293 E.04539
G3 X152.517 Y178.554 I-1.079 J12.314 E.04087
G1 X153.402 Y178.865 E.03316
G3 X154.319 Y179.39 I-9.562 J17.777 E.03733
G1 X154.999 Y179.97 E.03159
G3 X155.643 Y180.758 I-18.403 J15.697 E.03599
G1 X156.093 Y181.578 E.03307
G1 X156.401 Y182.503 E.03445
G3 X156.494 Y184.428 I-7.324 J1.321 E.06831
G3 X156.269 Y185.398 I-41.24 J-9.073 E.03522
G1 X155.896 Y186.257 E.03309
G1 X155.357 Y187.063 E.03425
G1 X155.682 Y187.377 F48000
;TYPE:Inner wall
G1 F7200
G1 X155.03 Y188.06 E.03337
G1 X154.175 Y188.682 E.03738
G1 X153.218 Y189.139 E.0375
G1 X152.193 Y189.414 E.0375
G1 X151.135 Y189.496 E.0375
G1 X150.08 Y189.383 E.03748
G1 X149.106 Y189.097 E.03591
G1 X148.16 Y188.622 E.0374
G1 X147.315 Y187.981 E.0375
G1 X146.601 Y187.196 E.0375
G1 X146.044 Y186.294 E.03748
G1 X145.672 Y185.348 E.03591
G1 X145.468 Y184.31 E.03739
G3 X145.468 Y183.123 I13.928 J-.594 E.04197
G1 X145.639 Y182.204 E.03304
G1 X145.955 Y181.343 E.03245
G1 X146.527 Y180.34 E.04081
G1 X147.223 Y179.539 E.0375
G1 X148.054 Y178.879 E.0375
G3 X149.106 Y178.337 I6.317 J10.947 E.04185
G1 X149.961 Y178.076 E.03159
G3 X151.381 Y177.942 I1.495 J8.293 E.0505
G3 X152.589 Y178.102 I-1.034 J12.434 E.0431
G1 X153.556 Y178.435 E.03612
G3 X154.615 Y179.042 I-5.811 J11.371 E.04318
G1 X155.295 Y179.622 E.03159
G3 X156.044 Y180.538 I-8.977 J8.096 E.04184
G1 X156.494 Y181.359 E.03307
G1 X156.835 Y182.36 E.0374
G3 X156.994 Y183.533 I-15.138 J2.647 E.04185
G3 X156.947 Y184.491 I-10.359 J-.026 E.03389
G3 X156.688 Y185.58 I-18.661 J-3.86 E.03958
G1 X156.315 Y186.439 E.03309
G1 X155.732 Y187.325 E.03749
G1 X155.688 Y187.371 E.00227
G1 X156.015 Y187.682 F48000
G1 F7200
G1 X155.357 Y188.379 E.03388
G1 X154.44 Y189.054 E.04025
G1 X153.41 Y189.554 E.04046
G3 X152.906 Y189.685 I-.688 J-1.617 E.01848
;WIDTH:0.464557
G1 X152.599 Y189.745 E.01018
;WIDTH:0.429114
G1 X152.293 Y189.805 E.00933
;WIDTH:0.393671
G1 X151.726 Y189.834 E.01539
;WIDTH:0.357314
G1 X151.159 Y189.863 E.0138
;WIDTH:0.349742
G1 X150.597 Y189.82 E.01339
;WIDTH:0.378526
G1 X150.034 Y189.777 E.01464
;WIDTH:0.412954
G1 X149.934 Y189.774 E.00285
;WIDTH:0.447381
G1 X149.835 Y189.77 E.00312
;WIDTH:0.47369
G1 X149.404 Y189.652 E.01489
;WIDTH:0.499999
G1 X148.972 Y189.534 E.0158
G1 X147.951 Y189.028 E.04029
G1 X147.035 Y188.342 E.04046
G1 X146.26 Y187.499 E.04046
G1 X145.652 Y186.53 E.04044
G1 X145.245 Y185.511 E.03879
G1 X145.018 Y184.394 E.04028
G3 X145.018 Y183.04 I11.105 J-.677 E.0479
G1 X145.189 Y182.121 E.03304
G1 X145.528 Y181.18 E.03534
G1 X145.652 Y180.904 E.01069
G1 X146.135 Y180.103 E.03306
G1 X146.881 Y179.235 E.04046
G1 X147.774 Y178.518 E.04046
G3 X148.972 Y177.899 I5.348 J8.885 E.04771
G1 X149.827 Y177.638 E.03159
G3 X151.391 Y177.485 I1.615 J8.433 E.05561
G3 X152.662 Y177.651 I-1.003 J12.633 E.04532
G1 X153.709 Y178.004 E.03908
G1 X154.403 Y178.377 E.02786
;WIDTH:0.54417
G1 X154.672 Y178.519 E.01176
;WIDTH:0.588341
G1 X154.94 Y178.66 E.0128
G1 X155.272 Y178.96 E.01885
;WIDTH:0.562852
G1 X155.604 Y179.26 E.01797
;WIDTH:0.586952
G1 X156.238 Y179.967 E.03996
G1 X156.44 Y180.322 E.01717
;WIDTH:0.543476
G1 X156.641 Y180.677 E.0158
;WIDTH:0.499999
G1 X156.894 Y181.139 E.01863
G1 X157.269 Y182.218 E.04036
G3 X157.45 Y183.553 I-11.845 J2.287 E.04767
G3 X157.4 Y184.554 I-10.824 J-.047 E.03542
G3 X157.107 Y185.762 I-14.526 J-2.875 E.04395
G1 X156.735 Y186.621 E.03309
G1 X156.111 Y187.58 E.04045
G1 X156.021 Y187.676 E.00465
G1 E-.35 F1800
;WIPE_START
G1 F7200
G1 X155.357 Y188.379 E-.13774
G1 X155.33 Y188.399 E-.00476
;WIPE_END
G1 E-.0075 F1800
G1 X138.381 Y172.942 F48000
G1 E.5 F4800
;TYPE:Outer wall
G1 F7200
G3 X137.821 Y173.521 I-7.321 J-6.529 E.02849
G1 X137.231 Y173.878 E.02438
G1 X136.516 Y174.098 E.02643
G1 X135.769 Y174.13 E.02643
G1 X135.038 Y173.971 E.02643
G1 X134.378 Y173.635 E.02619
G1 X133.814 Y173.135 E.02665
G1 X133.399 Y172.512 E.02644
G1 X133.158 Y171.811 E.02619
G1 X133.101 Y171.059 E.02665
G1 X133.237 Y170.324 E.02644
G1 X133.555 Y169.646 E.02644
G1 X134.034 Y169.072 E.02643
G1 X134.643 Y168.638 E.02643
G1 X135.342 Y168.373 E.02643
G1 X136.078 Y168.294 E.02619
G1 X136.516 Y168.335 E.01553
G1 X137.181 Y168.533 E.02452
G1 X137.821 Y168.913 E.0263
G3 X138.381 Y169.492 I-6.885 J7.229 E.02848
G1 X138.72 Y170.092 E.02437
G1 X138.922 Y170.843 E.02747
G1 X138.924 Y171.562 E.02541
G1 X138.742 Y172.287 E.02643
G1 X138.385 Y172.935 E.02615
G1 X138.718 Y173.235 F48000
;TYPE:Inner wall
G1 F7200
G1 X138.347 Y173.645 E.01952
G3 X138.058 Y173.912 I-3.98 J-4.029 E.01394
G1 X137.468 Y174.269 E.02438
G1 X136.646 Y174.536 E.03054
G1 X135.784 Y174.587 E.03054
G1 X134.937 Y174.416 E.03054
G1 X134.167 Y174.04 E.03029
G1 X133.507 Y173.473 E.03074
G1 X133.016 Y172.761 E.03058
G1 X132.725 Y171.955 E.03029
G1 X132.645 Y171.089 E.03074
G1 X132.788 Y170.236 E.03057
G1 X133.143 Y169.448 E.03055
G1 X133.686 Y168.776 E.03054
G1 X134.381 Y168.264 E.03053
G1 X135.184 Y167.944 E.03054
G1 X136.034 Y167.839 E.03029
G1 X136.585 Y167.882 E.01953
G1 X137.307 Y168.094 E.02661
G3 X138.192 Y168.629 I-2.701 J5.463 E.03659
G1 X138.675 Y169.127 E.02451
G1 X139.075 Y169.791 E.02742
G3 X139.375 Y170.784 I-4.296 J1.844 E.03674
G1 X139.381 Y171.562 E.02748
G1 X139.184 Y172.403 E.03054
G1 X138.779 Y173.166 E.03054
G1 X138.723 Y173.229 E.00298
G1 X139.108 Y173.484 F48000
G1 F7200
G1 X139.003 Y173.625 E.00623
G1 X138.523 Y174.12 E.02438
G1 X138.295 Y174.303 E.01033
G1 X137.705 Y174.66 E.02438
G3 X136.64 Y175.006 I-2.735 J-6.605 E.03962
G1 X135.798 Y175.043 E.02977
G1 X135.507 Y175.015 E.01033
G1 X134.835 Y174.862 E.02438
G1 X134.561 Y174.761 E.01031
G1 X133.956 Y174.446 E.02414
G1 X133.717 Y174.28 E.01028
G1 X133.201 Y173.812 E.02461
G1 X133.01 Y173.588 E.0104
G1 X132.633 Y173.01 E.02438
G3 X132.411 Y172.42 I1.661 J-.962 E.02241
;WIDTH:0.474535
G1 X132.315 Y172.092 E.01141
;WIDTH:0.449071
G1 X132.284 Y171.603 E.01536
;WIDTH:0.410229
G1 X132.253 Y171.115 E.01389
;WIDTH:0.414258
G1 X132.282 Y170.793 E.00928
;WIDTH:0.457129
G1 X132.311 Y170.471 E.01036
;WIDTH:0.499999
G3 X132.432 Y169.872 I1.332 J-.044 E.02181
G1 X132.731 Y169.25 E.02439
G1 X132.89 Y169.005 E.01033
G1 X133.338 Y168.48 E.02438
G1 X133.554 Y168.283 E.01033
G1 X134.12 Y167.889 E.02438
G1 X134.379 Y167.753 E.01033
G1 X135.026 Y167.515 E.02438
G1 X135.31 Y167.45 E.0103
G1 X135.99 Y167.384 E.02414
G1 X136.558 Y167.417 E.0201
G1 X137.437 Y167.655 E.03222
G1 X137.705 Y167.774 E.01033
G1 X138.295 Y168.131 E.02438
G1 X138.523 Y168.313 E.01033
G1 X139.003 Y168.809 E.02438
G3 X139.566 Y169.743 I-5.228 J3.787 E.03859
G3 X139.829 Y170.726 I-10.419 J3.316 E.03598
G1 X139.838 Y171.562 E.02955
G1 X139.796 Y171.87 E.011
G1 X139.626 Y172.519 E.0237
G1 X139.516 Y172.79 E.01033
G1 X139.178 Y173.391 E.02438
G1 X139.113 Y173.477 E.00382
G1 E-.35 F1800
;WIPE_START
G1 F7200
G1 X139.003 Y173.625 E-.02625
G1 X138.523 Y174.12 E-.09829
G1 X138.424 Y174.199 E-.01796
;WIPE_END
G1 E-.0075 F1800
G1 X148.749 Y156.492 F48000
G1 E.5 F4800
;TYPE:Outer wall
G1 F7200
G1 X147.895 Y156.001 E.03479
G3 X147.08 Y155.317 I23.54 J-28.868 E.03763
G1 X146.449 Y154.562 E.03479
G1 X145.956 Y153.716 E.0346
G1 X145.6 Y152.757 E.03615
G1 X145.417 Y151.749 E.03621
G1 X145.413 Y150.725 E.03621
G1 X145.59 Y149.716 E.03621
G1 X145.94 Y148.753 E.03619
G1 X146.426 Y147.904 E.03459
G1 X147.08 Y147.117 E.03618
G1 X147.862 Y146.456 E.03621
G1 X148.703 Y145.964 E.0344
G1 X149.23 Y145.742 E.02023
G1 X150.167 Y145.488 E.03431
G1 X151.185 Y145.393 E.03615
G3 X152.269 Y145.49 I.05 J5.543 E.03851
G1 X153.147 Y145.723 E.03213
G1 X153.678 Y145.938 E.02023
G1 X154.558 Y146.446 E.03592
G1 X155.309 Y147.073 E.03459
G3 X155.994 Y147.886 I-23.909 J20.85 E.03758
G1 X156.487 Y148.738 E.03479
G1 X156.84 Y149.7 E.03621
G3 X157.021 Y150.728 I-61.483 J11.361 E.03692
G3 X156.85 Y152.695 I-7.923 J.303 E.06998
G3 X156.504 Y153.66 I-100.171 J-35.412 E.03621
G3 X155.971 Y154.581 I-34.891 J-19.564 E.03763
G1 X155.337 Y155.333 E.03479
G3 X154.557 Y155.988 I-24.582 J-28.499 E.03598
G1 X153.707 Y156.482 E.03477
G3 X152.707 Y156.847 I-10.792 J-27.987 E.03763
G1 X151.737 Y157.018 E.03479
G3 X150.532 Y156.991 I-.417 J-8.243 E.04265
G1 X149.748 Y156.853 E.02813
G3 X148.756 Y156.495 I9.467 J-27.824 E.03729
G1 X148.533 Y156.884 F48000
;TYPE:Inner wall
G1 F7200
G1 X147.667 Y156.397 E.0351
G3 X146.729 Y155.61 I10.288 J-13.207 E.0433
G1 X146.098 Y154.855 E.03479
G1 X145.56 Y153.944 E.03737
G1 X145.171 Y152.915 E.03891
G1 X144.967 Y151.829 E.03904
G1 X144.956 Y150.725 E.03904
G1 X145.14 Y149.635 E.03904
G1 X145.511 Y148.596 E.03902
G1 X146.031 Y147.676 E.03735
G1 X146.729 Y146.824 E.03895
G1 X147.569 Y146.105 E.03904
G1 X148.473 Y145.569 E.03718
G1 X149.053 Y145.32 E.02231
G1 X150.049 Y145.047 E.03648
G1 X151.144 Y144.938 E.03891
G3 X152.332 Y145.037 I.105 J5.886 E.04219
G1 X153.265 Y145.282 E.03412
G1 X153.85 Y145.514 E.02224
G1 X154.787 Y146.051 E.03817
G1 X155.603 Y146.723 E.03735
G3 X156.39 Y147.657 I-11.021 J10.085 E.04318
G1 X156.883 Y148.509 E.03479
G1 X157.27 Y149.544 E.03904
G3 X157.477 Y150.69 I-25.84 J5.258 E.04117
G3 X157.469 Y151.804 I-17.75 J.434 E.03939
G1 X157.301 Y152.774 E.03478
G3 X156.934 Y153.815 I-40.132 J-13.542 E.03904
G3 X156.39 Y154.777 I-24.275 J-13.095 E.03904
G1 X155.71 Y155.6 E.03774
G3 X154.787 Y156.383 I-9.517 J-10.285 E.0428
G1 X153.936 Y156.877 E.03477
G3 X152.786 Y157.298 I-5.486 J-13.231 E.0433
G1 X151.816 Y157.468 E.03479
G3 X150.453 Y157.441 I-.52 J-8.154 E.04826
G1 X149.669 Y157.303 E.02813
G3 X148.63 Y156.939 I9.382 J-28.466 E.03892
G1 X148.54 Y156.888 E.00366
G1 E-.35 F1800
;WIPE_START
G1 F7200
G1 X147.668 Y156.398 E-.1425
;WIPE_END
G1 E-.0075 F1800
G1 X168.596 Y137.316 F48000
G1 E.5 F4800
;TYPE:Outer wall
G1 F7200
G1 X168.355 Y136.615 E.02619
G1 X168.298 Y135.863 E.02665
G1 X168.433 Y135.127 E.02643
G1 X168.751 Y134.45 E.02644
G1 X169.23 Y133.876 E.02643
G1 X169.839 Y133.442 E.02643
G1 X170.595 Y133.164 E.02847
G1 X171.275 Y133.098 E.02414
G1 X171.712 Y133.139 E.01553
G1 X172.374 Y133.336 E.02439
G1 X173.017 Y133.717 E.02643
G1 X173.542 Y134.249 E.02643
G1 X173.916 Y134.897 E.02643
G1 X174.113 Y135.618 E.02643
G1 X174.12 Y136.366 E.02643
G1 X173.938 Y137.091 E.02642
G1 X173.577 Y137.746 E.02644
G3 X173.017 Y138.325 I-6.944 J-6.164 E.02849
G1 X172.427 Y138.682 E.02438
G1 X171.712 Y138.902 E.02643
G1 X170.965 Y138.934 E.02643
G1 X170.283 Y138.786 E.02466
G3 X169.52 Y138.402 I2.679 J-6.278 E.03021
G1 X169.01 Y137.938 E.02438
G1 X168.6 Y137.322 E.02615
G1 X168.18 Y137.475 F48000
;TYPE:Inner wall
G1 F7200
G1 X167.921 Y136.759 E.02693
G1 X167.841 Y135.893 E.03074
G1 X167.984 Y135.04 E.03057
G1 X168.339 Y134.252 E.03055
G1 X168.882 Y133.58 E.03054
G1 X169.577 Y133.067 E.03054
G1 X170.38 Y132.748 E.03054
G1 X170.55 Y132.709 E.00618
G1 X171.23 Y132.643 E.02414
G1 X171.842 Y132.701 E.02172
G1 X172.504 Y132.897 E.02439
G1 X173.254 Y133.326 E.03054
G1 X173.871 Y133.931 E.03054
G1 X174.314 Y134.672 E.03054
G1 X174.555 Y135.502 E.03054
G1 X174.577 Y136.366 E.03054
G1 X174.38 Y137.206 E.03053
G1 X173.976 Y137.97 E.03055
G3 X173.254 Y138.716 I-4.286 J-3.429 E.03673
G1 X172.664 Y139.073 E.02438
G1 X171.842 Y139.34 E.03054
G3 X170.805 Y139.374 I-.708 J-5.892 E.03672
G1 X170.133 Y139.22 E.02438
G3 X169.213 Y138.74 I2.103 J-5.152 E.03673
