; HEADER_BLOCK_START
; generated by OrcaSlicer 1.6.4-beta2 on 2023-08-17 at 13:04:15
; total layer number: 125
; HEADER_BLOCK_END

; THUMBNAIL_BLOCK_START
; THUMBNAIL_BLOCK_END

; external perimeters extrusion width = 0.40mm
; perimeters extrusion width = 0.46mm
; infill extrusion width = 0.64mm
; solid infill extrusion width = 0.56mm
; top infill extrusion width = 0.40mm
; first layer extrusion width = 0.50mm

; EXECUTABLE_BLOCK_START
EXCLUDE_OBJECT_DEFINE NAME=foot.stl_id_0_copy_0 CENTER=165,165 POLYGON=[[128.783,134.02],[128.791,133.838],[128.814,133.661],[128.853,133.491],[128.907,133.327],[128.976,133.173],[129.06,133.028],[129.157,132.894],[129.267,132.772],[132.772,129.267],[132.894,129.157],[133.028,129.06],[133.173,128.976],[133.327,128.907],[133.49,128.853],[133.661,128.814],[133.838,128.791],[134.02,128.783],[193.724,128.783],[193.766,128.784],[193.847,128.79],[193.925,128.803],[193.998,128.822],[194.071,128.848],[194.142,128.881],[195.158,129.467],[199.918,132.215],[200.93,132.8],[200.981,132.83],[201.027,132.865],[201.071,132.906],[201.11,132.953],[201.143,133.005],[201.17,133.06],[201.191,133.118],[201.205,133.177],[201.214,133.242],[201.217,133.308],[201.217,162.831],[201.211,162.97],[201.195,163.116],[201.16,163.289],[201.102,163.461],[201.065,163.538],[201.02,163.616],[200.912,163.763],[200.829,163.85],[163.85,200.829],[163.763,200.912],[163.691,200.97],[163.619,201.019],[163.453,201.105],[163.287,201.16],[163.116,201.195],[162.97,201.211],[162.831,201.217],[133.308,201.217],[133.243,201.214],[133.178,201.205],[133.118,201.191],[133.059,201.17],[133.003,201.142],[132.951,201.108],[132.904,201.069],[132.865,201.027],[132.83,200.98],[132.799,200.928],[132.215,199.918],[131.528,198.728],[130.154,196.348],[129.467,195.158],[128.881,194.142],[128.848,194.071],[128.822,193.998],[128.803,193.925],[128.79,193.847],[128.784,193.766],[128.783,193.724],[128.783,134.02]]
M73 P0 R73
;TYPE:Custom
START_PRINT T_BED=110 T_EXTRUDER=260
G90
G21
M83 ; use relative distances for extrusion
; Filament gcode
M106 S0
;LAYER_CHANGE
;Z:0.2
;HEIGHT:0.2
;BEFORE_LAYER_CHANGE
;0.2
G92 E0

SET_VELOCITY_LIMIT ACCEL=1000 ACCEL_TO_DECEL=500
G1 E-.5 F3000
G1 X129.966 Y131.855 F12000
G1 Z.2
G1 E.5 F1800
;TYPE:Skirt
;WIDTH:0.5
G1 F3000
G1 X133.128 Y128.738 E.15628
G1 X133.663 Y128.392 E.0224
G1 X134.352 Y128.084 E.02658
G1 X135.655 Y127.822 E.04677
G1 X190.405 Y127.811 E1.92688
G1 X191.232 Y127.895 E.02926
G1 X191.832 Y128.061 E.02192
G1 X192.474 Y128.368 E.02503
G1 X193.033 Y128.78 E.02442
G1 X193.56 Y129.367 E.02779
G1 X193.821 Y129.792 E.01753
G1 X194.095 Y130.483 E.02618
G1 X194.223 Y131.247 E.02727
G1 X194.225 Y165.111 E1.19179
G1 X194.169 Y165.594 E.01712
G1 X193.941 Y166.358 E.02806
G1 X193.588 Y167.014 E.0262
G1 X193.076 Y167.639 E.02846
G1 X167.639 Y193.076 E1.26601
G1 X167.014 Y193.588 E.02846
G1 X166.278 Y193.973 E.02922
G1 X165.591 Y194.169 E.02516
G1 X164.928 Y194.231 E.02342
G1 X131.472 Y194.231 E1.17746
G1 X130.864 Y194.18 E.02146
G1 X130.161 Y193.988 E.02563
G1 X129.729 Y193.788 E.01677
G1 X129.06 Y193.314 E.02886
G1 X128.531 Y192.723 E.0279
G1 X128.164 Y192.084 E.02592
G1 X127.895 Y191.232 E.03145
G1 X127.811 Y190.403 E.02934
G1 X127.811 Y135.962 E1.91597
G1 X127.868 Y135.22 E.0262
G1 X128.084 Y134.352 E.03147
G1 X128.476 Y133.517 E.03247
G1 X129.042 Y132.766 E.0331
G1 X129.937 Y131.883 E.04426
G1 X130.257 Y132.207 F12000
G1 F3000
G1 X133.396 Y129.108 E.15524
G1 X134.496 Y128.518 E.04394
G1 X135.674 Y128.278 E.04232
G1 X190.405 Y128.268 E1.92618
G1 X191.133 Y128.341 E.02573
G1 X191.679 Y128.492 E.01994
G1 X192.243 Y128.763 E.02202
G1 X192.725 Y129.118 E.02106
G1 X193.418 Y130.007 E.03969
G1 X193.654 Y130.602 E.02253
G1 X193.767 Y131.27 E.02385
G1 X193.774 Y164.928 E1.18455
G1 X193.718 Y165.516 E.02078
G1 X193.517 Y166.187 E.02464
G1 X193.205 Y166.765 E.02313
G1 X192.752 Y167.316 E.02509
G1 X167.316 Y192.752 E1.26601
G1 X166.765 Y193.205 E.02509
G1 X166.107 Y193.549 E.02615
G1 X165.513 Y193.719 E.02172
G1 X164.928 Y193.774 E.02068
G1 X131.472 Y193.774 E1.17746
G1 X130.934 Y193.728 E.01898
G1 X130.329 Y193.563 E.02207
G1 X129.362 Y192.97 E.03994
G1 X128.9 Y192.453 E.0244
G1 X128.579 Y191.891 E.02278
G1 X128.341 Y191.133 E.02797
G1 X128.268 Y190.403 E.02582
G1 X128.268 Y135.962 E1.91597
G1 X128.321 Y135.28 E.02408
G1 X128.518 Y134.496 E.02845
G1 X128.872 Y133.745 E.02923
G1 X129.382 Y133.071 E.02973
G1 X130.229 Y132.235 E.04189
; printing object foot.stl id:0 copy 0
EXCLUDE_OBJECT_START NAME=foot.stl_id_0_copy_0
G1 E-.5
G1 X176.652 Y179.537 F12000
G1 E.5 F1800
;TYPE:Outer wall
G1 F3000
G2 X176.907 Y179.333 I-7.662 J-9.86 E.01148
G1 X175.647 Y180.593 E.06269
G3 X174.538 Y181.586 I-10.748 J-10.889 E.0524
G2 X173.457 Y182.642 I19.178 J20.721 E.0532
G1 X165.341 Y190.758 E.40394
G3 X164.918 Y190.967 I-.453 J-.383 E.01708
G1 X131.482 Y190.967 E1.17674
G3 X131.086 Y190.547 I.021 J-.416 E.02243
G1 X131.075 Y135.97 E1.9208
G3 X131.463 Y134.955 I1.474 J-.019 E.03916
G1 X134.955 Y131.463 E.17379
G3 X135.97 Y131.075 I.997 J1.086 E.03916
G1 X136.462 Y131.075 E.01731
G1 X190.393 Y131.075 E1.89805
G3 X190.933 Y131.313 I.074 J.565 E.02184
G3 X190.967 Y131.481 I-.452 J.178 E.00603
G1 X190.967 Y164.917 E1.17676
G3 X190.758 Y165.341 I-.592 J-.029 E.01711
G1 X182.288 Y173.811 E.42154
G2 X180.939 Y175.301 I12.806 J12.949 E.07078
G1 X179.38 Y176.86 E.07759
G2 X180.77 Y174.796 I-15.226 J-11.756 E.08763
G2 X181.59 Y173.29 I-5.921 J-4.198 E.0605
G2 X173.955 Y181.278 I-14.09 J-5.824 E2.97343
G2 X174.987 Y180.63 I-3.667 J-6.978 E.04292
G2 X176.62 Y179.561 I-5.998 J-10.953 E.06875
G1 E-.5
G1 X172.959 Y182.188 F12000
G1 E.5 F1800
;TYPE:Inner wall
G1 F3000
G1 X173.078 Y182.374 E.00778
G1 X164.927 Y190.51 E.40531
G1 X131.542 Y190.51 E1.17496
G1 X131.532 Y135.98 E1.91913
G3 X131.795 Y135.269 I.995 J-.036 E.02733
G1 X135.269 Y131.795 E.17293
G3 X135.98 Y131.532 I.675 J.733 E.02733
G1 X136.462 Y131.532 E.01697
G1 X190.51 Y131.533 E1.90216
G1 X190.51 Y164.927 E1.17528
G1 X182.409 Y173.043 E.40356
G1 X182.223 Y172.922 E.00783
G2 X167.327 Y151.766 I-14.728 J-5.452 E1.07006
G1 X167.327 Y151.766 E0
G2 X172.921 Y182.202 I.17 J15.701 E1.92501
G1 E-.5
G1 X176.501 Y179.338 F12000
G1 X177.117 Y178.845
G1 X177.706 Y178.319
G1 X178.213 Y177.819
G1 X178.746 Y177.237
G1 X179.248 Y176.628
G1 X179.716 Y175.993
G1 X180.151 Y175.334
G1 X180.55 Y174.653
G1 X182.155 Y171.863
G1 X182.381 Y171.45
G1 X182.558 Y171.127
G1 X182.718 Y170.794
G1 X182.816 Y170.34
G1 X182.946 Y169.525
G1 X183.034 Y168.704
G1 X183.077 Y167.88
G1 X183.077 Y167.054
G1 X183.034 Y166.23
G1 X182.946 Y165.409
G1 X182.816 Y164.594
G1 X182.662 Y163.877
G1 X182.641 Y163.784
G1 X182.426 Y162.99
G1 X182.168 Y162.206
G1 X181.869 Y161.436
G1 X178.564 Y153.223
G1 X178.402 Y152.738
G1 X178.285 Y152.238
G1 X178.214 Y151.731
G1 X178.211 Y151.659
G1 X178.19 Y151.217
G1 X178.211 Y150.775
G1 X178.214 Y150.703
G1 X178.275 Y150.263
G1 X178.286 Y150.191
G1 X178.401 Y149.697
G1 X178.549 Y149.251
G1 X178.75 Y148.781
G1 X178.994 Y148.33
G1 X179.279 Y147.903
G1 X179.603 Y147.504
G1 X179.909 Y147.191
G1 X180.149 Y147.425
G1 E.5 F1800
;TYPE:Outer wall
G1 F3000
G1 X180.191 Y147.383 E.00209
G3 X183.164 Y146.003 I3.587 J3.832 E.11732
G1 X183.645 Y145.968 E.01698
G3 X179.855 Y147.729 I.133 J5.247 E1.00931
G1 X180.121 Y147.454 E.01347
G1 X179.891 Y147.037 F12000
;TYPE:Inner wall
G1 F3000
G1 X180.278 Y146.709 E.01784
G3 X183.111 Y145.548 I3.5 J4.506 E.10908
G1 X183.634 Y145.511 E.01846
G3 X179.862 Y147.065 I.144 J5.704 E1.11492
G1 E-.5
G1 X174.171 Y134.825 F12000
G1 X173.994 Y134.457
G1 X173.771 Y134.114
G1 X173.506 Y133.803
G1 X173.204 Y133.529
G1 X172.869 Y133.295
G1 X172.507 Y133.106
G1 X172.124 Y132.965
G1 X171.725 Y132.874
G1 X171.312 Y132.835
G1 X170.911 Y132.848
G1 X170.508 Y132.914
G1 X170.171 Y133.013
G1 X170.267 Y133.335
G1 E.5 F1800
;TYPE:Outer wall
G1 F3000
G1 X170.582 Y133.241 E.01159
G3 X170.943 Y133.183 I.631 J2.778 E.01287
G1 X171.301 Y133.172 E.01262
G3 X170.228 Y133.346 I-.088 J2.847 E.59144
G1 X170.097 Y132.909 F12000
;TYPE:Inner wall
G1 F3000
G1 X170.481 Y132.795 E.01408
G3 X170.899 Y132.727 I.733 J3.224 E.01493
G1 X171.316 Y132.714 E.01466
G3 X170.059 Y132.92 I-.102 J3.305 E.68602
G1 E-.5
G1 X151.023 Y145.475 F12000
G1 E.5 F1800
;TYPE:Outer wall
G1 F3000
G1 X151.206 Y145.467 E.00642
G3 X151.709 Y145.488 I.016 J5.649 E.01775
G3 X150.744 Y145.487 I-.488 J5.727 E1.23709
G1 X150.983 Y145.476 E.00842
G1 X151.222 Y145.01 F12000
;TYPE:Inner wall
G1 F3000
G1 X151.746 Y145.04 E.01848
G3 X152.292 Y145.103 I-.583 J7.444 E.01936
G3 X150.705 Y145.031 I-1.072 J6.112 E1.31619
G3 X151.183 Y145.017 I.458 J7.453 E.01684
G1 E-.5
G1 X169.965 Y132.471 F12000
G1 E.5 F1800
G1 F3000
G1 X169.919 Y132.493 E.00179
G2 X173.923 Y133.4 I1.305 J3.53 E.6793
G2 X171.275 Y132.251 I-2.734 J2.674 E.10417
G1 X171.287 Y131.99 E.00921
G1 X190.053 Y131.99 E.66043
G1 X190.053 Y149.911 E.63074
G1 X189.816 Y149.944 E.00842
G2 X180.459 Y156.414 I-6.03 J1.28 E.85337
G2 X189.816 Y152.49 I3.312 J-5.219 E.41882
G1 X190.053 Y152.522 E.00842
G1 X190.053 Y164.753 E.43045
G1 X183.373 Y171.433 E.33244
G1 X183.193 Y171.335 E.00722
G2 X167.321 Y151.309 I-15.696 J-3.862 E1.03706
G1 X167.321 Y151.309 E0
G2 X156.648 Y155.479 I.175 J16.191 E.4122
G1 X156.47 Y155.309 E.00868
G2 X151.789 Y157.858 I-5.26 J-4.088 E1.28025
M73 P0 R72
G2 X155.336 Y156.45 I-.614 J-6.719 E.13616
G1 X155.506 Y156.63 E.00873
G2 X171.363 Y183.157 I11.988 J10.837 E1.44888
G1 X171.467 Y183.339 E.00737
G1 X164.753 Y190.053 E.33415
G1 X152.209 Y190.053 E.44148
G1 X152.184 Y189.806 E.00871
G2 X149.941 Y189.748 I-.964 J-6.086 E1.28325
G1 X150.26 Y189.801 E.01136
G1 X150.239 Y190.053 E.00889
G1 X131.99 Y190.053 E.64227
G1 X131.99 Y171.356 E.658
G1 X132.246 Y171.339 E.00904
G2 X133.873 Y174.31 I3.901 J-.205 E.1233
G2 X132.322 Y170.505 I2.148 J-3.094 E.67986
G1 X132.246 Y171.096 E.02097
G1 X131.99 Y171.079 E.00905
G1 X131.99 Y135.989 E1.23494
G3 X132.127 Y135.584 I.522 J-.049 E.01552
G1 X135.584 Y132.127 E.17208
G3 X135.989 Y131.99 I.356 J.385 E.01552
G1 X136.462 Y131.99 E.01662
G1 X171.223 Y131.99 E1.22337
G1 X171.227 Y132.259 E.0095
G2 X170.38 Y132.355 I-.003 J3.763 E.03006
G1 X170.003 Y132.461 E.01378
G1 X168.706 Y132.63 F12000
G1 F3000
G2 X173.738 Y132.639 I2.51 J3.394 E.74374
G1 X173.798 Y132.447 E.00708
G1 X189.596 Y132.447 E.55597
G1 X189.596 Y147.667 E.53565
G1 X189.395 Y147.723 E.00732
G2 X177.873 Y154.207 I-5.619 J3.496 E.71117
G1 X177.701 Y154.351 E.0079
G2 X167.315 Y150.852 I-10.173 J13.031 E.39313
G1 X167.315 Y150.852 E0
G2 X158.06 Y153.789 I.145 J16.505 E.34684
G1 X157.904 Y153.673 E.00685
G2 X153.685 Y157.9 I-6.685 J-2.453 E1.35777
G1 X153.801 Y158.058 E.00691
G2 X154.373 Y177.658 I13.695 J9.408 E.73812
G1 X154.232 Y177.828 E.00778
G2 X147.814 Y189.392 I-3.014 J5.89 E.71592
G1 X147.76 Y189.596 E.00741
G1 X132.447 Y189.596 E.53894
G1 X132.447 Y173.791 E.55623
M73 P1 R72
G1 X132.634 Y173.729 E.00697
G2 X132.634 Y168.705 I3.391 J-2.512 E.7438
G1 X132.447 Y168.643 E.00697
G1 X132.451 Y135.906 E1.15212
G1 X135.906 Y132.451 E.172
G3 X136.462 Y132.447 I.324 J6.442 E.01955
G1 X168.642 Y132.447 E1.13255
G1 X168.693 Y132.593 E.00544
G1 E-.5
G1 X168.088 Y135.419 F12000
G1 X168.036 Y135.817
G1 X168.036 Y136.226
G1 X168.09 Y136.637
G1 X168.192 Y137.025
G1 X168.345 Y137.404
G1 X180.065 Y158.258
G1 X180.279 Y158.549
G1 X180.733 Y159.238
G1 X181.15 Y159.95
G1 X181.529 Y160.684
G1 X181.869 Y161.436
G1 X182.168 Y162.206
G1 X182.426 Y162.99
G1 X182.641 Y163.784
G1 X182.662 Y163.877
G1 X182.816 Y164.594
G1 X183.924 Y169.967
G1 E.5 F1800
G1 F3000
G2 X180.628 Y157.277 I-16.404 J-2.512 E.47435
G1 X180.762 Y157.113 E.00748
G2 X189.395 Y154.711 I3.008 J-5.905 E.34635
G1 X189.596 Y154.767 E.00732
G1 X189.596 Y164.564 E.3448
G1 X184.102 Y170.058 E.27344
G1 X183.96 Y169.985 E.00561
G1 E-.5
G1 X179.716 Y175.993 F12000
G1 X179.248 Y176.628
G1 X178.746 Y177.237
G1 X178.213 Y177.819
G1 X177.706 Y178.319
G1 X177.117 Y178.845
G1 X176.501 Y179.338
G1 X175.86 Y179.798
G1 X170 Y183.893
G1 E.5 F1800
G1 F3000
G1 X170.089 Y184.07 E.00697
G1 X164.564 Y189.596 E.275
G1 X154.671 Y189.596 E.34817
G1 X154.613 Y189.399 E.00722
G2 X157.11 Y180.708 I-3.405 J-5.682 E.35027
G1 X157.277 Y180.57 E.00763
G1 X157.806 Y180.971 E.02336
G2 X169.961 Y183.899 I9.684 J-13.506 E.45109
G1 E-.5
G1 X164.421 Y182.746 F12000
G1 X163.616 Y182.562
G1 X162.823 Y182.335
G1 X162.042 Y182.067
G1 X161.361 Y181.793
G1 X153.093 Y178.455
G1 X138.008 Y173.709
G1 X137.673 Y173.942
G1 X137.311 Y174.131
G1 X136.928 Y174.272
G1 X136.529 Y174.363
G1 X136.123 Y174.402
G1 X135.715 Y174.389
G1 X135.312 Y174.324
G1 X134.92 Y174.208
G1 X134.547 Y174.043
G1 X134.204 Y173.835
G1 X133.879 Y173.577
G1 X133.594 Y173.283
G1 X133.35 Y172.956
G1 X133.149 Y172.6
G1 X132.996 Y172.221
G1 X132.98 Y172.162
G1 X133.305 Y172.077
G1 E.5 F1800
;TYPE:Outer wall
G1 F3000
G1 X133.223 Y171.769 E.01122
G3 X135.747 Y168.379 I2.794 J-.554 E.16756
G1 X136.105 Y168.368 E.01262
G3 X133.315 Y172.116 I-.088 J2.847 E.43712
G1 X132.89 Y172.282 F12000
;TYPE:Inner wall
G1 F3000
G1 X132.88 Y172.26 E.00085
G3 X135.703 Y167.923 I3.137 J-1.045 E.20913
G1 X136.119 Y167.91 E.01466
G3 X133.04 Y172.652 I-.102 J3.305 E.49238
G1 X132.905 Y172.319 E.01267
G1 E-.5
G1 X133.35 Y172.956 F12000
G1 X133.594 Y173.283
G1 X147.043 Y187.429
G1 X147.401 Y187.797
G1 X147.791 Y188.13
G1 X148.211 Y188.426
G1 X148.656 Y188.682
G1 X149.122 Y188.896
G1 X149.605 Y189.065
G1 X149.763 Y189.106
G1 X149.847 Y188.781
G1 E.5 F1800
;TYPE:Outer wall
G1 F3000
G1 X149.704 Y188.74 E.00523
G3 X150.604 Y178.503 I1.514 J-5.025 E.50458
G1 X151.085 Y178.468 E.01698
G3 X150.13 Y188.85 I.133 J5.247 E.62355
G1 X149.885 Y188.79 E.00885
G1 X149.554 Y189.176 F12000
;TYPE:Inner wall
G1 F3000
G1 X149.078 Y189.004 E.0178
G3 X150.551 Y178.048 I2.14 J-5.289 E.53013
G1 X151.074 Y178.011 E.01846
G3 X149.593 Y189.184 I.144 J5.704 E.69393
G1 X149.184 Y189.799 F12000
;TYPE:Gap infill
;WIDTH:0.10292
G1 F3000
G1 X149.052 Y189.777 E.00062
;WIDTH:0.144536
G1 X148.921 Y189.754 E.00105
;WIDTH:0.221823
G3 X148.001 Y189.578 I3.328 J-19.897 E.0129
G1 E-.5
G1 X150.477 Y189.946 F12000
G1 E.5 F1800
;WIDTH:0.678907
G1 F3000
G2 X151.647 Y189.96 I.808 J-18.468 E.05728
G1 X151.933 Y189.606 E.02232
G1 X153.259 Y189.799 F12000
;WIDTH:0.129426
G1 F3000
G1 X153.377 Y189.781 E.0008
;WIDTH:0.175554
G1 X153.499 Y189.757 E.00126
;WIDTH:0.223333
G1 X153.616 Y189.734 E.00166
;WIDTH:0.269591
G1 X153.734 Y189.711 E.00209
;WIDTH:0.31585
G1 X153.852 Y189.688 E.00252
;WIDTH:0.362108
G1 X153.969 Y189.665 E.00294
;WIDTH:0.368658
G1 X154.423 Y189.564 E.01167
G1 E-.5
G1 X156.116 Y186.402 F12000
G1 X156.342 Y185.941
G1 X156.5 Y185.526
G1 X156.525 Y185.458
G1 X156.662 Y184.966
G1 X156.753 Y184.461
G1 X156.798 Y183.952
G1 X157.047 Y180.463
G1 E.5 F1800
;WIDTH:0.533027
G1 F3000
G1 X156.866 Y180.252 E.0105
;WIDTH:0.483148
G1 X156.685 Y180.041 E.00944
;WIDTH:0.433269
G1 X156.673 Y180.027 E.00054
;WIDTH:0.428322
G1 X156.577 Y179.925 E.00416
;WIDTH:0.394363
G1 X156.475 Y179.816 E.00403
;WIDTH:0.362358
G1 X156.375 Y179.704 E.00371
;WIDTH:0.333784
G1 X156.266 Y179.582 E.00365
;WIDTH:0.282224
G1 X155.856 Y179.161 E.01083
G2 X155.424 Y178.737 I-137.025 J139.102 E.01115
;WIDTH:0.295382
G1 X155.304 Y178.629 E.00315
;WIDTH:0.318041
G1 X155.166 Y178.498 E.00403
;WIDTH:0.357958
G1 X155.016 Y178.357 E.00499
;WIDTH:0.395984
G1 X154.898 Y178.254 E.00426
;WIDTH:0.440162
G1 X154.779 Y178.152 E.00479
;WIDTH:0.507392
G1 X154.661 Y178.049 E.0056
G1 X154.662 Y177.668 E.01361
G1 X153.84 Y177.331 F12000
;WIDTH:0.14564
G1 F3000
G1 X153.51 Y177.23 E.00273
G1 E-.5
G1 X159.8 Y181.02 F12000
G1 X160.529 Y181.408
G1 X161.273 Y181.756
G1 X161.361 Y181.793
G1 X162.042 Y182.067
G1 X162.823 Y182.335
G1 X168.818 Y184.169
G1 E.5 F1800
;TYPE:Bottom surface
;WIDTH:0.500053
G1 F6300
G1 X169.162 Y184.513 E.0171
G1 X168.839 Y184.836 E.01609
G1 X168.405 Y184.403 E.02156
G1 X167.784 Y184.428 E.0219
G1 X168.515 Y185.159 E.03642
G1 X168.192 Y185.483 E.01609
G1 X167.132 Y184.422 E.05278
G3 X166.457 Y184.394 I-.07 J-6.379 E.02379
G1 X167.869 Y185.806 E.07028
G1 X167.546 Y186.129 E.01609
G1 X165.755 Y184.338 E.08914
