; HEADER_BLOCK_START
; generated by OrcaSlicer 1.6.3 on 2023-07-03 at 10:54:55
; total layer number: 65
; HEADER_BLOCK_END

; THUMBNAIL_BLOCK_START
; THUMBNAIL_BLOCK_END

; external perimeters extrusion width = 0.42mm
; perimeters extrusion width = 0.45mm
; infill extrusion width = 0.45mm
; solid infill extrusion width = 0.42mm
; top infill extrusion width = 0.42mm
; first layer extrusion width = 0.50mm

; EXECUTABLE_BLOCK_START
EXCLUDE_OBJECT_DEFINE NAME=Frame_Brace.stl_id_0_copy_0 CENTER=160,170 POLYGON=[[87.967,99.967],[89.967,97.967],[97.967,97.967],[101.381,99.3812],[230.619,228.619],[232.033,232.033],[232.033,240.033],[230.033,242.033],[196.033,242.033],[192.619,240.619],[174.284,222.284],[89.3812,137.381],[87.967,133.967],[87.967,99.967]]
M73 P0 R58
;TYPE:Custom
START_PRINT T_BED=110 T_EXTRUDER=260
G90
G21
M83 ; use relative distances for extrusion
; filament start gcode

    PRESSURE_ADVANCE_SELECT FILAMENT=ABS
M106 S0
;LAYER_CHANGE
;Z:0.2
;HEIGHT:0.2
;BEFORE_LAYER_CHANGE
;0.2
G92 E0

G1 E-.5 F2400
M204 S1000
G1 X87.906 Y97.753 F12000
G1 Z.2
G1 E.5 F1800
;TYPE:Skirt
;WIDTH:0.5
G1 X89.967 Y96.899 E.0785
G1 X99.048 Y96.899 E.31961
G1 X100.164 Y97.121 E.04002
G1 X101.372 Y97.861 E.04987
G1 X232.139 Y228.628 E6.50849
G1 X232.879 Y229.836 E.04987
G1 X233.101 Y230.952 E.04002
G1 X233.101 Y240.033 E.31961
G1 X232.247 Y242.094 E.0785
G1 X232.094 Y242.247 E.00766
G1 X230.033 Y243.101 E.0785
G1 X194.952 Y243.101 E1.23465
G1 X193.836 Y242.879 E.04002
G1 X192.628 Y242.139 E.04987
G1 X87.861 Y137.372 E5.21442
G1 X87.121 Y136.164 E.04987
G1 X86.899 Y135.048 E.04002
G1 X86.899 Y99.967 E1.23465
G1 X87.753 Y97.906 E.0785
G1 X87.864 Y97.795 E.00555
G1 X88.187 Y98.118 F12000
G1 F1800
G1 X88.23 Y98.076 E.00211
G1 X89.967 Y97.356 E.06618
G1 X99.048 Y97.356 E.31961
G1 X99.989 Y97.543 E.03374
G1 X101.049 Y98.185 E.0436
G1 X231.815 Y228.952 E6.50849
G1 X232.457 Y230.011 E.0436
G1 X232.644 Y230.952 E.03374
G1 X232.644 Y240.033 E.31961
G1 X231.924 Y241.77 E.06618
G1 X231.77 Y241.924 E.00766
G1 X230.033 Y242.644 E.06618
G1 X194.952 Y242.644 E1.23465
G1 X194.011 Y242.457 E.03374
G1 X192.952 Y241.815 E.0436
G1 X88.185 Y137.048 E5.21442
G1 X87.543 Y135.989 E.0436
G1 X87.356 Y135.048 E.03374
G1 X87.356 Y99.967 E1.23465
G1 X88.076 Y98.23 E.06618
G1 X88.145 Y98.161 E.00343
; printing object Frame_Brace.stl id:0 copy 0
EXCLUDE_OBJECT_START NAME=Frame_Brace.stl_id_0_copy_0
G1 E-.35 F2400
;WIPE_START
G1 F1800
G1 X88.23 Y98.076 E-.00855
G1 X89.966 Y97.356 E-.13395
;WIPE_END
G1 E-.0075 F2400
G1 X90.163 Y100.163 F12000
G1 E.5 F1800
;TYPE:Outer wall
G1 X98.979 Y100.163 E.31026
G1 X99.113 Y100.219 E.0051
G1 X131.153 Y132.259 E1.59471
G3 X131.984 Y134.265 I-2.107 J2.048 E.07825
G1 X131.984 Y137.189 E.10291
G2 X134.086 Y142.263 I7.209 J-.014 E.19828
G1 X187.737 Y195.914 E2.67034
M73 P1 R57
G2 X192.811 Y198.016 I5.082 J-5.094 E.1983
G1 X195.735 Y198.016 E.10291
G3 X197.741 Y198.847 I.004 J2.827 E.07841
G1 X229.781 Y230.887 E1.59471
G1 X229.837 Y231.021 E.0051
G1 X229.837 Y239.837 E.31026
G1 X195.021 Y239.837 E1.2253
G1 X194.887 Y239.781 E.0051
G1 X175.847 Y220.741 E.94768
G3 X175.016 Y218.735 I2.107 J-2.048 E.07825
G1 X175.016 Y215.811 E.10291
G2 X172.914 Y210.737 I-7.196 J.009 E.1983
G1 X119.263 Y157.086 E2.67034
G2 X114.189 Y154.984 I-5.082 J5.095 E.1983
G1 X111.265 Y154.984 E.10291
G3 X109.259 Y154.153 I.034 J-2.917 E.07828
G1 X90.219 Y135.113 E.94768
G1 X90.163 Y134.979 E.0051
G1 X90.163 Y100.171 E1.22502
G1 X90.232 Y100.203
G1 X90.62 Y100.62 F12000
;TYPE:Inner wall
G1 F1800
G1 X98.868 Y100.62 E.29027
G1 X130.818 Y132.57 E1.59019
G3 X131.527 Y134.282 I-1.756 J1.73 E.06686
G1 X131.527 Y137.2 E.1027
G2 X133.754 Y142.578 I7.667 J-.026 E.21012
G1 X187.422 Y196.246 E2.67114
G2 X192.8 Y198.473 I5.394 J-5.418 E.21015
G1 X195.718 Y198.473 E.1027
G3 X197.43 Y199.182 I-.015 J2.458 E.06687
G1 X229.38 Y231.132 E1.59019
G1 X229.38 Y239.38 E.29027
G1 X195.132 Y239.38 E1.20531
G1 X176.182 Y220.43 E.94316
G3 X175.473 Y218.718 I1.756 J-1.73 E.06686
G1 X175.473 Y215.8 E.1027
G2 X173.246 Y210.422 I-7.647 J.017 E.21015
G1 X119.578 Y156.754 E2.67114
G2 X114.2 Y154.527 I-5.395 J5.419 E.21015
G1 X111.282 Y154.527 E.1027
G3 X109.57 Y153.818 I.015 J-2.458 E.06687
G1 X90.62 Y134.868 E.94316
G1 X90.62 Y100.628 E1.20503
G1 X91.077 Y101.077 F12000
G1 F1800
G1 X98.679 Y101.077 E.26752
G1 X130.482 Y132.881 E1.58291
G3 X131.07 Y134.3 I-1.413 J1.416 E.05547
G1 X131.07 Y137.212 E.10248
G2 X133.423 Y142.893 I8.126 J-.038 E.22195
G1 X187.107 Y196.577 E2.67193
G2 X192.789 Y198.93 I5.707 J-5.743 E.222
G1 X195.7 Y198.93 E.10248
G3 X197.119 Y199.518 I.002 J2.001 E.05547
G1 X228.923 Y231.321 E1.58291
G1 X228.923 Y238.923 E.26752
G1 X195.321 Y238.923 E1.18256
G1 X176.518 Y220.119 E.93588
M73 P2 R57
G3 X175.93 Y218.7 I1.413 J-1.416 E.05547
G1 X175.93 Y215.789 E.10248
G2 X173.577 Y210.107 I-8.097 J.026 E.222
G1 X119.893 Y156.423 E2.67193
G2 X114.212 Y154.07 I-5.707 J5.744 E.222
G1 X111.3 Y154.07 E.10248
G3 X109.881 Y153.482 I-.002 J-2.001 E.05547
G1 X91.077 Y134.679 E.93588
G1 X91.077 Y101.085 E1.18228
G1 X91.534 Y101.534 F12000
G1 F1800
G1 X98.489 Y101.534 E.24477
G1 X130.147 Y133.192 E1.57564
G3 X130.613 Y134.317 I-1.079 J1.106 E.04407
G1 X130.613 Y137.223 E.10226
G2 X133.092 Y143.208 I8.584 J-.05 E.23379
G1 X186.792 Y196.908 E2.67273
G2 X192.777 Y199.387 I6.019 J-6.068 E.23385
G1 X195.683 Y199.387 E.10226
G3 X196.808 Y199.853 I.019 J1.545 E.04407
G1 X228.466 Y231.511 E1.57564
G1 X228.466 Y238.466 E.24477
G1 X195.511 Y238.466 E1.15981
G1 X176.853 Y219.808 E.9286
G3 X176.387 Y218.683 I1.079 J-1.106 E.04407
G1 X176.387 Y215.777 E.10226
G2 X173.908 Y209.792 I-8.548 J.035 E.23384
G1 X120.208 Y156.092 E2.67273
G2 X114.223 Y153.613 I-6.02 J6.069 E.23384
G1 X111.317 Y153.613 E.10226
G3 X110.192 Y153.147 I-.019 J-1.545 E.04407
G1 X91.534 Y134.489 E.9286
G1 X91.534 Y101.542 E1.15953
G1 E-.5 F2400
G1 X101.808 Y107.689 F12000
G1 X101.879 Y107.733
G1 X102.405 Y108.093
G1 X102.915 Y108.542
G1 X127.16 Y132.787
G1 X127.571 Y133.249
G1 X127.919 Y133.739
G1 X128.23 Y134.298
G1 X128.475 Y134.889
G1 X128.642 Y135.467
G1 X132.343 Y155.343
G1 X131.14 Y156.546
G1 X130.7 Y157.043
G1 X130.313 Y157.608
G1 X130.017 Y158.172
G1 X129.986 Y158.248
G1 X129.768 Y158.823
G1 X129.623 Y159.411
G1 X129.603 Y159.492
G1 X129.523 Y160.17
G1 X129.523 Y160.818
G1 X129.604 Y161.498
G1 X129.768 Y162.166
G1 X130.012 Y162.806
G1 X130.313 Y163.38
G1 X130.7 Y163.945
G1 X131.14 Y164.442
G1 X178.213 Y212.598
G1 X178.213 Y216.285
G1 X178.248 Y216.902
G1 X178.349 Y217.495
G1 X178.524 Y218.11
G1 X178.77 Y218.702
G1 X179.081 Y219.261
G1 X179.429 Y219.751
G1 X179.84 Y220.213
G1 X194.64 Y235.013
G1 X195.101 Y235.424
G1 X195.592 Y235.772
G1 X196.133 Y236.073
G1 X196.3 Y235.773
G1 E.5 F1800
;TYPE:Outer wall
G3 X194.871 Y234.769 I2.33 J-4.84 E.06175
G1 X180.084 Y219.982 E.73597
G3 X178.549 Y216.276 I3.836 J-3.76 E.1447
G1 X178.549 Y211.666 E.16224
G3 X180.084 Y207.959 I5.317 J.031 E.14478
M73 P2 R56
G1 X184.959 Y203.084 E.24265
G3 X188.665 Y201.549 I3.76 J3.836 E.1447
G1 X193.276 Y201.549 E.16225
G3 X196.982 Y203.084 I-.054 J5.371 E.1447
G1 X221.213 Y227.315 E1.20603
G3 X217.49 Y236.304 I-3.751 J3.712 E.43565
G1 X198.577 Y236.304 E.66562
G3 X196.308 Y235.776 I.054 J-5.371 E.08266
G1 X196.235 Y235.818
G1 X196.076 Y236.181 F12000
;TYPE:Inner wall
G1 F1800
G1 X195.531 Y235.869 E.02211
G3 X194.557 Y235.101 I3.1 J-4.937 E.04373
G1 X179.751 Y220.296 E.73689
G3 X178.092 Y216.289 I4.17 J-4.075 E.1564
G1 X178.092 Y211.653 E.16316
G3 X179.751 Y207.645 I5.785 J.048 E.15649
G1 X184.645 Y202.751 E.24357
G3 X188.652 Y201.092 I4.075 J4.17 E.1564
G1 X193.289 Y201.092 E.16318
G3 X197.296 Y202.751 I-.067 J5.83 E.1564
G1 X221.547 Y227.002 E1.207
G3 X217.504 Y236.761 I-4.085 J4.025 E.47254
G1 X198.564 Y236.761 E.66659
G3 X196.102 Y236.184 I.067 J-5.83 E.08972
G1 X196.084 Y236.182 E.00061
G1 X195.943 Y236.623 F12000
G1 F1800
G1 X195.903 Y236.596 E.00172
G3 X194.243 Y235.434 I2.729 J-5.666 E.07161
G1 X179.419 Y220.61 E.73782
G3 X177.634 Y216.302 I4.504 J-4.389 E.16811
G1 X177.634 Y211.64 E.16407
G3 X179.419 Y207.331 I6.253 J.066 E.1682
G1 X184.331 Y202.419 E.2445
G3 X188.639 Y200.634 I4.389 J4.504 E.16811
M73 P3 R56
G1 X193.302 Y200.634 E.16411
G3 X197.61 Y202.419 I-.081 J6.288 E.16811
G1 X221.88 Y226.689 E1.20797
G3 X219.012 Y237.027 I-4.414 J4.342 E.45665
G1 X218.252 Y237.172 E.02723
G1 X217.519 Y237.218 E.02586
G1 X198.551 Y237.218 E.66756
G3 X196.556 Y236.866 I.081 J-6.288 E.07161
G1 X195.95 Y236.626 E.02292
G1 X195.636 Y236.982 F12000
G1 F1800
G1 X195.043 Y236.642 E.02402
G3 X193.929 Y235.766 I3.589 J-5.714 E.04997
G1 X179.086 Y220.924 E.73874
G3 X177.177 Y216.315 I4.838 J-4.704 E.17982
G1 X177.177 Y211.627 E.16499
G3 X179.086 Y207.017 I6.721 J.083 E.1799
G1 X184.017 Y202.086 E.24542
G3 X188.626 Y200.177 I4.704 J4.838 E.17982
G1 X193.315 Y200.177 E.16503
G3 X197.924 Y202.086 I-.095 J6.747 E.17982
G1 X222.214 Y226.376 E1.20894
G1 X222.728 Y226.96 E.02738
G3 X224.032 Y229.942 I-5.593 J4.223 E.11562
G1 X224.117 Y230.772 E.02936
G1 X224.097 Y231.602 E.02921
G1 X223.983 Y232.384 E.02781
G1 X223.764 Y233.186 E.02925
G1 X223.445 Y233.957 E.02938
G1 X223.033 Y234.679 E.02925
G1 X222.56 Y235.312 E.02781
G1 X221.988 Y235.913 E.02921
G1 X221.341 Y236.44 E.02936
G3 X220.626 Y236.885 I-27.273 J-43.038 E.02964
G1 X219.878 Y237.229 E.02899
G1 X219.125 Y237.47 E.02781
G1 X218.31 Y237.626 E.02922
G1 X217.533 Y237.675 E.02739
G1 X198.538 Y237.675 E.66853
G3 X195.704 Y237.007 I.095 J-6.747 E.10329
G1 X195.643 Y236.984 E.00228
G1 E-.5 F2400
G1 X179.84 Y220.213 F12000
G1 X179.429 Y219.751
G1 X179.081 Y219.261
G1 X165.997 Y199.249
G1 X165.558 Y198.86
G1 X131.14 Y164.442
G1 X130.7 Y163.945
G1 X130.313 Y163.38
G1 X130.012 Y162.806
G1 X129.768 Y162.166
G1 X129.604 Y161.498
G1 X127.571 Y144.81
G1 X127.919 Y144.32
G1 X128.23 Y143.761
G1 X128.476 Y143.169
G1 X128.651 Y142.554
G1 X128.752 Y141.961
G1 X128.787 Y141.344
G1 X128.787 Y136.715
G1 X128.756 Y136.169
G1 X128.75 Y136.088
G1 X128.642 Y135.467
G1 X128.475 Y134.889
G1 X128.23 Y134.298
G1 X127.919 Y133.739
G1 X127.571 Y133.249
G1 X127.16 Y132.787
G1 X102.915 Y108.542
G1 X102.405 Y108.093
G1 X101.879 Y107.733
G1 X101.808 Y107.689
G1 X101.246 Y107.4
G1 X101.169 Y107.368
G1 X100.573 Y107.15
G1 X99.888 Y106.991
G1 X99.189 Y106.92
G1 X98.524 Y106.933
G1 X97.83 Y107.032
G1 X97.171 Y107.212
G1 X97.261 Y107.541
G1 E.5 F1800
;TYPE:Outer wall
G3 X98.552 Y107.269 I1.731 J5.005 E.04654
G1 X98.863 Y107.262 E.01097
G3 X102.685 Y108.787 I.13 J5.226 E.14883
G1 X126.916 Y133.018 E1.20603
G3 X128.451 Y136.725 I-3.782 J3.738 E.14478
G1 X128.451 Y141.335 E.16224
G3 X126.916 Y145.041 I-5.371 J-.054 E.1447
G1 X122.041 Y149.916 E.24265
G3 X118.334 Y151.451 I-3.738 J-3.782 E.14478
G1 X113.724 Y151.451 E.16224
G3 X110.018 Y149.916 I.054 J-5.371 E.1447
G1 X95.231 Y135.129 E.73596
G3 X93.696 Y131.423 I3.836 J-3.76 E.1447
G1 X93.696 Y112.51 E.66562
G3 X97.254 Y107.544 I5.296 J.037 E.22916
G1 X97.276 Y107.463
G1 X97.087 Y107.112 F12000
;TYPE:Inner wall
G1 F1800
G1 X97.113 Y107.108 E.00094
G3 X98.515 Y106.812 I1.881 J5.439 E.05055
G1 X98.854 Y106.805 E.01193
G3 X102.998 Y108.453 I.14 J5.683 E.16129
G1 X127.249 Y132.704 E1.207
G3 X128.908 Y136.712 I-4.125 J4.056 E.15649
G1 X128.908 Y141.348 E.16316
G3 X127.249 Y145.355 I-5.83 J-.067 E.1564
G1 X122.355 Y150.249 E.24357
G3 X118.347 Y151.908 I-4.056 J-4.125 E.15649
G1 X113.711 Y151.908 E.16316
G3 X109.704 Y150.249 I.067 J-5.83 E.15641
G1 X94.899 Y135.443 E.73689
G3 X93.239 Y131.436 I4.17 J-4.075 E.15641
G1 X93.239 Y112.496 E.66659
G3 X96.451 Y107.385 I5.755 J.052 E.22363
G1 X97.079 Y107.116 E.02407
G1 X96.914 Y106.689 F12000
G1 F1800
G1 X96.963 Y106.669 E.00185
G1 X97.712 Y106.464 E.02735
G1 X98.478 Y106.356 E.02721
G1 X98.844 Y106.348 E.0129
G3 X103.311 Y108.12 I.149 J6.141 E.17375
G1 X127.581 Y132.39 E1.20797
G3 X129.366 Y136.699 I-4.469 J4.374 E.1682
G1 X129.366 Y141.361 E.16407
G3 X127.581 Y145.669 I-6.288 J-.081 E.16811
G1 X122.669 Y150.581 E.2445
G3 X118.36 Y152.366 I-4.374 J-4.469 E.1682
G1 X113.698 Y152.366 E.16407
G3 X109.39 Y150.581 I.081 J-6.288 E.16811
G1 X94.566 Y135.757 E.73782
G3 X92.782 Y131.449 I4.504 J-4.389 E.16811
G1 X92.782 Y112.481 E.66756
G3 X96.246 Y106.966 I6.203 J.051 E.24131
G1 X96.907 Y106.692 E.02517
G1 X96.89 Y106.215 F12000
G1 F1800
G1 X97.62 Y106.016 E.02661
G1 X98.441 Y105.899 E.02919
G1 X98.835 Y105.891 E.01387
G3 X103.042 Y107.274 I.145 J6.652 E.1589
G1 X103.624 Y107.786 E.02729
G1 X127.914 Y132.076 E1.20894
G3 X129.823 Y136.686 I-4.812 J4.693 E.17991
G1 X129.823 Y141.374 E.16499
G3 X127.914 Y145.983 I-6.747 J-.095 E.17982
G1 X122.983 Y150.914 E.24542
G3 X118.373 Y152.823 I-4.693 J-4.812 E.17991
G1 X113.685 Y152.823 E.16499
G3 X109.076 Y150.914 I.095 J-6.747 E.17982
G1 X94.234 Y136.071 E.73874
G3 X92.325 Y131.462 I4.838 J-4.704 E.17982
G1 X92.325 Y112.467 E.66853
G1 X92.374 Y111.69 E.02738
G1 X92.53 Y110.875 E.02922
G3 X96.045 Y106.554 I6.467 J1.672 E.20219
G1 X96.814 Y106.236 E.02932
G1 X96.883 Y106.217 E.00249
G1 E-.5 F2400
G1 X100.573 Y107.15 F12000
G1 X101.169 Y107.368
G1 X101.246 Y107.4
G1 X101.808 Y107.689
G1 X101.879 Y107.733
G1 X102.405 Y108.093
G1 X102.915 Y108.542
G1 X127.16 Y132.787
G1 X127.571 Y133.249
G1 X127.919 Y133.739
G1 X128.23 Y134.298
G1 X128.475 Y134.889
G1 X128.642 Y135.467
G1 X128.75 Y136.088
G1 X128.756 Y136.169
G1 X128.787 Y136.715
G1 X128.787 Y139.692
G1 X175.86 Y188.558
G1 X176.286 Y189.04
G1 X176.032 Y189.264
G1 E.5 F1800
;TYPE:Outer wall
G3 X175.615 Y196.224 I-4.182 J3.242 E.2679
G1 X173.224 Y198.615 E.11901
G3 X165.788 Y198.615 I-3.718 J-3.766 E.29018
G1 X131.385 Y164.212 E1.7123
M73 P4 R56
G3 X131.385 Y156.776 I3.77 J-3.718 E.29014
G1 X133.776 Y154.385 E.11901
G3 X137.19 Y152.859 I3.718 J3.736 E.13455
G3 X141.212 Y154.385 I.263 J5.37 E.15575
G1 X175.615 Y188.788 E1.71231
G3 X176.027 Y189.258 I-3.766 J3.718 E.022
G1 X176.111 Y189.253
G1 X176.41 Y189.002 F12000
;TYPE:Inner wall
G1 F1800
G1 X176.787 Y189.56 E.02371
G3 X175.948 Y196.537 I-4.937 J2.946 E.26607
G1 X173.537 Y198.948 E.12
G3 X165.475 Y198.948 I-4.031 J-4.099 E.31446
G1 X131.052 Y164.525 E1.7133
G3 X131.052 Y156.463 I4.103 J-4.031 E.31442
G1 X133.463 Y154.052 E.12
G3 X137.163 Y152.402 I4.029 J4.061 E.14576
G3 X141.525 Y154.052 I.285 J5.837 E.16884
G1 X175.948 Y188.475 E1.7133
G3 X176.392 Y188.983 I-4.099 J4.031 E.02376
G1 X176.405 Y188.996 E.00063
G1 X176.786 Y188.741 F12000
G1 F1800
G1 X177.178 Y189.325 E.02474
G3 X176.281 Y196.851 I-5.329 J3.182 E.28693
G1 X173.851 Y199.281 E.12099
G3 X165.162 Y199.282 I-4.345 J-4.433 E.33874
G1 X130.719 Y164.838 E1.71429
G3 X130.719 Y156.149 I4.437 J-4.345 E.3387
G1 X133.149 Y153.719 E.12099
G3 X137.136 Y151.944 I4.34 J4.386 E.15697
G3 X141.838 Y153.719 I.357 J6.173 E.18216
G1 X176.281 Y188.162 E1.71429
G3 X176.753 Y188.702 I-4.433 J4.345 E.02525
G1 X176.78 Y188.735 E.00153
G1 X177.161 Y188.481 F12000
G1 F1800
G1 X177.575 Y189.085 E.02579
G1 X177.933 Y189.767 E.0271
G1 X178.222 Y190.525 E.02855
G1 X178.417 Y191.316 E.02868
G1 X178.513 Y192.121 E.02853
G1 X178.513 Y192.891 E.0271
G1 X178.417 Y193.696 E.02853
G1 X178.222 Y194.487 E.02868
G1 X177.933 Y195.245 E.02855
G1 X177.575 Y195.927 E.0271
G1 X177.118 Y196.595 E.0285
G1 X176.615 Y197.164 E.02673
G1 X174.164 Y199.615 E.12198
G1 X173.595 Y200.118 E.02673
G1 X172.927 Y200.575 E.0285
G1 X172.245 Y200.933 E.0271
G1 X171.487 Y201.222 E.02855
G1 X170.696 Y201.417 E.02868
G1 X169.891 Y201.513 E.02853
G1 X169.121 Y201.513 E.0271
G1 X168.317 Y201.417 E.0285
G1 X167.525 Y201.222 E.0287
G1 X166.765 Y200.932 E.02864
G1 X166.085 Y200.575 E.027
G1 X165.419 Y200.119 E.02844
G1 X164.848 Y199.615 E.02679
G1 X130.385 Y165.152 E1.71528
M73 P4 R55
G1 X129.882 Y164.583 E.02673
G1 X129.425 Y163.915 E.0285
G1 X129.067 Y163.233 E.0271
G3 X128.777 Y158.514 I6.241 J-2.751 E.16991
G3 X129.079 Y157.732 I13.098 J4.597 E.02949
G1 X129.425 Y157.073 E.0262
G1 X129.882 Y156.405 E.0285
G1 X130.385 Y155.836 E.02673
G1 X132.836 Y153.385 E.12198
G1 X133.405 Y152.882 E.02673
G1 X134.073 Y152.425 E.0285
G1 X134.755 Y152.067 E.0271
G1 X135.513 Y151.778 E.02855
G1 X136.304 Y151.583 E.02868
G1 X137.109 Y151.487 E.02853
