; HEADER_BLOCK_START
; generated by OrcaSlicer 1.6.3 on 2023-06-22 at 21:27:52
; total layer number: 75
; HEADER_BLOCK_END

; THUMBNAIL_BLOCK_START
; THUMBNAIL_BLOCK_END

; external perimeters extrusion width = 0.42mm
; perimeters extrusion width = 0.45mm
; infill extrusion width = 0.45mm
; solid infill extrusion width = 0.42mm
; top infill extrusion width = 0.42mm
; first layer extrusion width = 0.50mm

; EXECUTABLE_BLOCK_START
EXCLUDE_OBJECT_DEFINE NAME=Frame_Brace.stl_id_0_copy_0 CENTER=165,165 POLYGON=[[92.967,94.967],[94.967,92.967],[102.967,92.967],[106.381,94.3812],[235.619,223.619],[237.033,227.033],[237.033,235.033],[235.033,237.033],[201.033,237.033],[197.619,235.619],[179.284,217.284],[94.3812,132.381],[92.967,128.967],[92.967,94.967]]
M73 P0 R63
;TYPE:Custom
START_PRINT T_BED=105 T_EXTRUDER=250
G90
G21
M83 ; use relative distances for extrusion
; Filament gcode

    PRESSURE_ADVANCE_SELECT FILAMENT=ABS
M106 S0
;LAYER_CHANGE
;Z:0.2
;HEIGHT:0.2
;BEFORE_LAYER_CHANGE
;0.2
G92 E0

G1 E-.5 F1800
;DSLR_SNAPSHOT
M204 S5000
G1 X92.583 Y92.45 F48000
G1 Z.2
G1 E.5 F4800
;TYPE:Skirt
;WIDTH:0.5
G1 F7200
G1 X93.98 Y91.61 E.05737
G1 X94.967 Y91.462 E.03511
G1 X104.06 Y91.462 E.32003
G1 X105.351 Y91.719 E.04629
G1 X106.672 Y92.544 E.05482
G1 X237.456 Y223.328 E6.50933
G1 X238.281 Y224.649 E.05482
G1 X238.538 Y225.94 E.04629
G1 X238.538 Y235.033 E.32003
G1 X238.144 Y236.615 E.05737
G1 X237.417 Y237.55 E.04169
G1 X236.02 Y238.39 E.05737
G1 X235.033 Y238.538 E.03511
G1 X199.94 Y238.538 E1.23507
G1 X198.649 Y238.281 E.04629
G1 X197.328 Y237.456 E.05482
G1 X92.544 Y132.672 E5.21527
G1 X91.719 Y131.351 E.05482
G1 X91.462 Y130.06 E.04629
G1 X91.462 Y94.967 E1.23507
G1 X91.856 Y93.385 E.05737
G1 X92.546 Y92.497 E.03958
G1 X92.864 Y92.815 F48000
G1 F7200
G1 X92.906 Y92.773 E.0021
G1 X94.967 Y91.919 E.0785
G1 X104.06 Y91.919 E.32003
G1 X105.176 Y92.141 E.04002
G1 X106.349 Y92.867 E.04855
G1 X237.133 Y223.651 E6.50933
G1 X237.859 Y224.824 E.04855
G1 X238.081 Y225.94 E.04002
G1 X238.081 Y235.033 E.32003
G1 X237.227 Y237.094 E.0785
G1 X237.094 Y237.227 E.00664
G1 X235.033 Y238.081 E.0785
G1 X199.94 Y238.081 E1.23507
G1 X198.824 Y237.859 E.04002
G1 X197.651 Y237.133 E.04855
G1 X92.867 Y132.349 E5.21527
G1 X92.141 Y131.176 E.04855
G1 X91.919 Y130.06 E.04002
G1 X91.919 Y94.967 E1.23507
G1 X92.773 Y92.906 E.0785
G1 X92.822 Y92.858 E.00243
G1 X93.145 Y93.181 F48000
G1 F7200
G1 X93.23 Y93.096 E.00421
G1 X94.967 Y92.377 E.06618
G1 X104.06 Y92.377 E.32003
G1 X105.001 Y92.564 E.03374
G1 X106.026 Y93.191 E.04228
G1 X236.809 Y223.975 E6.50933
G1 X237.436 Y224.999 E.04228
G1 X237.623 Y225.94 E.03374
G1 X237.623 Y235.033 E.32003
G1 X236.904 Y236.77 E.06618
G1 X236.77 Y236.904 E.00664
G1 X235.033 Y237.623 E.06618
G1 X199.94 Y237.623 E1.23507
G1 X198.999 Y237.436 E.03374
G1 X197.975 Y236.809 E.04228
G1 X93.191 Y132.025 E5.21527
G1 X92.564 Y131.001 E.04228
G1 X92.377 Y130.06 E.03374
G1 X92.377 Y94.967 E1.23507
G1 X93.096 Y93.23 E.06618
G1 X93.103 Y93.223 E.00032
; printing object Frame_Brace.stl id:0 copy 0
EXCLUDE_OBJECT_START NAME=Frame_Brace.stl_id_0_copy_0
G1 E-.35 F1800
;WIPE_START
G1 F7200
G1 X93.23 Y93.096 E-.01279
G1 X94.911 Y92.4 E-.12971
;WIPE_END
G1 E-.0075 F1800
G1 X100.342 Y101.943 F48000
G1 E.5 F4800
;TYPE:Inner wall
;WIDTH:0.499999
G1 F7200
G1 X100.698 Y101.729 E.01463
G3 X101.714 Y101.255 I3.828 J6.888 E.03949
G1 X102.516 Y101.023 E.02939
G1 X103.34 Y100.893 E.02937
G1 X104.135 Y100.865 E.02797
G1 X104.962 Y100.937 E.02922
G1 X105.778 Y101.113 E.02938
G1 X106.525 Y101.374 E.02787
G1 X107.304 Y101.76 E.03058
;WIDTH:0.5424
G1 X107.484 Y101.853 E.00778
;WIDTH:0.5848
G1 X107.663 Y101.946 E.00844
;WIDTH:0.627201
G1 X107.843 Y102.039 E.0091
;WIDTH:0.669601
G1 X108.022 Y102.133 E.00976
G1 X108.65 Y102.683 E.04029
;WIDTH:0.648014
G1 X108.726 Y102.756 E.0049
;WIDTH:0.646063
G1 X132.947 Y126.977 E1.59079
;WIDTH:0.664074
G1 X133.4 Y127.468 E.03192
;WIDTH:0.69332
G1 X133.628 Y127.754 E.01833
;WIDTH:0.722566
G1 X133.855 Y128.041 E.01916
G1 X133.87 Y128.104 E.0034
;WIDTH:0.68035
G1 X133.885 Y128.167 E.00318
;WIDTH:0.638134
G1 X133.9 Y128.231 E.00297
;WIDTH:0.595918
G1 X134.019 Y128.494 E.01232
;WIDTH:0.547959
G1 X134.138 Y128.758 E.01125
;WIDTH:0.499999
G1 X134.357 Y129.258 E.0192
;WIDTH:0.547958
G1 X134.53 Y129.714 E.019
;WIDTH:0.595917
G1 X134.704 Y130.171 E.0208
;WIDTH:0.638134
G1 X134.738 Y130.226 E.00297
;WIDTH:0.680351
G1 X134.772 Y130.282 E.00318
;WIDTH:0.722567
G1 X134.806 Y130.337 E.0034
G1 X134.875 Y130.878 E.02855
;WIDTH:0.676595
G1 X134.914 Y131.635 E.03699
;WIDTH:0.647681
G1 X134.916 Y132.183 E.02553
;WIDTH:0.664276
G1 X134.925 Y132.968 E.03757
;WIDTH:0.71405
G1 X134.95 Y133.704 E.03802
G1 X134.929 Y133.783 E.00426
;WIDTH:0.67124
G1 X134.907 Y133.863 E.00399
;WIDTH:0.62843
G1 X134.886 Y133.943 E.00372
;WIDTH:0.58562
G1 X134.865 Y134.022 E.00345
;WIDTH:0.54281
G1 X134.843 Y134.102 E.00317
;WIDTH:0.499999
G1 X134.843 Y136.328 E.07833
G3 X133.449 Y140.398 I-6.828 J-.065 E.15403
G3 X132.344 Y141.581 I-10.086 J-8.311 E.057
G1 X128.03 Y145.896 E.21475
G3 X123.993 Y147.807 I-4.77 J-4.855 E.16016
G3 X121.102 Y147.843 I-1.998 J-44.609 E.10177
;WIDTH:0.542809
G1 X121.022 Y147.865 E.00317
;WIDTH:0.585619
G1 X120.943 Y147.886 E.00345
;WIDTH:0.628429
G1 X120.863 Y147.907 E.00372
;WIDTH:0.671239
G1 X120.783 Y147.929 E.00399
;WIDTH:0.714048
G1 X120.704 Y147.95 E.00426
G1 X120.166 Y147.93 E.02781
;WIDTH:0.674065
G1 X119.281 Y147.917 E.04302
;WIDTH:0.647265
G1 X118.731 Y147.916 E.02559
;WIDTH:0.66407
G1 X118.064 Y147.89 E.03191
;WIDTH:0.693318
G1 X117.7 Y147.848 E.01834
;WIDTH:0.722565
G1 X117.337 Y147.806 E.01916
G1 X117.281 Y147.772 E.0034
;WIDTH:0.680348
G1 X117.226 Y147.738 E.00318
;WIDTH:0.638131
G1 X117.171 Y147.704 E.00297
;WIDTH:0.595914
G1 X116.9 Y147.602 E.01232
;WIDTH:0.547957
G1 X116.63 Y147.499 E.01125
;WIDTH:0.499999
G1 X116.142 Y147.309 E.01844
;WIDTH:0.534167
G1 X115.837 Y147.173 E.01259
;WIDTH:0.568335
G1 X115.533 Y147.038 E.01347
;WIDTH:0.602502
G1 X115.229 Y146.903 E.01435
;WIDTH:0.642525
G1 X115.166 Y146.887 E.00298
;WIDTH:0.682548
G1 X115.104 Y146.871 E.00318
;WIDTH:0.72257
G1 X115.041 Y146.855 E.00338
G1 X114.61 Y146.521 E.02855
;WIDTH:0.676597
G1 X114.047 Y146.014 E.03699
;WIDTH:0.64768
G1 X113.977 Y145.947 E.00447
;WIDTH:0.646056
G1 X99.2 Y131.17 E.97052
;WIDTH:0.664076
G1 X98.747 Y130.679 E.03192
;WIDTH:0.693322
G1 X98.52 Y130.393 E.01833
;WIDTH:0.722567
G1 X98.292 Y130.106 E.01916
G1 X98.277 Y130.043 E.0034
;WIDTH:0.680354
G1 X98.262 Y129.98 E.00318
;WIDTH:0.638141
G1 X98.247 Y129.917 E.00297
;WIDTH:0.595927
G1 X98.128 Y129.653 E.01232
;WIDTH:0.547963
G1 X98.009 Y129.389 E.01125
;WIDTH:0.499999
G1 X97.708 Y128.691 E.02676
;WIDTH:0.534162
G1 X97.619 Y128.453 E.00961
;WIDTH:0.568325
G1 X97.53 Y128.215 E.01028
;WIDTH:0.602488
G1 X97.44 Y127.977 E.01095
;WIDTH:0.642516
G1 X97.407 Y127.921 E.00298
;WIDTH:0.682544
G1 X97.374 Y127.866 E.00318
;WIDTH:0.722572
G1 X97.341 Y127.811 E.00338
G1 X97.272 Y127.269 E.02855
;WIDTH:0.676601
G1 X97.233 Y126.512 E.03699
;WIDTH:0.647684
G1 X97.231 Y126.416 E.00447
;WIDTH:0.646058
G1 X97.231 Y107.517 E.87767
;WIDTH:0.667765
G1 X97.263 Y106.784 E.03529
;WIDTH:0.683624
G3 X97.334 Y106.422 I.764 J-.039 E.01841
;WIDTH:0.637718
G1 X97.386 Y106.27 E.00733
;WIDTH:0.591812
G1 X97.438 Y106.119 E.00677
;WIDTH:0.545906
G1 X97.491 Y105.968 E.0062
;WIDTH:0.499999
G1 X97.722 Y105.206 E.02802
G1 X98.058 Y104.448 E.02916
G1 X98.154 Y104.271 E.00707
G1 X98.49 Y103.733 E.02233
G1 X99.007 Y103.078 E.02938
G1 X99.574 Y102.517 E.02809
G1 X100.226 Y102.013 E.02898
G1 X100.335 Y101.947 E.00447
G1 X100.586 Y102.328 F48000
G1 F7200
G1 X101.173 Y101.984 E.02397
G1 X101.889 Y101.677 E.02739
G1 X102.637 Y101.463 E.02737
G1 X103.405 Y101.345 E.02735
G1 X104.144 Y101.322 E.02604
G1 X104.915 Y101.392 E.02724
G1 X105.675 Y101.559 E.02736
G1 X106.368 Y101.804 E.02588
G1 X107.096 Y102.167 E.02862
G3 X108.351 Y103.131 I-4.001 J6.509 E.0558
G1 X132.572 Y127.352 E1.20554
G3 X133.739 Y128.98 I-5.094 J4.882 E.07072
G3 X134.384 Y131.665 I-5.773 J2.808 E.09796
G3 X134.386 Y136.328 I-642.138 J2.59 E.16409
G3 X134.069 Y138.271 I-7.22 J-.179 E.06951
G3 X132.617 Y140.659 I-6.069 J-2.055 E.09915
G3 X127.707 Y145.572 I-1106.424 J-1100.915 E.24448
G3 X123.501 Y147.378 I-4.426 J-4.509 E.16482
G3 X118.731 Y147.386 I-2.692 J-180.424 E.16788
G3 X117.432 Y147.246 I.026 J-6.328 E.04607
G3 X115.476 Y146.459 I1.568 J-6.718 E.07449
G3 X114.352 Y145.572 I4.18 J-6.455 E.05044
G1 X99.575 Y130.795 E.7355
G3 X97.761 Y126.416 I4.43 J-4.4 E.17108
G1 X97.761 Y107.517 E.66513
G3 X97.94 Y106.053 I6.3 J.026 E.05202
G1 X98.158 Y105.345 E.02607
G1 X98.542 Y104.513 E.03225
G3 X100.5 Y102.378 I5.429 J3.014 E.10291
G1 X100.579 Y102.332 E.00322
G1 X100.819 Y102.718 F48000
G1 F7200
G1 X101.4 Y102.381 E.02365
G3 X106.211 Y102.233 I2.566 J5.144 E.17476
G1 X106.887 Y102.574 E.02665
G3 X108.028 Y103.454 I-3.838 J6.15 E.05079
G1 X132.249 Y127.676 E1.20554
G3 X133.339 Y129.202 I-4.686 J4.499 E.06625
G3 X133.928 Y131.692 I-5.396 J2.59 E.09073
G3 X133.929 Y136.328 I-1211.232 J2.613 E.16317
G3 X133.63 Y138.145 I-6.668 J-.164 E.06501
G1 X133.424 Y138.664 E.01967
G1 X133.059 Y139.361 E.02768
G1 X132.704 Y139.869 E.02182
G3 X131.698 Y140.934 I-9.018 J-7.503 E.0516
G1 X127.383 Y145.249 E.21475
G3 X123.475 Y146.922 I-4.096 J-4.169 E.15314
G3 X118.731 Y146.929 I-2.665 J-189.545 E.16695
G3 X115.698 Y146.059 I.079 J-5.999 E.11236
G3 X114.676 Y145.249 I4.751 J-7.049 E.04595
G1 X99.898 Y130.472 E.7355
G3 X98.218 Y126.416 I4.092 J-4.07 E.15847
G1 X98.218 Y107.517 E.66513
G3 X98.93 Y104.755 I6.122 J.104 E.10131
G3 X100.775 Y102.744 I5.037 J2.77 E.09698
G1 X100.812 Y102.722 E.00153
G1 X101.05 Y103.11 F48000
;TYPE:Outer wall
G1 F7200
G3 X107.704 Y103.777 I2.918 J4.418 E.25475
G1 X131.926 Y127.999 E1.20554
G3 X133.339 Y130.561 I-3.948 J3.848 E.10422
G3 X133.472 Y132.281 I-7.617 J1.453 E.06085
G1 X133.472 Y136.328 E.14243
G3 X133.337 Y137.504 I-5.491 J-.032 E.04176
G3 X132.66 Y139.139 I-5.851 J-1.468 E.06249
G3 X131.375 Y140.611 I-6.965 J-4.78 E.06893
G1 X127.06 Y144.926 E.21475
G3 X124.53 Y146.331 I-3.849 J-3.948 E.10307
G3 X122.649 Y146.472 I-1.534 J-7.884 E.06654
G1 X118.731 Y146.472 E.13789
G3 X117.585 Y146.345 I.008 J-5.294 E.04066
G3 X114.999 Y144.926 I1.204 J-5.262 E.10515
G1 X100.221 Y130.148 E.7355
G3 X98.675 Y126.416 I3.753 J-3.741 E.14586
G1 X98.675 Y107.517 E.66513
G3 X99.317 Y104.997 I5.639 J.095 E.09236
G3 X101.043 Y103.115 I4.65 J2.532 E.09077
G1 X101.045 Y103.031
G1 E-.35 F1800
;WIPE_START
G1 F7200
G1 X101.627 Y102.777 E-.04803
G1 X102.239 Y102.522 E-.04724
G1 X102.878 Y102.345 E-.04723
;WIPE_END
G1 E-.0075 F1800
G1 X134.844 Y159.694 F48000
G1 E.5 F4800
;TYPE:Inner wall
;WIDTH:0.681843
G1 F7200
G1 X134.737 Y159.567 E.00819
G3 X134.668 Y159.427 I.633 J-.397 E.0077
;WIDTH:0.636382
G1 X134.599 Y159.286 E.00714
;WIDTH:0.590921
G1 X134.53 Y159.146 E.00659
;WIDTH:0.54546
G1 X134.462 Y159.006 E.00605
;WIDTH:0.499999
G1 X134.092 Y158.324 E.02728
G1 X133.793 Y157.572 E.02847
G1 X133.586 Y156.784 E.02868
G1 X133.478 Y155.977 E.02867
G1 X133.467 Y155.2 E.02732
G1 X133.551 Y154.397 E.02842
G1 X133.734 Y153.603 E.02869
G1 X133.997 Y152.877 E.02717
G3 X135.406 Y150.787 I6.856 J3.101 E.08913
G1 X137.787 Y148.406 E.11851
G3 X139.663 Y147.092 I4.768 J4.812 E.08102
G1 X140.415 Y146.793 E.02847
G1 X141.204 Y146.586 E.02868
G1 X142.011 Y146.478 E.02867
G1 X142.787 Y146.467 E.02732
G1 X143.591 Y146.551 E.02844
G1 X144.385 Y146.734 E.02868
G1 X145.111 Y146.997 E.02717
G1 X145.867 Y147.379 E.02983
;WIDTH:0.543268
G1 X146.043 Y147.47 E.00761
;WIDTH:0.586536
G1 X146.218 Y147.561 E.00827
;WIDTH:0.629805
G1 X146.393 Y147.652 E.00893
;WIDTH:0.673073
G1 X146.569 Y147.743 E.00959
G1 X147.179 Y148.283 E.03951
;WIDTH:0.647918
G1 X147.253 Y148.354 E.00478
;WIDTH:0.646056
G1 X181.646 Y182.747 E2.25881
;WIDTH:0.666733
G1 X182.13 Y183.275 E.03438
;WIDTH:0.68184
G3 X182.332 Y183.573 I-.5 J.556 E.01792
;WIDTH:0.63638
G1 X182.401 Y183.714 E.00714
;WIDTH:0.59092
G1 X182.47 Y183.854 E.00659
;WIDTH:0.54546
G1 X182.538 Y183.994 E.00605
;WIDTH:0.499999
G1 X182.908 Y184.676 E.02728
G1 X183.207 Y185.428 E.02847
G1 X183.414 Y186.216 E.02868
G1 X183.522 Y187.023 E.02867
G1 X183.533 Y187.8 E.02732
G1 X183.449 Y188.603 E.02844
G1 X183.266 Y189.397 E.02868
G1 X182.987 Y190.163 E.02867
G3 X181.594 Y192.213 I-6.866 J-3.164 E.08763
G1 X179.213 Y194.594 E.11851
G3 X178.528 Y195.188 I-4.863 J-4.919 E.03195
G3 X177.337 Y195.908 I-4.058 J-5.368 E.04907
G1 X176.585 Y196.207 E.02848
G1 X175.796 Y196.414 E.02868
G1 X174.989 Y196.522 E.02867
G1 X174.213 Y196.533 E.02732
G1 X173.41 Y196.449 E.02842
G1 X172.615 Y196.266 E.02869
G1 X171.847 Y195.985 E.02879
G1 X171.156 Y195.636 E.02724
;WIDTH:0.542648
G1 X170.976 Y195.542 E.0078
;WIDTH:0.585296
G1 X170.797 Y195.448 E.00847
;WIDTH:0.627945
G1 X170.617 Y195.354 E.00913
;WIDTH:0.670593
G1 X170.437 Y195.26 E.0098
G1 X169.822 Y194.717 E.03965
;WIDTH:0.647934
G1 X169.747 Y194.646 E.00481
;WIDTH:0.646058
G1 X135.354 Y160.253 E2.25881
;WIDTH:0.666737
G1 X134.87 Y159.725 E.03438
;WIDTH:0.681843
G1 X134.849 Y159.701 E.0016
G1 X135.219 Y159.288 F48000
;WIDTH:0.499999
G1 F7200
G1 X134.844 Y158.743 E.02324
G3 X134.178 Y153.712 I5.363 J-3.27 E.18387
G3 X135.729 Y151.11 I6.345 J2.018 E.10755
G1 X138.11 Y148.729 E.11851
G3 X139.053 Y147.967 I3.93 J3.902 E.04276
G1 X139.876 Y147.496 E.03335
G3 X144.949 Y147.425 I2.618 J5.743 E.18374
G1 X145.656 Y147.784 E.02793
G3 X146.878 Y148.729 I-4.041 J6.49 E.05444
G1 X181.271 Y183.122 E1.71181
G3 X182.822 Y189.288 I-4.479 J4.404 E.23461
G3 X181.271 Y191.89 I-6.332 J-2.011 E.10755
G1 X178.89 Y194.271 E.11851
G3 X178.269 Y194.811 I-4.492 J-4.534 E.02899
G3 X172.01 Y195.558 I-3.773 J-5.017 E.23244
G3 X170.122 Y194.271 I3.02 J-6.456 E.08075
G1 X135.729 Y159.878 E1.7118
G3 X135.277 Y159.366 I4.479 J-4.404 E.02405
G1 X135.223 Y159.294 E.00315
G1 X135.588 Y159.023 F48000
G1 F7200
G1 X135.22 Y158.486 E.02294
G3 X135.172 Y152.572 I4.954 J-2.997 E.21842
G3 X136.052 Y151.433 I6.131 J3.827 E.05075
G1 X138.433 Y149.052 E.11851
G3 X146.555 Y149.052 I4.061 J4.081 E.31726
G1 X180.948 Y183.445 E1.71181
G3 X182.378 Y189.179 I-4.147 J4.079 E.21814
G3 X180.948 Y191.567 I-5.862 J-1.888 E.09881
G1 X178.567 Y193.948 E.11851
G3 X178.011 Y194.435 I-4.114 J-4.141 E.02603
G3 X170.445 Y193.948 I-3.502 J-4.601 E.29096
G1 X136.052 Y159.555 E1.7118
G3 X135.619 Y159.063 I4.122 J-4.066 E.02306
G1 X135.593 Y159.03 E.00149
G1 X135.962 Y158.76 F48000
;TYPE:Outer wall
G1 F7200
G3 X135.578 Y152.782 I4.206 J-3.271 E.22387
G3 X136.375 Y151.756 I5.782 J3.671 E.0458
G1 X138.756 Y149.375 E.11851
G3 X146.231 Y149.375 I3.738 J3.754 E.29203
G1 X180.625 Y183.769 E1.71181
G3 X180.625 Y191.244 I-3.777 J3.738 E.29179
G1 X178.244 Y193.625 E.11851
G3 X177.752 Y194.058 I-3.728 J-3.737 E.02307
G3 X170.769 Y193.625 I-3.244 J-4.22 E.2687
G1 X136.375 Y159.231 E1.7118
G3 X135.967 Y158.766 I3.793 J-3.743 E.02179
G1 X135.883 Y158.772
G1 E-.35 F1800
;WIPE_START
G1 F7200
G1 X135.592 Y158.23 E-.04662
G1 X135.306 Y157.687 E-.04373
G1 X135.074 Y157.084 E-.04602
G1 X135.054 Y157.001 E-.00613
;WIPE_END
G1 E-.0075 F1800
G1 X182.332 Y212.932 F48000
G1 E.5 F4800
;TYPE:Inner wall
;WIDTH:0.602487
G1 F7200
G1 X182.293 Y212.83 E.0047
;WIDTH:0.642514
G1 X182.26 Y212.774 E.00298
;WIDTH:0.682541
G1 X182.227 Y212.719 E.00318
;WIDTH:0.722567
G1 X182.194 Y212.663 E.00338
G1 X182.125 Y212.122 E.02855
;WIDTH:0.676595
G1 X182.086 Y211.365 E.03699
;WIDTH:0.64768
G1 X182.084 Y210.817 E.02553
;WIDTH:0.664275
G1 X182.075 Y210.032 E.03757
;WIDTH:0.714048
G1 X182.05 Y209.296 E.03802
G1 X182.071 Y209.217 E.00426
;WIDTH:0.671239
G1 X182.093 Y209.137 E.00399
;WIDTH:0.628429
G1 X182.114 Y209.057 E.00372
;WIDTH:0.585619
G1 X182.136 Y208.978 E.00345
;WIDTH:0.542809
G1 X182.157 Y208.898 E.00317
;WIDTH:0.499999
G1 X182.157 Y206.672 E.07833
G3 X183.551 Y202.602 I6.828 J.065 E.15403
G3 X184.656 Y201.419 I10.085 J8.31 E.057
G1 X188.97 Y197.104 E.21475
G3 X193.01 Y195.192 I4.771 J4.855 E.16027
G3 X195.898 Y195.157 I2.017 J46.775 E.10166
;WIDTH:0.542809
G1 X195.978 Y195.136 E.00317
;WIDTH:0.585619
G1 X196.057 Y195.114 E.00345
;WIDTH:0.628429
