; HEADER_BLOCK_START
; generated by OrcaSlicer 1.6.3 on 2023-07-03 at 10:55:15
; total layer number: 100
; HEADER_BLOCK_END

; THUMBNAIL_BLOCK_START
; THUMBNAIL_BLOCK_END

; external perimeters extrusion width = 0.42mm
; perimeters extrusion width = 0.45mm
; infill extrusion width = 0.45mm
; solid infill extrusion width = 0.42mm
; top infill extrusion width = 0.42mm
; first layer extrusion width = 0.50mm

; EXECUTABLE_BLOCK_START
EXCLUDE_OBJECT_DEFINE NAME=Frame_Brace.stl_id_0_copy_0 CENTER=160,170 POLYGON=[[87.967,99.967],[89.967,97.967],[97.967,97.967],[101.381,99.3812],[230.619,228.619],[232.033,232.033],[232.033,240.033],[230.033,242.033],[196.033,242.033],[192.619,240.619],[174.284,222.284],[89.3812,137.381],[87.967,133.967],[87.967,99.967]]
M73 P0 R84
;TYPE:Custom
START_PRINT T_BED=110 T_EXTRUDER=260
G90
G21
M83 ; use relative distances for extrusion
; filament start gcode

    PRESSURE_ADVANCE_SELECT FILAMENT=ABS
M106 S0
;LAYER_CHANGE
;Z:0.2
;HEIGHT:0.2
;BEFORE_LAYER_CHANGE
;0.2
G92 E0

G1 E-.5 F2400
M204 S1000
G1 X87.906 Y97.806 F12000
G1 Z.2
G1 E.5 F1800
;TYPE:Skirt
;WIDTH:0.5
G1 X89.967 Y96.953 E.0785
G1 X99.08 Y96.953 E.32072
G1 X100.195 Y97.175 E.04002
G1 X101.311 Y97.877 E.04641
G1 X232.123 Y228.689 E6.51071
G1 X232.825 Y229.805 E.04641
G1 X233.047 Y230.92 E.04002
G1 X233.047 Y240.033 E.32072
G1 X232.194 Y242.094 E.0785
G1 X232.094 Y242.194 E.00498
G1 X230.033 Y243.047 E.0785
G1 X194.92 Y243.047 E1.23576
G1 X193.805 Y242.825 E.04002
G1 X192.689 Y242.123 E.04641
G1 X87.877 Y137.311 E5.21664
G1 X87.175 Y136.195 E.04641
G1 X86.953 Y135.08 E.04002
G1 X86.953 Y99.967 E1.23576
G1 X87.806 Y97.906 E.0785
G1 X87.864 Y97.849 E.00287
G1 X88.187 Y98.172 F12000
G1 F1800
G1 X88.23 Y98.13 E.00211
G1 X89.967 Y97.41 E.06618
G1 X99.08 Y97.41 E.32072
G1 X100.02 Y97.597 E.03374
G1 X100.988 Y98.2 E.04014
G1 X231.8 Y229.012 E6.51071
G1 X232.403 Y229.98 E.04014
G1 X232.59 Y230.92 E.03374
G1 X232.59 Y240.033 E.32072
G1 X231.87 Y241.77 E.06618
G1 X231.77 Y241.87 E.00498
G1 X230.033 Y242.59 E.06618
G1 X194.92 Y242.59 E1.23576
G1 X193.98 Y242.403 E.03374
G1 X193.012 Y241.8 E.04014
G1 X88.2 Y136.988 E5.21664
G1 X87.597 Y136.02 E.04014
G1 X87.41 Y135.08 E.03374
G1 X87.41 Y99.967 E1.23576
G1 X88.13 Y98.23 E.06618
G1 X88.145 Y98.214 E.00075
; printing object Frame_Brace.stl id:0 copy 0
EXCLUDE_OBJECT_START NAME=Frame_Brace.stl_id_0_copy_0
G1 E-.35 F2400
;WIPE_START
G1 F1800
G1 X88.23 Y98.13 E-.00855
G1 X89.966 Y97.41 E-.13395
;WIPE_END
G1 E-.0075 F2400
G1 X90.217 Y100.217 F12000
G1 E.5 F1800
;TYPE:Outer wall
G1 X99.01 Y100.217 E.30947
G1 X99.052 Y100.234 E.0016
G1 X131.115 Y132.297 E1.59582
G3 X131.93 Y134.265 I-2.059 J2.005 E.07678
G1 X131.93 Y137.189 E.10291
G2 X134.048 Y142.301 I7.253 J-.01 E.19979
G1 X187.699 Y195.952 E2.67034
G2 X192.811 Y198.07 I5.121 J-5.135 E.19979
G1 X195.735 Y198.07 E.10291
G3 X197.703 Y198.885 I-.038 J2.874 E.07678
G1 X229.766 Y230.948 E1.59582
G1 X229.783 Y230.99 E.0016
G1 X229.783 Y239.783 E.30947
G1 X194.99 Y239.783 E1.22451
G1 X194.948 Y239.766 E.0016
G1 X175.885 Y220.703 E.94878
G3 X175.07 Y218.735 I2.049 J-2.001 E.0768
G1 X175.07 Y215.811 E.10291
G2 X172.952 Y210.699 I-7.253 J.01 E.19979
G1 X119.301 Y157.048 E2.67034
M73 P0 R83
G2 X114.189 Y154.93 I-5.121 J5.135 E.19979
G1 X111.265 Y154.93 E.10291
G3 X109.297 Y154.115 I.034 J-2.864 E.0768
G1 X90.234 Y135.052 E.94878
G1 X90.217 Y135.01 E.0016
G1 X90.217 Y100.225 E1.22423
G1 X90.286 Y100.257
G1 X90.674 Y100.674 F12000
;TYPE:Inner wall
G1 F1800
G1 X98.846 Y100.674 E.28759
G1 X130.779 Y132.608 E1.5894
G3 X131.473 Y134.282 I-1.711 J1.69 E.06541
G1 X131.473 Y137.2 E.10268
G2 X133.716 Y142.616 I7.703 J-.018 E.21164
G1 X187.384 Y196.284 E2.67113
M73 P1 R83
G2 X192.8 Y198.527 I5.434 J-5.46 E.21164
G1 X195.718 Y198.527 E.10268
G3 X197.392 Y199.221 I-.015 J2.405 E.0654
G1 X229.326 Y231.154 E1.5894
G1 X229.326 Y239.326 E.28759
G1 X195.154 Y239.326 E1.20263
G1 X176.221 Y220.392 E.94237
G3 X175.527 Y218.718 I1.711 J-1.69 E.06541
G1 X175.527 Y215.8 E.10268
G2 X173.284 Y210.384 I-7.703 J.018 E.21164
G1 X119.616 Y156.716 E2.67113
G2 X114.2 Y154.473 I-5.434 J5.46 E.21164
G1 X111.282 Y154.473 E.10268
G3 X109.608 Y153.779 I.015 J-2.405 E.0654
G1 X90.674 Y134.846 E.94237
G1 X90.674 Y100.682 E1.20235
G1 X91.131 Y101.131 F12000
G1 F1800
G1 X98.656 Y101.131 E.26484
G1 X130.444 Y132.919 E1.58211
G3 X131.016 Y134.3 I-1.375 J1.379 E.05401
G1 X131.016 Y137.211 E.10246
G2 X133.385 Y142.931 I8.154 J-.027 E.22349
G1 X187.069 Y196.615 E2.67193
G2 X192.789 Y198.984 I5.747 J-5.785 E.22349
G1 X195.7 Y198.984 E.10246
G3 X197.081 Y199.556 I.003 J1.947 E.05401
G1 X228.869 Y231.344 E1.58211
G1 X228.869 Y238.869 E.26484
G1 X195.344 Y238.869 E1.17988
G1 X176.556 Y220.081 E.93508
G3 X175.984 Y218.7 I1.375 J-1.379 E.05401
G1 X175.984 Y215.789 E.10246
G2 X173.615 Y210.069 I-8.154 J.027 E.22349
G1 X119.931 Y156.385 E2.67193
G2 X114.211 Y154.016 I-5.747 J5.784 E.22349
G1 X111.3 Y154.016 E.10246
G3 X109.919 Y153.444 I-.003 J-1.947 E.05401
G1 X91.131 Y134.656 E.93508
G1 X91.131 Y101.139 E1.1796
G1 X91.588 Y101.588 F12000
G1 F1800
G1 X98.467 Y101.588 E.24209
G1 X130.108 Y133.229 E1.57483
G3 X130.559 Y134.318 I-1.041 J1.069 E.04262
G1 X130.559 Y137.223 E.10224
G2 X133.054 Y143.246 I8.604 J-.036 E.23534
G1 X186.754 Y196.946 E2.67272
G2 X192.777 Y199.441 I6.059 J-6.109 E.23534
G1 X195.682 Y199.441 E.10224
G3 X196.771 Y199.892 I.02 J1.492 E.04262
G1 X228.412 Y231.533 E1.57483
G1 X228.412 Y238.412 E.24209
G1 X195.533 Y238.412 E1.15713
G1 X176.892 Y219.771 E.9278
G3 X176.441 Y218.682 I1.041 J-1.069 E.04262
G1 X176.441 Y215.777 E.10224
G2 X173.946 Y209.754 I-8.604 J.035 E.23534
G1 X120.246 Y156.054 E2.67272
G2 X114.223 Y153.559 I-6.059 J6.109 E.23534
G1 X111.318 Y153.559 E.10224
G3 X110.229 Y153.108 I-.02 J-1.492 E.04262
G1 X91.588 Y134.467 E.9278
G1 X91.588 Y101.596 E1.15685
G1 E-.5 F2400
G1 X101.877 Y107.667 F12000
G1 X102.441 Y108.052
G1 X102.953 Y108.504
G1 X127.198 Y132.749
G1 X127.611 Y133.212
G1 X127.968 Y133.715
G1 X128.28 Y134.276
G1 X128.525 Y134.87
G1 X128.697 Y135.464
G1 X133.25 Y154.359
G1 X131.102 Y156.508
G1 X130.66 Y157.007
G1 X130.269 Y157.576
G1 X129.952 Y158.187
G1 X129.716 Y158.808
G1 X129.567 Y159.411
G1 X129.551 Y159.48
G1 X129.469 Y160.162
G1 X129.469 Y160.826
G1 X129.551 Y161.51
G1 X129.716 Y162.18
G1 X129.961 Y162.825
G1 X130.27 Y163.413
G1 X130.66 Y163.981
G1 X131.102 Y164.48
G1 X178.159 Y211.656
G1 X178.159 Y216.285
G1 X178.194 Y216.904
G1 X178.298 Y217.513
G1 X178.474 Y218.13
G1 X178.72 Y218.724
G1 X179.032 Y219.285
G1 X179.389 Y219.788
G1 X179.802 Y220.251
G1 X194.602 Y235.051
G1 X195.065 Y235.464
G1 X195.568 Y235.821
G1 X196.129 Y236.132
G1 X196.723 Y236.379
G1 X197.34 Y236.555
G1 X197.948 Y236.658
G1 X197.967 Y236.659
G1 X197.987 Y236.32
G1 E.5 F1800
;TYPE:Outer wall
G3 X194.833 Y234.807 I.644 J-5.386 E.12536
G1 X180.046 Y220.02 E.73596
G3 X178.495 Y216.276 I3.873 J-3.798 E.14619
G1 X178.495 Y211.666 E.16224
G3 X180.046 Y207.921 I5.332 J.015 E.14633
G1 X184.921 Y203.046 E.24264
G3 X188.666 Y201.495 I3.798 J3.873 E.14619
G1 X193.276 Y201.495 E.16224
G3 X197.02 Y203.046 I-.053 J5.424 E.14619
G1 X221.251 Y227.277 E1.20603
G3 X217.49 Y236.358 I-3.789 J3.75 E.44012
G1 X198.577 Y236.358 E.66561
G3 X197.995 Y236.321 I.053 J-5.424 E.02055
G1 X197.94 Y236.385
G1 X197.958 Y236.78 F12000
;TYPE:Inner wall
G1 F1800
G1 X197.935 Y236.774 E.00083
G3 X194.519 Y235.139 I.696 J-5.842 E.13572
G1 X179.713 Y220.334 E.73688
G3 X178.038 Y216.289 I4.207 J-4.113 E.15791
G1 X178.038 Y211.653 E.16315
G3 X179.713 Y207.607 I5.772 J.02 E.15808
G1 X184.607 Y202.713 E.24355
G3 X188.652 Y201.038 I4.113 J4.207 E.15791
G1 X193.289 Y201.038 E.16316
G3 X197.334 Y202.713 I-.067 J5.883 E.15791
G1 X221.585 Y226.964 E1.20699
M73 P2 R83
G3 X217.504 Y236.815 I-4.123 J4.063 E.47701
G1 X198.564 Y236.815 E.66657
M73 P2 R82
G1 X197.966 Y236.781 E.02108
G1 X197.93 Y237.237 F12000
G1 F1800
G1 X197.884 Y237.228 E.00165
G3 X194.205 Y235.472 I.748 J-6.298 E.14608
G1 X179.381 Y220.648 E.73779
G3 X177.581 Y216.302 I4.541 J-4.427 E.16963
G1 X177.581 Y211.64 E.16406
G3 X178.542 Y208.348 I6.458 J.099 E.12217
G1 X178.936 Y207.792 E.02397
G1 X179.381 Y207.293 E.02354
G1 X184.293 Y202.381 E.24447
G3 X188.639 Y200.581 I4.427 J4.541 E.16963
G1 X193.302 Y200.581 E.16408
G3 X197.648 Y202.381 I-.081 J6.342 E.16963
G1 X221.918 Y226.651 E1.20795
G3 X219.02 Y237.081 I-4.451 J4.381 E.4609
G1 X218.255 Y237.226 E.02738
G1 X217.519 Y237.272 E.02598
G1 X198.551 Y237.272 E.66754
G1 X197.938 Y237.237 E.02161
G1 X197.762 Y237.677 F12000
G1 F1800
G1 X197.112 Y237.558 E.02327
G3 X193.891 Y235.804 I1.52 J-6.629 E.13071
G1 X179.049 Y220.962 E.73871
G3 X177.124 Y216.315 I4.875 J-4.742 E.18134
G1 X177.124 Y211.627 E.16497
G3 X178.154 Y208.104 I6.927 J.114 E.13076
G1 X178.578 Y207.507 E.02576
G1 X179.049 Y206.979 E.0249
G1 X183.979 Y202.049 E.24539
G3 X188.626 Y200.124 I4.742 J4.875 E.18134
G1 X193.315 Y200.124 E.165
G3 X197.962 Y202.049 I-.094 J6.8 E.18134
G1 X222.251 Y226.338 E1.20891
G3 X224.085 Y229.932 I-4.985 J4.808 E.14411
G1 X224.171 Y230.765 E.02947
G1 X224.152 Y231.599 E.02936
G1 X224.035 Y232.399 E.02846
G1 X223.815 Y233.205 E.0294
G1 X223.494 Y233.979 E.02948
G1 X223.081 Y234.704 E.0294
G1 X222.597 Y235.353 E.02846
G1 X222.021 Y235.956 E.02936
G1 X221.371 Y236.484 E.02947
G3 X220.654 Y236.931 I-27.349 J-43.143 E.02974
G1 X219.903 Y237.278 E.02913
G1 X219.132 Y237.524 E.02846
G1 X218.313 Y237.68 E.02937
G1 X217.533 Y237.729 E.02749
G1 X198.538 Y237.729 E.6685
G3 X197.833 Y237.683 I.094 J-6.801 E.0249
G1 X197.77 Y237.678 E.00219
G1 E-.5 F2400
G1 X195.065 Y235.464 F12000
G1 X194.602 Y235.051
G1 X179.802 Y220.251
G1 X179.389 Y219.788
G1 X175.259 Y214.333
G1 X175.084 Y213.635
G1 X174.834 Y212.93
G1 X174.502 Y212.228
G1 X174.132 Y211.611
G1 X173.687 Y211.01
G1 X173.196 Y210.468
G1 X119.532 Y156.804
G1 X118.99 Y156.313
G1 X118.389 Y155.868
G1 X110.715 Y150.968
G1 X110.212 Y150.611
G1 X109.749 Y150.198
G1 X94.949 Y135.398
G1 X94.536 Y134.935
G1 X94.179 Y134.432
G1 X93.868 Y133.871
G1 X93.621 Y133.277
G1 X93.445 Y132.66
G1 X93.442 Y132.641
G1 X93.779 Y132.584
G1 E.5 F1800
;TYPE:Outer wall
G3 X93.642 Y131.423 I5.287 J-1.215 E.04123
G1 X93.642 Y112.51 E.66561
G3 X98.54 Y107.215 I5.326 J.014 E.27887
G1 X98.86 Y107.209 E.01127
G3 X102.723 Y108.749 I.097 J5.37 E.15027
G1 X126.954 Y132.98 E1.20603
G3 X128.505 Y136.725 I-3.873 J3.798 E.1462
G1 X128.505 Y141.334 E.16224
G3 X126.954 Y145.079 I-5.424 J-.053 E.14619
G1 X122.079 Y149.954 E.24264
G3 X118.334 Y151.505 I-3.798 J-3.873 E.1462
G1 X113.724 Y151.505 E.16224
G3 X109.98 Y149.954 I.053 J-5.424 E.14619
G1 X95.193 Y135.167 E.73596
G3 X93.781 Y132.592 I3.873 J-3.798 E.10468
G1 X93.703 Y132.561
G1 X93.333 Y132.709 F12000
;TYPE:Inner wall
G1 F1800
G1 X93.334 Y132.685 E.00085
G3 X93.185 Y131.436 I5.734 J-1.316 E.04437
G1 X93.185 Y112.496 E.66658
G3 X94.261 Y109.161 I5.993 J.093 E.12513
G3 X98.503 Y106.759 I4.763 J3.464 E.1769
G1 X98.851 Y106.752 E.01225
G1 X99.199 Y106.744 E.01227
G1 X99.917 Y106.818 E.02541
G3 X103.036 Y108.415 I-1.073 J5.939 E.12511
G1 X127.287 Y132.666 E1.20699
G3 X128.962 Y136.712 I-4.207 J4.113 E.15793
G1 X128.962 Y141.348 E.16315
G3 X127.287 Y145.393 I-5.883 J-.067 E.15791
G1 X122.393 Y150.287 E.24355
G3 X118.347 Y151.962 I-4.113 J-4.207 E.15792
G1 X113.711 Y151.962 E.16315
G3 X109.666 Y150.287 I.067 J-5.883 E.15791
G1 X94.861 Y135.481 E.73687
G3 X93.515 Y133.314 I4.207 J-4.113 E.0905
G1 X93.335 Y132.717 E.02194
G1 X92.893 Y132.833 F12000
G1 F1800
G1 X92.888 Y132.786 E.00165
G3 X92.728 Y131.449 I6.182 J-1.418 E.0475
G1 X92.728 Y112.481 E.66754
G1 X92.774 Y111.745 E.02598
G1 X92.919 Y110.98 E.02738
G1 X93.149 Y110.264 E.02649
G1 X93.475 Y109.557 E.02739
G1 X93.888 Y108.895 E.02746
G1 X94.38 Y108.291 E.02741
G1 X94.924 Y107.768 E.02657
G1 X95.568 Y107.29 E.02822
G1 X96.223 Y106.917 E.02655
G1 X96.943 Y106.619 E.02743
G1 X97.696 Y106.413 E.02746
G1 X98.466 Y106.302 E.02737
G1 X98.841 Y106.295 E.01323
G1 X99.218 Y106.287 E.01326
G1 X99.993 Y106.366 E.02741
G1 X100.752 Y106.542 E.02742
G1 X101.46 Y106.802 E.02656
G3 X103.349 Y108.082 I-2.871 J6.271 E.08067
G1 X127.619 Y132.352 E1.20795
G3 X129.419 Y136.699 I-4.541 J4.427 E.16965
G1 X129.419 Y141.361 E.16406
G3 X127.619 Y145.707 I-6.342 J-.081 E.16963
G1 X122.707 Y150.619 E.24447
G3 X118.36 Y152.419 I-4.427 J-4.541 E.16965
G1 X113.698 Y152.419 E.16406
G3 X109.352 Y150.619 I.081 J-6.342 E.16963
G1 X94.528 Y135.795 E.73779
G3 X93.084 Y133.464 I4.541 J-4.427 E.09728
G1 X92.895 Y132.841 E.02293
G1 X92.453 Y132.957 F12000
G1 F1800
G1 X92.442 Y132.888 E.00246
G3 X92.271 Y131.462 I6.629 J-1.52 E.05064
G1 X92.271 Y112.467 E.6685
G1 X92.32 Y111.687 E.02749
G1 X92.476 Y110.868 E.02938
G1 X92.722 Y110.097 E.02846
G1 X93.072 Y109.339 E.02938
G1 X93.515 Y108.629 E.02948
G1 X94.043 Y107.981 E.02941
G1 X94.628 Y107.419 E.02857
G1 X95.317 Y106.906 E.03022
G1 X96.022 Y106.506 E.02854
G1 X96.795 Y106.185 E.02943
G1 X97.603 Y105.964 E.02948
G1 X98.428 Y105.846 E.02935
G1 X98.832 Y105.838 E.0142
G1 X99.237 Y105.829 E.01425
G1 X100.068 Y105.915 E.02941
G1 X100.882 Y106.103 E.02942
G1 X101.644 Y106.383 E.02855
G1 X102.408 Y106.775 E.03022
G1 X103.078 Y107.233 E.02856
G1 X103.662 Y107.749 E.02743
G1 X127.951 Y132.038 E1.20891
G3 X129.876 Y136.686 I-4.875 J4.742 E.18138
G1 X129.876 Y141.374 E.16497
G3 X127.951 Y146.021 I-6.8 J-.094 E.18134
G1 X123.021 Y150.951 E.24539
G3 X118.373 Y152.876 I-4.742 J-4.875 E.18137
G1 X113.685 Y152.876 E.16497
G3 X109.038 Y150.951 I.094 J-6.8 E.18134
G1 X94.196 Y136.109 E.73871
G3 X92.652 Y133.615 I4.876 J-4.742 E.10406
G1 X92.455 Y132.965 E.02392
G1 E-.5 F2400
G1 X109.749 Y150.198 F12000
G1 X110.212 Y150.611
G1 X110.715 Y150.968
G1 X111.276 Y151.28
G1 X111.87 Y151.526
G1 X129.723 Y158.789
G1 X130.04 Y158.908
G1 E.5 F1800
;TYPE:Outer wall
G3 X131.347 Y156.738 I5.089 J1.585 E.09004
G1 X133.738 Y154.347 E.119
G3 X137.182 Y152.805 I3.755 J3.771 E.13575
G3 X141.25 Y154.347 I.274 J5.415 E.15755
G1 X175.653 Y188.75 E1.7123
G3 X175.653 Y196.262 I-3.804 J3.756 E.29315
G1 X173.262 Y198.653 E.119
G3 X165.75 Y198.653 I-3.756 J-3.804 E.29315
G1 X131.347 Y164.25 E1.7123
G3 X130.037 Y158.916 I3.781 J-3.756 E.20307
G1 X129.985 Y158.85
G1 X129.594 Y158.796 F12000
;TYPE:Inner wall
G1 F1800
G1 X129.604 Y158.773 E.00089
G3 X131.014 Y156.424 I5.527 J1.721 E.09732
G1 X133.424 Y154.014 E.11999
G3 X137.154 Y152.348 I4.066 J4.096 E.14696
G3 X141.563 Y154.014 I.299 J5.877 E.17066
G1 X175.986 Y188.437 E1.71328
G3 X175.986 Y196.576 I-4.138 J4.069 E.31744
G1 X173.576 Y198.986 E.11999
G3 X165.437 Y198.986 I-4.069 J-4.138 E.31744
G1 X131.014 Y164.563 E1.71328
G3 X129.449 Y159.383 I4.117 J-4.069 E.19818
G1 X129.592 Y158.804 E.02098
G1 X129.151 Y158.684 F12000
G1 F1800
G1 X129.168 Y158.637 E.00178
G3 X130.681 Y156.111 I5.965 J1.857 E.1046
G1 X133.111 Y153.681 E.12097
G3 X137.127 Y151.891 I4.378 J4.423 E.15816
G3 X139.352 Y152.163 I.271 J7.025 E.07923
G3 X141.877 Y153.681 I-1.871 J5.97 E.10465
G1 X176.319 Y188.123 E1.71427
G3 X176.319 Y196.889 I-4.471 J4.383 E.34172
G1 X173.889 Y199.319 E.12097
G3 X165.123 Y199.319 I-4.383 J-4.471 E.34172
G1 X130.681 Y164.877 E1.71427
G3 X129.005 Y159.275 I4.452 J-4.383 E.21415
M73 P3 R82
G1 X129.149 Y158.692 E.02111
G1 X128.707 Y158.574 F12000
G1 F1800
G1 X128.726 Y158.499 E.00271
G1 X129.005 Y157.763 E.02772
G1 X129.38 Y157.042 E.02859
G1 X129.843 Y156.369 E.02875
G1 X130.348 Y155.798 E.02682
G1 X132.798 Y153.348 E.12195
G1 X133.368 Y152.843 E.02682
G1 X134.039 Y152.382 E.02864
G1 X134.737 Y152.016 E.02773
G1 X135.498 Y151.726 E.02867
G1 X136.292 Y151.531 E.02875
G1 X137.1 Y151.434 E.02866
G1 X137.888 Y151.434 E.02773
G1 X138.696 Y151.531 E.02866
G1 X139.489 Y151.726 E.02872
G1 X140.228 Y152.006 E.02781
G1 X140.97 Y152.395 E.02949
G1 X141.621 Y152.844 E.02784
G1 X142.19 Y153.348 E.02675
G1 X176.652 Y187.81 E1.71525
G1 X177.157 Y188.381 E.02682
G1 X177.618 Y189.051 E.02864
G1 X177.984 Y189.749 E.02773
G1 X178.274 Y190.51 E.02867
G1 X178.469 Y191.304 E.02875
G1 X178.566 Y192.112 E.02866
G1 X178.566 Y192.9 E.02773
G1 X178.469 Y193.708 E.02866
G1 X178.274 Y194.502 E.02875
G1 X177.984 Y195.263 E.02867
