; HEADER_BLOCK_START
; generated by OrcaSlicer 1.6.4-beta3 on 2023-08-17 at 22:07:55
; total layer number: 100
; HEADER_BLOCK_END

; THUMBNAIL_BLOCK_START
; THUMBNAIL_BLOCK_END

; external perimeters extrusion width = 0.40mm
; perimeters extrusion width = 0.46mm
; infill extrusion width = 0.64mm
; solid infill extrusion width = 0.56mm
; top infill extrusion width = 0.40mm
; support material extrusion width = 0.46mm
; first layer extrusion width = 0.50mm

; EXECUTABLE_BLOCK_START
EXCLUDE_OBJECT_DEFINE NAME=Frame_Brace.stl_id_0_copy_0 CENTER=165,165 POLYGON=[[92.967,94.967],[94.967,92.967],[102.967,92.967],[106.381,94.3812],[235.619,223.619],[237.033,227.033],[237.033,235.033],[235.033,237.033],[201.033,237.033],[197.619,235.619],[179.284,217.284],[94.3812,132.381],[92.967,128.967],[92.967,94.967]]
M73 P0 R90
;TYPE:Custom
START_PRINT T_BED=110 T_EXTRUDER=260
G90
G21
M83 ; use relative distances for extrusion
; Filament gcode
M106 S0
;LAYER_CHANGE
;Z:0.2
;HEIGHT:0.2
;BEFORE_LAYER_CHANGE
;0.2
G92 E0

SET_VELOCITY_LIMIT ACCEL=1000 ACCEL_TO_DECEL=500
G1 E-.5 F3000
G1 X92.856 Y92.856 F12000
G1 Z.2
G1 E.5 F1800
;TYPE:Skirt
;WIDTH:0.5
G1 F3000
G1 X92.906 Y92.806 E.00249
G1 X94.967 Y91.953 E.0785
G1 X104.08 Y91.953 E.32072
G1 X105.195 Y92.175 E.04002
G1 X106.311 Y92.877 E.04641
G1 X237.123 Y223.689 E6.51071
G1 X237.825 Y224.805 E.04641
G1 X238.047 Y225.92 E.04002
G1 X238.047 Y235.033 E.32072
G1 X237.194 Y237.094 E.0785
G1 X237.094 Y237.194 E.00498
G1 X235.033 Y238.047 E.0785
G1 X199.92 Y238.047 E1.23576
G1 X198.805 Y237.825 E.04002
G1 X197.689 Y237.123 E.04641
G1 X92.877 Y132.311 E5.21664
G1 X92.175 Y131.195 E.04641
G1 X91.953 Y130.08 E.04002
G1 X91.953 Y94.967 E1.23576
G1 X92.806 Y92.906 E.0785
G1 X92.828 Y92.885 E.00108
G1 X93.151 Y93.208 F12000
G1 F3000
G1 X93.23 Y93.13 E.0039
G1 X94.967 Y92.41 E.06618
G1 X104.08 Y92.41 E.32072
G1 X105.02 Y92.597 E.03374
G1 X105.988 Y93.2 E.04014
G1 X236.8 Y224.012 E6.51071
G1 X237.403 Y224.98 E.04014
G1 X237.59 Y225.92 E.03374
G1 X237.59 Y235.033 E.32072
G1 X236.87 Y236.77 E.06618
G1 X236.77 Y236.87 E.00498
G1 X235.033 Y237.59 E.06618
G1 X199.92 Y237.59 E1.23576
G1 X198.98 Y237.403 E.03374
G1 X198.012 Y236.8 E.04014
G1 X93.2 Y131.988 E5.21664
G1 X92.597 Y131.02 E.04014
G1 X92.41 Y130.08 E.03374
G1 X92.41 Y94.967 E1.23576
G1 X93.126 Y93.238 E.06586
; printing object Frame_Brace.stl id:0 copy 0
G1 E-.5
EXCLUDE_OBJECT_START NAME=Frame_Brace.stl_id_0_copy_0
G1 X234.783 Y234.783 F12000
G1 E.5 F1800
;TYPE:Outer wall
G1 F3000
G1 X199.99 Y234.783 E1.22451
G1 X199.948 Y234.766 E.0016
G1 X180.885 Y215.703 E.94878
G3 X180.07 Y213.735 I2.049 J-2.001 E.0768
G1 X180.07 Y210.811 E.10291
G2 X177.952 Y205.699 I-7.253 J.01 E.19979
G1 X124.301 Y152.048 E2.67034
G2 X119.189 Y149.93 I-5.121 J5.135 E.19979
G1 X116.265 Y149.93 E.10291
G3 X114.297 Y149.115 I.034 J-2.864 E.0768
G1 X95.234 Y130.052 E.94878
G1 X95.217 Y130.01 E.0016
G1 X95.217 Y95.217 E1.22451
G1 X104.01 Y95.217 E.30947
G1 X104.052 Y95.234 E.0016
G1 X136.115 Y127.297 E1.59582
G3 X136.93 Y129.265 I-2.059 J2.005 E.07678
G1 X136.93 Y132.189 E.10291
G2 X139.048 Y137.301 I7.253 J-.01 E.19979
G1 X192.699 Y190.952 E2.67034
G2 X197.811 Y193.07 I5.121 J-5.135 E.19979
G1 X200.735 Y193.07 E.10291
G3 X202.703 Y193.885 I-.038 J2.874 E.07678
G1 X234.766 Y225.948 E1.59582
G1 X234.783 Y225.99 E.0016
G1 X234.783 Y234.743 E.30807
G1 X234.326 Y234.326 F12000
;TYPE:Inner wall
G1 F3000
G1 X200.154 Y234.326 E1.20263
G1 X181.221 Y215.392 E.94237
G3 X180.527 Y213.718 I1.711 J-1.69 E.06541
G1 X180.527 Y210.8 E.10268
G2 X178.284 Y205.384 I-7.703 J.018 E.21164
G1 X124.616 Y151.716 E2.67113
G2 X119.2 Y149.473 I-5.434 J5.46 E.21164
G1 X116.282 Y149.473 E.10268
G3 X114.608 Y148.779 I.015 J-2.405 E.0654
G1 X95.674 Y129.846 E.94237
G1 X95.674 Y95.674 E1.20263
G1 X103.846 Y95.674 E.28759
G1 X135.779 Y127.608 E1.5894
G3 X136.473 Y129.282 I-1.711 J1.69 E.06541
G1 X136.473 Y132.2 E.10268
G2 X138.716 Y137.616 I7.703 J-.018 E.21164
G1 X192.384 Y191.284 E2.67113
G2 X197.8 Y193.527 I5.434 J-5.46 E.21164
G1 X200.718 Y193.527 E.10268
G3 X202.392 Y194.221 I-.015 J2.405 E.0654
G1 X234.326 Y226.154 E1.5894
G1 X234.326 Y234.286 E.28618
G1 X233.869 Y233.869 F12000
G1 F3000
G1 X200.344 Y233.869 E1.17988
G1 X181.556 Y215.081 E.93508
G3 X180.984 Y213.7 I1.375 J-1.379 E.05401
G1 X180.984 Y210.789 E.10246
G2 X178.615 Y205.069 I-8.154 J.027 E.22349
G1 X124.931 Y151.385 E2.67193
G2 X119.211 Y149.016 I-5.747 J5.784 E.22349
G1 X116.3 Y149.016 E.10246
G3 X114.919 Y148.444 I-.003 J-1.947 E.05401
G1 X96.131 Y129.656 E.93508
G1 X96.131 Y96.131 E1.17988
G1 X103.656 Y96.131 E.26484
G1 X135.444 Y127.919 E1.58211
G3 X136.016 Y129.3 I-1.375 J1.379 E.05401
G1 X136.016 Y132.211 E.10246
G2 X138.385 Y137.931 I8.154 J-.027 E.22349
G1 X192.069 Y191.615 E2.67193
G2 X197.789 Y193.984 I5.747 J-5.785 E.22349
G1 X200.7 Y193.984 E.10246
G3 X202.081 Y194.556 I.003 J1.947 E.05401
G1 X233.869 Y226.344 E1.58211
G1 X233.869 Y233.829 E.26343
G1 X233.412 Y233.412 F12000
G1 F3000
G1 X200.533 Y233.412 E1.15713
G1 X181.892 Y214.771 E.9278
G3 X181.441 Y213.682 I1.041 J-1.069 E.04262
G1 X181.441 Y210.777 E.10224
G2 X178.946 Y204.754 I-8.604 J.035 E.23534
G1 X125.246 Y151.054 E2.67272
M73 P0 R89
G2 X119.223 Y148.559 I-6.059 J6.109 E.23534
G1 X116.318 Y148.559 E.10224
G3 X115.229 Y148.108 I-.02 J-1.492 E.04262
G1 X96.588 Y129.467 E.9278
G1 X96.588 Y96.588 E1.15713
G1 X103.467 Y96.588 E.24209
G1 X135.108 Y128.229 E1.57483
G3 X135.559 Y129.318 I-1.041 J1.069 E.04262
G1 X135.559 Y132.223 E.10224
G2 X138.054 Y138.246 I8.604 J-.036 E.23534
G1 X191.754 Y191.946 E2.67272
G2 X197.777 Y194.441 I6.059 J-6.109 E.23534
G1 X200.682 Y194.441 E.10224
G3 X201.771 Y194.892 I.02 J1.492 E.04262
G1 X233.412 Y226.533 E1.57483
M73 P1 R89
G1 X233.412 Y233.372 E.24068
G1 E-.5
G1 X202.871 Y231.229 F12000
G1 E.5 F1800
;TYPE:Outer wall
G1 F3000
G1 X202.433 Y231.147 E.01568
G3 X199.884 Y229.752 I1.198 J-5.214 E.10355
G1 X185.1 Y214.969 E.73581
G3 X183.57 Y211.273 I3.819 J-3.746 E.14427
G1 X183.57 Y206.668 E.16209
G3 X185.1 Y202.972 I5.349 J.051 E.14428
G1 X189.972 Y198.1 E.24249
G3 X193.668 Y196.57 I3.746 J3.819 E.14427
G1 X198.273 Y196.57 E.16209
G3 X201.969 Y198.1 I-.051 J5.349 E.14427
G1 X226.197 Y222.328 E1.20587
G3 X222.488 Y231.283 I-3.735 J3.699 E.43406
G1 X203.579 Y231.283 E.66545
G3 X202.995 Y231.245 I.051 J-5.349 E.02061
G1 X202.91 Y231.234 E.00301
G1 X202.924 Y231.701 F12000
;TYPE:Inner wall
G1 F3000
G1 X202.331 Y231.593 E.02121
G3 X199.57 Y230.085 I1.3 J-5.661 E.11214
G1 X184.768 Y215.283 E.73672
G3 X183.113 Y211.287 I4.152 J-4.061 E.15599
G1 X183.113 Y206.655 E.163
G3 X184.768 Y202.658 I5.808 J.064 E.156
G1 X189.658 Y197.768 E.2434
G3 X193.655 Y196.113 I4.061 J4.152 E.15599
G1 X198.287 Y196.113 E.16301
G3 X202.283 Y197.768 I-.065 J5.808 E.15599
G1 X226.53 Y222.015 E1.20683
G3 X222.502 Y231.74 I-4.068 J4.012 E.47096
G1 X203.566 Y231.74 E.66642
G3 X202.964 Y231.702 I.065 J-5.808 E.02125
G1 X202.934 Y232.162 F12000
G1 F3000
G1 X202.892 Y232.154 E.0015
G3 X199.256 Y230.417 I.739 J-6.223 E.14438
G1 X184.436 Y215.597 E.73764
G3 X182.656 Y211.3 I4.486 J-4.376 E.1677
G1 X182.656 Y206.642 E.16391
G3 X184.436 Y202.344 I6.266 J.078 E.16773
G1 X189.344 Y197.436 E.24432
G3 X193.642 Y195.656 I4.376 J4.486 E.1677
G1 X198.3 Y195.656 E.16393
G3 X202.597 Y197.436 I-.078 J6.266 E.1677
G1 X226.863 Y221.702 E1.20779
G3 X226.659 Y230.564 I-4.4 J4.332 E.34797
G1 X226.061 Y231.051 E.02712
G3 X225.403 Y231.461 I-25.103 J-39.579 E.02731
G3 X223.246 Y232.151 I-3.156 J-6.143 E.08006
G1 X222.516 Y232.197 E.02573
G1 X203.553 Y232.197 E.66738
G1 X202.974 Y232.164 E.02042
G1 X202.775 Y232.603 F12000
G1 F3000
G1 X202.129 Y232.485 E.02313
G3 X198.942 Y230.75 I1.504 J-6.556 E.1293
G1 X184.103 Y215.911 E.73856
G3 X182.199 Y211.313 I4.821 J-4.69 E.17942
G1 X182.199 Y206.629 E.16482
G3 X184.103 Y202.03 I6.725 J.091 E.17945
G1 X189.03 Y197.103 E.24524
G3 X193.629 Y195.199 I4.69 J4.821 E.17942
G1 X198.313 Y195.199 E.16485
G3 X202.911 Y197.103 I-.092 J6.725 E.17942
G1 X227.197 Y221.389 E1.20876
G3 X229.011 Y224.945 I-4.923 J4.753 E.14256
G1 X229.096 Y225.768 E.02913
G1 X229.077 Y226.593 E.02904
G1 X228.962 Y227.384 E.02813
G1 X228.743 Y228.181 E.02907
G1 X228.427 Y228.946 E.02914
G1 X228.018 Y229.663 E.02907
G1 X227.54 Y230.304 E.02813
G1 X226.97 Y230.901 E.02904
G1 X226.328 Y231.423 E.02914
G3 X225.619 Y231.865 I-26.987 J-42.569 E.02939
G1 X224.875 Y232.208 E.02882
G1 X224.114 Y232.452 E.02813
G1 X223.303 Y232.606 E.02905
G1 X222.531 Y232.654 E.02725
G1 X203.54 Y232.654 E.66834
G3 X202.841 Y232.608 I.092 J-6.725 E.02468
G1 X202.815 Y232.606 E.00091
G1 E-.5
G1 X200.112 Y230.405 F12000
G1 X199.653 Y229.997
G1 X184.856 Y215.199
G1 X184.448 Y214.741
G1 X180.084 Y208.635
G1 X179.834 Y207.93
G1 X179.502 Y207.228
G1 X179.132 Y206.611
G1 X178.687 Y206.01
G1 X178.196 Y205.468
G1 X124.532 Y151.804
G1 X123.99 Y151.313
G1 X117.885 Y146.694
G1 X117.504 Y146.629
G1 X116.895 Y146.455
G1 X116.309 Y146.212
G1 X115.755 Y145.905
G1 X115.259 Y145.552
G1 X114.801 Y145.144
G1 X100.003 Y130.347
G1 X99.595 Y129.888
G1 X99.243 Y129.392
G1 X98.935 Y128.838
G1 X98.692 Y128.252
G1 X98.518 Y127.643
G1 X98.488 Y127.463
G1 X98.819 Y127.406
G1 E.5 F1800
;TYPE:Outer wall
G1 F3000
G1 X98.755 Y127.005 E.01431
G3 X98.717 Y126.421 I5.312 J-.635 E.02061
G1 X98.717 Y107.512 E.66545
G3 X103.546 Y102.29 I5.251 J.012 E.27502
G1 X103.862 Y102.284 E.01111
G3 X107.672 Y103.803 I.096 J5.295 E.14823
G1 X131.9 Y128.031 E1.20587
G3 X133.43 Y131.727 I-3.819 J3.746 E.14428
G1 X133.43 Y136.332 E.16209
G3 X131.9 Y140.028 I-5.349 J-.051 E.14427
G1 X127.028 Y144.9 E.24249
G3 X123.332 Y146.43 I-3.746 J-3.819 E.14428
G1 X118.727 Y146.43 E.16209
G3 X115.031 Y144.9 I.051 J-5.349 E.14427
G1 X100.248 Y130.116 E.73581
G3 X98.853 Y127.567 I3.819 J-3.746 E.10355
G1 X98.827 Y127.446 E.00438
G1 X98.405 Y127.688 F12000
;TYPE:Inner wall
G1 F3000
G1 X98.407 Y127.669 E.0007
G3 X98.26 Y126.434 I5.661 J-1.3 E.04385
G1 X98.26 Y107.498 E.66642
G3 X99.322 Y104.205 I5.917 J.09 E.12358
G3 X103.509 Y101.834 I4.701 J3.419 E.1746
G1 X103.852 Y101.827 E.01209
G1 X104.196 Y101.819 E.01211
G1 X104.905 Y101.892 E.02508
G3 X107.985 Y103.47 I-1.06 J5.863 E.12355
G1 X132.232 Y127.717 E1.20683
G3 X133.887 Y131.714 I-4.152 J4.061 E.156
G1 X133.887 Y136.345 E.163
G3 X132.232 Y140.342 I-5.808 J-.065 E.15599
G1 X127.342 Y145.232 E.2434
G3 X123.345 Y146.887 I-4.061 J-4.152 E.156
G1 X118.714 Y146.887 E.163
G3 X114.717 Y145.232 I.065 J-5.808 E.15599
G1 X99.915 Y130.43 E.73672
G3 X98.586 Y128.289 I4.153 J-4.061 E.08939
G1 X98.416 Y127.727 E.02067
G1 X97.965 Y127.812 F12000
G1 F3000
G1 X97.961 Y127.77 E.0015
G3 X97.803 Y126.447 I6.108 J-1.402 E.04699
G1 X97.803 Y107.484 E.66738
G1 X97.849 Y106.754 E.02573
G3 X98.541 Y104.593 I6.841 J1.001 E.08024
G1 X98.949 Y103.939 E.02713
G1 X99.435 Y103.342 E.02708
G1 X99.973 Y102.826 E.02624
G1 X100.609 Y102.353 E.02789
G1 X101.256 Y101.984 E.02622
G1 X101.968 Y101.69 E.0271
G1 X102.711 Y101.486 E.02713
G1 X103.472 Y101.377 E.02704
G1 X103.843 Y101.37 E.01306
G1 X104.215 Y101.362 E.0131
G1 X104.98 Y101.441 E.02708
G1 X105.73 Y101.614 E.02709
G1 X106.43 Y101.871 E.02623
G3 X108.298 Y103.137 I-2.837 J6.197 E.07977
G1 X132.564 Y127.403 E1.20779
G3 X134.344 Y131.701 I-4.486 J4.376 E.16773
G1 X134.344 Y136.358 E.16391
G3 X132.564 Y140.656 I-6.266 J-.078 E.1677
G1 X127.656 Y145.564 E.24432
G3 X123.358 Y147.344 I-4.376 J-4.486 E.16773
G1 X118.7 Y147.344 E.16391
G3 X114.403 Y145.564 I.078 J-6.266 E.1677
G1 X99.583 Y130.744 E.73764
G3 X98.155 Y128.44 I4.487 J-4.376 E.09617
G1 X97.977 Y127.851 E.02166
G1 X97.525 Y127.936 F12000
G1 F3000
G1 X97.515 Y127.871 E.00231
G3 X97.346 Y126.46 I6.556 J-1.504 E.05012
G1 X97.346 Y107.469 E.66834
G1 X97.394 Y106.697 E.02724
G1 X97.548 Y105.886 E.02905
G1 X97.792 Y105.125 E.02813
G1 X98.138 Y104.375 E.02906
G1 X98.577 Y103.672 E.02915
G1 X99.098 Y103.032 E.02908
G1 X99.677 Y102.476 E.02824
G1 X100.358 Y101.969 E.02989
G1 X101.055 Y101.573 E.02821
G1 X101.819 Y101.257 E.02911
G1 X102.618 Y101.038 E.02915
G1 X103.435 Y100.921 E.02903
G1 X103.833 Y100.913 E.01404
G1 X104.234 Y100.904 E.01409
G1 X105.056 Y100.989 E.02908
G1 X105.861 Y101.175 E.0291
G1 X106.614 Y101.451 E.02822
G1 X107.369 Y101.84 E.02989
G1 X108.031 Y102.292 E.02823
G1 X108.611 Y102.803 E.02719
G1 X132.897 Y127.089 E1.20875
G3 X134.801 Y131.688 I-4.821 J4.69 E.17945
G1 X134.801 Y136.371 E.16482
G3 X132.897 Y140.97 I-6.725 J-.092 E.17942
G1 X127.97 Y145.897 E.24524
G3 X123.371 Y147.801 I-4.69 J-4.82 E.17945
G1 X118.687 Y147.801 E.16482
G3 X114.089 Y145.897 I.092 J-6.725 E.17942
G1 X99.25 Y131.058 E.73856
G3 X97.723 Y128.59 I4.821 J-4.69 E.10294
G1 X97.537 Y127.974 E.02265
G1 E-.5
G1 X114.801 Y145.144 F12000
G1 X115.259 Y145.552
G1 X115.755 Y145.905
G1 X123.389 Y150.868
G1 X123.99 Y151.313
G1 X166.045 Y189.317
G1 X170.571 Y193.843
G1 X171.066 Y194.281
G1 X171.168 Y194.351
G1 X171.358 Y194.074
G1 E.5 F1800
;TYPE:Outer wall
G1 F3000
G1 X171.274 Y194.013 E.00366
G3 X170.801 Y193.599 I3.232 J-4.164 E.02215
G1 X136.401 Y159.199 E1.71214
G3 X136.401 Y151.789 I3.726 J-3.705 E.28941
G1 X138.789 Y149.401 E.11884
G3 X142.186 Y147.88 I3.704 J3.718 E.13391
G3 X146.199 Y149.401 I.27 J5.34 E.1554
G1 X180.599 Y183.801 E1.71214
G3 X180.599 Y191.211 I-3.75 J3.705 E.28917
G1 X178.211 Y193.599 E.11884
G3 X171.802 Y194.374 I-3.705 J-3.75 E.24451
G1 X171.392 Y194.097 E.01742
G1 X171.008 Y194.388 F12000
;TYPE:Inner wall
G1 F3000
G1 X170.993 Y194.373 E.00074
G3 X170.488 Y193.932 I3.513 J-4.525 E.02363
G1 X136.068 Y159.512 E1.71312
G3 X136.068 Y151.476 I4.062 J-4.018 E.31368
G1 X138.476 Y149.068 E.11982
G3 X142.159 Y147.423 I4.015 J4.042 E.14512
G3 X146.512 Y149.068 I.294 J5.802 E.16851
G1 X180.932 Y183.488 E1.71312
G3 X180.932 Y191.524 I-4.083 J4.018 E.31345
G1 X178.524 Y193.932 E.11982
G3 X171.566 Y194.765 I-4.018 J-4.083 E.26539
G1 X171.041 Y194.411 E.02228
G1 X170.674 Y194.706 F12000
G1 F3000
G1 X170.175 Y194.265 E.02346
G1 X135.735 Y159.825 E1.71411
G3 X135.735 Y151.163 I4.397 J-4.331 E.33795
G1 X138.163 Y148.735 E.12081
G3 X142.132 Y146.966 I4.327 J4.369 E.15632
G3 X144.33 Y147.235 I.267 J6.941 E.07828
G3 X146.825 Y148.735 I-1.849 J5.899 E.10345
G1 X181.265 Y183.175 E1.71411
G3 X181.265 Y191.838 I-4.417 J4.331 E.33774
G1 X178.837 Y194.265 E.12081
G3 X170.712 Y194.734 I-4.331 J-4.417 E.31264
G1 X170.706 Y194.73 E.00023
G1 X170.373 Y195.05 F12000
G1 F3000
G1 X169.861 Y194.598 E.02404
G1 X135.402 Y160.139 E1.71509
G1 X134.902 Y159.573 E.02658
G1 X134.446 Y158.91 E.02832
G1 X134.084 Y158.22 E.02741
G1 X133.798 Y157.467 E.02835
G1 X133.604 Y156.683 E.02843
G1 X133.509 Y155.883 E.02834
G1 X133.509 Y155.104 E.02741
G1 X133.604 Y154.31 E.02816
G1 X133.634 Y154.184 E.00455
G3 X134.444 Y152.081 I7.095 J1.525 E.07967
G1 X134.902 Y151.415 E.02843
G1 X135.402 Y150.849 E.02658
G1 X137.849 Y148.402 E.12179
G1 X138.415 Y147.902 E.02658
G1 X139.078 Y147.446 E.02832
G1 X139.768 Y147.084 E.02742
G1 X140.521 Y146.798 E.02835
G1 X141.305 Y146.604 E.02843
G1 X142.104 Y146.509 E.02834
G1 X142.883 Y146.509 E.02741
G1 X143.683 Y146.604 E.02834
G1 X144.466 Y146.797 E.0284
G1 X145.197 Y147.074 E.0275
G3 X147.139 Y148.402 I-3.095 J6.611 E.08316
G1 X181.598 Y182.861 E1.71509
G1 X182.098 Y183.427 E.02657
G1 X182.554 Y184.09 E.02832
G1 X182.916 Y184.78 E.02742
G1 X183.202 Y185.533 E.02835
G1 X183.396 Y186.317 E.02843
G1 X183.491 Y187.117 E.02834
G1 X183.491 Y187.896 E.02741
G1 X183.396 Y188.695 E.02834
G1 X183.202 Y189.479 E.02843
G1 X182.916 Y190.232 E.02835
G1 X182.554 Y190.922 E.02742
G1 X182.098 Y191.585 E.02832
G1 X181.598 Y192.151 E.02658
G1 X179.151 Y194.598 E.12179
G1 X178.585 Y195.098 E.02658
G1 X177.922 Y195.554 E.02832
G1 X177.232 Y195.916 E.02741
G1 X176.479 Y196.202 E.02835
G1 X175.695 Y196.396 E.02843
G1 X174.896 Y196.491 E.02834
G1 X174.117 Y196.491 E.02741
G1 X173.317 Y196.396 E.02834
G1 X172.533 Y196.202 E.02843
G1 X171.78 Y195.916 E.02835
G1 X171.09 Y195.554 E.02742
G1 X170.427 Y195.098 E.02832
G1 X170.403 Y195.077 E.00113
G1 X170.171 Y195.409 F12000
;TYPE:Gap infill
;WIDTH:0.344105
G1 F3000
G3 X169.598 Y194.871 I17.275 J-18.931 E.01822
G1 X135.129 Y160.402 E1.13045
