; HEADER_BLOCK_START
; generated by OrcaSlicer 1.6.3 on 2023-06-17 at 22:39:15
; total layer number: 75
; HEADER_BLOCK_END

; THUMBNAIL_BLOCK_START
; THUMBNAIL_BLOCK_END

; external perimeters extrusion width = 0.40mm
; perimeters extrusion width = 0.45mm
; infill extrusion width = 0.45mm
; solid infill extrusion width = 0.40mm
; top infill extrusion width = 0.40mm
; first layer extrusion width = 0.50mm

; EXECUTABLE_BLOCK_START
EXCLUDE_OBJECT_DEFINE NAME=Frame_Brace.stl_id_0_copy_0 CENTER=160,170 POLYGON=[[87.967,99.967],[89.967,97.967],[97.967,97.967],[101.381,99.3812],[230.619,228.619],[232.033,232.033],[232.033,240.033],[230.033,242.033],[196.033,242.033],[192.619,240.619],[174.284,222.284],[89.3812,137.381],[87.967,133.967],[87.967,99.967]]
M73 P0 R60
;TYPE:Custom
START_PRINT T_BED=110 T_EXTRUDER=260
G90
G21
M83 ; use relative distances for extrusion
; Filament gcode

    PRESSURE_ADVANCE_SELECT FILAMENT=ABS
M106 S0
;LAYER_CHANGE
;Z:0.2
;HEIGHT:0.2
M204 S1000
G1 E-.5 F3000
G1 X87.906 Y97.773 F9000
G1 Z.2
G1 E.5 F1800
;TYPE:Skirt
;WIDTH:0.5
G1 F3000
G1 X89.967 Y96.919 E.0785
G1 X99.06 Y96.919 E.32003
G1 X100.176 Y97.141 E.04002
G1 X101.349 Y97.867 E.04855
G1 X232.133 Y228.651 E6.50933
G1 X232.859 Y229.824 E.04855
G1 X233.081 Y230.94 E.04002
G1 X233.081 Y240.033 E.32003
G1 X232.227 Y242.094 E.0785
G1 X232.094 Y242.227 E.00664
G1 X230.033 Y243.081 E.0785
G1 X194.94 Y243.081 E1.23507
G1 X193.824 Y242.859 E.04002
G1 X192.651 Y242.133 E.04855
G1 X87.867 Y137.349 E5.21527
G1 X87.141 Y136.176 E.04855
G1 X86.919 Y135.06 E.04002
G1 X86.919 Y99.967 E1.23507
G1 X87.773 Y97.906 E.0785
G1 X87.864 Y97.815 E.00452
G1 X88.187 Y98.139 F9000
G1 F3000
G1 X88.23 Y98.096 E.00211
G1 X89.967 Y97.377 E.06618
G1 X99.06 Y97.377 E.32003
G1 X100.001 Y97.564 E.03374
G1 X101.026 Y98.191 E.04228
G1 X231.809 Y228.975 E6.50933
G1 X232.436 Y229.999 E.04228
G1 X232.623 Y230.94 E.03374
G1 X232.623 Y240.033 E.32003
G1 X231.904 Y241.77 E.06618
G1 X231.77 Y241.904 E.00664
G1 X230.033 Y242.623 E.06618
G1 X194.94 Y242.623 E1.23507
G1 X193.999 Y242.436 E.03374
G1 X192.975 Y241.809 E.04228
G1 X88.191 Y137.025 E5.21527
G1 X87.564 Y136.001 E.04228
G1 X87.377 Y135.06 E.03374
G1 X87.377 Y99.967 E1.23507
G1 X88.096 Y98.23 E.06618
G1 X88.145 Y98.181 E.00241
; printing object Frame_Brace.stl id:0 copy 0
EXCLUDE_OBJECT_START NAME=Frame_Brace.stl_id_0_copy_0
G1 E-.5
G1 X228.445 Y238.445 F9000
G1 E.5 F1800
;TYPE:Inner wall
;WIDTH:0.499999
G1 F3000
G1 X219.109 Y238.445 E.32856
;WIDTH:0.540342
G1 X218.984 Y238.425 E.00485
;WIDTH:0.580685
G1 X218.859 Y238.405 E.00524
;WIDTH:0.621027
G1 X218.735 Y238.385 E.00563
;WIDTH:0.66137
G1 X218.61 Y238.364 E.00603
;WIDTH:0.701712
G1 X218.485 Y238.344 E.00642
;WIDTH:0.705077
G1 X217.48 Y238.353 E.0512
;WIDTH:0.683558
G1 X198.586 Y238.353 E.93202
;WIDTH:0.685213
G1 X198.47 Y238.353 E.00571
;WIDTH:0.714182
G1 X197.68 Y238.338 E.04087
G1 X197.603 Y238.359 E.0041
;WIDTH:0.671346
G1 X197.527 Y238.381 E.00384
;WIDTH:0.628509
G1 X197.451 Y238.402 E.00358
;WIDTH:0.585673
G1 X197.374 Y238.424 E.00332
;WIDTH:0.542836
G1 X197.298 Y238.445 E.00305
;WIDTH:0.499999
G1 X195.519 Y238.445 E.0626
G1 X177.393 Y220.319 E.90216
G1 X176.689 Y219.585 E.03579
G1 X176.478 Y219.168 E.01647
G1 X176.408 Y218.683 E.01724
G1 X176.406 Y215.738 E.10364
G1 X176.356 Y214.894 E.02976
G1 X176.224 Y214.059 E.02975
G1 X176.02 Y213.276 E.02846
G1 X175.775 Y212.59 E.02562
G1 X175.531 Y212.059 E.02057
G1 X175.264 Y211.55 E.02024
G1 X174.847 Y210.893 E.02736
G1 X174.411 Y210.316 E.02547
G1 X173.894 Y209.749 E.02698
G1 X165.391 Y201.246 E.42321
;WIDTH:0.541182
G1 X165.32 Y201.146 E.00474
;WIDTH:0.582365
G1 X165.248 Y201.045 E.00513
;WIDTH:0.623547
G1 X165.177 Y200.944 E.00552
;WIDTH:0.66473
G1 X165.105 Y200.844 E.00591
;WIDTH:0.705912
G1 X165.034 Y200.743 E.0063
G1 X164.857 Y200.567 E.01276
;WIDTH:0.704147
G1 X164.332 Y200.058 E.03721
;WIDTH:0.683557
G1 X129.942 Y165.668 E2.39902
;WIDTH:0.685453
G1 X129.856 Y165.58 E.00611
;WIDTH:0.719448
G1 X129.262 Y164.962 E.04461
G1 X129.161 Y164.891 E.00645
;WIDTH:0.675559
G1 X129.059 Y164.821 E.00603
;WIDTH:0.631669
G1 X128.957 Y164.75 E.00561
;WIDTH:0.587779
G1 X128.855 Y164.679 E.0052
;WIDTH:0.543889
G1 X128.754 Y164.609 E.00478
;WIDTH:0.499999
G1 X120.648 Y156.503 E.40342
G1 X119.974 Y155.852 E.03298
G1 X119.561 Y155.489 E.01934
G1 X119.006 Y155.078 E.0243
G1 X118.45 Y154.736 E.02298
G1 X117.941 Y154.469 E.02024
G1 X117.41 Y154.225 E.02057
G1 X116.575 Y153.935 E.0311
G1 X115.789 Y153.746 E.02843
G1 X114.949 Y153.628 E.02986
G1 X114.183 Y153.592 E.02698
G1 X112.06 Y153.592 E.07473
G1 X111.043 Y153.571 E.03579
G1 X110.621 Y153.438 E.0156
G1 X110.206 Y153.132 E.01812
G1 X91.555 Y134.481 E.9283
G1 X91.555 Y132.702 E.0626
;WIDTH:0.542837
G1 X91.576 Y132.626 E.00305
;WIDTH:0.585674
G1 X91.598 Y132.549 E.00332
;WIDTH:0.628512
G1 X91.619 Y132.473 E.00358
;WIDTH:0.671349
G1 X91.641 Y132.397 E.00384
;WIDTH:0.714186
G1 X91.662 Y132.32 E.0041
G1 X91.656 Y132.095 E.01167
;WIDTH:0.701427
G1 X91.647 Y131.414 E.0345
;WIDTH:0.683558
G1 X91.647 Y112.52 E.93202
;WIDTH:0.685547
G1 X91.648 Y112.393 E.00626
;WIDTH:0.721235
G1 X91.666 Y111.515 E.04585
G1 X91.643 Y111.39 E.00663
;WIDTH:0.676988
G1 X91.621 Y111.266 E.00619
;WIDTH:0.632741
G1 X91.599 Y111.141 E.00576
;WIDTH:0.588494
G1 X91.577 Y111.016 E.00533
;WIDTH:0.544247
G1 X91.555 Y110.891 E.0049
;WIDTH:0.499999
G1 X91.555 Y101.555 E.32856
G1 X98.481 Y101.555 E.24375
G1 X103.08 Y106.154 E.22889
;WIDTH:0.540912
G1 X103.149 Y106.252 E.00462
;WIDTH:0.581825
G1 X103.219 Y106.351 E.005
;WIDTH:0.622738
G1 X103.288 Y106.449 E.00537
;WIDTH:0.663651
G1 X103.357 Y106.547 E.00575
;WIDTH:0.704564
G1 X103.427 Y106.646 E.00613
;WIDTH:0.70507
G1 X104.141 Y107.344 E.05092
;WIDTH:0.683563
G1 X128.359 Y131.563 E1.68947
;WIDTH:0.685214
G1 X128.44 Y131.645 E.00571
;WIDTH:0.714182
G1 X128.989 Y132.214 E.04087
G1 X129.058 Y132.253 E.0041
;WIDTH:0.671346
G1 X129.127 Y132.292 E.00384
;WIDTH:0.628509
G1 X129.196 Y132.331 E.00358
;WIDTH:0.585673
G1 X129.265 Y132.37 E.00332
;WIDTH:0.542836
G1 X129.335 Y132.409 E.00305
;WIDTH:0.499999
G1 X130.311 Y133.415 E.04934
G1 X130.522 Y133.832 E.01647
G1 X130.592 Y134.317 E.01724
G1 X130.594 Y137.262 E.10364
G1 X130.644 Y138.106 E.02976
G1 X130.776 Y138.941 E.02975
G1 X130.98 Y139.724 E.02846
G1 X131.225 Y140.41 E.02562
G1 X131.469 Y140.941 E.02057
G1 X131.736 Y141.45 E.02024
G1 X132.153 Y142.107 E.02736
G1 X132.589 Y142.684 E.02547
G1 X133.106 Y143.251 E.02698
G1 X141.635 Y151.78 E.42453
;WIDTH:0.541811
G1 X141.702 Y151.877 E.00451
;WIDTH:0.583623
G1 X141.769 Y151.973 E.00489
;WIDTH:0.625434
G1 X141.836 Y152.07 E.00527
;WIDTH:0.667246
G1 X141.903 Y152.166 E.00565
;WIDTH:0.709057
G1 X141.97 Y152.263 E.00603
G1 X142.144 Y152.434 E.01253
;WIDTH:0.704054
G1 X142.668 Y152.942 E.03714
;WIDTH:0.683557
G1 X177.058 Y187.332 E2.39902
;WIDTH:0.685451
G1 X177.144 Y187.42 E.00611
;WIDTH:0.719447
G1 X177.738 Y188.038 E.04462
G1 X177.839 Y188.109 E.00645
;WIDTH:0.675558
G1 X177.941 Y188.179 E.00603
;WIDTH:0.631668
G1 X178.043 Y188.25 E.00561
;WIDTH:0.587779
G1 X178.145 Y188.321 E.0052
;WIDTH:0.543889
G1 X178.246 Y188.391 E.00478
;WIDTH:0.499999
G1 X186.352 Y196.497 E.40342
G1 X187.026 Y197.148 E.03299
G1 X187.439 Y197.511 E.01934
G1 X187.994 Y197.922 E.0243
G1 X188.516 Y198.244 E.02161
G1 X189.057 Y198.529 E.02152
G1 X189.629 Y198.791 E.02215
G1 X190.425 Y199.065 E.02962
G1 X191.211 Y199.254 E.02843
G1 X192.051 Y199.372 E.02986
G1 X192.817 Y199.408 E.02698
G1 X194.955 Y199.408 E.07525
G1 X195.957 Y199.429 E.03527
G1 X196.379 Y199.563 E.0156
G1 X196.794 Y199.868 E.01813
G1 X197.593 Y200.667 E.03976
;WIDTH:0.540077
G1 X197.631 Y200.734 E.00295
;WIDTH:0.580155
G1 X197.67 Y200.8 E.00318
;WIDTH:0.620233
G1 X197.708 Y200.867 E.00342
;WIDTH:0.660311
G1 X197.746 Y200.934 E.00366
;WIDTH:0.700389
G1 X197.785 Y201.001 E.0039
;WIDTH:0.701428
G1 X198.437 Y201.641 E.04635
;WIDTH:0.683555
G1 X222.656 Y225.859 E1.68945
;WIDTH:0.685544
G1 X222.744 Y225.95 E.00626
;WIDTH:0.72123
G1 X223.352 Y226.583 E.04585
G1 X223.456 Y226.656 E.00663
;WIDTH:0.676984
G1 X223.56 Y226.728 E.00619
;WIDTH:0.632738
G1 X223.664 Y226.801 E.00576
;WIDTH:0.588492
G1 X223.768 Y226.874 E.00533
;WIDTH:0.544246
G1 X223.872 Y226.946 E.0049
;WIDTH:0.499999
G1 X228.445 Y231.519 E.2276
G1 X228.445 Y238.385 E.24164
G1 X228.902 Y238.902 F9000
G1 F3000
G1 X195.33 Y238.902 E1.18154
G1 X176.506 Y220.073 E.93702
G1 X176.205 Y219.671 E.01768
G1 X176.021 Y219.222 E.01706
G1 X175.951 Y218.7 E.01854
G1 X175.949 Y215.76 E.10347
G1 X175.904 Y214.961 E.02817
G1 X175.78 Y214.17 E.02819
G1 X175.589 Y213.43 E.02689
G1 X175.345 Y212.744 E.02562
G1 X175.118 Y212.256 E.01893
G1 X174.872 Y211.785 E.01872
G1 X174.48 Y211.165 E.0258
G1 X174.072 Y210.623 E.02388
G1 X173.571 Y210.073 E.02619
G1 X120.325 Y156.826 E2.65015
G1 X119.667 Y156.191 E.03219
G1 X119.289 Y155.857 E.01775
G1 X118.734 Y155.446 E.0243
G1 X118.215 Y155.128 E.02142
G1 X117.744 Y154.882 E.01872
G1 X117.256 Y154.655 E.01893
G1 X116.464 Y154.378 E.02953
G1 X115.722 Y154.198 E.02688
M73 P0 R59
G1 X114.926 Y154.085 E.02827
G1 X114.183 Y154.049 E.02619
G1 X111.259 Y154.046 E.10293
G1 X110.753 Y153.972 E.01798
G1 X110.337 Y153.799 E.01587
G1 X109.895 Y153.468 E.01943
G1 X91.098 Y134.67 E.93558
G1 X91.098 Y101.098 E1.18154
G1 X98.67 Y101.098 E.2665
G1 X130.494 Y132.927 E1.58405
G1 X130.795 Y133.329 E.01768
G1 X130.979 Y133.778 E.01706
G1 X131.049 Y134.3 E.01854
G1 X131.051 Y137.24 E.10347
G1 X131.096 Y138.039 E.02817
G1 X131.22 Y138.83 E.02819
G1 X131.411 Y139.57 E.02689
G1 X131.655 Y140.256 E.02562
G1 X131.882 Y140.744 E.01893
G1 X132.128 Y141.215 E.01872
G1 X132.52 Y141.835 E.0258
G1 X132.928 Y142.377 E.02388
G1 X133.429 Y142.927 E.02619
G1 X186.675 Y196.174 E2.65015
M73 P1 R59
G1 X187.333 Y196.809 E.03219
G1 X187.711 Y197.143 E.01775
G1 X188.266 Y197.554 E.0243
G1 X188.751 Y197.852 E.02005
G1 X189.253 Y198.116 E.01996
G1 X189.782 Y198.36 E.0205
G1 X190.536 Y198.622 E.0281
G1 X191.278 Y198.802 E.02687
G1 X192.074 Y198.915 E.02827
G1 X192.817 Y198.951 E.02619
G1 X195.741 Y198.954 E.10293
G1 X196.247 Y199.028 E.01798
G1 X196.663 Y199.201 E.01587
G1 X197.105 Y199.532 E.01943
G1 X228.902 Y231.33 E1.58261
G1 X228.902 Y238.842 E.26439
G1 X229.359 Y239.359 F9000
G1 F3000
G1 X195.141 Y239.359 E1.20429
G1 X176.747 Y220.965 E.91549
G1 X176.028 Y220.219 E.03647
G1 X175.747 Y219.799 E.01779
G1 X175.55 Y219.217 E.0216
G1 X175.494 Y218.718 E.01769
G1 X175.493 Y215.783 E.10329
G1 X175.452 Y215.029 E.02658
G1 X175.337 Y214.281 E.02664
G1 X175.159 Y213.583 E.02533
G1 X174.887 Y212.833 E.02809
G1 X174.48 Y212.02 E.03201
G1 X174.112 Y211.437 E.02424
G1 X173.733 Y210.93 E.02229
G1 X173.248 Y210.396 E.02539
G1 X120.002 Y157.149 E2.65015
G1 X119.36 Y156.53 E.03139
G1 X118.847 Y156.098 E.02362
G1 X118.238 Y155.675 E.02609
G1 X117.674 Y155.355 E.02282
G1 X117.102 Y155.086 E.02224
G1 X116.353 Y154.822 E.02797
G1 X115.654 Y154.65 E.02532
G1 X114.904 Y154.541 E.02668
G1 X114.183 Y154.506 E.02539
G1 X112.06 Y154.506 E.07473
G1 X111.024 Y154.487 E.03647
G1 X110.525 Y154.388 E.01788
G1 X109.979 Y154.116 E.02146
G1 X109.584 Y153.803 E.01774
G1 X90.641 Y134.859 E.94286
G1 X90.641 Y100.641 E1.20429
G1 X98.859 Y100.641 E.28925
G1 X130.253 Y132.035 E1.56252
G1 X130.972 Y132.781 E.03647
G1 X131.253 Y133.201 E.01779
G1 X131.45 Y133.783 E.0216
G1 X131.506 Y134.282 E.01769
G1 X131.507 Y137.217 E.10329
G1 X131.548 Y137.971 E.02658
G1 X131.663 Y138.719 E.02664
G1 X131.841 Y139.417 E.02533
G1 X132.113 Y140.167 E.02809
G1 X132.52 Y140.98 E.03201
G1 X132.888 Y141.563 E.02424
G1 X133.267 Y142.07 E.02229
G1 X133.752 Y142.604 E.02539
G1 X186.998 Y195.851 E2.65015
G1 X187.42 Y196.271 E.02098
G1 X187.982 Y196.776 E.02658
G1 X188.537 Y197.187 E.0243
G1 X188.986 Y197.459 E.01849
G1 X189.449 Y197.703 E.01839
G1 X189.934 Y197.929 E.01886
G1 X190.647 Y198.178 E.02658
G1 X191.346 Y198.35 E.02531
G1 X192.096 Y198.459 E.02668
G1 X192.817 Y198.494 E.02539
G1 X194.955 Y198.494 E.07525
G1 X195.976 Y198.513 E.03594
G1 X196.475 Y198.612 E.01788
G1 X197.021 Y198.884 E.02146
G1 X197.416 Y199.197 E.01774
G1 X229.359 Y231.141 E1.58989
G1 X229.359 Y239.299 E.28714
G1 X229.816 Y239.816 F9000
;TYPE:Outer wall
G1 F3000
G1 X195.063 Y239.816 E1.22311
G1 X194.91 Y239.775 E.00556
G1 X175.915 Y220.78 E.94541
G1 X175.578 Y220.396 E.01802
G1 X175.274 Y219.849 E.022
G1 X175.105 Y219.322 E.01949
G1 X175.036 Y218.735 E.02078
G1 X175.036 Y215.805 E.10311
G1 X175 Y215.096 E.02499
G1 X174.894 Y214.392 E.02508
G1 X174.728 Y213.737 E.02376
G1 X174.475 Y213.03 E.02644
G1 X174.088 Y212.255 E.03049
G1 X173.745 Y211.709 E.02268
G1 X173.394 Y211.237 E.0207
G1 X172.925 Y210.719 E.0246
G1 X119.679 Y157.473 E2.65015
G1 X119.053 Y156.869 E.03059
G1 X118.575 Y156.465 E.02203
G1 X118.003 Y156.067 E.02453
G1 X117.477 Y155.767 E.0213
G1 X116.949 Y155.516 E.02059
G1 X116.242 Y155.265 E.0264
G1 X115.587 Y155.102 E.02376
G1 X114.881 Y154.998 E.02509
G1 X114.183 Y154.964 E.02459
G1 X111.341 Y154.964 E.10003
G1 X110.83 Y154.93 E.01801
G1 X110.235 Y154.762 E.02177
G1 X109.74 Y154.506 E.01962
G1 X109.274 Y154.139 E.02088
G1 X90.263 Y135.128 E.94621
G1 X90.184 Y134.991 E.00556
G1 X90.184 Y100.184 E1.225
G1 X98.937 Y100.184 E.30807
G1 X99.09 Y100.225 E.00556
G1 X131.085 Y132.22 E1.59244
G1 X131.422 Y132.604 E.01802
G1 X131.726 Y133.151 E.022
G1 X131.895 Y133.678 E.01949
G1 X131.964 Y134.265 E.02078
G1 X131.964 Y137.195 E.10311
G1 X132 Y137.904 E.02499
G1 X132.106 Y138.608 E.02508
G1 X132.272 Y139.263 E.02376
G1 X132.525 Y139.97 E.02644
G1 X132.912 Y140.745 E.03049
G1 X133.255 Y141.291 E.02268
G1 X133.606 Y141.763 E.0207
G1 X134.075 Y142.281 E.0246
G1 X187.321 Y195.527 E2.65015
G1 X187.947 Y196.131 E.0306
G1 X188.457 Y196.559 E.02344
G1 X188.961 Y196.911 E.02162
G1 X189.514 Y197.228 E.02245
G1 X190.087 Y197.498 E.02228
G1 X190.758 Y197.735 E.02506
G1 X191.413 Y197.898 E.02375
G1 X192.119 Y198.002 E.02509
G1 X192.817 Y198.036 E.02459
G1 X195.659 Y198.036 E.10002
G1 X196.17 Y198.07 E.01802
G1 X196.765 Y198.238 E.02177
G1 X197.26 Y198.494 E.01962
G1 X197.726 Y198.861 E.02088
G1 X229.775 Y230.91 E1.59513
G1 X229.816 Y231.063 E.00556
G1 X229.816 Y239.756 E.30596
G1 X229.747 Y239.776
G1 E-.5
G1 X219.823 Y237.178 F9000
G1 E.5 F1800
;TYPE:Inner wall
G1 F3000
G1 X219.202 Y237.389 E.02308
;WIDTH:0.540342
G1 X219.046 Y237.441 E.00633
;WIDTH:0.580685
G1 X218.889 Y237.494 E.00684
;WIDTH:0.621027
G1 X218.732 Y237.547 E.00736
;WIDTH:0.66137
G1 X218.576 Y237.6 E.00787
;WIDTH:0.701712
G1 X218.419 Y237.653 E.00838
G1 X217.587 Y237.71 E.04233
;WIDTH:0.685547
G1 X217.48 Y237.713 E.00526
;WIDTH:0.683558
G1 X198.586 Y237.713 E.93202
;WIDTH:0.701424
G1 X197.924 Y237.686 E.03357
;WIDTH:0.714182
G1 X197.736 Y237.671 E.00977
G1 X197.664 Y237.638 E.0041
;WIDTH:0.671346
G1 X197.593 Y237.604 E.00384
;WIDTH:0.628509
G1 X197.521 Y237.57 E.00358
;WIDTH:0.585673
G1 X197.449 Y237.536 E.00332
;WIDTH:0.542836
G1 X197.377 Y237.502 E.00305
;WIDTH:0.499999
G1 X196.507 Y237.281 E.03159
G1 X195.809 Y237.003 E.02646
G1 X195.147 Y236.647 E.02645
G1 X194.561 Y236.243 E.02505
G1 X194 Y235.757 E.02612
G1 X179.159 Y220.919 E.73858
G1 X178.72 Y220.431 E.02311
G1 X178.299 Y219.854 E.02512
G1 X177.929 Y219.209 E.02617
G1 X177.714 Y218.716 E.01894
G1 X177.416 Y217.799 E.03394
G1 X177.287 Y217.099 E.02505
G1 X177.235 Y216.359 E.02612
G1 X177.232 Y211.674 E.16486
G1 X177.264 Y211.056 E.02178
G1 X177.363 Y210.408 E.02307
G1 X177.483 Y209.903 E.01827
G1 X177.632 Y209.422 E.01773
G1 X177.85 Y208.897 E.02001
G1 X178.206 Y208.235 E.02645
G1 X178.61 Y207.649 E.02505
G1 X178.949 Y207.253 E.01835
G1 X179.712 Y206.469 E.0385
G1 X184.022 Y202.159 E.21451
G1 X184.51 Y201.72 E.02311
G1 X185.087 Y201.299 E.02513
G1 X185.732 Y200.929 E.02617
G1 X186.422 Y200.632 E.02646
G1 X187.142 Y200.416 E.02645
G1 X187.689 Y200.313 E.0196
G1 X188.212 Y200.256 E.01851
G1 X189.14 Y200.232 E.03266
G1 X193.267 Y200.232 E.14525
G1 X193.923 Y200.267 E.02311
G1 X194.628 Y200.377 E.02513
G1 X195.391 Y200.589 E.02786
G1 X195.955 Y200.812 E.02134
G1 X196.675 Y201.187 E.02859
G1 X196.983 Y201.392 E.01301
;WIDTH:0.542661
G1 X197.06 Y201.42 E.00314
;WIDTH:0.585322
