; HEADER_BLOCK_START
; generated by OrcaSlicer 1.6.4-beta3 on 2023-08-18 at 09:01:53
; total layer number: 100
; HEADER_BLOCK_END

; THUMBNAIL_BLOCK_START
; THUMBNAIL_BLOCK_END

; external perimeters extrusion width = 0.40mm
; perimeters extrusion width = 0.46mm
; infill extrusion width = 0.64mm
; solid infill extrusion width = 0.56mm
; top infill extrusion width = 0.40mm
; support material extrusion width = 0.46mm
; first layer extrusion width = 0.50mm

; EXECUTABLE_BLOCK_START
EXCLUDE_OBJECT_DEFINE NAME=Frame_Brace.stl_id_0_copy_0 CENTER=165,165 POLYGON=[[92.967,94.967],[94.967,92.967],[102.967,92.967],[106.381,94.3812],[235.619,223.619],[237.033,227.033],[237.033,235.033],[235.033,237.033],[201.033,237.033],[197.619,235.619],[179.284,217.284],[94.3812,132.381],[92.967,128.967],[92.967,94.967]]
M73 P0 R91
;TYPE:Custom
START_PRINT T_BED=110 T_EXTRUDER=260
G90
G21
M83 ; use relative distances for extrusion
; Filament gcode
M106 S0
;LAYER_CHANGE
;Z:0.2
;HEIGHT:0.2
;BEFORE_LAYER_CHANGE
;0.2
G92 E0

SET_VELOCITY_LIMIT ACCEL=1000 ACCEL_TO_DECEL=500
G1 E-.5 F3000
G1 X92.856 Y92.856 F12000
G1 Z.2
G1 E.5 F1800
;TYPE:Skirt
;WIDTH:0.5
G1 F3000
G1 X92.906 Y92.806 E.0025
G1 X94.967 Y91.953 E.07884
G1 X104.08 Y91.953 E.32211
G1 X105.195 Y92.175 E.04019
G1 X106.311 Y92.877 E.04661
G1 X237.123 Y223.689 E6.53883
G1 X237.825 Y224.805 E.04661
G1 X238.047 Y225.92 E.04019
G1 X238.047 Y235.033 E.32211
G1 X237.194 Y237.094 E.07884
G1 X237.094 Y237.194 E.005
G1 X235.033 Y238.047 E.07884
G1 X199.92 Y238.047 E1.2411
G1 X198.805 Y237.825 E.04019
G1 X197.689 Y237.123 E.04661
G1 X92.877 Y132.311 E5.23918
G1 X92.175 Y131.195 E.04661
G1 X91.953 Y130.08 E.04019
G1 X91.953 Y94.967 E1.2411
G1 X92.806 Y92.906 E.07884
G1 X92.828 Y92.885 E.00109
G1 X93.151 Y93.208 F12000
G1 F3000
G1 X93.23 Y93.13 E.00391
G1 X94.967 Y92.41 E.06647
G1 X104.08 Y92.41 E.32211
G1 X105.02 Y92.597 E.03389
G1 X105.988 Y93.2 E.04031
G1 X236.8 Y224.012 E6.53883
G1 X237.403 Y224.98 E.04031
G1 X237.59 Y225.92 E.03389
G1 X237.59 Y235.033 E.32211
G1 X236.87 Y236.77 E.06647
G1 X236.77 Y236.87 E.005
G1 X235.033 Y237.59 E.06647
G1 X199.92 Y237.59 E1.2411
G1 X198.98 Y237.403 E.03389
G1 X198.012 Y236.8 E.04031
G1 X93.2 Y131.988 E5.23918
G1 X92.597 Y131.02 E.04031
G1 X92.41 Y130.08 E.03389
G1 X92.41 Y94.967 E1.2411
G1 X93.126 Y93.238 E.06614
; printing object Frame_Brace.stl id:0 copy 0
G1 E-.5
EXCLUDE_OBJECT_START NAME=Frame_Brace.stl_id_0_copy_0
G1 X234.783 Y234.783 F12000
G1 E.5 F1800
;TYPE:Outer wall
G1 F3000
G1 X199.99 Y234.783 E1.2298
G1 X199.948 Y234.766 E.00161
G1 X180.885 Y215.703 E.95288
G3 X180.07 Y213.735 I2.049 J-2.001 E.07713
G1 X180.07 Y210.811 E.10335
G2 X177.952 Y205.699 I-7.253 J.01 E.20065
G1 X124.301 Y152.048 E2.68187
G2 X119.189 Y149.93 I-5.121 J5.135 E.20065
G1 X116.265 Y149.93 E.10335
G3 X114.297 Y149.115 I.034 J-2.864 E.07713
G1 X95.234 Y130.052 E.95288
G1 X95.217 Y130.01 E.00161
G1 X95.217 Y95.217 E1.2298
G1 X104.01 Y95.217 E.31081
G1 X104.052 Y95.234 E.00161
G1 X136.115 Y127.297 E1.60271
G3 X136.93 Y129.265 I-2.059 J2.005 E.07712
G1 X136.93 Y132.189 E.10335
G2 X139.048 Y137.301 I7.253 J-.01 E.20065
G1 X192.699 Y190.952 E2.68187
G2 X197.811 Y193.07 I5.121 J-5.135 E.20065
G1 X200.735 Y193.07 E.10335
G3 X202.703 Y193.885 I-.038 J2.874 E.07712
G1 X234.766 Y225.948 E1.60271
G1 X234.783 Y225.99 E.00161
G1 X234.783 Y234.743 E.3094
G1 X234.326 Y234.326 F12000
;TYPE:Inner wall
G1 F3000
G1 X200.154 Y234.326 E1.20783
G1 X181.221 Y215.392 E.94644
G3 X180.527 Y213.718 I1.711 J-1.69 E.06569
G1 X180.527 Y210.8 E.10313
G2 X178.284 Y205.384 I-7.703 J.018 E.21255
G1 X124.616 Y151.716 E2.68267
G2 X119.2 Y149.473 I-5.434 J5.46 E.21255
G1 X116.282 Y149.473 E.10313
G3 X114.608 Y148.779 I.015 J-2.405 E.06569
G1 X95.674 Y129.846 E.94644
G1 X95.674 Y95.674 E1.20783
G1 X103.846 Y95.674 E.28883
G1 X135.779 Y127.608 E1.59626
G3 X136.473 Y129.282 I-1.711 J1.69 E.06569
G1 X136.473 Y132.2 E.10313
G2 X138.716 Y137.616 I7.703 J-.018 E.21255
G1 X192.384 Y191.284 E2.68267
G2 X197.8 Y193.527 I5.434 J-5.46 E.21255
G1 X200.718 Y193.527 E.10313
G3 X202.392 Y194.221 I-.015 J2.405 E.06569
G1 X234.326 Y226.154 E1.59626
M73 P0 R90
G1 X234.326 Y234.286 E.28742
G1 X233.869 Y233.869 F12000
G1 F3000
G1 X200.344 Y233.869 E1.18498
G1 X181.556 Y215.081 E.93912
G3 X180.984 Y213.7 I1.375 J-1.379 E.05425
G1 X180.984 Y210.789 E.1029
G2 X178.615 Y205.069 I-8.154 J.027 E.22445
G1 X124.931 Y151.385 E2.68347
G2 X119.211 Y149.016 I-5.747 J5.784 E.22445
G1 X116.3 Y149.016 E.1029
G3 X114.919 Y148.444 I-.003 J-1.947 E.05425
G1 X96.131 Y129.656 E.93912
G1 X96.131 Y96.131 E1.18498
G1 X103.656 Y96.131 E.26599
G1 X135.444 Y127.919 E1.58895
G3 X136.016 Y129.3 I-1.375 J1.379 E.05425
G1 X136.016 Y132.211 E.1029
G2 X138.385 Y137.931 I8.154 J-.027 E.22445
G1 X192.069 Y191.615 E2.68347
G2 X197.789 Y193.984 I5.747 J-5.785 E.22445
G1 X200.7 Y193.984 E.1029
G3 X202.081 Y194.556 I.003 J1.947 E.05425
G1 X233.869 Y226.344 E1.58895
G1 X233.869 Y233.829 E.26457
G1 X233.412 Y233.412 F12000
G1 F3000
G1 X200.533 Y233.412 E1.16213
G1 X181.892 Y214.771 E.93181
G3 X181.441 Y213.682 I1.041 J-1.069 E.04281
G1 X181.441 Y210.777 E.10268
G2 X178.946 Y204.754 I-8.604 J.035 E.23635
G1 X125.246 Y151.054 E2.68427
G2 X119.223 Y148.559 I-6.059 J6.109 E.23635
G1 X116.318 Y148.559 E.10268
G3 X115.229 Y148.108 I-.02 J-1.492 E.04281
G1 X96.588 Y129.467 E.93181
G1 X96.588 Y96.588 E1.16213
G1 X103.467 Y96.588 E.24314
G1 X135.108 Y128.229 E1.58163
G3 X135.559 Y129.318 I-1.041 J1.069 E.04281
G1 X135.559 Y132.223 E.10268
G2 X138.054 Y138.246 I8.604 J-.036 E.23636
G1 X191.754 Y191.946 E2.68427
G2 X197.777 Y194.441 I6.059 J-6.109 E.23635
G1 X200.682 Y194.441 E.10268
G3 X201.771 Y194.892 I.02 J1.492 E.04281
G1 X233.412 Y226.533 E1.58163
G1 X233.412 Y233.372 E.24172
G1 E-.5
G1 X202.861 Y231.303 F12000
M73 P1 R90
G1 E.5 F1800
;TYPE:Outer wall
G1 F3000
G1 X202.416 Y231.221 E.016
G3 X199.833 Y229.807 I1.214 J-5.287 E.10542
G1 X185.046 Y215.02 E.73914
G3 X183.495 Y211.276 I3.873 J-3.798 E.14682
G1 X183.495 Y206.666 E.16294
G3 X185.046 Y202.921 I5.332 J.015 E.14696
G1 X189.921 Y198.046 E.24369
G3 X193.666 Y196.495 I3.798 J3.873 E.14682
G1 X198.276 Y196.495 E.16295
G3 X202.02 Y198.046 I-.053 J5.424 E.14682
G1 X226.251 Y222.277 E1.21124
G3 X222.49 Y231.358 I-3.789 J3.75 E.44202
G1 X203.577 Y231.358 E.66849
G3 X202.987 Y231.32 I.053 J-5.424 E.02093
G1 X202.901 Y231.308 E.00307
G1 X202.916 Y231.776 F12000
;TYPE:Inner wall
G1 F3000
G1 X202.315 Y231.666 E.0216
G3 X199.519 Y230.139 I1.316 J-5.734 E.11403
G1 X184.713 Y215.334 E.74006
G3 X183.038 Y211.289 I4.207 J-4.113 E.15859
G1 X183.038 Y206.653 E.16385
G3 X184.713 Y202.607 I5.772 J.02 E.15877
G1 X189.607 Y197.713 E.24461
G3 X193.652 Y196.038 I4.113 J4.207 E.15859
G1 X198.289 Y196.038 E.16387
G3 X202.334 Y197.713 I-.067 J5.883 E.15859
G1 X226.585 Y221.964 E1.2122
G3 X222.504 Y231.815 I-4.123 J4.063 E.47907
G1 X203.564 Y231.815 E.66945
G3 X202.956 Y231.777 I.067 J-5.883 E.02156
G1 X202.841 Y232.227 F12000
G1 F3000
G1 X202.214 Y232.112 E.02256
G3 X199.205 Y230.472 I1.418 J-6.182 E.12265
G1 X184.381 Y215.648 E.74098
G3 X182.581 Y211.302 I4.541 J-4.427 E.17036
G1 X182.581 Y206.64 E.16477
G3 X183.542 Y203.348 I6.458 J.099 E.1227
G1 X183.936 Y202.792 E.02408
G1 X184.381 Y202.293 E.02365
G1 X189.293 Y197.381 E.24553
G3 X193.639 Y195.581 I4.427 J4.541 E.17036
G1 X198.302 Y195.581 E.16479
G3 X202.648 Y197.381 I-.081 J6.342 E.17036
G1 X226.918 Y221.651 E1.21317
G3 X224.02 Y232.081 I-4.451 J4.381 E.46289
G1 X223.255 Y232.226 E.0275
G1 X222.519 Y232.272 E.02609
G1 X203.551 Y232.272 E.67042
G3 X202.884 Y232.228 I.081 J-6.342 E.02365
G1 X202.881 Y232.228 E.00009
G1 X202.767 Y232.678 F12000
G1 F3000
G1 X202.112 Y232.558 E.02352
G3 X198.891 Y230.804 I1.52 J-6.629 E.13127
G1 X184.049 Y215.962 E.7419
G3 X182.124 Y211.315 I4.875 J-4.742 E.18213
G1 X182.124 Y206.627 E.16568
G3 X183.154 Y203.104 I6.927 J.114 E.13133
G1 X183.578 Y202.507 E.02587
G1 X184.049 Y201.979 E.02501
G1 X188.979 Y197.049 E.24645
G3 X193.626 Y195.124 I4.742 J4.875 E.18213
G1 X198.315 Y195.124 E.16572
G3 X202.962 Y197.049 I-.094 J6.8 E.18213
G1 X227.251 Y221.338 E1.21414
G3 X229.085 Y224.932 I-4.985 J4.808 E.14473
G1 X229.171 Y225.765 E.02959
G1 X229.152 Y226.599 E.02949
G1 X229.035 Y227.399 E.02858
G1 X228.815 Y228.205 E.02952
G1 X228.494 Y228.979 E.0296
G1 X228.081 Y229.704 E.02952
G1 X227.597 Y230.353 E.02858
G1 X227.021 Y230.956 E.02949
G1 X226.371 Y231.484 E.02959
G3 X225.654 Y231.931 I-27.349 J-43.143 E.02986
G1 X224.903 Y232.278 E.02926
G1 X224.132 Y232.524 E.02858
G1 X223.313 Y232.68 E.0295
G1 X222.533 Y232.729 E.02761
G1 X203.538 Y232.729 E.67139
G3 X202.833 Y232.683 I.094 J-6.801 E.02501
G1 X202.807 Y232.681 E.00092
G1 E-.5
G1 X200.065 Y230.464 F12000
G1 X199.602 Y230.051
G1 X184.802 Y215.251
G1 X184.389 Y214.788
G1 X180.259 Y209.333
G1 X180.084 Y208.635
G1 X179.834 Y207.93
G1 X179.502 Y207.228
G1 X179.132 Y206.611
G1 X178.687 Y206.01
G1 X178.196 Y205.468
G1 X124.532 Y151.804
G1 X123.99 Y151.313
G1 X117.875 Y146.768
G1 X117.487 Y146.702
G1 X116.87 Y146.526
G1 X116.276 Y146.28
G1 X115.715 Y145.968
G1 X115.212 Y145.611
G1 X114.749 Y145.198
G1 X99.949 Y130.398
G1 X99.536 Y129.935
G1 X99.179 Y129.432
G1 X98.868 Y128.871
G1 X98.621 Y128.277
G1 X98.445 Y127.66
G1 X98.413 Y127.472
G1 X98.744 Y127.416
G1 E.5 F1800
;TYPE:Outer wall
G1 F3000
G1 X98.68 Y127.013 E.01441
G3 X98.642 Y126.423 I5.386 J-.644 E.02093
G1 X98.642 Y107.51 E.66849
G3 X103.54 Y102.215 I5.326 J.014 E.28007
G1 X103.86 Y102.209 E.01132
G3 X107.723 Y103.749 I.097 J5.37 E.15092
G1 X131.954 Y127.98 E1.21123
G3 X133.505 Y131.725 I-3.873 J3.798 E.14683
G1 X133.505 Y136.334 E.16294
G3 X131.954 Y140.079 I-5.424 J-.053 E.14682
G1 X127.079 Y144.954 E.24369
G3 X123.334 Y146.505 I-3.798 J-3.873 E.14683
G1 X118.724 Y146.505 E.16294
G3 X114.98 Y144.954 I.053 J-5.424 E.14682
G1 X100.193 Y130.167 E.73914
G3 X98.779 Y127.584 I3.873 J-3.798 E.10542
G1 X98.752 Y127.455 E.00465
G1 X98.332 Y127.705 F12000
;TYPE:Inner wall
G1 F3000
G1 X98.334 Y127.685 E.00071
G3 X98.185 Y126.436 I5.734 J-1.316 E.04456
G1 X98.185 Y107.496 E.66945
G3 X99.261 Y104.161 I5.993 J.093 E.12568
G3 X103.503 Y101.759 I4.763 J3.464 E.17766
G1 X103.851 Y101.752 E.0123
G1 X104.199 Y101.744 E.01232
G1 X104.917 Y101.818 E.02552
G3 X108.036 Y103.415 I-1.073 J5.939 E.12565
G1 X132.287 Y127.666 E1.2122
G3 X133.962 Y131.712 I-4.207 J4.113 E.15861
G1 X133.962 Y136.348 E.16385
G3 X132.287 Y140.393 I-5.883 J-.067 E.15859
G1 X127.393 Y145.287 E.24461
G3 X123.347 Y146.962 I-4.113 J-4.207 E.15861
G1 X118.711 Y146.962 E.16385
G3 X114.666 Y145.287 I.067 J-5.883 E.15859
G1 X99.861 Y130.481 E.74006
G3 X98.515 Y128.314 I4.207 J-4.113 E.09089
G1 X98.343 Y127.743 E.02106
G1 X97.892 Y127.829 F12000
G1 F3000
G1 X97.888 Y127.786 E.00151
G3 X97.728 Y126.449 I6.182 J-1.418 E.04771
G1 X97.728 Y107.481 E.67042
G1 X97.774 Y106.745 E.02609
G1 X97.919 Y105.98 E.0275
G1 X98.149 Y105.264 E.0266
G1 X98.475 Y104.557 E.02751
G1 X98.888 Y103.895 E.02758
G1 X99.38 Y103.291 E.02752
G1 X99.924 Y102.768 E.02668
G1 X100.568 Y102.29 E.02834
G1 X101.223 Y101.917 E.02666
G1 X101.943 Y101.619 E.02755
G1 X102.696 Y101.413 E.02758
G1 X103.466 Y101.302 E.02748
G1 X103.841 Y101.295 E.01328
G1 X104.218 Y101.287 E.01332
G1 X104.993 Y101.366 E.02752
G1 X105.752 Y101.542 E.02754
G1 X106.46 Y101.802 E.02667
G3 X108.349 Y103.082 I-2.871 J6.271 E.08102
G1 X132.619 Y127.352 E1.21317
G3 X134.419 Y131.699 I-4.541 J4.427 E.17038
G1 X134.419 Y136.361 E.16477
G3 X132.619 Y140.707 I-6.342 J-.081 E.17036
G1 X127.707 Y145.619 E.24553
G3 X123.36 Y147.419 I-4.427 J-4.541 E.17038
G1 X118.698 Y147.419 E.16477
G3 X114.352 Y145.619 I.081 J-6.342 E.17036
G1 X99.528 Y130.795 E.74098
G3 X98.084 Y128.464 I4.541 J-4.427 E.0977
G1 X97.903 Y127.867 E.02205
G1 X97.452 Y127.953 F12000
G1 F3000
G1 X97.442 Y127.888 E.00232
G3 X97.271 Y126.462 I6.629 J-1.52 E.05086
G1 X97.271 Y107.467 E.67139
G1 X97.32 Y106.687 E.02761
G1 X97.476 Y105.868 E.0295
G1 X97.722 Y105.097 E.02858
G1 X98.072 Y104.339 E.02951
G1 X98.515 Y103.629 E.0296
G1 X99.043 Y102.981 E.02953
G1 X99.628 Y102.419 E.02869
G1 X100.317 Y101.906 E.03035
G1 X101.022 Y101.506 E.02866
G1 X101.795 Y101.185 E.02956
G1 X102.603 Y100.964 E.0296
G1 X103.428 Y100.846 E.02948
G1 X103.832 Y100.838 E.01426
G1 X104.237 Y100.829 E.01432
G1 X105.068 Y100.915 E.02953
G1 X105.882 Y101.103 E.02955
G1 X106.644 Y101.383 E.02867
G1 X107.408 Y101.775 E.03035
G1 X108.078 Y102.233 E.02868
G1 X108.662 Y102.749 E.02755
G1 X132.951 Y127.038 E1.21413
G3 X134.876 Y131.686 I-4.875 J4.742 E.18216
G1 X134.876 Y136.374 E.16568
G3 X132.951 Y141.021 I-6.8 J-.094 E.18213
G1 X128.021 Y145.951 E.24645
G3 X123.373 Y147.876 I-4.742 J-4.875 E.18216
G1 X118.685 Y147.876 E.16568
G3 X114.038 Y145.951 I.094 J-6.8 E.18213
G1 X99.196 Y131.109 E.7419
G3 X97.652 Y128.615 I4.876 J-4.742 E.10451
G1 X97.463 Y127.991 E.02304
G1 E-.5
G1 X114.749 Y145.198 F12000
G1 X115.212 Y145.611
G1 X115.715 Y145.968
G1 X123.389 Y150.868
G1 X123.99 Y151.313
G1 X165.978 Y189.356
G1 X170.52 Y193.898
G1 X171.019 Y194.34
G1 X171.123 Y194.411
G1 X171.313 Y194.134
G1 E.5 F1800
;TYPE:Outer wall
G1 F3000
G1 X171.228 Y194.072 E.00371
G3 X170.75 Y193.653 I3.278 J-4.224 E.02249
G1 X136.347 Y159.25 E1.7197
G3 X136.347 Y151.738 I3.781 J-3.756 E.29466
G1 X138.738 Y149.347 E.11952
G3 X142.182 Y147.805 I3.755 J3.771 E.13634
G3 X146.25 Y149.347 I.274 J5.415 E.15823
G1 X180.653 Y183.75 E1.7197
G3 X180.653 Y191.262 I-3.804 J3.756 E.29442
G1 X178.262 Y193.653 E.11952
G3 X171.763 Y194.438 I-3.756 J-3.804 E.24901
G1 X171.346 Y194.157 E.01778
G1 X170.962 Y194.447 F12000
;TYPE:Inner wall
G1 F3000
G1 X170.947 Y194.433 E.00074
G3 X170.437 Y193.986 I3.559 J-4.584 E.02397
G1 X136.014 Y159.563 E1.72068
G3 X136.014 Y151.424 I4.117 J-4.069 E.31903
G1 X138.424 Y149.014 E.1205
G3 X142.154 Y147.348 I4.066 J4.096 E.14759
G3 X146.563 Y149.014 I.299 J5.877 E.1714
G1 X180.986 Y183.437 E1.72068
G3 X180.986 Y191.576 I-4.138 J4.069 E.31881
G1 X178.576 Y193.986 E.1205
G3 X171.527 Y194.829 I-4.069 J-4.138 E.26997
G1 X170.995 Y194.47 E.0227
G1 X170.628 Y194.766 F12000
G1 F3000
G1 X170.123 Y194.319 E.02381
G1 X135.681 Y159.877 E1.72167
G3 X135.681 Y151.111 I4.452 J-4.383 E.34341
G1 X138.111 Y148.681 E.12149
G3 X142.127 Y146.891 I4.378 J4.423 E.15884
G3 X144.352 Y147.163 I.271 J7.025 E.07957
G3 X146.877 Y148.681 I-1.871 J5.97 E.1051
G1 X181.319 Y183.123 E1.72167
G3 X181.319 Y191.889 I-4.471 J4.383 E.3432
G1 X178.889 Y194.319 E.12149
G3 X170.665 Y194.793 I-4.383 J-4.471 E.31774
G1 X170.66 Y194.789 E.00023
G1 X170.327 Y195.11 F12000
G1 F3000
G1 X169.81 Y194.652 E.02439
G1 X135.348 Y160.19 E1.72266
G1 X134.843 Y159.619 E.02693
G1 X134.382 Y158.949 E.02876
G1 X134.016 Y158.251 E.02785
G3 X133.726 Y153.499 I6.297 J-2.769 E.17183
G1 X134.005 Y152.763 E.02784
G1 X134.38 Y152.042 E.02872
G1 X134.843 Y151.369 E.02888
G1 X135.348 Y150.798 E.02693
G1 X137.798 Y148.348 E.12248
G1 X138.368 Y147.843 E.02693
G1 X139.039 Y147.382 E.02876
G1 X139.737 Y147.016 E.02785
G1 X140.498 Y146.726 E.02879
G1 X141.292 Y146.531 E.02888
G1 X142.1 Y146.434 E.02878
G1 X142.888 Y146.434 E.02785
G1 X143.696 Y146.531 E.02878
G1 X144.489 Y146.726 E.02884
G1 X145.228 Y147.006 E.02793
G1 X145.97 Y147.395 E.02961
G1 X146.621 Y147.844 E.02796
G1 X147.19 Y148.348 E.02687
G1 X181.652 Y182.81 E1.72266
G1 X182.157 Y183.381 E.02693
G1 X182.618 Y184.051 E.02876
G1 X182.984 Y184.749 E.02785
G1 X183.274 Y185.51 E.02879
G1 X183.469 Y186.304 E.02888
G1 X183.566 Y187.112 E.02878
G1 X183.566 Y187.9 E.02785
G1 X183.469 Y188.708 E.02878
G1 X183.274 Y189.502 E.02888
G1 X182.984 Y190.263 E.02879
G1 X182.618 Y190.961 E.02785
G1 X182.157 Y191.632 E.02876
G1 X181.652 Y192.202 E.02693
G1 X179.202 Y194.652 E.12248
G1 X178.631 Y195.157 E.02693
G1 X177.961 Y195.618 E.02876
G1 X177.263 Y195.984 E.02785
G1 X176.502 Y196.274 E.02879
G1 X175.708 Y196.469 E.02888
G1 X174.9 Y196.566 E.02878
G1 X174.112 Y196.566 E.02785
G1 X173.304 Y196.469 E.02878
G1 X172.51 Y196.274 E.02888
G1 X171.749 Y195.984 E.02879
G1 X171.051 Y195.618 E.02785
G1 X170.381 Y195.157 E.02876
G1 X170.357 Y195.136 E.00113
G1 X170.149 Y195.44 F12000
;TYPE:Gap infill
