; HEADER_BLOCK_START
; generated by OrcaSlicer 1.6.4-beta3 on 2023-08-17 at 22:16:50
; total layer number: 100
; HEADER_BLOCK_END

; THUMBNAIL_BLOCK_START
; THUMBNAIL_BLOCK_END

; external perimeters extrusion width = 0.40mm
; perimeters extrusion width = 0.46mm
; infill extrusion width = 0.64mm
; solid infill extrusion width = 0.56mm
; top infill extrusion width = 0.40mm
; first layer extrusion width = 0.50mm

; EXECUTABLE_BLOCK_START
EXCLUDE_OBJECT_DEFINE NAME=Frame_Brace.stl_id_0_copy_0 CENTER=165,165 POLYGON=[[92.967,94.967],[94.967,92.967],[102.967,92.967],[106.381,94.3812],[235.619,223.619],[237.033,227.033],[237.033,235.033],[235.033,237.033],[201.033,237.033],[197.619,235.619],[179.284,217.284],[94.3812,132.381],[92.967,128.967],[92.967,94.967]]
M73 P0 R72
;TYPE:Custom
START_PRINT T_BED=105 T_EXTRUDER=260
G90
G21
M83 ; use relative distances for extrusion
; Filament gcode
M106 S0
;LAYER_CHANGE
;Z:0.2
;HEIGHT:0.2
;BEFORE_LAYER_CHANGE
;0.2
G92 E0

G1 E-.5 F1800
SET_VELOCITY_LIMIT ACCEL=1000 ACCEL_TO_DECEL=500
G1 X92.856 Y92.856 F48000
G1 Z.2
G1 E.5 F4800
;TYPE:Skirt
;WIDTH:0.5
G1 F3000
G1 X92.906 Y92.806 E.0025
G1 X94.967 Y91.953 E.07884
G1 X104.08 Y91.953 E.32211
G1 X105.195 Y92.175 E.04019
G1 X106.311 Y92.877 E.04661
G1 X237.123 Y223.689 E6.53883
G1 X237.825 Y224.805 E.04661
G1 X238.047 Y225.92 E.04019
G1 X238.047 Y235.033 E.32211
G1 X237.194 Y237.094 E.07884
G1 X237.094 Y237.194 E.005
G1 X235.033 Y238.047 E.07884
G1 X199.92 Y238.047 E1.2411
G1 X198.805 Y237.825 E.04019
G1 X197.689 Y237.123 E.04661
G1 X92.877 Y132.311 E5.23918
M73 P0 R71
G1 X92.175 Y131.195 E.04661
G1 X91.953 Y130.08 E.04019
G1 X91.953 Y94.967 E1.2411
G1 X92.806 Y92.906 E.07884
G1 X92.828 Y92.885 E.00109
G1 X93.151 Y93.208 F48000
G1 F3000
G1 X93.23 Y93.13 E.00391
G1 X94.967 Y92.41 E.06647
G1 X104.08 Y92.41 E.32211
G1 X105.02 Y92.597 E.03389
G1 X105.988 Y93.2 E.04031
G1 X236.8 Y224.012 E6.53883
G1 X237.403 Y224.98 E.04031
G1 X237.59 Y225.92 E.03389
G1 X237.59 Y235.033 E.32211
G1 X236.87 Y236.77 E.06647
G1 X236.77 Y236.87 E.005
G1 X235.033 Y237.59 E.06647
G1 X199.92 Y237.59 E1.2411
G1 X198.98 Y237.403 E.03389
G1 X198.012 Y236.8 E.04031
G1 X93.2 Y131.988 E5.23918
G1 X92.597 Y131.02 E.04031
G1 X92.41 Y130.08 E.03389
G1 X92.41 Y94.967 E1.2411
G1 X93.126 Y93.238 E.06614
; printing object Frame_Brace.stl id:0 copy 0
G1 E-.35 F1800
;WIPE_START
G1 F3000
G1 X93.23 Y93.13 E-.02138
G1 X94.015 Y92.804 E-.12112
;WIPE_END
G1 E-.0075 F1800
EXCLUDE_OBJECT_START NAME=Frame_Brace.stl_id_0_copy_0
G1 X104.176 Y102.323 F48000
G1 X104.822 Y102.39
G1 X105.456 Y102.537
G1 X106.044 Y102.752
G1 X106.642 Y103.06
G1 X107.159 Y103.413
G1 X107.64 Y103.837
G1 X226.163 Y222.36
G1 X226.587 Y222.841
G1 X226.952 Y223.378
G1 X227.239 Y223.934
G1 X227.463 Y224.543
G1 X227.473 Y224.585
G1 X227.61 Y225.178
G1 X227.677 Y225.825
G1 X234.783 Y234.783
G1 E.5 F4800
;TYPE:Outer wall
;WIDTH:0.499999
G1 F3000
G1 X200.791 Y234.783 E1.20147
G1 X199.948 Y234.766 E.02983
G1 X180.937 Y215.755 E.95026
G1 X180.602 Y215.373 E.01796
G1 X180.308 Y214.848 E.02127
G1 X180.139 Y214.317 E.01969
G1 X180.07 Y213.735 E.02072
G1 X180.07 Y211.38 E.08325
G2 X179.927 Y209.388 I-10.305 J-.261 E.07071
G2 X179.096 Y207.204 I-7.582 J1.636 E.08288
G2 X177.948 Y205.695 I-6.977 J4.115 E.06715
G1 X124.735 Y152.482 E2.65996
G2 X123.05 Y151.057 I-7.229 J6.837 E.07817
G2 X119.183 Y149.93 I-3.924 J6.272 E.14417
G1 X116.339 Y149.93 E.10054
G1 X115.832 Y149.897 E.01796
G1 X115.253 Y149.733 E.02127
G1 X114.758 Y149.478 E.01969
G1 X114.297 Y149.115 E.02072
G1 X95.801 Y130.619 E.92455
G1 X95.217 Y130.01 E.02983
G1 X95.217 Y95.217 E1.2298
G1 X103.988 Y95.217 E.31
G1 X104.052 Y95.234 E.00237
G1 X136.063 Y127.245 E1.60009
G1 X136.398 Y127.627 E.01796
G1 X136.692 Y128.157 E.02143
G1 X136.862 Y128.685 E.0196
G1 X136.93 Y129.265 E.02064
G1 X136.93 Y131.622 E.08332
G2 X137.073 Y133.612 I10.299 J.26 E.07064
G2 X138.603 Y136.81 I7.329 J-1.542 E.1265
G1 X139.052 Y137.305 E.02359
G1 X192.265 Y190.518 E2.65996
G2 X193.927 Y191.93 I7.413 J-7.044 E.07722
G2 X197.817 Y193.07 I3.952 J-6.277 E.14512
G1 X200.661 Y193.07 E.10054
G1 X201.168 Y193.103 E.01796
G1 X201.751 Y193.269 E.02143
G1 X202.244 Y193.523 E.0196
G1 X202.703 Y193.885 E.02065
G1 X234.749 Y225.931 E1.6019
G1 X234.783 Y226.012 E.0031
G1 X234.783 Y234.775 E.30972
G1 X234.326 Y234.326 F48000
;TYPE:Inner wall
G1 F3000
G1 X200.154 Y234.326 E1.20782
G1 X181.764 Y215.935 E.91928
G1 X181.112 Y215.265 E.03305
G1 X180.776 Y214.783 E.02075
G1 X180.616 Y214.346 E.01644
G1 X180.527 Y213.718 E.02245
G2 X180.526 Y210.783 I-1049.159 J-1.168 E.10373
G2 X178.272 Y205.372 I-7.825 J.085 E.21236
G1 X125.058 Y152.159 E2.65996
G2 X123.483 Y150.787 I-7.644 J7.187 E.07394
G2 X119.183 Y149.473 I-4.375 J6.623 E.16113
G3 X116.116 Y149.46 I-1.066 J-111.131 E.10843
G1 X115.538 Y149.357 E.02075
G1 X115.115 Y149.161 E.01645
G1 X114.608 Y148.779 E.02245
G1 X95.674 Y129.846 E.94644
G1 X95.674 Y95.674 E1.20782
G1 X103.846 Y95.674 E.28883
G1 X135.236 Y127.065 E1.56911
G1 X135.888 Y127.735 E.03305
G1 X136.223 Y128.215 E.02069
G1 X136.39 Y128.672 E.0172
G1 X136.473 Y129.282 E.02176
G2 X136.474 Y132.217 I1045.397 J1.17 E.10373
G2 X138.728 Y137.628 I7.815 J-.081 E.21238
G1 X191.942 Y190.841 E2.65996
G2 X193.517 Y192.213 I7.643 J-7.186 E.07394
G2 X197.817 Y193.527 I4.375 J-6.623 E.16113
G3 X200.884 Y193.54 I1.066 J111.094 E.10843
G1 X201.46 Y193.643 E.02069
G1 X201.902 Y193.848 E.0172
G1 X202.392 Y194.221 E.02176
G1 X234.326 Y226.154 E1.59626
G1 X234.326 Y234.318 E.28855
G1 X233.869 Y233.869 F48000
G1 F3000
G1 X200.344 Y233.869 E1.18498
M73 P1 R71
G1 X181.531 Y215.052 E.94048
G1 X181.228 Y214.645 E.01792
G1 X181.06 Y214.24 E.0155
G1 X180.984 Y213.7 E.01929
G2 X180.983 Y210.76 I-536.758 J-1.215 E.1039
G2 X178.595 Y205.049 I-8.289 J.111 E.22424
G1 X125.381 Y151.835 E2.65996
G2 X123.755 Y150.42 I-8.037 J7.589 E.07633
G2 X119.183 Y149.016 I-4.652 J7.004 E.17141
G3 X116.261 Y149.013 I-1.066 J-385.966 E.10327
G1 X115.76 Y148.94 E.01792
G1 X115.355 Y148.772 E.0155
G1 X114.919 Y148.444 E.01929
G1 X96.131 Y129.656 E.93912
G1 X96.131 Y96.131 E1.18498
G1 X103.656 Y96.131 E.26599
G1 X135.469 Y127.948 E1.59031
G1 X135.769 Y128.35 E.01772
G1 X135.945 Y128.777 E.01635
G1 X136.016 Y129.3 E.01865
G2 X136.017 Y132.24 I536.565 J1.215 E.1039
G2 X138.405 Y137.951 I8.28 J-.107 E.22425
G1 X191.619 Y191.165 E2.65996
G2 X193.245 Y192.58 I8.036 J-7.588 E.07633
G2 X197.817 Y193.984 I4.652 J-7.004 E.17141
G3 X200.739 Y193.987 I1.066 J385.925 E.10327
G1 X201.235 Y194.059 E.01772
G1 X201.661 Y194.237 E.01634
G1 X202.081 Y194.556 E.01865
G1 X233.869 Y226.344 E1.58894
G1 X233.869 Y233.861 E.2657
G1 X233.412 Y233.412 F48000
G1 F3000
G1 X224.118 Y233.412 E.32848
;WIDTH:0.544797
G1 X223.824 Y233.389 E.01146
;WIDTH:0.589595
G1 X223.53 Y233.367 E.01248
;WIDTH:0.634392
G1 X223.235 Y233.345 E.0135
G1 X222.483 Y233.355 E.03441
;WIDTH:0.612725
G1 X203.584 Y233.355 E.83275
;WIDTH:0.614304
G1 X203.473 Y233.355 E.00489
;WIDTH:0.642979
G1 X202.682 Y233.34 E.03672
;WIDTH:0.689748
G1 X202.127 Y233.317 E.02776
G1 X202.053 Y233.335 E.00384
;WIDTH:0.654127
G1 X201.978 Y233.353 E.00363
;WIDTH:0.618506
G1 X201.903 Y233.37 E.00341
;WIDTH:0.582884
G1 X201.614 Y233.391 E.0121
;WIDTH:0.541442
G1 X201.325 Y233.412 E.01117
;WIDTH:0.499999
G1 X200.533 Y233.412 E.028
G1 X199.973 Y232.852 E.028
;WIDTH:0.547436
G1 X199.848 Y232.693 E.00788
;WIDTH:0.594873
G1 X199.723 Y232.534 E.00862
;WIDTH:0.64231
G1 X199.598 Y232.376 E.00936
;WIDTH:0.689747
G2 X199.189 Y231.955 I-1.545 J1.089 E.02948
;WIDTH:0.660196
G1 X198.905 Y231.692 E.01846
;WIDTH:0.630645
G1 X198.416 Y231.215 E.03107
;WIDTH:0.612724
G1 X183.638 Y216.437 E.92085
;WIDTH:0.614304
G1 X183.56 Y216.358 E.00489
;WIDTH:0.642979
G1 X183.011 Y215.789 E.03672
;WIDTH:0.689744
G1 X182.635 Y215.38 E.02776
G1 X182.57 Y215.34 E.00384
;WIDTH:0.654122
G1 X182.505 Y215.3 E.00363
;WIDTH:0.6185
G1 X182.439 Y215.26 E.00341
;WIDTH:0.582877
G1 X182.173 Y215.023 E.01488
;WIDTH:0.541438
G1 X181.907 Y214.786 E.01374
;WIDTH:0.499999
G1 X181.618 Y214.406 E.01687
G1 X181.473 Y213.999 E.01527
G1 X181.441 Y213.528 E.01669
;WIDTH:0.547435
G1 X181.465 Y213.327 E.00788
;WIDTH:0.594871
G1 X181.488 Y213.127 E.00862
;WIDTH:0.642307
G1 X181.512 Y212.926 E.00936
;WIDTH:0.689743
G2 X181.521 Y212.339 I-1.862 J-.322 E.02948
;WIDTH:0.660194
G1 X181.506 Y211.953 E.01846
;WIDTH:0.630645
G1 X181.497 Y211.269 E.03107
;WIDTH:0.613906
G1 X181.496 Y210.735 E.02358
;WIDTH:0.640523
G1 X181.459 Y209.882 E.03948
;WIDTH:0.666217
G1 X181.421 Y209.537 E.0167
;WIDTH:0.691911
G1 X181.382 Y209.193 E.01739
G1 X181.343 Y209.118 E.00425
;WIDTH:0.64432
G1 X181.304 Y209.043 E.00394
;WIDTH:0.596729
G1 X181.178 Y208.653 E.01754
;WIDTH:0.548364
G1 X181.051 Y208.264 E.016
;WIDTH:0.499999
G2 X178.918 Y204.726 I-8.492 J2.708 E.14736
G1 X170.421 Y196.228 E.42475
;WIDTH:0.544449
G1 X170.233 Y196.01 E.01117
;WIDTH:0.588898
G1 X170.046 Y195.791 E.01216
;WIDTH:0.633347
G1 X169.859 Y195.572 E.01315
G1 X169.333 Y195.061 E.03351
;WIDTH:0.612723
G1 X134.939 Y160.667 E2.14319
;WIDTH:0.614537
G1 X134.856 Y160.583 E.00525
;WIDTH:0.648084
G1 X134.263 Y159.966 E.04005
G1 X134.099 Y159.837 E.00975
;WIDTH:0.598723
G1 X133.935 Y159.708 E.00896
;WIDTH:0.549361
G1 X133.772 Y159.579 E.00816
;WIDTH:0.499999
G1 X125.705 Y151.512 E.40324
G2 X124.027 Y150.052 I-8.434 J7.997 E.07872
G2 X121.59 Y148.905 I-5.141 J7.754 E.09555
;WIDTH:0.547978
G1 X121.394 Y148.833 E.00814
;WIDTH:0.595956
G1 X121.199 Y148.761 E.00891
;WIDTH:0.643934
G1 X121.003 Y148.69 E.00969
;WIDTH:0.691912
G1 X120.807 Y148.618 E.01046
G1 X120.381 Y148.574 E.02152
;WIDTH:0.661424
G1 X119.954 Y148.53 E.02051
;WIDTH:0.630936
G1 X119.183 Y148.503 E.03508
;WIDTH:0.614303
G1 X118.62 Y148.502 E.02488
;WIDTH:0.642976
G1 X117.829 Y148.487 E.03672
;WIDTH:0.689744
G1 X117.274 Y148.464 E.02776
G1 X117.2 Y148.482 E.00384
;WIDTH:0.65412
G1 X117.125 Y148.5 E.00363
;WIDTH:0.618496
G1 X117.051 Y148.518 E.00342
;WIDTH:0.582871
G1 X116.695 Y148.538 E.01488
;WIDTH:0.541435
G1 X116.339 Y148.559 E.01374
;WIDTH:0.499999
G1 X115.866 Y148.495 E.01687
G1 X115.476 Y148.31 E.01527
G1 X115.12 Y147.999 E.01669
;WIDTH:0.547436
G1 X114.995 Y147.84 E.00788
;WIDTH:0.594873
G1 X114.87 Y147.682 E.00862
;WIDTH:0.64231
G1 X114.745 Y147.523 E.00936
;WIDTH:0.689746
G2 X114.336 Y147.102 I-1.545 J1.089 E.02948
;WIDTH:0.660196
G1 X114.052 Y146.839 E.01846
;WIDTH:0.630646
G1 X113.563 Y146.362 E.03107
;WIDTH:0.612723
G1 X98.785 Y131.584 E.92084
;WIDTH:0.614304
G1 X98.708 Y131.506 E.00489
;WIDTH:0.64298
G1 X98.158 Y130.936 E.03672
;WIDTH:0.689744
G1 X97.783 Y130.527 E.02776
G1 X97.717 Y130.487 E.00384
;WIDTH:0.654123
G1 X97.652 Y130.447 E.00363
;WIDTH:0.618501
G1 X97.587 Y130.407 E.00341
;WIDTH:0.582879
G1 X97.367 Y130.217 E.0121
;WIDTH:0.541439
G1 X97.148 Y130.027 E.01117
;WIDTH:0.499999
G1 X96.588 Y129.467 E.028
G1 X96.588 Y128.675 E.028
;WIDTH:0.547436
G1 X96.612 Y128.474 E.00788
;WIDTH:0.594873
G1 X96.636 Y128.274 E.00862
;WIDTH:0.64231
G1 X96.659 Y128.073 E.00936
;WIDTH:0.689747
G2 X96.668 Y127.486 I-1.862 J-.322 E.02948
;WIDTH:0.660199
G1 X96.654 Y127.1 E.01846
;WIDTH:0.630651
G1 X96.645 Y126.416 E.03107
;WIDTH:0.612725
G1 X96.645 Y107.517 E.83275
;WIDTH:0.61463
G1 X96.646 Y107.396 E.00538
;WIDTH:0.649881
G1 X96.663 Y106.518 E.04119
G1 X96.638 Y106.306 E.01003
;WIDTH:0.599921
G1 X96.613 Y106.094 E.0092
;WIDTH:0.54996
G1 X96.588 Y105.882 E.00838
;WIDTH:0.499999
G1 X96.588 Y96.588 E.32849
G1 X103.467 Y96.588 E.24314
G1 X108.043 Y101.164 E.22874
;WIDTH:0.544793
G1 X108.229 Y101.382 E.01111
;WIDTH:0.589587
G1 X108.415 Y101.6 E.0121
;WIDTH:0.634381
G1 X108.601 Y101.817 E.01309
G1 X109.14 Y102.341 E.0344
;WIDTH:0.61273
G1 X133.362 Y126.563 E1.50936
;WIDTH:0.614305
G1 X133.44 Y126.642 E.00489
;WIDTH:0.642979
G1 X133.989 Y127.211 E.03672
;WIDTH:0.689743
G1 X134.365 Y127.62 E.02776
G1 X134.43 Y127.66 E.00384
;WIDTH:0.654121
G1 X134.495 Y127.7 E.00363
;WIDTH:0.618499
G1 X134.561 Y127.74 E.00341
;WIDTH:0.582876
G1 X134.827 Y127.977 E.01489
;WIDTH:0.541438
G1 X135.093 Y128.214 E.01374
;WIDTH:0.499999
G1 X135.379 Y128.589 E.01666
G1 X135.527 Y129 E.01543
G1 X135.559 Y129.468 E.0166
;WIDTH:0.540545
G1 X135.539 Y129.746 E.0107
;WIDTH:0.581091
G1 X135.518 Y130.023 E.01158
;WIDTH:0.61818
G1 X135.5 Y130.1 E.00351
;WIDTH:0.655269
G1 X135.481 Y130.176 E.00373
;WIDTH:0.692357
G1 X135.463 Y130.253 E.00396
G1 X135.478 Y130.663 E.02061
;WIDTH:0.661008
G1 X135.494 Y131.073 E.01961
;WIDTH:0.629658
G1 X135.503 Y131.731 E.02986
;WIDTH:0.613907
G1 X135.504 Y132.265 E.02357
;WIDTH:0.640524
G1 X135.541 Y133.118 E.03948
;WIDTH:0.666218
G1 X135.579 Y133.463 E.0167
;WIDTH:0.691911
G1 X135.618 Y133.807 E.01739
G1 X135.65 Y133.884 E.00418
;WIDTH:0.658056
G1 X135.683 Y133.961 E.00397
;WIDTH:0.6242
G1 X135.772 Y134.22 E.01234
;WIDTH:0.5828
G1 X135.861 Y134.48 E.01146
;WIDTH:0.5414
G1 X135.95 Y134.74 E.01058
;WIDTH:0.499999
G2 X138.082 Y138.274 I8.472 J-2.7 E.14724
G1 X146.599 Y146.791 E.42573
;WIDTH:0.544446
G1 X146.78 Y147.003 E.01081
;WIDTH:0.588893
G1 X146.961 Y147.216 E.01177
;WIDTH:0.633339
G1 X147.141 Y147.428 E.01273
G1 X147.667 Y147.939 E.0335
;WIDTH:0.612724
G1 X182.061 Y182.333 E2.14319
;WIDTH:0.614536
G1 X182.144 Y182.417 E.00525
;WIDTH:0.648081
G1 X182.737 Y183.034 E.04005
G1 X182.901 Y183.163 E.00975
;WIDTH:0.598721
G1 X183.065 Y183.292 E.00896
;WIDTH:0.54936
G1 X183.228 Y183.421 E.00816
;WIDTH:0.499999
G1 X191.295 Y191.488 E.40324
G2 X192.973 Y192.948 I8.434 J-7.996 E.07872
G2 X195.41 Y194.095 I5.171 J-7.818 E.09555
;WIDTH:0.547977
G1 X195.606 Y194.167 E.00814
;WIDTH:0.595954
G1 X195.801 Y194.239 E.00891
;WIDTH:0.643931
G1 X195.997 Y194.31 E.00969
;WIDTH:0.691908
G1 X196.193 Y194.382 E.01046
G1 X196.619 Y194.426 E.02152
;WIDTH:0.661422
G1 X197.046 Y194.47 E.02051
;WIDTH:0.630935
G1 X197.817 Y194.497 E.03508
;WIDTH:0.614301
G1 X198.38 Y194.498 E.02488
;WIDTH:0.642976
G1 X199.171 Y194.513 E.03672
;WIDTH:0.689744
G1 X199.726 Y194.536 E.02776
G1 X199.8 Y194.518 E.00384
;WIDTH:0.654122
G1 X199.875 Y194.5 E.00363
;WIDTH:0.6185
G1 X199.949 Y194.482 E.00341
;WIDTH:0.582878
G1 X200.305 Y194.462 E.01489
;WIDTH:0.541439
G1 X200.661 Y194.441 E.01374
;WIDTH:0.499999
G1 X201.128 Y194.504 E.01666
G1 X201.523 Y194.689 E.01542
G1 X201.88 Y195.001 E.01675
;WIDTH:0.541442
G1 X202.07 Y195.22 E.01117
;WIDTH:0.582884
G1 X202.26 Y195.439 E.0121
;WIDTH:0.618504
G1 X202.3 Y195.505 E.00341
;WIDTH:0.654124
G1 X202.34 Y195.57 E.00363
;WIDTH:0.689743
G1 X202.38 Y195.635 E.00384
G1 X202.664 Y195.898 E.01935
;WIDTH:0.660193
G1 X202.948 Y196.161 E.01846
;WIDTH:0.630643
G1 X203.437 Y196.638 E.03107
;WIDTH:0.612722
G1 X227.659 Y220.86 E1.50934
;WIDTH:0.614627
G1 X227.744 Y220.946 E.00538
;WIDTH:0.649875
G1 X228.352 Y221.579 E.04119
G1 X228.52 Y221.712 E.01003
;WIDTH:0.599917
G1 X228.687 Y221.844 E.0092
;WIDTH:0.549958
G1 X228.855 Y221.976 E.00838
;WIDTH:0.499999
G1 X233.412 Y226.533 E.22777
M73 P1 R70
G1 X233.412 Y233.404 E.24285
G1 E-.5 F1800
G1 X202.73 Y231.28 F48000
G1 E.5 F4800
;TYPE:Outer wall
G1 F3000
G1 X202.427 Y231.229 E.01087
G3 X199.828 Y229.802 I1.165 J-5.202 E.1062
G1 X185.051 Y215.025 E.73867
G3 X183.629 Y212.45 I3.971 J-3.872 E.1052
G3 X183.495 Y210.721 I7.638 J-1.463 E.06144
G1 X183.495 Y206.672 E.14311
G3 X183.629 Y205.493 I5.424 J.02 E.04205
G3 X184.31 Y203.847 I5.909 J1.481 E.06319
G3 X185.603 Y202.364 I6.994 J4.793 E.06967
G1 X189.916 Y198.051 E.21563
G3 X192.491 Y196.629 I3.872 J3.971 E.1052
G3 X194.386 Y196.495 I1.529 J8.126 E.06732
G1 X198.269 Y196.495 E.13724
G3 X199.426 Y196.624 I-.008 J5.328 E.04122
G3 X202.025 Y198.051 I-1.219 J5.301 E.10614
G1 X226.246 Y222.272 E1.21075
G3 X227.797 Y225.806 I-3.775 J3.763 E.13956
G3 X226.938 Y228.94 I-5.537 J.168 E.11659
G3 X222.483 Y231.358 I-4.513 J-3.001 E.18644
G1 X203.584 Y231.358 E.668
G3 X202.999 Y231.325 I.008 J-5.331 E.02071
G1 X202.738 Y231.281 E.00934
G1 X202.931 Y231.775 F48000
;TYPE:Inner wall
G1 F3000
G1 X202.351 Y231.679 E.0208
G3 X199.505 Y230.126 I1.248 J-5.668 E.11615
G1 X184.727 Y215.348 E.73867
G3 X183.63 Y213.811 I4.72 J-4.53 E.06699
G3 X183.039 Y211.308 I5.425 J-2.602 E.0916
G3 X183.038 Y206.672 I1220.773 J-2.612 E.16386
