; HEADER_BLOCK_START
; generated by OrcaSlicer 1.6.3 on 2023-07-04 at 10:39:05
; total layer number: 100
; HEADER_BLOCK_END

; THUMBNAIL_BLOCK_START
; THUMBNAIL_BLOCK_END

; external perimeters extrusion width = 0.42mm
; perimeters extrusion width = 0.45mm
; infill extrusion width = 0.45mm
; solid infill extrusion width = 0.42mm
; top infill extrusion width = 0.42mm
; first layer extrusion width = 0.50mm

; EXECUTABLE_BLOCK_START
EXCLUDE_OBJECT_DEFINE NAME=Frame_Brace.stl_id_0_copy_0 CENTER=165,165 POLYGON=[[92.967,201.033],[94.3812,197.619],[179.284,112.716],[197.619,94.3812],[201.033,92.967],[235.033,92.967],[237.033,94.967],[237.033,102.967],[235.619,106.381],[106.381,235.619],[102.967,237.033],[94.967,237.033],[92.967,235.033],[92.967,201.033]]
M73 P0 R83
;TYPE:Custom
START_PRINT T_BED=110 T_EXTRUDER=260
G90
G21
M83 ; use relative distances for extrusion
; filament start gcode

    PRESSURE_ADVANCE_SELECT FILAMENT=ABS
M106 S0
;LAYER_CHANGE
;Z:0.2
;HEIGHT:0.2
;BEFORE_LAYER_CHANGE
;0.2
G92 E0

G1 E-.5 F2400
M204 S1000
G1 X145.283 Y145.283 F12000
G1 Z.2
G1 E.5 F1800
;TYPE:Skirt
;WIDTH:0.5
G1 X197.689 Y92.877 E2.60832
G1 X198.805 Y92.175 E.04641
G1 X199.92 Y91.953 E.04002
G1 X235.033 Y91.953 E1.23576
G1 X237.094 Y92.806 E.0785
G1 X237.194 Y92.906 E.00498
G1 X238.047 Y94.967 E.0785
G1 X238.047 Y104.08 E.32072
G1 X237.825 Y105.195 E.04002
G1 X237.123 Y106.311 E.04641
G1 X106.311 Y237.123 E6.51071
G1 X105.195 Y237.825 E.04641
G1 X104.08 Y238.047 E.04002
G1 X94.967 Y238.047 E.32072
G1 X92.906 Y237.194 E.0785
G1 X92.806 Y237.094 E.00498
G1 X91.953 Y235.033 E.0785
G1 X91.953 Y199.92 E1.23576
G1 X92.175 Y198.805 E.04002
G1 X92.877 Y197.689 E.04641
G1 X145.24 Y145.325 E2.60621
G1 X145.564 Y145.649 F12000
G1 F1800
G1 X198.012 Y93.2 E2.61043
G1 X198.98 Y92.597 E.04014
G1 X199.92 Y92.41 E.03374
G1 X235.033 Y92.41 E1.23576
G1 X236.77 Y93.13 E.06618
G1 X236.87 Y93.23 E.00498
G1 X237.59 Y94.967 E.06618
G1 X237.59 Y104.08 E.32072
G1 X237.403 Y105.02 E.03374
G1 X236.8 Y105.988 E.04014
G1 X105.988 Y236.8 E6.51071
G1 X105.02 Y237.403 E.04014
G1 X104.08 Y237.59 E.03374
G1 X94.967 Y237.59 E.32072
G1 X93.23 Y236.87 E.06618
G1 X93.13 Y236.77 E.00498
G1 X92.41 Y235.033 E.06618
G1 X92.41 Y199.92 E1.23576
G1 X92.597 Y198.98 E.03374
G1 X93.2 Y198.012 E.04014
G1 X145.521 Y145.691 E2.6041
; printing object Frame_Brace.stl id:0 copy 0
EXCLUDE_OBJECT_START NAME=Frame_Brace.stl_id_0_copy_0
G1 E-.35 F2400
;WIPE_START
G1 F1800
G1 X146.935 Y144.277 E-.1425
;WIPE_END
G1 E-.0075 F2400
G1 X99.894 Y200.35 F12000
G1 X99.566 Y200.812
G1 X99.28 Y201.328
G1 X99.054 Y201.874
G1 X98.891 Y202.442
G1 X98.797 Y203
G1 X98.763 Y203.581
G1 X98.763 Y222.486
G1 X98.803 Y223.126
G1 X95.217 Y234.783
G1 E.5 F1800
;TYPE:Outer wall
G1 X95.217 Y199.99 E1.22451
G1 X95.234 Y199.948 E.0016
G1 X114.297 Y180.885 E.94878
G3 X116.265 Y180.07 I2.005 J2.059 E.07678
G1 X119.189 Y180.07 E.10291
G2 X124.301 Y177.952 I-.01 J-7.253 E.19979
G1 X177.952 Y124.301 E2.67034
G2 X180.07 Y119.189 I-5.135 J-5.121 E.19979
G1 X180.07 Y116.265 E.10291
G3 X180.885 Y114.297 I2.864 J.034 E.0768
G1 X199.948 Y95.234 E.94878
G1 X199.99 Y95.217 E.0016
G1 X234.783 Y95.217 E1.22451
G1 X234.783 Y104.01 E.30947
G1 X234.766 Y104.052 E.0016
G1 X202.703 Y136.115 E1.59582
G3 X200.735 Y136.93 I-2.005 J-2.059 E.07678
G1 X197.811 Y136.93 E.10291
G2 X192.699 Y139.048 I.01 J7.253 E.19979
G1 X139.048 Y192.699 E2.67034
G2 X136.93 Y197.811 I5.135 J5.122 E.19979
G1 X136.93 Y200.735 E.10291
G3 X136.115 Y202.703 I-2.864 J-.034 E.0768
G1 X104.052 Y234.766 E1.59582
G1 X104.01 Y234.783 E.0016
G1 X95.225 Y234.783 E.30919
G1 X95.257 Y234.714
G1 E-.5 F2400
G1 X101.627 Y227.257 F12000
G1 E.5 F1800
G3 X98.642 Y222.49 I2.342 J-4.784 E.20853
G1 X98.642 Y203.577 E.66561
G3 X100.193 Y199.833 I5.425 J.053 E.14619
G1 X114.98 Y185.046 E.73596
G3 X118.724 Y183.495 I3.755 J3.769 E.14634
M73 P1 R83
G1 X123.334 Y183.495 E.16224
G3 X127.079 Y185.046 I-.053 J5.424 E.1462
G1 X131.954 Y189.921 E.24263
G3 X133.505 Y193.666 I-3.873 J3.798 E.1462
G1 X133.505 Y198.276 E.16224
G3 X131.954 Y202.02 I-5.424 J-.053 E.14619
G1 X107.723 Y226.251 E1.20603
G3 X101.634 Y227.26 I-3.754 J-3.779 E.23167
G1 X101.561 Y227.302
G1 E-.5 F2400
G1 X101.505 Y227.573 F12000
G1 X102.131 Y227.833
G1 X102.814 Y228.02
G1 X103.514 Y228.12
G1 X104.22 Y228.132
G1 X104.898 Y228.062
G1 X105.52 Y227.918
G1 X105.59 Y227.901
G1 X106.25 Y227.658
G1 X106.856 Y227.346
G1 X107.44 Y226.949
G1 X107.953 Y226.496
G1 X132.198 Y202.251
G1 X132.611 Y201.788
G1 X132.968 Y201.285
G1 X133.28 Y200.724
G1 X133.526 Y200.13
G1 X133.702 Y199.513
G1 X133.806 Y198.904
G1 X133.841 Y198.285
G1 X133.841 Y194.586
G1 X193.716 Y133.841
G1 X198.285 Y133.841
G1 X198.904 Y133.806
G1 X199.513 Y133.702
G1 X200.13 Y133.526
G1 X200.724 Y133.28
G1 X201.285 Y132.968
G1 X201.788 Y132.611
G1 X202.251 Y132.198
G1 X226.496 Y107.953
G1 X226.949 Y107.44
G1 X227.346 Y106.856
G1 X227.658 Y106.25
G1 X227.902 Y105.587
G1 X228.062 Y104.898
G1 X228.132 Y104.219
G1 X228.118 Y103.489
G1 X228.02 Y102.813
G1 X227.833 Y102.131
G1 X227.562 Y101.478
G1 X227.212 Y100.864
G1 X226.804 Y100.316
G1 X226.789 Y100.3
G1 X226.54 Y100.539
G1 E.5 F1800
G3 X226.251 Y107.723 I-4.078 J3.434 E.27768
G1 X202.02 Y131.954 E1.20603
M73 P1 R82
G3 X198.276 Y133.505 I-3.798 J-3.873 E.14619
G1 X193.666 Y133.505 E.16224
G3 X189.921 Y131.954 I.053 J-5.424 E.14619
G1 X185.046 Y127.079 E.24264
G3 X183.495 Y123.334 I3.769 J-3.755 E.14634
G1 X183.495 Y118.724 E.16225
G3 X185.046 Y114.98 I5.425 J.053 E.14619
G1 X199.833 Y100.193 E.73596
G3 X203.577 Y98.642 I3.798 J3.873 E.14619
G1 X222.49 Y98.642 E.66561
G3 X226.535 Y100.533 I-.028 J5.331 E.16216
G1 X226.619 Y100.525
G1 E-.5 F2400
G1 X226.783 Y100.294 F12000
G1 X226.804 Y100.316
G1 X227.212 Y100.864
G1 X227.562 Y101.478
G1 X227.833 Y102.131
G1 X228.02 Y102.813
G1 X228.118 Y103.489
G1 X228.132 Y104.219
G1 X228.062 Y104.898
G1 X227.902 Y105.587
G1 X227.658 Y106.25
G1 X227.346 Y106.856
G1 X226.949 Y107.44
G1 X226.496 Y107.953
G1 X202.251 Y132.198
G1 X201.788 Y132.611
G1 X201.285 Y132.968
G1 X200.724 Y133.28
G1 X200.13 Y133.526
G1 X199.513 Y133.702
G1 X198.904 Y133.806
G1 X198.285 Y133.841
G1 X193.656 Y133.841
G1 X193.037 Y133.806
G1 X192.428 Y133.702
G1 X191.812 Y133.526
G1 X191.217 Y133.28
G1 X190.656 Y132.968
G1 X190.153 Y132.611
G1 X189.69 Y132.198
G1 X184.802 Y127.31
G1 X171.587 Y135.27
G1 X171.036 Y135.649
G1 X171.227 Y135.926
G1 E.5 F1800
G3 X172.92 Y135.037 I3.281 J4.195 E.06765
G3 X173.551 Y134.882 I13.096 J51.876 E.02289
G1 X174.194 Y134.805 E.02278
G3 X178.262 Y136.347 I.272 J5.419 E.15755
G1 X180.653 Y138.738 E.119
G3 X180.653 Y146.25 I-3.804 J3.756 E.29315
G1 X146.25 Y180.653 E1.7123
G3 X138.738 Y180.653 I-3.756 J-3.804 E.29315
G1 X136.347 Y178.262 E.119
G3 X136.347 Y170.75 I3.804 J-3.756 E.29315
G1 X170.75 Y136.347 E1.7123
G3 X171.22 Y135.931 I3.757 J3.774 E.02212
G1 X171.216 Y135.846
G1 E-.5 F2400
G1 X170.998 Y135.679 F12000
G1 X183.474 Y116.87
G1 X183.72 Y116.276
G1 X184.032 Y115.715
G1 X184.389 Y115.212
G1 X184.802 Y114.749
G1 X199.602 Y99.949
G1 X200.065 Y99.536
G1 X200.568 Y99.179
G1 X201.129 Y98.868
G1 X201.723 Y98.621
G1 X202.34 Y98.445
G1 X202.948 Y98.342
G1 X233.416 Y95.553
G1 X233.722 Y95.354
G1 E.5 F1800
;TYPE:Bottom surface
;WIDTH:0.500119
G1 F3000
G1 X234.44 Y96.073 E.03577
G1 X234.44 Y96.719 E.02276
G1 X233.281 Y95.56 E.05772
G1 X232.634 Y95.56 E.02276
G1 X234.44 Y97.366 E.08991
G1 X234.44 Y98.012 E.02276
G1 X231.988 Y95.56 E.1221
G1 X231.341 Y95.56 E.02276
G1 X234.44 Y98.659 E.15429
G1 X234.44 Y99.306 E.02276
G1 X230.694 Y95.56 E.18648
G1 X230.048 Y95.56 E.02276
G1 X234.44 Y99.952 E.21867
G1 X234.44 Y100.599 E.02276
G1 X229.401 Y95.56 E.25086
G1 X228.755 Y95.56 E.02276
G1 X234.44 Y101.245 E.28305
G1 X234.44 Y101.892 E.02276
G1 X228.108 Y95.56 E.31524
G1 X227.462 Y95.56 E.02276
G1 X234.44 Y102.538 E.34743
G1 X234.44 Y103.185 E.02276
G1 X226.815 Y95.56 E.37962
G1 X226.168 Y95.56 E.02276
G1 X234.44 Y103.832 E.41181
G1 X234.44 Y103.893 E.00216
G1 X234.148 Y104.186 E.01457
G1 X225.522 Y95.56 E.42943
G1 X224.875 Y95.56 E.02276
G1 X233.824 Y104.509 E.44553
G1 X233.501 Y104.832 E.01609
G1 X224.229 Y95.56 E.46162
G1 X223.582 Y95.56 E.02276
G1 X233.178 Y105.155 E.47772
G1 X232.855 Y105.479 E.01609
G1 X222.936 Y95.56 E.49381
G1 X222.289 Y95.56 E.02276
G1 X232.531 Y105.802 E.50991
G1 X232.208 Y106.125 E.01609
G1 X227.569 Y101.474 E.23126
G2 X224.968 Y98.885 I-5.048 J2.47 E.13161
G1 X221.642 Y95.56 E.16555
G1 X220.996 Y95.56 E.02276
G1 X223.925 Y98.489 E.14583
G1 X223.128 Y98.339 E.02856
G1 X220.349 Y95.56 E.13834
G1 X219.703 Y95.56 E.02276
G1 X222.442 Y98.299 E.13638
G1 X221.795 Y98.299 E.02276
G1 X219.056 Y95.56 E.13638
G1 X218.41 Y95.56 E.02276
G1 X221.149 Y98.299 E.13638
G1 X220.502 Y98.299 E.02276
G1 X217.763 Y95.56 E.13638
G1 X217.116 Y95.56 E.02276
G1 X219.856 Y98.299 E.13638
G1 X219.209 Y98.299 E.02276
G1 X216.47 Y95.56 E.13638
G1 X215.823 Y95.56 E.02276
G1 X218.563 Y98.299 E.13638
G1 X217.916 Y98.299 E.02276
G1 X215.177 Y95.56 E.13638
G1 X214.53 Y95.56 E.02276
G1 X217.269 Y98.299 E.13638
G1 X216.623 Y98.299 E.02276
G1 X213.883 Y95.56 E.13638
G1 X213.237 Y95.56 E.02276
G1 X215.976 Y98.299 E.13638
G1 X215.33 Y98.299 E.02276
G1 X212.59 Y95.56 E.13638
G1 X211.944 Y95.56 E.02276
G1 X214.683 Y98.299 E.13638
G1 X214.037 Y98.299 E.02276
G1 X211.297 Y95.56 E.13638
G1 X210.651 Y95.56 E.02276
G1 X213.39 Y98.299 E.13638
G1 X212.743 Y98.299 E.02276
G1 X210.004 Y95.56 E.13638
G1 X209.357 Y95.56 E.02276
G1 X212.097 Y98.299 E.13638
G1 X211.45 Y98.299 E.02276
G1 X208.711 Y95.56 E.13638
G1 X208.064 Y95.56 E.02276
G1 X210.804 Y98.299 E.13638
G1 X210.157 Y98.299 E.02276
G1 X207.418 Y95.56 E.13638
G1 X206.771 Y95.56 E.02276
G1 X209.511 Y98.299 E.13638
G1 X208.864 Y98.299 E.02276
G1 X206.125 Y95.56 E.13638
G1 X205.478 Y95.56 E.02276
G1 X208.217 Y98.299 E.13638
G1 X207.571 Y98.299 E.02276
G1 X204.831 Y95.56 E.13638
G1 X204.185 Y95.56 E.02276
G1 X206.924 Y98.299 E.13638
G1 X206.278 Y98.299 E.02276
G1 X203.538 Y95.56 E.13638
G1 X202.892 Y95.56 E.02276
G1 X205.631 Y98.299 E.13638
G1 X204.984 Y98.299 E.02276
G1 X202.245 Y95.56 E.13638
G1 X201.599 Y95.56 E.02276
G1 X204.338 Y98.299 E.13638
G1 X203.691 Y98.299 E.02276
G1 X200.952 Y95.56 E.13638
G1 X200.305 Y95.56 E.02276
G1 X203.073 Y98.327 E.13779
G2 X202.508 Y98.409 I.084 J2.569 E.02013
G1 X199.883 Y95.784 E.1307
G1 X199.56 Y96.107 E.01609
G1 X201.99 Y98.538 E.121
G2 X201.509 Y98.703 I.479 J2.184 E.01796
G1 X199.236 Y96.43 E.11312
G1 X198.913 Y96.754 E.01609
G1 X201.058 Y98.899 E.10679
G1 X200.642 Y99.13 E.01674
G1 X198.59 Y97.077 E.10219
G1 X198.266 Y97.4 E.01609
G1 X200.257 Y99.391 E.0991
G2 X199.896 Y99.677 I1.099 J1.758 E.01624
G1 X197.943 Y97.724 E.09724
G1 X197.62 Y98.047 E.01609
G1 X199.557 Y99.984 E.09644
G1 X199.234 Y100.307 E.01609
G1 X197.297 Y98.37 E.09644
G1 X196.973 Y98.693 E.01609
G1 X198.91 Y100.631 E.09644
G1 X198.587 Y100.954 E.01609
G1 X196.65 Y99.017 E.09644
G1 X196.327 Y99.34 E.01609
G1 X198.264 Y101.277 E.09644
G1 X197.94 Y101.6 E.01609
G1 X196.003 Y99.663 E.09644
G1 X195.68 Y99.987 E.01609
G1 X197.617 Y101.924 E.09644
G1 X197.294 Y102.247 E.01609
G1 X195.357 Y100.31 E.09644
G1 X195.034 Y100.633 E.01609
G1 X196.971 Y102.57 E.09644
G1 X196.647 Y102.894 E.01609
G1 X194.71 Y100.957 E.09644
G1 X194.387 Y101.28 E.01609
G1 X196.324 Y103.217 E.09644
G1 X196.001 Y103.54 E.01609
G1 X194.064 Y101.603 E.09644
G1 X193.74 Y101.926 E.01609
G1 X195.677 Y103.863 E.09644
G1 X195.354 Y104.187 E.01609
G1 X193.417 Y102.25 E.09644
G1 X193.094 Y102.573 E.01609
G1 X195.031 Y104.51 E.09644
G1 X194.708 Y104.833 E.01609
G1 X192.771 Y102.896 E.09644
G1 X192.447 Y103.22 E.01609
G1 X194.384 Y105.157 E.09644
G1 X194.061 Y105.48 E.01609
G1 X192.124 Y103.543 E.09644
G1 X191.801 Y103.866 E.01609
G1 X193.738 Y105.803 E.09644
G1 X193.414 Y106.126 E.01609
G1 X191.477 Y104.189 E.09644
G1 X191.154 Y104.513 E.01609
G1 X193.091 Y106.45 E.09644
G1 X192.768 Y106.773 E.01609
G1 X190.831 Y104.836 E.09644
G1 X190.508 Y105.159 E.01609
G1 X192.445 Y107.096 E.09644
G1 X192.121 Y107.42 E.01609
G1 X190.184 Y105.483 E.09644
G1 X189.861 Y105.806 E.01609
G1 X191.798 Y107.743 E.09644
G1 X191.475 Y108.066 E.01609
G1 X189.538 Y106.129 E.09644
G1 X189.214 Y106.452 E.01609
G1 X191.151 Y108.389 E.09644
G1 X190.828 Y108.713 E.01609
G1 X188.891 Y106.776 E.09644
G1 X188.568 Y107.099 E.01609
G1 X190.505 Y109.036 E.09644
G1 X190.182 Y109.359 E.01609
G1 X188.244 Y107.422 E.09644
G1 X187.921 Y107.746 E.01609
G1 X189.858 Y109.683 E.09644
G1 X189.535 Y110.006 E.01609
G1 X187.598 Y108.069 E.09644
G1 X187.275 Y108.392 E.01609
G1 X189.212 Y110.329 E.09644
G1 X188.888 Y110.652 E.01609
G1 X186.951 Y108.715 E.09644
G1 X186.628 Y109.039 E.01609
G1 X188.565 Y110.976 E.09644
G1 X188.242 Y111.299 E.01609
G1 X186.305 Y109.362 E.09644
G1 X185.981 Y109.685 E.01609
G1 X187.919 Y111.622 E.09644
G1 X187.595 Y111.946 E.01609
G1 X185.658 Y110.009 E.09644
G1 X185.335 Y110.332 E.01609
G1 X187.272 Y112.269 E.09644
G1 X186.949 Y112.592 E.01609
G1 X185.012 Y110.655 E.09644
G1 X184.688 Y110.978 E.01609
G1 X186.625 Y112.915 E.09644
G1 X186.302 Y113.239 E.01609
G1 X184.365 Y111.302 E.09644
G1 X184.042 Y111.625 E.01609
G1 X185.979 Y113.562 E.09644
G1 X185.656 Y113.885 E.01609
G1 X183.718 Y111.948 E.09644
G1 X183.395 Y112.272 E.01609
G1 X185.332 Y114.209 E.09644
G1 X185.009 Y114.532 E.01609
G1 X183.072 Y112.595 E.09644
G1 X182.749 Y112.918 E.01609
G1 X184.692 Y114.862 E.09675
G1 X184.387 Y115.203 E.01612
G1 X182.425 Y113.241 E.09767
G1 X182.102 Y113.565 E.01609
G1 X184.118 Y115.581 E.10038
G2 X183.875 Y115.984 I1.696 J1.302 E.01661
G1 X181.779 Y113.888 E.10434
G1 X181.455 Y114.211 E.01609
G1 X183.656 Y116.412 E.10957
G1 X183.467 Y116.87 E.01742
G1 X181.132 Y114.535 E.11623
G1 X180.842 Y114.891 E.01618
G1 X183.323 Y117.372 E.12352
G2 X183.218 Y117.914 I2.392 J.745 E.01946
G1 X180.614 Y115.31 E.12964
G2 X180.462 Y115.804 I1.473 J.723 E.01829
G1 X183.164 Y118.506 E.1345
G2 X183.152 Y119.141 I5.55 J.422 E.02236
G1 X180.413 Y116.401 E.13638
G1 X180.413 Y117.048 E.02276
G1 X183.152 Y119.787 E.13638
G1 X183.152 Y120.434 E.02276
G1 X180.413 Y117.695 E.13638
G1 X180.413 Y118.341 E.02276
G1 X183.152 Y121.081 E.13638
G1 X183.152 Y121.727 E.02276
G1 X180.413 Y118.988 E.13638
G3 X180.392 Y119.614 I-6.344 J.105 E.02206
G1 X183.152 Y122.374 E.1374
G1 X183.152 Y123.02 E.02276
G1 X180.335 Y120.204 E.14022
G3 X180.244 Y120.758 I-2.888 J-.193 E.01983
G1 X183.172 Y123.686 E.14577
G2 X183.266 Y124.428 I3.365 J-.053 E.02636
G1 X180.114 Y121.275 E.15693
G3 X179.952 Y121.76 I-2.607 J-.604 E.01801
G1 X183.914 Y125.722 E.19724
G1 E-.35 F2400
;WIPE_START
G1 F3000
G1 X182.499 Y124.307 E-.1425
;WIPE_END
G1 E-.0075 F2400
G1 X183.194 Y118.096 F12000
G1 X183.298 Y117.487
G1 X183.474 Y116.87
G1 X183.72 Y116.276
G1 X184.032 Y115.715
G1 X184.389 Y115.212
G1 X184.802 Y114.749
G1 X199.602 Y99.949
G1 X200.065 Y99.536
G1 X200.568 Y99.179
G1 X201.129 Y98.868
G1 X201.723 Y98.621
G1 X202.34 Y98.445
G1 X202.948 Y98.342
G1 X203.568 Y98.306
G1 X222.5 Y98.306
G1 X223.183 Y98.349
G1 X223.877 Y98.481
G1 X224.526 Y98.689
G1 X225.168 Y98.985
G1 X225.768 Y99.359
G1 X226.298 Y99.79
G1 X226.804 Y100.316
G1 X227.212 Y100.864
G1 X227.562 Y101.478
G1 X227.833 Y102.131
G1 X227.841 Y102.161
G1 X227.65 Y102.214
G1 E.5 F1800
G1 F3000
G1 X231.885 Y106.449 E.21084
G1 X231.561 Y106.772 E.01609
G1 X228.099 Y103.31 E.17236
G3 X228.135 Y103.992 I-2.685 J.482 E.02411
G1 X231.238 Y107.095 E.15449
G1 X230.915 Y107.418 E.01609
G1 X228.099 Y104.603 E.14016
G3 X228.009 Y105.159 I-2.268 J-.086 E.01987
G1 X230.591 Y107.742 E.12859
G1 X230.268 Y108.065 E.01609
G1 X227.877 Y105.674 E.11902
G1 X227.703 Y106.147 E.01773
G1 X229.945 Y108.388 E.11159
G1 X229.622 Y108.712 E.01609
G1 X227.494 Y106.584 E.10593
G3 X227.259 Y106.996 I-1.796 J-.75 E.01673
G1 X229.298 Y109.035 E.10151
G1 X228.975 Y109.358 E.01609
G1 X226.998 Y107.381 E.09845
G3 X226.701 Y107.731 I-1.539 J-1.001 E.01619
G1 X228.652 Y109.681 E.0971
G1 X228.328 Y110.005 E.01609
G1 X226.391 Y108.068 E.09644
G1 X226.068 Y108.391 E.01609
G1 X228.005 Y110.328 E.09644
G1 X227.682 Y110.651 E.01609
G1 X225.745 Y108.714 E.09644
