; HEADER_BLOCK_START
; generated by OrcaSlicer 1.6.3 on 2023-07-02 at 21:58:51
; total layer number: 75
; HEADER_BLOCK_END

; THUMBNAIL_BLOCK_START
; THUMBNAIL_BLOCK_END

; external perimeters extrusion width = 0.42mm
; perimeters extrusion width = 0.45mm
; infill extrusion width = 0.45mm
; solid infill extrusion width = 0.42mm
; top infill extrusion width = 0.42mm
; first layer extrusion width = 0.50mm

; EXECUTABLE_BLOCK_START
EXCLUDE_OBJECT_DEFINE NAME=Frame_Brace.stl_id_0_copy_0 CENTER=160,170 POLYGON=[[87.967,99.967],[89.967,97.967],[97.967,97.967],[101.381,99.3812],[230.619,228.619],[232.033,232.033],[232.033,240.033],[230.033,242.033],[196.033,242.033],[192.619,240.619],[174.284,222.284],[89.3812,137.381],[87.967,133.967],[87.967,99.967]]
M73 P0 R65
;TYPE:Custom
START_PRINT T_BED=110 T_EXTRUDER=260
G90
G21
M83 ; use relative distances for extrusion
; filament start gcode

    PRESSURE_ADVANCE_SELECT FILAMENT=ABS
M106 S0
;LAYER_CHANGE
;Z:0.2
;HEIGHT:0.2
;BEFORE_LAYER_CHANGE
;0.2
G92 E0

G1 E-.5 F2400
M204 S1000
G1 X87.906 Y97.773 F12000
G1 Z.2
G1 E.5 F1800
;TYPE:Skirt
;WIDTH:0.5
G1 X89.967 Y96.919 E.0785
G1 X99.06 Y96.919 E.32003
G1 X100.176 Y97.141 E.04002
G1 X101.349 Y97.867 E.04855
G1 X232.133 Y228.651 E6.50933
G1 X232.859 Y229.824 E.04855
G1 X233.081 Y230.94 E.04002
G1 X233.081 Y240.033 E.32003
G1 X232.227 Y242.094 E.0785
G1 X232.094 Y242.227 E.00664
G1 X230.033 Y243.081 E.0785
G1 X194.94 Y243.081 E1.23507
G1 X193.824 Y242.859 E.04002
G1 X192.651 Y242.133 E.04855
G1 X87.867 Y137.349 E5.21527
G1 X87.141 Y136.176 E.04855
G1 X86.919 Y135.06 E.04002
G1 X86.919 Y99.967 E1.23507
G1 X87.773 Y97.906 E.0785
G1 X87.864 Y97.815 E.00452
G1 X88.187 Y98.139 F12000
G1 F1800
G1 X88.23 Y98.096 E.00211
G1 X89.967 Y97.377 E.06618
G1 X99.06 Y97.377 E.32003
G1 X100.001 Y97.564 E.03374
G1 X101.026 Y98.191 E.04228
G1 X231.809 Y228.975 E6.50933
G1 X232.436 Y229.999 E.04228
G1 X232.623 Y230.94 E.03374
G1 X232.623 Y240.033 E.32003
G1 X231.904 Y241.77 E.06618
G1 X231.77 Y241.904 E.00664
G1 X230.033 Y242.623 E.06618
G1 X194.94 Y242.623 E1.23507
G1 X193.999 Y242.436 E.03374
G1 X192.975 Y241.809 E.04228
G1 X88.191 Y137.025 E5.21527
G1 X87.564 Y136.001 E.04228
G1 X87.377 Y135.06 E.03374
G1 X87.377 Y99.967 E1.23507
G1 X88.096 Y98.23 E.06618
G1 X88.145 Y98.181 E.00241
; printing object Frame_Brace.stl id:0 copy 0
EXCLUDE_OBJECT_START NAME=Frame_Brace.stl_id_0_copy_0
G1 E-.35 F2400
;WIPE_START
G1 F1800
G1 X88.23 Y98.096 E-.00855
G1 X89.966 Y97.377 E-.13395
;WIPE_END
G1 E-.0075 F2400
G1 X90.184 Y100.184 F12000
G1 E.5 F1800
;TYPE:Outer wall
G1 X98.991 Y100.184 E.30996
G1 X99.09 Y100.225 E.00377
G1 X131.139 Y132.274 E1.59513
G3 X131.964 Y134.265 I-2.088 J2.031 E.07769
G1 X131.964 Y137.189 E.10291
G2 X134.071 Y142.277 I7.222 J-.011 E.19886
G1 X187.723 Y195.929 E2.67034
G2 X192.811 Y198.036 I5.099 J-5.114 E.19886
G1 X195.735 Y198.036 E.10291
G3 X197.726 Y198.861 I-.034 J2.897 E.07771
G1 X229.775 Y230.91 E1.59513
M73 P0 R64
G1 X229.816 Y231.009 E.00377
G1 X229.816 Y239.816 E.30996
G1 X195.009 Y239.816 E1.225
M73 P1 R64
G1 X194.91 Y239.775 E.00377
G1 X175.861 Y220.726 E.9481
G3 X175.036 Y218.735 I2.089 J-2.031 E.07769
G1 X175.036 Y215.811 E.10291
G2 X172.929 Y210.723 I-7.222 J.011 E.19886
G1 X119.277 Y157.071 E2.67034
G2 X114.189 Y154.964 I-5.099 J5.114 E.19886
G1 X111.265 Y154.964 E.10291
G3 X109.274 Y154.139 I.034 J-2.897 E.07771
G1 X90.225 Y135.09 E.9481
G1 X90.184 Y134.991 E.00377
G1 X90.184 Y100.192 E1.22472
G1 X90.253 Y100.224
G1 X90.641 Y100.641 F12000
;TYPE:Inner wall
G1 F1800
G1 X98.859 Y100.641 E.28925
G1 X130.803 Y132.584 E1.58989
G3 X131.506 Y134.282 I-1.735 J1.713 E.06632
G1 X131.506 Y137.2 E.10269
G2 X133.74 Y142.592 I7.672 J-.019 E.21071
G1 X187.408 Y196.26 E2.67114
G2 X192.8 Y198.494 I5.412 J-5.439 E.21071
G1 X195.718 Y198.494 E.10269
G3 X197.416 Y199.197 I-.015 J2.438 E.06631
G1 X229.359 Y231.141 E1.58989
G1 X229.359 Y239.359 E.28925
G1 X195.141 Y239.359 E1.20429
G1 X176.197 Y220.416 E.94286
G3 X175.494 Y218.718 I1.735 J-1.713 E.06631
G1 X175.494 Y215.8 E.10269
G2 X173.26 Y210.408 I-7.672 J.019 E.21071
G1 X119.592 Y156.74 E2.67114
G2 X114.2 Y154.506 I-5.412 J5.439 E.21071
G1 X111.282 Y154.506 E.10269
G3 X109.584 Y153.803 I.015 J-2.438 E.06631
G1 X90.641 Y134.859 E.94286
G1 X90.641 Y100.649 E1.20401
G1 X91.098 Y101.098 F12000
G1 F1800
G1 X98.67 Y101.098 E.2665
G1 X130.468 Y132.895 E1.58261
G3 X131.049 Y134.3 I-1.398 J1.402 E.05492
G1 X131.049 Y137.211 E.10247
G2 X133.409 Y142.907 I8.123 J-.028 E.22256
G1 X187.093 Y196.591 E2.67193
G2 X192.789 Y198.951 I5.724 J-5.764 E.22256
G1 X195.7 Y198.951 E.10247
G3 X197.105 Y199.532 I.003 J1.98 E.05491
G1 X228.902 Y231.33 E1.58261
G1 X228.902 Y238.902 E.2665
G1 X195.33 Y238.902 E1.18154
G1 X176.532 Y220.105 E.93558
G3 X175.951 Y218.7 I1.398 J-1.402 E.05492
G1 X175.951 Y215.789 E.10247
G2 X173.591 Y210.093 I-8.123 J.028 E.22256
G1 X119.907 Y156.409 E2.67193
G2 X114.211 Y154.049 I-5.724 J5.764 E.22256
G1 X111.3 Y154.049 E.10247
G3 X109.895 Y153.468 I-.003 J-1.98 E.05491
G1 X91.098 Y134.67 E.93558
G1 X91.098 Y101.106 E1.18126
G1 X91.555 Y101.555 F12000
G1 F1800
G1 X98.481 Y101.555 E.24375
G1 X130.132 Y133.206 E1.57533
G3 X130.592 Y134.317 I-1.064 J1.092 E.04352
G1 X130.592 Y137.223 E.10225
G2 X133.078 Y143.223 I8.574 J-.037 E.23441
G1 X186.777 Y196.922 E2.67273
M73 P2 R64
G2 X192.777 Y199.408 I6.037 J-6.089 E.23441
G1 X195.683 Y199.408 E.10225
G3 X196.794 Y199.868 I.019 J1.525 E.04352
G1 X228.445 Y231.519 E1.57533
G1 X228.445 Y238.445 E.24375
G1 X195.519 Y238.445 E1.15879
G1 X176.868 Y219.794 E.9283
G3 X176.408 Y218.683 I1.064 J-1.092 E.04352
G1 X176.408 Y215.777 E.10225
G2 X173.922 Y209.777 I-8.574 J.037 E.23441
G1 X120.223 Y156.078 E2.67273
G2 X114.223 Y153.592 I-6.037 J6.089 E.23441
G1 X111.317 Y153.592 E.10225
G3 X110.206 Y153.132 I-.019 J-1.525 E.04352
G1 X91.555 Y134.481 E.9283
G1 X91.555 Y101.563 E1.15851
G1 E-.5 F2400
G1 X101.865 Y107.699 F12000
G1 X102.419 Y108.077
G1 X102.929 Y108.527
G1 X127.175 Y132.773
G1 X127.587 Y133.235
G1 X127.938 Y133.73
G1 X128.249 Y134.289
G1 X128.495 Y134.883
G1 X128.67 Y135.498
G1 X133.274 Y154.383
G1 X131.126 Y156.531
G1 X130.685 Y157.029
G1 X130.297 Y157.596
G1 X129.998 Y158.165
G1 X129.968 Y158.236
G1 X129.748 Y158.817
G1 X129.602 Y159.411
G1 X129.583 Y159.487
G1 X129.502 Y160.167
G1 X129.502 Y160.821
G1 X129.584 Y161.503
G1 X129.748 Y162.171
G1 X129.993 Y162.813
G1 X130.297 Y163.392
G1 X130.685 Y163.958
G1 X131.126 Y164.457
G1 X178.192 Y211.656
G1 X178.192 Y216.285
G1 X178.228 Y216.903
G1 X178.33 Y217.502
G1 X178.505 Y218.117
G1 X178.751 Y218.711
G1 X179.062 Y219.27
G1 X179.413 Y219.765
G1 X179.825 Y220.227
G1 X194.626 Y235.028
G1 X195.088 Y235.439
G1 X195.583 Y235.791
G1 X196.142 Y236.102
G1 X196.736 Y236.348
G1 X197.351 Y236.523
G1 X197.95 Y236.625
G1 X197.969 Y236.626
G1 X197.988 Y236.287
G1 E.5 F1800
;TYPE:Outer wall
G3 X194.856 Y234.783 I.643 J-5.353 E.12448
G1 X180.069 Y219.997 E.73596
G3 X178.528 Y216.276 I3.85 J-3.775 E.14527
G1 X178.528 Y211.666 E.16224
G3 X180.069 Y207.945 I5.333 J.029 E.14536
G1 X184.945 Y203.069 E.24264
G3 X188.665 Y201.528 I3.775 J3.85 E.14527
G1 X193.276 Y201.528 E.16225
G3 X196.997 Y203.069 I-.054 J5.391 E.14527
G1 X221.228 Y227.301 E1.20603
M73 P2 R63
G3 X217.49 Y236.325 I-3.766 J3.726 E.43735
G1 X198.577 Y236.325 E.66562
G3 X197.996 Y236.287 I.054 J-5.391 E.0205
G1 X197.941 Y236.351
G1 X197.913 Y236.742 F12000
;TYPE:Inner wall
G1 F1800
G1 X197.326 Y236.635 E.02101
G3 X194.542 Y235.116 I1.306 J-5.703 E.11301
G1 X179.737 Y220.311 E.73689
G3 X178.071 Y216.289 I4.184 J-4.089 E.15698
G1 X178.071 Y211.653 E.16315
G3 X179.737 Y207.631 I5.801 J.046 E.15707
G1 X184.631 Y202.737 E.24357
G3 X188.652 Y201.071 I4.089 J4.184 E.15698
G1 X193.289 Y201.071 E.16317
G3 X195.157 Y201.39 I-.132 J6.397 E.06696
G1 X195.233 Y201.422 E.00289
G3 X197.311 Y202.737 I-1.907 J5.312 E.08723
G1 X221.561 Y226.988 E1.207
G3 X217.504 Y236.782 I-4.099 J4.039 E.47424
G1 X198.564 Y236.782 E.66658
G3 X197.937 Y236.741 I.067 J-5.85 E.02214
G1 X197.921 Y236.741 E.00055
G1 X197.838 Y237.193 F12000
G1 F1800
G1 X197.225 Y237.08 E.02196
G3 X194.228 Y235.448 I1.407 J-6.15 E.12159
G1 X179.404 Y220.624 E.73781
G3 X177.614 Y216.302 I4.518 J-4.404 E.16869
G1 X177.614 Y211.64 E.16407
G3 X179.404 Y207.317 I6.269 J.064 E.16878
G1 X184.317 Y202.404 E.24449
G3 X188.639 Y200.614 I4.404 J4.518 E.16869
G1 X193.302 Y200.614 E.1641
G3 X197.624 Y202.404 I-.081 J6.309 E.16869
G1 X221.895 Y226.675 E1.20796
G3 X219.015 Y237.047 I-4.428 J4.357 E.45827
G1 X218.253 Y237.193 E.02729
G1 X217.519 Y237.239 E.02591
G1 X198.551 Y237.239 E.66755
G3 X197.885 Y237.195 I.081 J-6.309 E.02349
G1 X197.846 Y237.193 E.00137
G1 X197.903 Y237.659 F12000
G1 F1800
G1 X197.834 Y237.649 E.00247
G3 X193.914 Y235.781 I.799 J-6.721 E.15556
G1 X179.072 Y220.938 E.73873
G3 X177.157 Y216.315 I4.852 J-4.718 E.1804
G1 X177.157 Y211.627 E.16498
G3 X179.072 Y207.003 I6.736 J.081 E.18048
G1 X184.003 Y202.072 E.24541
G3 X188.626 Y200.157 I4.718 J4.852 E.1804
G1 X193.315 Y200.157 E.16502
G3 X197.938 Y202.072 I-.095 J6.768 E.1804
G1 X222.228 Y226.362 E1.20893
G1 X222.743 Y226.946 E.02742
G3 X224.053 Y229.939 I-5.597 J4.232 E.11602
G1 X224.138 Y230.77 E.0294
G1 X224.118 Y231.601 E.02927
G1 X224.003 Y232.39 E.02806
G1 X223.783 Y233.193 E.02931
G1 X223.464 Y233.965 E.02942
G1 X223.051 Y234.689 E.02931
G1 X222.574 Y235.328 E.02806
G1 X222.001 Y235.929 E.02927
G1 X221.353 Y236.457 E.0294
G3 X220.637 Y236.902 I-27.219 J-42.946 E.02968
G1 X219.887 Y237.248 E.02904
G1 X219.128 Y237.491 E.02806
G1 X218.311 Y237.647 E.02928
G1 X217.533 Y237.696 E.02743
G1 X198.538 Y237.696 E.66852
G1 X197.911 Y237.66 E.0221
G1 E-.5 F2400
G1 X195.088 Y235.439 F12000
G1 X194.626 Y235.028
G1 X179.825 Y220.227
G1 X179.413 Y219.765
G1 X175.054 Y213.65
G1 X174.79 Y212.911
G1 X174.469 Y212.238
G1 X174.105 Y211.632
G1 X173.662 Y211.032
G1 X173.172 Y210.491
G1 X119.509 Y156.828
G1 X118.968 Y156.338
G1 X118.368 Y155.895
G1 X111.272 Y151.239
G1 X111.439 Y150.939
G1 E.5 F1800
;TYPE:Outer wall
G3 X110.003 Y149.931 I2.338 J-4.858 E.06202
G1 X95.217 Y135.144 E.73596
G3 X93.675 Y131.423 I3.85 J-3.775 E.14527
G1 X93.675 Y112.51 E.66562
G3 X98.547 Y107.248 I5.317 J.037 E.27696
G1 X98.862 Y107.242 E.01108
G3 X102.699 Y108.772 I.09 J5.351 E.14927
G1 X126.931 Y133.003 E1.20603
M73 P3 R63
G3 X128.472 Y136.724 I-3.85 J3.775 E.14527
G1 X128.472 Y141.334 E.16224
G3 X126.931 Y145.055 I-5.333 J-.029 E.14536
G1 X122.055 Y149.931 E.24264
G3 X118.334 Y151.472 I-3.75 J-3.792 E.14536
G1 X113.724 Y151.472 E.16224
G3 X111.447 Y150.942 I.054 J-5.391 E.08296
G1 X111.374 Y150.984
G1 X111.216 Y151.347 F12000
;TYPE:Inner wall
G1 F1800
G1 X110.669 Y151.035 E.02215
G3 X109.689 Y150.263 I3.109 J-4.956 E.04397
G1 X94.884 Y135.458 E.73688
G3 X93.218 Y131.436 I4.184 J-4.089 E.15698
G1 X93.218 Y112.496 E.66658
G3 X98.51 Y106.792 I5.776 J.052 E.30043
G1 X98.853 Y106.785 E.01205
G3 X103.012 Y108.439 I.144 J5.695 E.16191
G1 X127.263 Y132.689 E1.207
G3 X128.929 Y136.711 I-4.184 J4.089 E.15698
G1 X128.929 Y141.347 E.16315
G3 X127.263 Y145.369 I-5.801 J-.046 E.15707
G1 X122.369 Y150.263 E.24356
G3 X118.347 Y151.929 I-4.069 J-4.135 E.15707
G1 X113.711 Y151.929 E.16315
G3 X111.241 Y151.35 I.067 J-5.85 E.09002
G1 X111.223 Y151.348 E.00061
G1 X110.995 Y151.747 F12000
G1 F1800
G1 X110.425 Y151.421 E.0231
G3 X109.376 Y150.596 I3.354 J-5.344 E.0471
G1 X94.552 Y135.772 E.73781
G3 X92.761 Y131.449 I4.518 J-4.404 E.16869
G1 X92.761 Y112.481 E.66755
G3 X96.237 Y106.947 I6.223 J.05 E.24214
G1 X96.955 Y106.65 E.02735
G1 X97.706 Y106.445 E.02739
G1 X98.473 Y106.335 E.02727
G1 X98.843 Y106.328 E.01302
G3 X103.325 Y108.105 I.157 J6.145 E.17439
G1 X127.596 Y132.376 E1.20796
G3 X129.386 Y136.698 I-4.518 J4.404 E.16869
G1 X129.386 Y141.36 E.16407
G3 X127.596 Y145.683 I-6.269 J-.064 E.16878
G1 X122.683 Y150.596 E.24449
G3 X118.36 Y152.386 I-4.387 J-4.478 E.16878
G1 X113.698 Y152.386 E.16407
G3 X111.042 Y151.762 I.081 J-6.309 E.0968
G1 X111.003 Y151.75 E.00143
G1 X110.905 Y152.211 F12000
G1 F1800
G1 X110.843 Y152.173 E.00255
G3 X109.062 Y150.928 I2.937 J-6.098 E.07683
G1 X94.219 Y136.086 E.73873
G3 X92.304 Y131.462 I4.853 J-4.718 E.1804
G1 X92.304 Y112.467 E.66852
G1 X92.353 Y111.689 E.02743
G1 X92.509 Y110.872 E.02928
G3 X96.036 Y106.536 I6.488 J1.675 E.20292
G1 X96.807 Y106.217 E.02936
G1 X97.613 Y105.996 E.02942
G1 X98.436 Y105.879 E.02925
G1 X98.834 Y105.871 E.01399
G1 X99.233 Y105.863 E.01406
G1 X100.062 Y105.947 E.02932
G3 X101.692 Y106.442 I-1.477 J7.803 E.06005
G3 X103.056 Y107.258 I-2.699 J6.056 E.05608
G1 X103.638 Y107.772 E.02734
G1 X127.928 Y132.062 E1.20893
G3 X129.843 Y136.685 I-4.852 J4.718 E.1804
G1 X129.843 Y141.373 E.16498
G3 X127.928 Y145.997 I-6.736 J-.081 E.18049
G1 X122.997 Y150.928 E.24541
G3 X118.373 Y152.843 I-4.705 J-4.821 E.18048
G1 X113.685 Y152.843 E.16498
G3 X111.545 Y152.464 I.095 J-6.768 E.07682
G1 X110.913 Y152.214 E.02394
G1 E-.5 F2400
G1 X130.953 Y163.749 F12000
G1 E.5 F1800
;TYPE:Outer wall
G3 X131.37 Y156.761 I4.201 J-3.256 E.26895
G1 X133.761 Y154.37 E.11901
G3 X137.187 Y152.838 I3.732 J3.749 E.13501
G3 X141.226 Y154.37 I.266 J5.391 E.15643
G1 X175.63 Y188.774 E1.7123
G3 X175.63 Y196.239 I-3.78 J3.733 E.29131
G1 X173.239 Y198.63 E.11901
G3 X165.774 Y198.63 I-3.733 J-3.78 E.29131
G1 X131.37 Y164.226 E1.7123
G3 X130.958 Y163.756 I3.784 J-3.733 E.02204
G1 X130.874 Y163.761
G1 X130.575 Y164.012 F12000
;TYPE:Inner wall
G1 F1800
G1 X130.198 Y163.452 E.02376
G3 X131.037 Y156.448 I4.957 J-2.958 E.26708
G1 X133.448 Y154.037 E.11999
G3 X137.16 Y152.381 I4.043 J4.074 E.14621
G3 X141.54 Y154.037 I.288 J5.857 E.16952
G1 X175.963 Y188.46 E1.71329
G3 X175.963 Y196.552 I-4.114 J4.046 E.31559
G1 X173.552 Y198.963 E.11999
G3 X165.46 Y198.963 I-4.046 J-4.114 E.31559
G1 X131.037 Y164.54 E1.71329
G3 X130.593 Y164.031 I4.117 J-4.046 E.0238
G1 X130.58 Y164.018 E.00062
G1 X130.199 Y164.273 F12000
G1 F1800
G1 X129.806 Y163.688 E.0248
G3 X130.704 Y156.135 I5.349 J-3.194 E.28795
G1 X133.135 Y153.704 E.12098
G3 X137.133 Y151.924 I4.354 J4.399 E.15742
G3 X141.853 Y153.704 I.36 J6.194 E.18284
G1 X176.296 Y188.147 E1.71428
G3 X176.296 Y196.865 I-4.447 J4.359 E.33988
G1 X173.865 Y199.296 E.12098
G3 X165.147 Y199.296 I-4.359 J-4.447 E.33987
G1 X130.704 Y164.853 E1.71428
G3 X130.232 Y164.312 I4.451 J-4.359 E.02528
G1 X130.204 Y164.279 E.00152
G1 X129.824 Y164.533 F12000
G1 F1800
G1 X129.408 Y163.928 E.02585
G1 X129.047 Y163.24 E.02734
G3 X128.758 Y158.508 I6.262 J-2.758 E.17036
G3 X129.059 Y157.725 I13.129 J4.605 E.02954
G1 X129.408 Y157.06 E.02643
G1 X129.867 Y156.391 E.02855
G1 X130.371 Y155.822 E.02676
G1 X132.822 Y153.371 E.12197
G1 X133.391 Y152.867 E.02676
G1 X134.06 Y152.408 E.02855
G1 X134.748 Y152.047 E.02734
G1 X135.507 Y151.758 E.0286
G1 X136.299 Y151.563 E.02871
G1 X137.106 Y151.467 E.02857
G3 X142.166 Y153.371 I.387 J6.65 E.19595
G1 X176.629 Y187.834 E1.71527
G1 X177.133 Y188.403 E.02676
G1 X177.592 Y189.072 E.02855
G1 X177.953 Y189.76 E.02734
G1 X178.242 Y190.519 E.02859
G1 X178.437 Y191.311 E.02871
G1 X178.533 Y192.118 E.02857
G1 X178.533 Y192.895 E.02734
G1 X178.437 Y193.701 E.02857
G1 X178.242 Y194.493 E.02871
G1 X177.953 Y195.252 E.02859
G1 X177.592 Y195.94 E.02734
G1 X177.133 Y196.609 E.02855
G1 X176.629 Y197.179 E.02676
G1 X174.179 Y199.629 E.12197
G1 X173.609 Y200.133 E.02676
G1 X172.94 Y200.592 E.02855
G1 X172.252 Y200.953 E.02734
G1 X171.493 Y201.242 E.02859
G1 X170.701 Y201.437 E.02871
G1 X169.895 Y201.533 E.02857
G1 X169.118 Y201.533 E.02734
G1 X168.312 Y201.437 E.02855
G1 X167.519 Y201.242 E.02873
G1 X166.758 Y200.951 E.02869
G1 X166.072 Y200.592 E.02724
G1 X165.405 Y200.134 E.02849
G1 X164.834 Y199.629 E.02682
G1 X130.371 Y165.166 E1.71527
G1 X129.867 Y164.597 E.02676
G1 X129.828 Y164.54 E.00243
G1 X129.545 Y164.835 F12000
;TYPE:Gap infill
;WIDTH:0.385864
G1 F1800
G1 X129.411 Y164.673 E.00556
;WIDTH:0.424582
G1 X129.276 Y164.511 E.00619
;WIDTH:0.463301
G1 X129.142 Y164.349 E.00682
;WIDTH:0.506815
G3 X128.989 Y164.163 I3.057 J-2.678 E.00859
;WIDTH:0.547964
G1 X128.76 Y163.852 E.01502
G1 E-.5 F2400
G1 X129.545 Y164.835 F12000
M73 P3 R62
G1 E.5 F1800
