; HEADER_BLOCK_START
; generated by OrcaSlicer 1.6.4-beta2 on 2023-08-07 at 18:58:22
; total layer number: 77
; HEADER_BLOCK_END

; THUMBNAIL_BLOCK_START
; THUMBNAIL_BLOCK_END

; external perimeters extrusion width = 0.40mm
; perimeters extrusion width = 0.42mm
; infill extrusion width = 0.64mm
; solid infill extrusion width = 0.56mm
; top infill extrusion width = 0.42mm
; first layer extrusion width = 0.50mm

; external perimeters extrusion width = 0.40mm
; perimeters extrusion width = 0.42mm
; infill extrusion width = 0.64mm
; solid infill extrusion width = 0.56mm
; top infill extrusion width = 0.42mm
; first layer extrusion width = 0.50mm

; EXECUTABLE_BLOCK_START
EXCLUDE_OBJECT_DEFINE NAME=Front_Idlers_Mount_Left_TOP.stl_id_0_copy_0 CENTER=165,193.704 POLYGON=[[128.296,175.5],[128.4,175.395],[128.503,175.293],[133.796,170],[198.888,170],[201.704,172.817],[201.704,211.908],[201.497,212.115],[196.411,217.201],[196.204,217.408],[153.796,217.408],[128.296,197.408],[128.296,175.5]]
EXCLUDE_OBJECT_DEFINE NAME=Front_Idlers_Mount_right_TOP.stl_id_1_copy_0 CENTER=165,136.296 POLYGON=[[128.296,132.592],[153.796,112.592],[196.204,112.592],[196.411,112.799],[201.497,117.885],[201.704,118.092],[201.704,157.183],[198.888,160],[194.904,160],[133.796,159.592],[128.503,154.299],[128.4,154.196],[128.296,154.092],[128.296,132.592]]
M73 P0 R63
;TYPE:Custom
START_PRINT T_BED=110 T_EXTRUDER=260
G90
G21
M83 ; use relative distances for extrusion
; Filament gcode
M106 S0
;LAYER_CHANGE
;Z:0.2
;HEIGHT:0.2
;BEFORE_LAYER_CHANGE
;0.2
G92 E0

SET_VELOCITY_LIMIT ACCEL=1000 ACCEL_TO_DECEL=500
G1 E-.5 F3000
G1 X127.569 Y131.4 F12000
G1 Z.2
G1 E.5 F1800
;TYPE:Skirt
;WIDTH:0.5
G1 F3000
G1 X152.175 Y111.39 E1.12101
G1 X152.649 Y111.064 E.02034
G1 X153.271 Y110.779 E.02416
G1 X154.462 Y110.578 E.04269
G1 X195.675 Y110.581 E1.45672
G1 X196.4 Y110.682 E.02588
G1 X197.059 Y110.912 E.02467
G1 X197.676 Y111.276 E.02532
G1 X198.099 Y111.638 E.01969
G1 X202.978 Y116.564 E.24507
G1 X203.505 Y117.533 E.03898
G1 X203.712 Y118.55 E.03669
G1 X203.718 Y211.243 E3.2763
G1 X203.675 Y211.798 E.01968
G1 X203.496 Y212.492 E.02534
G1 X203.181 Y213.141 E.02552
G1 X202.752 Y213.705 E.02501
G1 X198 Y218.456 E.23752
G1 X197.059 Y219.088 E.04007
G1 X196.025 Y219.389 E.03809
G1 X154.462 Y219.422 E1.46909
G1 X153.906 Y219.379 E.01968
G1 X153.213 Y219.201 E.02531
G1 X152.175 Y218.61 E.04221
G1 X127.592 Y198.62 E1.11995
G1 X126.941 Y197.922 E.03373
G1 X126.443 Y196.899 E.04021
G1 X126.282 Y195.801 E.03922
G1 X126.282 Y134.199 E2.17739
G1 X126.356 Y133.445 E.02678
G1 X126.592 Y132.698 E.02768
G1 X126.928 Y132.098 E.02431
G1 X127.542 Y131.429 E.03208
G1 X127.857 Y131.754 F12000
G1 F3000
G1 X152.464 Y111.745 E1.12101
G1 X153.424 Y111.209 E.03887
G1 X154.462 Y111.035 E.03719
G1 X195.654 Y111.037 E1.45597
G1 X196.287 Y111.124 E.0226
G1 X196.863 Y111.325 E.02156
G1 X197.776 Y111.961 E.03934
G1 X202.462 Y116.656 E.23443
G1 X202.971 Y117.433 E.03285
G1 X203.162 Y117.969 E.02011
G1 X203.255 Y118.572 E.02156
G1 X203.261 Y211.243 E3.27554
G1 X203.066 Y212.339 E.03935
G1 X202.789 Y212.905 E.02228
G1 X202.414 Y213.397 E.02187
G1 X197.693 Y218.118 E.236
G1 X196.863 Y218.675 E.03531
G1 X195.96 Y218.937 E.03326
G1 X154.462 Y218.965 E1.46678
G1 X153.366 Y218.77 E.03933
G1 X152.464 Y218.255 E.03673
G1 X127.88 Y198.265 E1.11995
G1 X127.311 Y197.654 E.0295
G1 X126.879 Y196.763 E.03501
G1 X126.739 Y195.801 E.03437
G1 X126.739 Y134.199 E2.17739
G1 X126.804 Y133.539 E.02344
G1 X127.008 Y132.887 E.02414
G1 X127.307 Y132.353 E.02163
G1 X127.83 Y131.784 E.02733
; printing object Front Idlers Mount Left TOP.stl id:0 copy 0
EXCLUDE_OBJECT_START NAME=Front_Idlers_Mount_Left_TOP.stl_id_0_copy_0
G1 E-.5
G1 X148.775 Y196.195 F12000
G1 E.5 F1800
;TYPE:Outer wall
G1 F3000
G1 X148.693 Y196.17 E.00303
G2 X148.502 Y196.158 I-.157 J.998 E.00676
G1 X129.917 Y196.158 E.65693
G3 X129.546 Y195.787 I-.057 J-.314 E.02176
G1 X129.546 Y176.174 E.69326
G3 X129.656 Y175.907 I.366 J-.004 E.01048
G1 X134.203 Y171.36 E.22729
G3 X134.47 Y171.25 I.267 J.268 E.01046
G1 X147.662 Y171.252 E.46629
G3 X147.888 Y171.36 I-.028 J.349 E.00908
G1 X150.383 Y173.855 E.12467
G2 X151.114 Y174.158 I.764 J-.807 E.02864
G1 X192.084 Y174.158 E1.44811
G2 X192.817 Y173.855 I-.031 J-1.111 E.0287
G1 X195.312 Y171.36 E.12467
G3 X195.578 Y171.25 I.262 J.256 E.01048
G1 X198.214 Y171.25 E.09316
G3 X198.48 Y171.36 I.002 J.372 E.01047
G1 X200.344 Y173.224 E.09316
G3 X200.454 Y173.491 I-.261 J.264 E.01047
G1 X200.454 Y176.126 E.09316
G3 X200.344 Y176.393 I-.366 J.004 E.01048
G1 X197.85 Y178.887 E.12467
G2 X197.546 Y179.619 I.807 J.764 E.02864
G1 X197.546 Y194.59 E.52917
G2 X197.85 Y195.322 I1.111 J-.032 E.02864
G1 X200.344 Y197.816 E.12467
G3 X200.454 Y198.082 I-.261 J.264 E.01047
G1 X200.454 Y211.234 E.46488
G3 X200.344 Y211.501 I-.372 J.002 E.01047
G1 X195.797 Y216.048 E.22729
G3 X195.53 Y216.158 I-.262 J-.256 E.01048
G1 X154.47 Y216.158 E1.45132
G3 X154.203 Y216.048 I-.004 J-.366 E.01048
G1 X149.656 Y211.501 E.22729
G3 X149.546 Y211.234 I.268 J-.267 E.01046
G1 X149.546 Y197.202 E.496
G2 X148.901 Y196.226 I-1.01 J-.034 E.04408
G1 X148.814 Y196.204 E.00318
G1 X149.595 Y196.148 F12000
;TYPE:Inner wall
G1 F3000
G1 X149.572 Y196.132 E.00099
G2 X148.52 Y195.701 I-1.04 J1.04 E.04125
G1 X130.003 Y195.701 E.65452
G1 X130.003 Y176.207 E.68904
G1 X134.503 Y171.707 E.22494
G1 X147.589 Y171.707 E.46253
G1 X150.067 Y174.185 E.12388
G2 X151.101 Y174.615 I1.092 J-1.167 E.04046
G1 X192.095 Y174.615 E1.44894
G2 X193.133 Y174.185 I-.053 J-1.596 E.0406
G1 X195.611 Y171.707 E.12388
G1 X198.18 Y171.707 E.09081
G1 X199.997 Y173.524 E.09081
G1 X199.997 Y176.093 E.09081
G1 X197.519 Y178.571 E.12388
G2 X197.089 Y179.606 I1.167 J1.092 E.04046
G1 X197.089 Y194.603 E.53009
G2 X197.519 Y195.637 I1.597 J-.057 E.04046
G1 X199.997 Y198.115 E.12388
G1 X199.997 Y211.201 E.46253
G1 X195.497 Y215.701 E.22494
G1 X154.503 Y215.701 E1.44897
G1 X150.003 Y211.201 E.22494
G1 X150.003 Y197.184 E.49546
G2 X149.767 Y196.373 I-1.471 J-.012 E.03028
G1 X149.619 Y196.18 E.00859
G1 E-.5
G1 X166.083 Y182.993 F12000
G1 X166.462 Y182.72
G1 X166.853 Y182.487
G1 X167.284 Y182.276
G1 X167.722 Y182.109
G1 X194.97 Y173.781
G1 X195.151 Y173.543
G1 X195.352 Y173.32
G1 X195.574 Y173.111
G1 X195.807 Y172.926
G1 X196.067 Y172.761
G1 X196.369 Y172.702
G1 X196.675 Y172.671
G1 X196.969 Y172.665
G1 X197.269 Y172.683
G1 X197.545 Y172.724
G1 X197.532 Y172.807
G1 E.5 F1800
;TYPE:Outer wall
G1 F3000
G1 X197.544 Y172.81 E.00044
G3 X196.68 Y172.719 I-.647 J1.997 E.43521
G1 X196.968 Y172.709 E.01018
G3 X197.259 Y172.739 I-.071 J2.098 E.01037
G1 X197.494 Y172.797 E.00853
G1 X197.712 Y172.385 F12000
;TYPE:Inner wall
G1 F3000
G1 X198.022 Y172.51 E.01181
G3 X196.632 Y172.263 I-1.125 J2.296 E.51728
G1 X196.984 Y172.251 E.01242
G3 X197.675 Y172.371 I-.086 J2.555 E.02488
G1 E-.5
G1 X196.067 Y172.761 F12000
G1 X173.644 Y183.81
G1 X173.331 Y183.462
G1 X172.99 Y183.142
G1 X172.623 Y182.853
G1 X172.232 Y182.596
G1 X171.82 Y182.374
G1 X171.391 Y182.188
G1 X170.947 Y182.039
G1 X170.492 Y181.93
G1 X170.029 Y181.859
G1 X169.551 Y181.83
G1 X169.095 Y181.839
G1 X168.63 Y181.89
G1 X168.171 Y181.98
G1 X167.722 Y182.109
G1 X167.284 Y182.276
G1 X166.853 Y182.487
G1 X166.462 Y182.72
G1 X166.083 Y182.993
G1 X149.945 Y195.857
G1 E.5 F1800
G1 F3000
G1 X149.894 Y195.81 E.00245
G2 X148.538 Y195.244 I-1.367 J1.367 E.05326
G1 X130.46 Y195.244 E.639
G1 X130.46 Y176.396 E.66619
G1 X134.692 Y172.164 E.21156
G1 X147.399 Y172.164 E.44915
G1 X149.751 Y174.516 E.11756
G2 X151.089 Y175.072 I1.419 J-1.526 E.05228
G1 X192.105 Y175.072 E1.44978
G2 X193.449 Y174.516 I-.075 J-2.081 E.0525
G1 X193.751 Y174.214 E.01511
G1 X193.928 Y174.302 E.00697
G2 X197.404 Y177.781 I2.965 J.514 E.2035
G1 X197.488 Y177.956 E.00686
G2 X196.718 Y179.045 I1.607 J1.952 E.04771
G2 X196.632 Y179.593 I2.048 J.603 E.01965
G1 X196.632 Y194.616 E.531
G2 X197.188 Y195.953 I2.083 J-.082 E.05228
G1 X199.54 Y198.305 E.11756
G1 X199.54 Y211.012 E.44915
G1 X195.308 Y215.244 E.21156
G1 X154.692 Y215.244 E1.43559
G1 X150.46 Y211.012 E.21156
G1 X150.46 Y197.166 E.4894
G2 X150.152 Y196.13 I-1.933 J.011 E.03872
G1 X149.969 Y195.889 E.01069
G1 X150.182 Y195.44 F12000
G1 F3000
G1 X150.043 Y195.321 E.00648
G2 X148.556 Y194.787 I-1.499 J1.839 E.05693
G1 X130.917 Y194.787 E.62348
G1 X130.917 Y176.586 E.64334
G1 X134.882 Y172.621 E.19817
G1 X147.21 Y172.621 E.43576
G1 X149.436 Y174.847 E.11125
G2 X151.076 Y175.53 I1.677 J-1.717 E.06432
G1 X192.116 Y175.53 E1.45061
G2 X193.438 Y175.115 I-.119 J-2.697 E.04953
G2 X196.584 Y178.274 I3.473 J-.313 E.17095
G2 X196.175 Y179.58 I2.284 J1.434 E.04891
G1 X196.175 Y194.629 E.53191
G2 X196.857 Y196.268 I2.399 J-.037 E.06432
G1 X199.083 Y198.494 E.11125
G1 X199.083 Y210.823 E.43576
G1 X195.118 Y214.787 E.19817
G1 X154.882 Y214.787 E1.42221
G1 X150.917 Y210.823 E.19817
G1 X150.917 Y197.148 E.48335
G2 X150.222 Y195.482 I-2.373 J.012 E.06544
G1 X150.21 Y195.469 E.00062
G1 E-.5
G1 X140.768 Y178.016 F12000
G1 X140.57 Y177.711
G1 X140.334 Y177.435
G1 X140.065 Y177.19
G1 X139.767 Y176.982
G1 X139.444 Y176.814
G1 X139.103 Y176.688
G1 X138.748 Y176.607
G1 X138.38 Y176.573
G1 X138.023 Y176.584
G1 X137.665 Y176.642
G1 X137.344 Y176.737
G1 X137.44 Y177.059
G1 E.5 F1800
;TYPE:Outer wall
G1 F3000
G1 X137.739 Y176.97 E.01104
G3 X138.056 Y176.919 I.554 J2.437 E.01133
G1 X138.37 Y176.909 E.01112
G3 X137.402 Y177.072 I-.077 J2.498 E.52007
G1 X137.25 Y176.642 F12000
;TYPE:Inner wall
G1 F3000
G1 X137.274 Y176.631 E.00092
G3 X138.012 Y176.463 I1.019 J2.775 E.02682
G1 X138.384 Y176.451 E.01317
G3 X136.927 Y176.784 I-.092 J2.955 E.60319
G1 X137.214 Y176.658 E.01107
G1 X137.068 Y176.223 F12000
G1 F3000
G1 X137.116 Y176.201 E.00186
G3 X137.968 Y176.007 I1.177 J3.205 E.03098
G1 X138.398 Y175.994 E.01522
G3 X136.715 Y176.378 I-.106 J3.413 E.69658
M73 P1 R63
G1 X137.031 Y176.239 E.01221
G1 X136.885 Y175.804 F12000
G1 F3000
G1 X136.957 Y175.771 E.0028
G3 X137.924 Y175.551 I1.335 J3.635 E.03513
G1 X138.412 Y175.536 E.01728
G3 X136.503 Y175.972 I-.12 J3.87 E.7899
G1 X136.849 Y175.82 E.01334
G1 E-.5
G1 X164.135 Y186.104 F12000
G1 X164.055 Y186.565
G1 X164.015 Y187.031
G1 X164.015 Y187.498
G1 X164.055 Y187.964
G1 X164.135 Y188.425
G1 X164.255 Y188.878
G1 X164.413 Y189.318
G1 X164.608 Y189.743
G1 X164.839 Y190.15
G1 X165.104 Y190.535
G1 X165.401 Y190.896
G1 X165.728 Y191.231
G1 X166.083 Y191.536
G1 X166.462 Y191.809
G1 X166.864 Y192.049
G1 X167.285 Y192.253
G1 X167.722 Y192.42
G1 X168.179 Y192.519
G1 X168.641 Y192.569
G1 X169.102 Y192.596
G1 X169.561 Y192.599
G1 X181.392 Y192.426
G1 X181.485 Y192.103
G1 E.5 F1800
;TYPE:Outer wall
G1 F3000
G1 X181.478 Y192.1 E.00024
G3 X182.767 Y182.175 I1.612 J-4.837 E.49678
G1 X183.193 Y182.166 E.01508
G3 X181.9 Y192.221 I-.104 J5.098 E.60495
G1 X181.523 Y192.114 E.01385
G1 X181.35 Y192.54 F12000
;TYPE:Inner wall
G1 F3000
G1 X181.333 Y192.534 E.00064
G3 X182.737 Y181.718 I1.756 J-5.271 E.54134
G1 X183.203 Y181.708 E.01646
G3 X181.793 Y192.666 I-.113 J5.555 E.65922
G1 X181.389 Y192.551 E.01485
G1 X181.154 Y192.956 F12000
G1 F3000
G1 X180.705 Y192.784 E.017
G3 X182.708 Y181.262 I2.385 J-5.52 E.56759
G1 X183.212 Y181.251 E.01783
G3 X181.191 Y192.969 I-.123 J6.012 E.73167
G1 E-.5
G1 X172.43 Y191.4 F12000
G1 E.5 F1800
;TYPE:Outer wall
G1 F3000
G1 X172.423 Y191.399 E.00028
G3 X169.117 Y182.175 I-2.982 J-4.135 E.66734
G1 X169.544 Y182.166 E.01508
G3 X172.767 Y191.127 I-.104 J5.098 E.43441
G1 X172.461 Y191.375 E.01391
G1 X172.678 Y191.785 F12000
;TYPE:Inner wall
G1 F3000
G1 X172.291 Y192.032 E.01625
G3 X169.088 Y181.718 I-2.851 J-4.769 E.71031
G1 X169.553 Y181.708 E.01646
G3 X172.707 Y191.757 I-.113 J5.555 E.48952
G1 E-.5
G1 X176.337 Y194.157 F12000
G1 X176.528 Y194.642
G1 X169.63 Y202.822
G1 X169.641 Y202.842
G1 E.5 F1800
;TYPE:Outer wall
G1 F3000
G2 X170.078 Y202.6 I-1.141 J-2.577 E.01768
G3 X170.861 Y201.853 I11.466 J11.219 E.03825
G3 X172.219 Y200.594 I12.927 J12.591 E.06546
G1 X178.232 Y194.972 E.29096
G1 X178.736 Y194.548 E.0233
G2 X178.955 Y194.195 I-.458 J-.527 E.01491
G1 X179.273 Y194.188 E.01126
G1 X179.762 Y194.177 E.01728
G3 X180.608 Y196.301 I.026 J1.22 E.10467
G1 X172.672 Y203.665 E.38267
G3 X172.027 Y204.198 I-1.568 J-1.24 E.0298
G3 X170.779 Y203.976 I-.416 J-1.281 E.04665
G3 X169.665 Y202.874 I3.368 J-4.517 E.05556
G1 X168.93 Y202.711 F12000
;TYPE:Inner wall
G1 F3000
G1 X169.81 Y202.228 E.03549
G3 X170.55 Y201.518 I6.735 J6.268 E.03628
G3 X171.912 Y200.255 I12.969 J12.633 E.06568
G1 X177.928 Y194.63 E.29112
G1 X178.427 Y194.211 E.02303
G1 X178.466 Y194.172 E.00194
G1 X178.653 Y193.745 E.01649
G1 X179.263 Y193.731 E.02157
G1 X179.769 Y193.719 E.01791
G3 X180.935 Y196.622 I.018 J1.678 E.14231
G1 X172.992 Y203.991 E.38298
G1 X172.711 Y204.282 E.01427
G3 X171.103 Y204.643 I-1.091 J-1.096 E.06144
G3 X169.744 Y203.668 I1.317 J-3.273 E.0597
G1 X168.955 Y202.741 E.04301
G1 E-.5
G1 X176.528 Y194.642 F12000
G1 X176.337 Y194.157
G1 X175.734 Y193.853
G1 X173.439 Y193.848
G1 X173.256 Y193.852
G1 X173.063 Y193.906
G1 X172.816 Y194.036
G1 X172.679 Y194.133
G1 X172.58 Y194.212
G1 X168.663 Y197.758
G1 E.5 F1800
;TYPE:Outer wall
G1 F3000
G2 X169.006 Y197.676 I.077 J-.439 E.01285
G1 X172.166 Y194.766 E.1518
G1 X172.408 Y194.52 E.0122
G3 X173.271 Y194.187 I.82 J.84 E.03362
G1 X176.314 Y194.19 E.10754
G1 X176.488 Y194.633 E.01681
G1 X168.616 Y201.991 E.38083
G1 X160.759 Y194.633 E.38048
G1 X160.934 Y194.19 E.01684
G1 X164.221 Y194.194 E.11618
G3 X164.924 Y194.399 I-.026 J1.396 E.02617
G3 X165.608 Y195.15 I-9.26 J9.135 E.03593
G1 X167.746 Y197.121 E.10278
G2 X168.485 Y197.685 I2.753 J-2.84 E.03293
G2 X168.624 Y197.749 I.254 J-.365 E.00543
G1 E-.5
G1 X165.853 Y194.729 F12000
G1 E.5 F1800
G1 F3000
G1 X165.851 Y194.354 E.01323
G1 X166.188 Y194.253 E.01244
G1 X166.695 Y194.222 E.01796
G3 X169.477 Y194.209 I1.979 J128.962 E.09831
G1 X169.543 Y194.207 E.00235
G1 X169.916 Y194.192 E.01321
G3 X170.748 Y194.37 I.101 J1.564 E.03044
G1 X170.859 Y194.701 E.01235
G3 X170.596 Y195.097 I-1.64 J-.805 E.01682
G2 X168.9 Y196.671 I40.091 J44.908 E.08182
G3 X168.39 Y196.921 I-.646 J-.671 E.02039
G3 X167.589 Y196.437 I.112 J-1.089 E.03418
G1 X166.466 Y195.381 E.05448
G3 X165.873 Y194.763 I1.077 J-1.626 E.0305
G1 E-.5
G1 X163.864 Y193.857 F12000
G1 X160.706 Y193.854
G1 X160.363 Y194.721
G1 X167.898 Y201.777
G1 X168.616 Y202.027
G1 X171.068 Y200.324
G1 E.5 F1800
;TYPE:Inner wall
G1 F3000
G1 X168.616 Y202.616 E.11865
G1 X160.22 Y194.754 E.40659
G1 X160.624 Y193.732 E.03883
G1 X164.242 Y193.737 E.12789
G3 X165.244 Y194.059 I-.053 J1.882 E.03769
G1 X166.107 Y193.8 E.03187
G1 X166.678 Y193.765 E.02022
G3 X169.467 Y193.752 I1.99 J129.288 E.09858
G3 X170.288 Y193.751 I.43 J10.387 E.02901
G3 X171.12 Y194.039 I-.269 J2.118 E.03135
G1 X171.393 Y194.857 E.03045
G2 X172.094 Y194.188 I-6.591 J-7.612 E.03425
G3 X173.25 Y193.731 I1.131 J1.169 E.0451
G1 X176.625 Y193.734 E.1193
G1 X177.027 Y194.755 E.03877
G1 X171.098 Y200.297 E.28686
G1 E-.5
G1 X176.528 Y194.642 F12000
G1 X176.337 Y194.157
G1 X172.99 Y192.124
G1 E.5 F1800
G1 F3000
G1 X172.958 Y192.143 E.0013
G3 X170.679 Y193.149 I-3.517 J-4.879 E.08871
G1 X170.674 Y193.359 E.00743
G1 X170.871 Y193.418 E.00729
G1 X171.491 Y193.709 E.02419
G1 X171.601 Y194.037 E.01223
G3 X171.959 Y193.698 I2.585 J2.37 E.01745
G3 X173.433 Y193.269 I1.331 J1.828 E.05536
G1 X176.937 Y193.278 E.12385
G1 X177.412 Y194.487 E.04591
G3 X178.086 Y193.901 I5.817 J6.008 E.03156
G1 X178.351 Y193.294 E.0234
G1 X179.777 Y193.262 E.05043
G3 X181.261 Y196.942 I.01 J2.135 E.17997
G1 X173.312 Y204.318 E.3833
G1 X173.025 Y204.615 E.01462
G3 X171.315 Y205.164 I-1.399 J-1.424 E.06582
G3 X169.614 Y204.195 I.703 J-3.211 E.07026
G3 X168.708 Y203.156 I8.661 J-8.468 E.04874
G1 X168.616 Y203.242 E.00447
G1 X159.68 Y194.875 E.4327
M73 P1 R62
G1 X160.313 Y193.275 E.06082
G1 X164.263 Y193.28 E.1396
G3 X165.309 Y193.563 I-.083 J2.385 E.03864
G1 X166.026 Y193.347 E.02647
G3 X167.835 Y193.3 I1.466 J21.361 E.06397
G1 X167.868 Y193.064 E.00841
G3 X169.058 Y181.262 I1.582 J-5.802 E.5973
G3 X173.364 Y191.822 I.383 J6.002 E.53034
G1 X173.021 Y192.098 E.01558
G1 E-.5
G1 X181.678 Y193.577 F12000
