; HEADER_BLOCK_START
; generated by OrcaSlicer 1.6.4-beta2 on 2023-08-06 at 20:10:41
; total layer number: 177
; HEADER_BLOCK_END

; THUMBNAIL_BLOCK_START
; THUMBNAIL_BLOCK_END

; external perimeters extrusion width = 0.40mm
; perimeters extrusion width = 0.46mm
; infill extrusion width = 0.64mm
; solid infill extrusion width = 0.56mm
; top infill extrusion width = 0.40mm
; support material extrusion width = 0.46mm
; first layer extrusion width = 0.50mm

; external perimeters extrusion width = 0.40mm
; perimeters extrusion width = 0.46mm
; infill extrusion width = 0.64mm
; solid infill extrusion width = 0.56mm
; top infill extrusion width = 0.40mm
; support material extrusion width = 0.46mm
; first layer extrusion width = 0.50mm

; external perimeters extrusion width = 0.40mm
; perimeters extrusion width = 0.46mm
; infill extrusion width = 0.64mm
; solid infill extrusion width = 0.56mm
; top infill extrusion width = 0.40mm
; support material extrusion width = 0.46mm
; first layer extrusion width = 0.50mm

; external perimeters extrusion width = 0.40mm
; perimeters extrusion width = 0.46mm
; infill extrusion width = 0.64mm
; solid infill extrusion width = 0.56mm
; top infill extrusion width = 0.40mm
; support material extrusion width = 0.46mm
; first layer extrusion width = 0.50mm

; external perimeters extrusion width = 0.40mm
; perimeters extrusion width = 0.46mm
; infill extrusion width = 0.64mm
; solid infill extrusion width = 0.56mm
; top infill extrusion width = 0.40mm
; support material extrusion width = 0.46mm
; first layer extrusion width = 0.50mm

; EXECUTABLE_BLOCK_START
EXCLUDE_OBJECT_DEFINE NAME=gantry_bottom_(1)_(1).stl_id_0_copy_0 CENTER=180.563,165 POLYGON=[[166.063,150.778],[182.656,134.777],[183.252,134.22],[183.906,133.735],[184.612,133.326],[185.359,132.999],[186.138,132.76],[186.939,132.609],[187.753,132.551],[188.567,132.585],[189.373,132.71],[190.159,132.926],[190.916,133.229],[191.633,133.616],[192.303,134.082],[192.915,134.62],[193.462,135.224],[193.938,135.886],[194.336,136.598],[194.651,137.35],[194.879,138.133],[195.017,138.936],[195.063,139.75],[195.063,190.25],[195.017,191.064],[194.879,191.868],[194.651,192.652],[194.335,193.404],[193.937,194.116],[193.461,194.778],[192.913,195.382],[192.3,195.921],[191.63,196.386],[190.911,196.773],[190.154,197.076],[189.367,197.291],[188.561,197.416],[187.746,197.449],[186.933,197.39],[186.131,197.239],[185.352,196.998],[184.604,196.67],[183.899,196.261],[183.245,195.774],[182.649,195.216],[166.063,179.178],[166.063,150.778]]
EXCLUDE_OBJECT_DEFINE NAME=(Unsaved).stl_id_1_copy_0 CENTER=152.588,162.709 POLYGON=[[149.114,162.709],[149.123,162.459],[149.123,162.456],[149.15,162.209],[149.151,162.204],[149.195,161.963],[149.197,161.954],[149.258,161.72],[149.261,161.708],[149.338,161.482],[149.343,161.468],[149.435,161.251],[149.442,161.235],[149.549,161.027],[149.558,161.009],[149.678,160.812],[149.691,160.792],[149.822,160.607],[149.838,160.586],[149.981,160.413],[150.001,160.391],[150.154,160.231],[150.177,160.208],[150.339,160.061],[150.366,160.039],[150.536,159.906],[150.567,159.884],[150.744,159.765],[150.778,159.744],[150.961,159.64],[151,159.619],[151.187,159.53],[151.23,159.512],[151.42,159.437],[151.467,159.421],[151.659,159.362],[151.71,159.348],[151.903,159.303],[151.957,159.293],[152.15,159.263],[152.208,159.256],[152.4,159.24],[152.462,159.237],[152.651,159.235],[152.715,159.237],[152.902,159.249],[152.968,159.256],[153.151,159.281],[153.219,159.293],[153.396,159.33],[153.467,159.348],[153.638,159.397],[153.71,159.421],[153.874,159.482],[153.947,159.512],[154.104,159.583],[154.177,159.619],[154.326,159.7],[154.398,159.744],[154.538,159.834],[154.61,159.884],[154.741,159.982],[154.811,160.039],[154.932,160.144],[155,160.208],[155.111,160.32],[155.176,160.391],[155.277,160.508],[155.338,160.586],[155.429,160.708],[155.486,160.792],[155.566,160.918],[155.618,161.009],[155.687,161.138],[155.734,161.235],[155.792,161.365],[155.834,161.468],[155.881,161.6],[155.916,161.708],[155.952,161.84],[155.98,161.954],[156.006,162.085],[156.026,162.204],[156.043,162.334],[156.054,162.456],[156.061,162.584],[156.063,162.709],[156.061,162.835],[156.054,162.963],[156.043,163.085],[156.026,163.215],[156.006,163.333],[155.98,163.465],[155.952,163.578],[155.916,163.71],[155.881,163.819],[155.834,163.951],[155.792,164.054],[155.734,164.184],[155.687,164.281],[155.618,164.41],[155.566,164.501],[155.486,164.627],[155.429,164.711],[155.338,164.833],[155.277,164.911],[155.176,165.028],[155.111,165.099],[155,165.211],[154.932,165.275],[154.811,165.38],[154.741,165.437],[154.61,165.535],[154.538,165.585],[154.398,165.675],[154.326,165.718],[154.177,165.799],[154.104,165.836],[153.947,165.907],[153.874,165.937],[153.71,165.998],[153.638,166.022],[153.467,166.071],[153.396,166.089],[153.219,166.126],[153.151,166.138],[152.968,166.163],[152.902,166.17],[152.715,166.182],[152.651,166.183],[152.462,166.182],[152.4,166.179],[152.208,166.163],[152.15,166.156],[151.957,166.126],[151.903,166.116],[151.71,166.071],[151.659,166.057],[151.467,165.998],[151.42,165.981],[151.23,165.907],[151.187,165.889],[151,165.799],[150.961,165.779],[150.778,165.675],[150.744,165.654],[150.567,165.535],[150.536,165.513],[150.366,165.38],[150.339,165.358],[150.177,165.211],[150.154,165.188],[150.001,165.028],[149.981,165.006],[149.838,164.833],[149.822,164.812],[149.691,164.627],[149.678,164.607],[149.558,164.41],[149.549,164.392],[149.442,164.184],[149.435,164.168],[149.343,163.951],[149.338,163.937],[149.261,163.71],[149.258,163.699],[149.197,163.465],[149.195,163.456],[149.151,163.215],[149.15,163.21],[149.123,162.963],[149.123,162.96],[149.114,162.709]]
EXCLUDE_OBJECT_DEFINE NAME=(Unsaved).stl_id_2_copy_0 CENTER=153.543,145.788 POLYGON=[[150.068,145.788],[150.077,145.538],[150.078,145.535],[150.104,145.288],[150.105,145.282],[150.149,145.041],[150.151,145.033],[150.212,144.798],[150.216,144.787],[150.292,144.561],[150.298,144.547],[150.389,144.329],[150.397,144.314],[150.503,144.106],[150.513,144.088],[150.632,143.891],[150.645,143.871],[150.777,143.686],[150.793,143.665],[150.936,143.491],[150.955,143.47],[151.108,143.309],[151.131,143.287],[151.293,143.14],[151.32,143.118],[151.49,142.985],[151.521,142.963],[151.698,142.844],[151.733,142.822],[151.915,142.719],[151.954,142.698],[152.141,142.609],[152.184,142.591],[152.374,142.516],[152.421,142.5],[152.613,142.44],[152.664,142.427],[152.857,142.382],[152.912,142.372],[153.105,142.341],[153.163,142.335],[153.355,142.319],[153.416,142.316],[153.605,142.314],[153.67,142.316],[153.856,142.328],[153.923,142.335],[154.105,142.36],[154.174,142.372],[154.351,142.409],[154.422,142.427],[154.593,142.476],[154.665,142.5],[154.829,142.561],[154.902,142.591],[155.058,142.662],[155.131,142.698],[155.28,142.779],[155.353,142.822],[155.493,142.912],[155.564,142.963],[155.695,143.061],[155.765,143.118],[155.886,143.223],[155.954,143.287],[156.065,143.399],[156.13,143.47],[156.231,143.587],[156.293,143.665],[156.383,143.787],[156.44,143.871],[156.52,143.997],[156.573,144.088],[156.641,144.216],[156.689,144.314],[156.747,144.444],[156.788,144.547],[156.835,144.679],[156.87,144.787],[156.907,144.919],[156.934,145.033],[156.961,145.164],[156.98,145.282],[156.997,145.413],[157.008,145.535],[157.015,145.663],[157.017,145.788],[157.015,145.914],[157.008,146.042],[156.997,146.164],[156.98,146.294],[156.961,146.412],[156.934,146.544],[156.907,146.657],[156.87,146.789],[156.835,146.898],[156.788,147.029],[156.747,147.132],[156.689,147.263],[156.641,147.36],[156.573,147.489],[156.52,147.58],[156.44,147.705],[156.383,147.79],[156.293,147.912],[156.231,147.989],[156.13,148.107],[156.065,148.178],[155.954,148.29],[155.886,148.353],[155.765,148.459],[155.695,148.516],[155.564,148.614],[155.493,148.664],[155.353,148.754],[155.28,148.797],[155.131,148.878],[155.058,148.915],[154.902,148.986],[154.829,149.016],[154.665,149.077],[154.593,149.1],[154.422,149.15],[154.351,149.168],[154.174,149.205],[154.105,149.217],[153.923,149.242],[153.856,149.249],[153.67,149.26],[153.605,149.262],[153.416,149.26],[153.355,149.258],[153.163,149.242],[153.105,149.235],[152.912,149.205],[152.857,149.194],[152.664,149.15],[152.613,149.136],[152.421,149.077],[152.374,149.06],[152.184,148.986],[152.141,148.967],[151.954,148.878],[151.915,148.858],[151.733,148.754],[151.698,148.733],[151.521,148.614],[151.49,148.592],[151.32,148.459],[151.293,148.436],[151.131,148.29],[151.108,148.267],[150.955,148.107],[150.936,148.085],[150.793,147.912],[150.777,147.891],[150.645,147.705],[150.632,147.686],[150.513,147.489],[150.503,147.471],[150.397,147.263],[150.389,147.247],[150.298,147.029],[150.292,147.016],[150.216,146.789],[150.212,146.778],[150.151,146.544],[150.149,146.535],[150.105,146.294],[150.104,146.288],[150.078,146.042],[150.077,146.039],[150.068,145.788]]
EXCLUDE_OBJECT_DEFINE NAME=(Unsaved).stl_id_3_copy_0 CENTER=138.412,153.42 POLYGON=[[134.937,153.42],[134.946,153.169],[134.946,153.167],[134.973,152.92],[134.974,152.914],[135.018,152.673],[135.02,152.665],[135.081,152.43],[135.084,152.419],[135.161,152.193],[135.166,152.179],[135.258,151.961],[135.266,151.945],[135.372,151.738],[135.382,151.72],[135.501,151.523],[135.514,151.503],[135.646,151.317],[135.662,151.297],[135.805,151.123],[135.824,151.102],[135.977,150.941],[136,150.919],[136.162,150.772],[136.189,150.749],[136.359,150.617],[136.39,150.594],[136.567,150.476],[136.602,150.454],[136.784,150.35],[136.823,150.33],[137.01,150.241],[137.053,150.222],[137.243,150.148],[137.29,150.132],[137.482,150.072],[137.533,150.059],[137.726,150.014],[137.781,150.003],[137.974,149.973],[138.032,149.966],[138.224,149.951],[138.285,149.948],[138.474,149.946],[138.539,149.948],[138.725,149.96],[138.792,149.966],[138.974,149.991],[139.043,150.003],[139.22,150.041],[139.29,150.059],[139.461,150.108],[139.533,150.132],[139.698,150.192],[139.771,150.222],[139.927,150.294],[140,150.33],[140.149,150.411],[140.222,150.454],[140.361,150.544],[140.433,150.594],[140.564,150.693],[140.634,150.749],[140.755,150.855],[140.823,150.919],[140.934,151.031],[140.999,151.102],[141.1,151.219],[141.162,151.297],[141.252,151.419],[141.309,151.503],[141.389,151.629],[141.442,151.72],[141.51,151.848],[141.558,151.945],[141.616,152.076],[141.657,152.179],[141.704,152.311],[141.739,152.419],[141.776,152.551],[141.803,152.665],[141.83,152.796],[141.849,152.914],[141.866,153.044],[141.877,153.167],[141.884,153.295],[141.886,153.42],[141.884,153.546],[141.877,153.674],[141.866,153.796],[141.849,153.926],[141.83,154.044],[141.803,154.176],[141.776,154.289],[141.739,154.421],[141.704,154.53],[141.657,154.661],[141.616,154.764],[141.558,154.895],[141.51,154.992],[141.442,155.121],[141.389,155.211],[141.309,155.337],[141.252,155.422],[141.162,155.544],[141.1,155.621],[140.999,155.739],[140.934,155.81],[140.823,155.921],[140.755,155.985],[140.634,156.091],[140.564,156.148],[140.433,156.246],[140.361,156.296],[140.222,156.386],[140.149,156.429],[140,156.51],[139.927,156.547],[139.771,156.618],[139.698,156.648],[139.533,156.709],[139.461,156.732],[139.29,156.782],[139.22,156.799],[139.043,156.837],[138.974,156.849],[138.792,156.874],[138.725,156.881],[138.539,156.892],[138.474,156.894],[138.285,156.892],[138.224,156.89],[138.032,156.874],[137.974,156.867],[137.781,156.837],[137.726,156.826],[137.533,156.782],[137.482,156.768],[137.29,156.709],[137.243,156.692],[137.053,156.618],[137.01,156.599],[136.823,156.51],[136.784,156.49],[136.602,156.386],[136.567,156.364],[136.39,156.246],[136.359,156.224],[136.189,156.091],[136.162,156.068],[136,155.921],[135.977,155.899],[135.824,155.739],[135.805,155.717],[135.662,155.544],[135.646,155.523],[135.514,155.337],[135.501,155.318],[135.382,155.121],[135.372,155.103],[135.266,154.895],[135.258,154.879],[135.166,154.661],[135.161,154.648],[135.084,154.421],[135.081,154.41],[135.02,154.176],[135.018,154.167],[134.974,153.926],[134.973,153.92],[134.946,153.674],[134.946,153.671],[134.937,153.42]]
EXCLUDE_OBJECT_DEFINE NAME=(Unsaved).stl_id_4_copy_0 CENTER=152.588,179.658 POLYGON=[[149.114,179.658],[149.123,179.407],[149.123,179.404],[149.15,179.158],[149.151,179.152],[149.195,178.911],[149.197,178.902],[149.258,178.668],[149.261,178.657],[149.338,178.43],[149.343,178.417],[149.435,178.199],[149.442,178.183],[149.549,177.975],[149.558,177.957],[149.678,177.76],[149.691,177.741],[149.822,177.555],[149.838,177.534],[149.981,177.361],[150.001,177.339],[150.154,177.179],[150.177,177.156],[150.339,177.01],[150.366,176.987],[150.536,176.854],[150.567,176.832],[150.744,176.713],[150.778,176.692],[150.961,176.588],[151,176.568],[151.187,176.479],[151.23,176.46],[151.42,176.386],[151.467,176.369],[151.659,176.31],[151.71,176.296],[151.903,176.252],[151.957,176.241],[152.15,176.211],[152.208,176.204],[152.4,176.188],[152.462,176.186],[152.651,176.184],[152.715,176.186],[152.902,176.197],[152.968,176.204],[153.151,176.229],[153.219,176.241],[153.396,176.278],[153.467,176.296],[153.638,176.346],[153.71,176.369],[153.874,176.43],[153.947,176.46],[154.104,176.531],[154.177,176.568],[154.326,176.649],[154.398,176.692],[154.538,176.782],[154.61,176.832],[154.741,176.93],[154.811,176.987],[154.932,177.093],[155,177.156],[155.111,177.268],[155.176,177.339],[155.277,177.457],[155.338,177.534],[155.429,177.656],[155.486,177.741],[155.566,177.866],[155.618,177.957],[155.687,178.086],[155.734,178.183],[155.792,178.314],[155.834,178.417],[155.881,178.548],[155.916,178.657],[155.952,178.789],[155.98,178.902],[156.006,179.034],[156.026,179.152],[156.043,179.282],[156.054,179.404],[156.061,179.532],[156.063,179.658],[156.061,179.783],[156.054,179.911],[156.043,180.033],[156.026,180.164],[156.006,180.282],[155.98,180.413],[155.952,180.527],[155.916,180.659],[155.881,180.767],[155.834,180.899],[155.792,181.002],[155.734,181.132],[155.687,181.23],[155.618,181.358],[155.566,181.449],[155.486,181.575],[155.429,181.659],[155.338,181.781],[155.277,181.859],[155.176,181.976],[155.111,182.047],[155,182.159],[154.932,182.223],[154.811,182.328],[154.741,182.385],[154.61,182.483],[154.538,182.534],[154.398,182.624],[154.326,182.667],[154.177,182.748],[154.104,182.784],[153.947,182.855],[153.874,182.885],[153.71,182.946],[153.638,182.97],[153.467,183.019],[153.396,183.037],[153.219,183.074],[153.151,183.086],[152.968,183.111],[152.902,183.118],[152.715,183.13],[152.651,183.132],[152.462,183.13],[152.4,183.127],[152.208,183.111],[152.15,183.104],[151.957,183.074],[151.903,183.064],[151.71,183.019],[151.659,183.006],[151.467,182.946],[151.42,182.93],[151.23,182.855],[151.187,182.837],[151,182.748],[150.961,182.727],[150.778,182.624],[150.744,182.602],[150.567,182.483],[150.536,182.461],[150.366,182.328],[150.339,182.306],[150.177,182.159],[150.154,182.137],[150.001,181.976],[149.981,181.954],[149.838,181.781],[149.822,181.76],[149.691,181.575],[149.678,181.555],[149.558,181.358],[149.549,181.34],[149.442,181.132],[149.435,181.117],[149.343,180.899],[149.338,180.885],[149.261,180.659],[149.258,180.648],[149.197,180.413],[149.195,180.405],[149.151,180.164],[149.15,180.158],[149.123,179.911],[149.123,179.908],[149.114,179.658]]
M73 P0 R35
M73 C27
;TYPE:Custom
START_PRINT T_BED=110 T_EXTRUDER=260
G90
G21
M83 ; use relative distances for extrusion
; Filament gcode

    PRESSURE_ADVANCE_SELECT FILAMENT=ABS
M106 S0
;LAYER_CHANGE
;Z:0.2
;HEIGHT:0.2
;BEFORE_LAYER_CHANGE
;0.2
G92 E0

SET_VELOCITY_LIMIT ACCEL=1000 ACCEL_TO_DECEL=500
G1 E-.5 F2400
G1 X134.725 Y148.204 F12000
G1 Z.2
G1 E.5 F1800
;TYPE:Skirt
;WIDTH:0.5
G1 F3000
G1 X135.468 Y147.75 E.03065
G1 X151.064 Y139.901 E.61446
G1 X151.838 Y139.631 E.02887
G1 X185.629 Y130.3 E1.23373
G1 X186.982 Y130.077 E.04827
G1 X188.11 Y130.041 E.03972
G1 X189.235 Y130.135 E.03972
G1 X190.166 Y130.317 E.03336
G1 X191.565 Y130.771 E.05179
G1 X192.438 Y131.184 E.03399
G1 X193.29 Y131.699 E.03502
G1 X194.411 Y132.577 E.05013
G1 X195.355 Y133.572 E.04827
G1 X195.888 Y134.279 E.03116
G1 X196.468 Y135.247 E.03972
G1 X197.031 Y136.549 E.04993
