; HEADER_BLOCK_START
; generated by OrcaSlicer 1.6.4-beta2 on 2023-08-06 at 21:59:40
; total layer number: 240
; HEADER_BLOCK_END

; THUMBNAIL_BLOCK_START
; THUMBNAIL_BLOCK_END

; external perimeters extrusion width = 0.40mm
; perimeters extrusion width = 0.46mm
; infill extrusion width = 0.64mm
; solid infill extrusion width = 0.56mm
; top infill extrusion width = 0.40mm
; support material extrusion width = 0.46mm
; first layer extrusion width = 0.50mm

; EXECUTABLE_BLOCK_START
EXCLUDE_OBJECT_DEFINE NAME=gantry_bottom_(1).stl_id_0_copy_0 CENTER=165,165 POLYGON=[[150.5,150.778],[167.093,134.777],[167.689,134.22],[168.343,133.735],[169.049,133.326],[169.796,132.999],[170.575,132.76],[171.377,132.609],[172.19,132.551],[173.004,132.585],[173.81,132.71],[174.596,132.926],[175.353,133.229],[176.07,133.616],[176.74,134.082],[177.352,134.62],[177.9,135.224],[178.375,135.886],[178.773,136.598],[179.088,137.35],[179.316,138.133],[179.454,138.936],[179.5,139.75],[179.5,190.25],[179.454,191.064],[179.316,191.868],[179.088,192.652],[178.772,193.404],[178.374,194.116],[177.898,194.778],[177.35,195.382],[176.737,195.921],[176.067,196.386],[175.349,196.773],[174.591,197.076],[173.804,197.291],[172.998,197.416],[172.183,197.449],[171.37,197.39],[170.568,197.239],[169.789,196.998],[169.041,196.67],[168.336,196.261],[167.682,195.774],[167.086,195.216],[150.5,179.178],[150.5,150.778]]
M73 P0 R31
;TYPE:Custom
START_PRINT T_BED=110 T_EXTRUDER=260
G90
G21
M83 ; use relative distances for extrusion
; Filament gcode

    PRESSURE_ADVANCE_SELECT FILAMENT=ABS
M106 S0
;LAYER_CHANGE
;Z:0.2
;HEIGHT:0.2
;BEFORE_LAYER_CHANGE
;0.2
G92 E0

SET_VELOCITY_LIMIT ACCEL=1000 ACCEL_TO_DECEL=500
G1 E-.5 F2400
G1 X146.761 Y146.086 F12000
G1 Z.2
G1 E.5 F1800
;TYPE:Skirt
;WIDTH:0.5
G1 F3000
G1 X166.941 Y131.651 E.8732
G1 X168.167 Y130.961 E.04952
G1 X169.453 Y130.469 E.04848
G1 X171.193 Y130.103 E.06258
G1 X172.548 Y130.041 E.04772
G1 X173.672 Y130.135 E.03972
G1 X174.603 Y130.317 E.03336
G1 X176.002 Y130.771 E.05179
G1 X176.876 Y131.184 E.03399
G1 X177.727 Y131.699 E.03502
G1 X178.848 Y132.577 E.05013
G1 X179.792 Y133.572 E.04827
G1 X180.325 Y134.279 E.03116
G1 X180.905 Y135.247 E.03972
G1 X181.468 Y136.549 E.04993
G1 X181.922 Y138.441 E.06847
G1 X182.014 Y139.75 E.04618
G1 X182.014 Y190.25 E1.77729
G1 X181.962 Y191.219 E.03416
G1 X181.782 Y192.346 E.04018
G1 X181.306 Y193.876 E.05639
G1 X180.904 Y194.755 E.03401
G1 X180.323 Y195.724 E.03974
G1 X179.634 Y196.618 E.03974
G1 X179.01 Y197.269 E.03173
G1 X177.722 Y198.304 E.05816
G1 X176.87 Y198.819 E.03504
G1 X175.996 Y199.231 E.03401
G1 X174.929 Y199.6 E.03974
G1 X173.973 Y199.815 E.03449
G1 X172.327 Y199.961 E.05816
G1 X170.555 Y199.801 E.06261
G1 X169.36 Y199.504 E.04332
G1 X168.157 Y199.034 E.04547
G1 X166.934 Y198.344 E.04942
G1 X146.761 Y183.914 E.87291
G1 X145.801 Y182.744 E.05327
G1 X145.542 Y181.544 E.0432
G1 X145.542 Y148.456 E1.16448
G1 X145.935 Y146.994 E.05327
G1 X146.734 Y146.116 E.0418
G1 X147.027 Y146.458 F12000
G1 F3000
G1 X167.207 Y132.023 E.8732
G1 X168.35 Y131.38 E.04616
G1 X169.575 Y130.909 E.04618
G1 X171.261 Y130.555 E.06067
G1 X172.529 Y130.497 E.04465
G1 X173.602 Y130.587 E.0379
G1 X174.509 Y130.764 E.03254
G1 X175.832 Y131.195 E.04897
G1 X177.483 Y132.086 E.06601
G1 X178.547 Y132.92 E.04758
G1 X179.429 Y133.85 E.04511
G1 X179.954 Y134.546 E.03068
G1 X180.506 Y135.47 E.0379
G1 X181.031 Y136.683 E.04651
G1 X181.472 Y138.521 E.06653
G1 X181.557 Y139.75 E.04334
G1 X181.557 Y190.25 E1.77729
G1 X181.506 Y191.192 E.03322
G1 X181.332 Y192.266 E.03829
G1 X180.884 Y193.7 E.05285
G1 X180.505 Y194.532 E.03218
G1 X179.952 Y195.457 E.03792
G1 X179.295 Y196.311 E.03792
G1 X178.683 Y196.95 E.03116
G1 X177.479 Y197.917 E.05434
G1 X175.827 Y198.807 E.06605
G1 X174.808 Y199.159 E.03792
G1 X173.88 Y199.367 E.03349
G1 X172.342 Y199.504 E.05434
G1 X170.624 Y199.349 E.0607
G1 X169.495 Y199.067 E.04094
G1 X168.34 Y198.616 E.04365
G1 X167.2 Y197.972 E.04608
G1 X147.027 Y183.542 E.87291
G1 X146.172 Y182.449 E.04884
G1 X145.999 Y181.544 E.03243
G1 X145.999 Y148.456 E1.16448
G1 X146.391 Y147.125 E.04884
G1 X146.999 Y146.487 E.03103
; printing object gantry bottom (1).stl id:0 copy 0
EXCLUDE_OBJECT_START NAME=gantry_bottom_(1).stl_id_0_copy_0
G1 E-.5 F2400
G1 X153.655 Y152.078 F12000
G1 E.5 F1800
;TYPE:Support
G1 F3000
G1 X150.251 Y152.078 E.1198
G1 X149.9 Y152.43 E.01749
G1 X149.9 Y155.258 E.09954
G1 X148.456 Y156.702 E.07186
G1 X148.456 Y148.456 E.2902
G1 X156.404 Y148.456 E.27972
G1 X153.697 Y152.024 E.15762
G1 X153.451 Y151.667 F12000
G1 F3000
G1 X150.081 Y151.667 E.11861
G1 X149.489 Y152.26 E.02949
G1 X149.489 Y155.088 E.09954
G1 X148.868 Y155.709 E.03091
G1 X148.868 Y148.868 E.24077
G1 X155.576 Y148.868 E.23608
G1 X153.451 Y151.667 E.12368
G1 X153.199 Y151.159 F12000
G1 F3000
G1 X149.871 Y151.159 E.11713
G1 X149.375 Y151.655 E.02465
G1 X149.375 Y149.375 E.08021
G1 X154.553 Y149.375 E.18221
G1 X153.199 Y151.159 E.07881
G1 X152.947 Y150.651 F12000
G1 F3000
G1 X149.883 Y150.651 E.10782
G1 X149.883 Y149.883 E.02703
G1 X153.53 Y149.883 E.12833
G1 X152.947 Y150.651 E.03393
G1 E-.5 F2400
G1 X154.987 Y152.309 F12000
G1 X168.575 Y162.077
G1 X169.65 Y163.391
G1 X169.65 Y163.737
G1 X169.05 Y163.737
G1 E.5 F1800
G1 F3000
G1 X169.05 Y166.22 E.08737
G1 X166.9 Y167.461 E.08737
G1 X164.75 Y166.22 E.08737
G1 X164.75 Y163.737 E.08737
G1 X166.9 Y162.496 E.08737
G1 X168.991 Y163.703 E.08496
G1 X165.161 Y165.982 F12000
G1 F3000
G1 X165.161 Y163.975 E.07066
G1 X166.9 Y162.971 E.07065
G1 X168.639 Y163.975 E.07065
G1 X168.639 Y165.982 E.07066
G1 X166.9 Y166.986 E.07065
G1 X165.161 Y165.982 E.07065
G1 X165.669 Y165.689 F12000
G1 F3000
G1 X165.669 Y164.268 E.05002
G1 X166.9 Y163.557 E.05002
G1 X168.131 Y164.268 E.05002
G1 X168.131 Y165.689 E.05002
G1 X166.9 Y166.4 E.05002
G1 X165.669 Y165.689 E.05002
G1 X166.177 Y165.396 F12000
G1 F3000
G1 X166.177 Y164.561 E.02938
G1 X166.9 Y164.144 E.02938
G1 X167.623 Y164.561 E.02938
G1 X167.623 Y165.396 E.02938
G1 X166.9 Y165.813 E.02938
G1 X166.177 Y165.396 E.02938
G1 E-.5 F2400
G1 X169.65 Y164.775 F12000
G1 X170.55 Y164.614
G1 X175.45 Y163.737
G1 E.5 F1800
G1 F3000
G1 X175.45 Y166.22 E.08737
G1 X173.3 Y167.461 E.08737
G1 X171.15 Y166.22 E.08737
G1 X171.15 Y163.737 E.08737
G1 X173.3 Y162.496 E.08737
G1 X175.391 Y163.703 E.08496
G1 X171.561 Y165.982 F12000
G1 F3000
G1 X171.561 Y163.975 E.07066
G1 X173.3 Y162.971 E.07065
G1 X175.039 Y163.975 E.07065
G1 X175.039 Y165.982 E.07066
G1 X173.3 Y166.986 E.07065
G1 X171.561 Y165.982 E.07065
G1 X172.069 Y165.689 F12000
G1 F3000
G1 X172.069 Y164.268 E.05002
G1 X173.3 Y163.557 E.05002
G1 X174.531 Y164.268 E.05002
G1 X174.531 Y165.689 E.05002
G1 X173.3 Y166.4 E.05002
G1 X172.069 Y165.689 E.05002
G1 X172.577 Y165.396 F12000
G1 F3000
G1 X172.577 Y164.561 E.02938
G1 X173.3 Y164.144 E.02938
G1 X174.023 Y164.561 E.02938
G1 X174.023 Y165.396 E.02938
G1 X173.3 Y165.813 E.02938
G1 X172.577 Y165.396 E.02938
G1 E-.5 F2400
G1 X170.55 Y166.227 F12000
G1 X168.575 Y167.88
G1 X166.9 Y168.847
G1 X151.1 Y174.206
G1 X149.9 Y174.699
G1 E.5 F1800
G1 F3000
G1 X149.9 Y177.527 E.09954
G1 X150.251 Y177.878 E.01749
G1 X153.66 Y177.878 E.11997
G1 X156.434 Y181.544 E.16176
G1 X148.456 Y181.544 E.28076
G1 X148.456 Y173.255 E.29172
G1 X149.852 Y174.65 E.06945
G1 E-.5 F2400
G1 X151.1 Y175.911 F12000
G1 X151.86 Y176.678
G1 X153.456 Y178.29
G1 E.5 F1800
G1 F3000
G1 X155.606 Y181.132 E.12545
G1 X148.868 Y181.132 E.23717
G1 X148.868 Y174.248 E.24229
G1 X149.489 Y174.869 E.03091
G1 X149.489 Y177.697 E.09954
G1 X150.081 Y178.29 E.02949
G1 X153.456 Y178.29 E.11877
G1 X153.203 Y178.798 F12000
G1 F3000
G1 X154.585 Y180.625 E.08063
G1 X149.375 Y180.625 E.18336
G1 X149.375 Y178.302 E.08173
G1 X149.871 Y178.798 E.02465
G1 X153.203 Y178.798 E.11728
G1 X152.951 Y179.306 F12000
G1 F3000
G1 X153.564 Y180.117 E.0358
G1 X149.883 Y180.117 E.12955
G1 X149.883 Y179.306 E.02855
G1 X152.951 Y179.306 E.10795
G1 E-.5 F2400
G1 X158.105 Y181.763 F12000
G1 X168.384 Y186.666
G1 X175.899 Y190.25
G1 E.5 F1800
G1 F3000
G1 X173.85 Y193.8 E.14427
G1 X169.75 Y193.8 E.14427
G1 X167.701 Y190.25 E.14427
G1 X169.75 Y186.7 E.14427
G1 X173.85 Y186.7 E.14427
M73 P1 R31
G1 X175.865 Y190.191 E.14185
G1 X169.988 Y187.111 F12000
G1 F3000
G1 X173.612 Y187.111 E.12755
G1 X175.424 Y190.25 E.12755
G1 X173.612 Y193.389 E.12755
G1 X169.988 Y193.389 E.12755
G1 X168.176 Y190.25 E.12755
G1 X169.988 Y187.111 E.12755
G1 X170.281 Y187.619 F12000
G1 F3000
G1 X173.319 Y187.619 E.10691
G1 X174.838 Y190.25 E.10691
G1 X173.319 Y192.881 E.10691
G1 X170.281 Y192.881 E.10691
G1 X168.762 Y190.25 E.10691
G1 X170.281 Y187.619 E.10691
G1 X170.574 Y188.127 F12000
G1 F3000
G1 X173.026 Y188.127 E.08627
G1 X174.251 Y190.25 E.08627
G1 X173.026 Y192.373 E.08627
G1 X170.574 Y192.373 E.08627
G1 X169.349 Y190.25 E.08627
G1 X170.574 Y188.127 E.08627
G1 X170.868 Y188.635 F12000
G1 F3000
G1 X172.732 Y188.635 E.06563
G1 X173.665 Y190.25 E.06563
G1 X172.732 Y191.865 E.06563
G1 X170.868 Y191.865 E.06563
G1 X169.935 Y190.25 E.06563
G1 X170.868 Y188.635 E.06563
G1 X171.161 Y189.143 F12000
G1 F3000
G1 X172.439 Y189.143 E.04499
G1 X173.078 Y190.25 E.04499
G1 X172.439 Y191.357 E.04499
G1 X171.161 Y191.357 E.04499
G1 X170.522 Y190.25 E.04499
G1 X171.161 Y189.143 E.04499
G1 X171.454 Y189.651 F12000
G1 F3000
G1 X172.146 Y189.651 E.02435
G1 X172.492 Y190.25 E.02435
G1 X172.146 Y190.849 E.02435
G1 X171.454 Y190.849 E.02435
G1 X171.108 Y190.25 E.02435
G1 X171.454 Y189.651 E.02435
G1 E-.5 F2400
G1 X171.833 Y185.847 F12000
G1 X169.517 Y184.033
G1 X169.129 Y183.645
G1 X169.129 Y183.026
G1 X169.729 Y182.726
G1 X171.602 Y182.726
G1 X170.55 Y166.566
G1 X170.55 Y163.391
G1 X175.566 Y150.749
G1 X176.145 Y142.608
G1 X176.435 Y139.707
G1 E.5 F1800
G1 F3000
G1 X174.385 Y143.257 E.14427
G1 X170.286 Y143.257 E.14427
G1 X168.236 Y139.707 E.14427
G1 X170.286 Y136.157 E.14427
G1 X174.385 Y136.157 E.14427
G1 X176.4 Y139.647 E.14185
G1 X170.523 Y142.845 F12000
G1 F3000
G1 X168.711 Y139.707 E.12755
G1 X170.523 Y136.568 E.12755
G1 X174.148 Y136.568 E.12755
G1 X175.96 Y139.707 E.12755
G1 X174.148 Y142.845 E.12755
G1 X170.523 Y142.845 E.12755
G1 X170.817 Y142.338 F12000
G1 F3000
G1 X169.298 Y139.707 E.10691
G1 X170.817 Y137.076 E.10691
G1 X173.854 Y137.076 E.10691
G1 X175.373 Y139.707 E.10691
G1 X173.854 Y142.338 E.10691
G1 X170.817 Y142.338 E.10691
G1 X171.11 Y141.83 F12000
G1 F3000
G1 X169.884 Y139.707 E.08627
G1 X171.11 Y137.584 E.08627
G1 X173.561 Y137.584 E.08627
G1 X174.787 Y139.707 E.08627
G1 X173.561 Y141.83 E.08627
G1 X171.11 Y141.83 E.08627
G1 X171.403 Y141.322 F12000
G1 F3000
G1 X170.471 Y139.707 E.06563
G1 X171.403 Y138.092 E.06563
G1 X173.268 Y138.092 E.06563
G1 X174.2 Y139.707 E.06563
G1 X173.268 Y141.322 E.06563
G1 X171.403 Y141.322 E.06563
G1 X171.696 Y140.814 F12000
G1 F3000
G1 X171.057 Y139.707 E.04499
G1 X171.696 Y138.6 E.04499
G1 X172.975 Y138.6 E.04499
G1 X173.614 Y139.707 E.04499
G1 X172.975 Y140.814 E.04499
G1 X171.696 Y140.814 E.04499
G1 X171.989 Y140.306 F12000
G1 F3000
G1 X171.643 Y139.707 E.02435
G1 X171.989 Y139.107 E.02435
G1 X172.681 Y139.107 E.02435
G1 X173.027 Y139.707 E.02435
G1 X172.681 Y140.306 E.02435
G1 X171.989 Y140.306 E.02435
G1 E-.5 F2400
G1 X168.591 Y142.722 F12000
G1 X154.251 Y153.279
G1 X154.093 Y153.279
G1 X154.093 Y153.028
G1 E.5 F1800
;TYPE:Outer wall
G1 F3000
G1 X154.127 Y153.028 E.00121
G1 X167.156 Y135.859 E.75853
G3 X172.568 Y133.308 I5.146 J3.901 E.21893
G3 X178.75 Y139.76 I-.269 J6.446 E.3474
G1 X178.75 Y190.24 E1.77657
G3 X167.15 Y194.133 I-6.456 J-.008 E.56609
G1 X154.133 Y176.928 E.75929
G1 X150.85 Y176.928 E.11554
G1 X150.85 Y153.028 E.84113
G1 X154.053 Y153.028 E.11272
G1 X154.275 Y153.486 F12000
;TYPE:Inner wall
G1 F3000
G1 X154.354 Y153.486 E.00277
G1 X167.512 Y136.146 E.76604
G3 X172.538 Y133.765 I4.797 J3.629 E.2035
G3 X175.264 Y134.543 I-.348 J6.383 E.1006
G1 X175.216 Y134.732 E.00687
G1 X175.352 Y134.601 E.00664
G3 X178.287 Y139.679 I-3.027 J5.137 E.21582
G1 X178.238 Y139.694 E.00181
G1 X178.293 Y139.709 E.00199
G1 X178.293 Y190.226 E1.7779
G3 X169.277 Y195.412 I-5.991 J.015 E.4433
G1 X169.331 Y195.207 E.00745
G1 X174.662 Y195.207 E.18763
G1 X177.524 Y190.25 E.20145
G1 X174.662 Y185.293 E.20145
G1 X173.903 Y185.293 E.02673
G2 X175.536 Y183.73 I-22.067 J-24.698 E.0796
G2 X175.499 Y181.709 I-20.624 J-.629 E.07114
G1 X175.424 Y181.261 E.01599
G1 X175.497 Y180.946 E.01139
G1 X175.535 Y180.266 E.02398
G2 X174.067 Y178.754 I-29.416 J27.102 E.07419
G2 X172.235 Y178.785 I-.363 J31.879 E.06446
G1 X172.041 Y179.012 E.0105
G1 X171.074 Y178.791 E.03491
G1 X170.47 Y178.763 E.02128
G2 X168.922 Y180.024 I17.846 J23.486 E.07029
G2 X168.959 Y182.131 I22.147 J.663 E.07417
G1 X169.034 Y182.595 E.01655
G1 X168.96 Y182.971 E.01348
G1 X168.915 Y183.7 E.02572
G2 X170.483 Y185.293 I46.674 J-44.389 E.07867
G1 X168.938 Y185.293 E.05438
G1 X166.076 Y190.25 E.20145
G1 X168.644 Y194.699 E.18078
G1 X168.46 Y194.846 E.0083
G3 X167.507 Y193.847 I3.749 J-4.534 E.04872
G1 X154.36 Y176.471 E.76682
G1 X151.307 Y176.471 E.10745
G1 X151.307 Y153.486 E.80896
G1 X154.235 Y153.486 E.10305
G1 E-.5 F2400
G1 X167.708 Y194.695 F12000
G1 X175.611 Y195.511
G1 X177.515 Y191.18
G1 E.5 F1800
G1 F3000
G1 X177.731 Y191.259 E.00811
G1 X177.681 Y191.54 E.01004
G1 X177.49 Y192.171 E.02322
G3 X175.878 Y194.464 I-5.338 J-2.04 E.09965
G1 X175.704 Y194.316 E.00802
G1 X177.495 Y191.214 E.12603
G1 E-.5 F2400
G1 X177.532 Y139.707 F12000
G1 E.5 F1800
;TYPE:Outer wall
G1 F3000
G1 X174.934 Y144.207 E.18287
G1 X169.737 Y144.207 E.18287
G1 X169.397 Y143.617 E.02398
G1 X167.139 Y139.707 E.1589
G1 X169.737 Y135.207 E.18287
G1 X174.934 Y135.207 E.18287
G1 X177.512 Y139.672 E.18147
G1 X178.021 Y139.774 F12000
;TYPE:Inner wall
G1 F3000
G1 X175.197 Y144.664 E.19873
G1 X169.473 Y144.664 E.20145
G1 X169.001 Y143.845 E.03326
G1 X166.612 Y139.707 E.16818
G1 X169.473 Y134.75 E.20145
G1 X175.198 Y134.75 E.20147
M73 P2 R31
G1 X178.059 Y139.707 E.20144
G1 X178.041 Y139.739 E.00131
G1 X177.836 Y141.415 F12000
G1 F3000
G1 X177.836 Y189.47 E1.69124
G1 X177.633 Y189.524 E.00741
G1 X174.977 Y184.925 E.18689
G1 X175.994 Y183.92 E.0503
G2 X175.954 Y181.656 I-22.818 J-.729 E.07974
G1 X175.89 Y181.276 E.01357
G1 X175.951 Y181.011 E.00958
G1 X176.002 Y180.095 E.03226
G2 X174.257 Y178.296 I-34.999 J32.215 E.08823
G2 X172.019 Y178.336 I-.456 J37.303 E.0788
G1 X171.874 Y178.505 E.00782
G1 X171.136 Y178.336 E.02664
G1 X170.322 Y178.299 E.02867
G2 X168.465 Y179.811 I21.393 J28.178 E.08431
G2 X168.505 Y182.183 I29.07 J.7 E.08352
G1 X168.57 Y182.587 E.01442
G1 X168.506 Y182.912 E.01166
G1 X168.446 Y183.873 E.03386
G1 X169.374 Y184.836 E.04708
G1 X168.674 Y184.836 E.02464
G1 X165.466 Y190.392 E.22581
G1 X154.588 Y176.014 E.63454
G1 X151.764 Y176.014 E.09937
G1 X151.764 Y153.943 E.77679
G1 X154.581 Y153.943 E.09913
G1 X167.07 Y137.484 E.72713
G1 X167.285 Y137.627 E.00906
G1 X166.084 Y139.707 E.08453
G1 X169.21 Y145.121 E.22002
G1 X172.563 Y145.121 E.11801
G1 X172.651 Y145.852 E.02592
G2 X168.702 Y145.847 I-2.199 J180.287 E.139
G1 X168.702 Y150.109 E.14999
G2 X172.651 Y150.104 I1.751 J-180.39 E.139
G1 X172.506 Y151.302 E.04248
G1 X174.195 Y151.404 E.05954
G2 X176.23 Y151.415 I1.372 J-66.871 E.07163
G1 X176.23 Y144.541 E.24193
G1 X175.796 Y144.542 E.01529
G1 X177.633 Y141.36 E.12931
G1 X177.797 Y141.404 E.006
G1 X177.379 Y143.121 F12000
G1 F3000
G1 X177.379 Y162.17 E.67044
G1 X173.3 Y159.815 E.16575
G2 X170.094 Y161.694 I62.365 J110.146 E.13078
G2 X169.34 Y161.225 I-5.06 J7.295 E.03126
G1 X166.9 Y159.815 E.09916
G1 X162.429 Y162.397 E.18171
G1 X162.429 Y167.56 E.1817
G1 X166.9 Y170.141 E.18171
G2 X169.773 Y168.476 I-74.423 J-131.667 E.11686
G1 X170.1 Y168.259 E.01381
G2 X170.86 Y168.732 I5.104 J-7.355 E.03152
G1 X173.3 Y170.141 E.09916
G1 X177.379 Y167.787 E.16576
G1 X177.379 Y187.764 E.70308
G1 X177.176 Y187.818 E.00741
G1 X175.55 Y185.002 E.11444
G1 X176.451 Y184.111 E.0446
G2 X176.408 Y181.602 I-29.468 J-.753 E.08833
G1 X176.356 Y181.29 E.01114
G1 X176.405 Y181.075 E.00776
G1 X176.47 Y179.925 E.04055
G2 X174.447 Y177.839 I-40.582 J37.326 E.10227
G2 X171.802 Y177.887 I-.548 J42.829 E.09313
