; HEADER_BLOCK_START
; generated by OrcaSlicer 1.6.4-beta2 on 2023-08-06 at 21:11:44
; total layer number: 240
; HEADER_BLOCK_END

; THUMBNAIL_BLOCK_START
; THUMBNAIL_BLOCK_END

; external perimeters extrusion width = 0.40mm
; perimeters extrusion width = 0.46mm
; infill extrusion width = 0.64mm
; solid infill extrusion width = 0.56mm
; top infill extrusion width = 0.40mm
; support material extrusion width = 0.46mm
; first layer extrusion width = 0.50mm

; EXECUTABLE_BLOCK_START
EXCLUDE_OBJECT_DEFINE NAME=gantry_bottom_(1)_(1).stl_id_0_copy_0 CENTER=165,165 POLYGON=[[150.5,150.778],[167.093,134.777],[167.689,134.22],[168.343,133.735],[169.049,133.326],[169.796,132.999],[170.575,132.76],[171.377,132.609],[172.19,132.551],[173.004,132.585],[173.81,132.71],[174.596,132.926],[175.353,133.229],[176.07,133.616],[176.74,134.082],[177.352,134.62],[177.9,135.224],[178.375,135.886],[178.773,136.598],[179.088,137.35],[179.316,138.133],[179.454,138.936],[179.5,139.75],[179.5,190.25],[179.454,191.064],[179.316,191.868],[179.088,192.652],[178.772,193.404],[178.374,194.116],[177.898,194.778],[177.35,195.382],[176.737,195.921],[176.067,196.386],[175.349,196.773],[174.591,197.076],[173.804,197.291],[172.998,197.416],[172.183,197.449],[171.37,197.39],[170.568,197.239],[169.789,196.998],[169.041,196.67],[168.336,196.261],[167.682,195.774],[167.086,195.216],[150.5,179.178],[150.5,150.778]]
M73 P0 R31
M73 C23
;TYPE:Custom
START_PRINT T_BED=110 T_EXTRUDER=260
G90
G21
M83 ; use relative distances for extrusion
; Filament gcode

    PRESSURE_ADVANCE_SELECT FILAMENT=ABS
M106 S0
;LAYER_CHANGE
;Z:0.2
;HEIGHT:0.2
;BEFORE_LAYER_CHANGE
;0.2
G92 E0

SET_VELOCITY_LIMIT ACCEL=1000 ACCEL_TO_DECEL=500
G1 E-.5 F2400
G1 X146.761 Y146.086 F12000
G1 Z.2
G1 E.5 F1800
;TYPE:Skirt
;WIDTH:0.5
G1 F3000
G1 X166.941 Y131.651 E.8732
G1 X168.167 Y130.961 E.04952
G1 X169.453 Y130.469 E.04848
G1 X171.193 Y130.103 E.06258
G1 X172.548 Y130.041 E.04772
G1 X173.672 Y130.135 E.03972
G1 X174.603 Y130.317 E.03336
G1 X176.002 Y130.771 E.05179
G1 X176.876 Y131.184 E.03399
G1 X177.727 Y131.699 E.03502
G1 X178.848 Y132.577 E.05013
G1 X179.792 Y133.572 E.04827
G1 X180.325 Y134.279 E.03116
G1 X180.905 Y135.247 E.03972
G1 X181.468 Y136.549 E.04993
G1 X181.922 Y138.441 E.06847
G1 X182.014 Y139.75 E.04618
G1 X182.014 Y190.25 E1.77729
G1 X181.962 Y191.219 E.03416
G1 X181.782 Y192.346 E.04018
G1 X181.306 Y193.876 E.05639
G1 X180.904 Y194.755 E.03401
G1 X180.323 Y195.724 E.03974
G1 X179.634 Y196.618 E.03974
G1 X179.01 Y197.269 E.03173
G1 X177.722 Y198.304 E.05816
G1 X176.87 Y198.819 E.03504
G1 X175.996 Y199.231 E.03401
G1 X174.929 Y199.6 E.03974
G1 X173.973 Y199.815 E.03449
G1 X172.327 Y199.961 E.05816
G1 X170.555 Y199.801 E.06261
G1 X169.36 Y199.504 E.04332
G1 X168.157 Y199.034 E.04547
G1 X166.934 Y198.344 E.04942
G1 X146.761 Y183.914 E.87291
G1 X145.801 Y182.744 E.05327
G1 X145.542 Y181.544 E.0432
G1 X145.542 Y148.456 E1.16448
G1 X145.935 Y146.994 E.05327
G1 X146.734 Y146.116 E.0418
G1 X147.027 Y146.458 F12000
G1 F3000
G1 X167.207 Y132.023 E.8732
G1 X168.35 Y131.38 E.04616
G1 X169.575 Y130.909 E.04618
G1 X171.261 Y130.555 E.06067
G1 X172.529 Y130.497 E.04465
G1 X173.602 Y130.587 E.0379
G1 X174.509 Y130.764 E.03254
G1 X175.832 Y131.195 E.04897
G1 X177.483 Y132.086 E.06601
G1 X178.547 Y132.92 E.04758
G1 X179.429 Y133.85 E.04511
G1 X179.954 Y134.546 E.03068
G1 X180.506 Y135.47 E.0379
G1 X181.031 Y136.683 E.04651
G1 X181.472 Y138.521 E.06653
G1 X181.557 Y139.75 E.04334
G1 X181.557 Y190.25 E1.77729
G1 X181.506 Y191.192 E.03322
G1 X181.332 Y192.266 E.03829
G1 X180.884 Y193.7 E.05285
G1 X180.505 Y194.532 E.03218
G1 X179.952 Y195.457 E.03792
G1 X179.295 Y196.311 E.03792
G1 X178.683 Y196.95 E.03116
G1 X177.479 Y197.917 E.05434
G1 X175.827 Y198.807 E.06605
G1 X174.808 Y199.159 E.03792
G1 X173.88 Y199.367 E.03349
G1 X172.342 Y199.504 E.05434
G1 X170.624 Y199.349 E.0607
G1 X169.495 Y199.067 E.04094
G1 X168.34 Y198.616 E.04365
G1 X167.2 Y197.972 E.04608
G1 X147.027 Y183.542 E.87291
G1 X146.172 Y182.449 E.04884
G1 X145.999 Y181.544 E.03243
G1 X145.999 Y148.456 E1.16448
G1 X146.391 Y147.125 E.04884
G1 X146.999 Y146.487 E.03103
; printing object gantry bottom (1) (1).stl id:0 copy 0
EXCLUDE_OBJECT_START NAME=gantry_bottom_(1)_(1).stl_id_0_copy_0
G1 E-.5 F2400
G1 X153.655 Y152.078 F12000
G1 E.5 F1800
;TYPE:Support
G1 F3000
G1 X150.251 Y152.078 E.1198
G1 X149.9 Y152.43 E.01749
G1 X149.9 Y155.258 E.09954
G1 X148.456 Y156.702 E.07186
G1 X148.456 Y148.456 E.2902
G1 X156.404 Y148.456 E.27972
G1 X153.697 Y152.024 E.15762
G1 X153.451 Y151.667 F12000
G1 F3000
G1 X150.081 Y151.667 E.11861
G1 X149.489 Y152.26 E.02949
G1 X149.489 Y155.088 E.09954
G1 X148.868 Y155.709 E.03091
G1 X148.868 Y148.868 E.24077
G1 X155.576 Y148.868 E.23608
G1 X153.451 Y151.667 E.12368
G1 X153.199 Y151.159 F12000
G1 F3000
G1 X149.871 Y151.159 E.11713
G1 X149.375 Y151.655 E.02465
G1 X149.375 Y149.375 E.08021
G1 X154.553 Y149.375 E.18221
G1 X153.199 Y151.159 E.07881
G1 X152.947 Y150.651 F12000
G1 F3000
G1 X149.883 Y150.651 E.10782
G1 X149.883 Y149.883 E.02703
G1 X153.53 Y149.883 E.12833
G1 X152.947 Y150.651 E.03393
G1 E-.5 F2400
G1 X154.987 Y152.309 F12000
G1 X168.575 Y162.077
G1 X169.65 Y163.391
G1 X169.65 Y163.737
G1 X169.05 Y163.737
G1 E.5 F1800
G1 F3000
G1 X169.05 Y166.22 E.08737
G1 X166.9 Y167.461 E.08737
G1 X164.75 Y166.22 E.08737
G1 X164.75 Y163.737 E.08737
G1 X166.9 Y162.496 E.08737
G1 X168.991 Y163.703 E.08496
G1 X165.161 Y165.982 F12000
G1 F3000
G1 X165.161 Y163.975 E.07066
G1 X166.9 Y162.971 E.07065
G1 X168.639 Y163.975 E.07065
G1 X168.639 Y165.982 E.07066
G1 X166.9 Y166.986 E.07065
G1 X165.161 Y165.982 E.07065
G1 X165.669 Y165.689 F12000
G1 F3000
G1 X165.669 Y164.268 E.05002
G1 X166.9 Y163.557 E.05002
G1 X168.131 Y164.268 E.05002
G1 X168.131 Y165.689 E.05002
G1 X166.9 Y166.4 E.05002
G1 X165.669 Y165.689 E.05002
G1 X166.177 Y165.396 F12000
G1 F3000
G1 X166.177 Y164.561 E.02938
G1 X166.9 Y164.144 E.02938
G1 X167.623 Y164.561 E.02938
G1 X167.623 Y165.396 E.02938
G1 X166.9 Y165.813 E.02938
G1 X166.177 Y165.396 E.02938
G1 E-.5 F2400
G1 X169.65 Y164.775 F12000
G1 X170.55 Y164.614
G1 X175.45 Y163.737
G1 E.5 F1800
G1 F3000
G1 X175.45 Y166.22 E.08737
G1 X173.3 Y167.461 E.08737
G1 X171.15 Y166.22 E.08737
G1 X171.15 Y163.737 E.08737
G1 X173.3 Y162.496 E.08737
G1 X175.391 Y163.703 E.08496
G1 X171.561 Y165.982 F12000
G1 F3000
G1 X171.561 Y163.975 E.07066
G1 X173.3 Y162.971 E.07065
G1 X175.039 Y163.975 E.07065
G1 X175.039 Y165.982 E.07066
G1 X173.3 Y166.986 E.07065
G1 X171.561 Y165.982 E.07065
G1 X172.069 Y165.689 F12000
G1 F3000
G1 X172.069 Y164.268 E.05002
G1 X173.3 Y163.557 E.05002
G1 X174.531 Y164.268 E.05002
G1 X174.531 Y165.689 E.05002
G1 X173.3 Y166.4 E.05002
G1 X172.069 Y165.689 E.05002
G1 X172.577 Y165.396 F12000
G1 F3000
G1 X172.577 Y164.561 E.02938
G1 X173.3 Y164.144 E.02938
G1 X174.023 Y164.561 E.02938
G1 X174.023 Y165.396 E.02938
G1 X173.3 Y165.813 E.02938
G1 X172.577 Y165.396 E.02938
G1 E-.5 F2400
G1 X170.55 Y166.227 F12000
G1 X168.575 Y167.88
G1 X166.9 Y168.847
G1 X151.1 Y174.206
G1 X149.9 Y174.699
G1 E.5 F1800
G1 F3000
G1 X149.9 Y177.527 E.09954
G1 X150.251 Y177.878 E.01749
G1 X153.66 Y177.878 E.11997
G1 X156.434 Y181.544 E.16176
G1 X148.456 Y181.544 E.28076
G1 X148.456 Y173.255 E.29172
G1 X149.852 Y174.65 E.06945
G1 E-.5 F2400
G1 X151.1 Y175.911 F12000
G1 X151.86 Y176.678
G1 X153.456 Y178.29
G1 E.5 F1800
G1 F3000
G1 X155.606 Y181.132 E.12545
G1 X148.868 Y181.132 E.23717
G1 X148.868 Y174.248 E.24229
G1 X149.489 Y174.869 E.03091
G1 X149.489 Y177.697 E.09954
G1 X150.081 Y178.29 E.02949
G1 X153.456 Y178.29 E.11877
G1 X153.203 Y178.798 F12000
G1 F3000
G1 X154.585 Y180.625 E.08063
G1 X149.375 Y180.625 E.18336
G1 X149.375 Y178.302 E.08173
G1 X149.871 Y178.798 E.02465
G1 X153.203 Y178.798 E.11728
G1 X152.951 Y179.306 F12000
G1 F3000
G1 X153.564 Y180.117 E.0358
G1 X149.883 Y180.117 E.12955
G1 X149.883 Y179.306 E.02855
G1 X152.951 Y179.306 E.10795
G1 E-.5 F2400
G1 X158.043 Y181.682 F12000
G1 X168.85 Y186.726
G1 X176.399 Y190.25
G1 E.5 F1800
G1 F3000
G1 X174.35 Y193.8 E.14427
G1 X170.25 Y193.8 E.14427
G1 X168.201 Y190.25 E.14427
G1 X170.25 Y186.7 E.14427
G1 X174.35 Y186.7 E.14427
G1 X176.365 Y190.191 E.14185
M73 P1 R31
G1 X170.488 Y187.111 F12000
G1 F3000
G1 X174.112 Y187.111 E.12755
M73 C22
G1 X175.924 Y190.25 E.12755
G1 X174.112 Y193.389 E.12755
G1 X170.488 Y193.389 E.12755
G1 X168.676 Y190.25 E.12755
G1 X170.488 Y187.111 E.12755
G1 X170.781 Y187.619 F12000
G1 F3000
G1 X173.819 Y187.619 E.10691
G1 X175.338 Y190.25 E.10691
G1 X173.819 Y192.881 E.10691
G1 X170.781 Y192.881 E.10691
G1 X169.262 Y190.25 E.10691
G1 X170.781 Y187.619 E.10691
G1 X171.074 Y188.127 F12000
G1 F3000
G1 X173.526 Y188.127 E.08627
G1 X174.751 Y190.25 E.08627
G1 X173.526 Y192.373 E.08627
G1 X171.074 Y192.373 E.08627
G1 X169.849 Y190.25 E.08627
G1 X171.074 Y188.127 E.08627
G1 X171.368 Y188.635 F12000
G1 F3000
G1 X173.232 Y188.635 E.06563
G1 X174.165 Y190.25 E.06563
G1 X173.232 Y191.865 E.06563
G1 X171.368 Y191.865 E.06563
G1 X170.435 Y190.25 E.06563
G1 X171.368 Y188.635 E.06563
G1 X171.661 Y189.143 F12000
G1 F3000
G1 X172.939 Y189.143 E.04499
G1 X173.578 Y190.25 E.04499
G1 X172.939 Y191.357 E.04499
G1 X171.661 Y191.357 E.04499
G1 X171.022 Y190.25 E.04499
G1 X171.661 Y189.143 E.04499
G1 X171.954 Y189.651 F12000
G1 F3000
G1 X172.646 Y189.651 E.02435
G1 X172.992 Y190.25 E.02435
G1 X172.646 Y190.849 E.02435
G1 X171.954 Y190.849 E.02435
G1 X171.608 Y190.25 E.02435
G1 X171.954 Y189.651 E.02435
G1 E-.5 F2400
G1 X172.285 Y185.5 F12000
G1 X173.427 Y182.613
G1 X173.427 Y180.88
G1 X172.654 Y180.87
G1 X176.65 Y166.913
G1 X176.65 Y163.044
G1 X175.713 Y142.491
G1 X175.935 Y139.707
G1 E.5 F1800
G1 F3000
G1 X173.885 Y143.257 E.14427
G1 X169.786 Y143.257 E.14427
G1 X167.736 Y139.707 E.14427
G1 X169.786 Y136.157 E.14427
G1 X173.885 Y136.157 E.14427
G1 X175.9 Y139.647 E.14185
G1 X170.023 Y142.845 F12000
G1 F3000
G1 X168.211 Y139.707 E.12755
G1 X170.023 Y136.568 E.12755
G1 X173.648 Y136.568 E.12755
G1 X175.46 Y139.707 E.12755
G1 X173.648 Y142.845 E.12755
G1 X170.023 Y142.845 E.12755
G1 X170.317 Y142.338 F12000
G1 F3000
G1 X168.798 Y139.707 E.10691
G1 X170.317 Y137.076 E.10691
G1 X173.354 Y137.076 E.10691
G1 X174.873 Y139.707 E.10691
G1 X173.354 Y142.338 E.10691
G1 X170.317 Y142.338 E.10691
G1 X170.61 Y141.83 F12000
G1 F3000
G1 X169.384 Y139.707 E.08627
G1 X170.61 Y137.584 E.08627
G1 X173.061 Y137.584 E.08627
G1 X174.287 Y139.707 E.08627
G1 X173.061 Y141.83 E.08627
G1 X170.61 Y141.83 E.08627
G1 X170.903 Y141.322 F12000
G1 F3000
G1 X169.971 Y139.707 E.06563
G1 X170.903 Y138.092 E.06563
G1 X172.768 Y138.092 E.06563
G1 X173.7 Y139.707 E.06563
G1 X172.768 Y141.322 E.06563
G1 X170.903 Y141.322 E.06563
G1 X171.196 Y140.814 F12000
G1 F3000
G1 X170.557 Y139.707 E.04499
G1 X171.196 Y138.6 E.04499
G1 X172.475 Y138.6 E.04499
G1 X173.114 Y139.707 E.04499
G1 X172.475 Y140.814 E.04499
G1 X171.196 Y140.814 E.04499
G1 X171.489 Y140.306 F12000
G1 F3000
G1 X171.143 Y139.707 E.02435
G1 X171.489 Y139.107 E.02435
G1 X172.181 Y139.107 E.02435
G1 X172.527 Y139.707 E.02435
G1 X172.181 Y140.306 E.02435
G1 X171.489 Y140.306 E.02435
G1 E-.5 F2400
G1 X168.119 Y142.771 F12000
G1 X154.251 Y153.279
G1 X154.093 Y153.279
G1 X154.093 Y153.028
G1 E.5 F1800
;TYPE:Outer wall
G1 F3000
G1 X154.127 Y153.028 E.00121
G1 X167.156 Y135.859 E.75853
G3 X172.568 Y133.308 I5.146 J3.901 E.21893
G3 X178.75 Y139.76 I-.269 J6.446 E.3474
G1 X178.75 Y190.24 E1.77657
G3 X167.15 Y194.133 I-6.456 J-.008 E.56609
G1 X154.133 Y176.928 E.75929
G1 X150.85 Y176.928 E.11554
G1 X150.85 Y153.028 E.84113
G1 X154.053 Y153.028 E.11272
G1 X154.275 Y153.486 F12000
;TYPE:Inner wall
G1 F3000
G1 X154.354 Y153.486 E.00277
G1 X167.512 Y136.146 E.76604
G3 X168.482 Y135.134 I4.769 J3.603 E.04947
G1 X168.667 Y135.281 E.00829
G1 X166.112 Y139.707 E.17984
G1 X168.973 Y144.664 E.20145
G1 X174.697 Y144.664 E.20145
G1 X177.559 Y139.707 E.20145
G1 X174.697 Y134.75 E.20145
G1 X169.408 Y134.75 E.18616
G1 X169.354 Y134.545 E.00746
G3 X172.538 Y133.765 I2.942 J5.122 E.1169
G3 X178.293 Y139.774 I-.24 J5.989 E.32364
G1 X178.294 Y190.204 E1.77484
G3 X178.288 Y190.311 I-.563 J.02 E.00377
G3 X167.507 Y193.847 I-5.995 J-.074 E.52392
G1 X154.36 Y176.471 E.76682
G1 X151.307 Y176.471 E.10745
G1 X151.307 Y153.486 E.80896
G1 X154.235 Y153.486 E.10305
G1 E-.5 F2400
G1 X170.37 Y133.798 F12000
G1 X177.016 Y135.727
G1 X177.488 Y138.669
G1 E.5 F1800
G1 F3000
G1 X175.832 Y135.8 E.11659
G1 X176.025 Y135.654 E.00852
G1 X176.446 Y136.087 E.02127
G3 X177.704 Y138.59 I-4.079 J3.618 E.09971
G1 X177.526 Y138.655 E.0067
G1 E-.5 F2400
G1 X177.32 Y139.707 F12000
G1 X175.613 Y147.094
G1 X175.013 Y147.394
G1 X173.6 Y147.394
G1 X173.611 Y150.327
G1 E.5 F1800
;TYPE:Outer wall
G1 F3000
G1 X173.716 Y149.623 E.02504
G1 X173.716 Y149.531 E.00326
G1 X173.207 Y150.035 E.02521
G1 X172.885 Y150.468 E.01899
G3 X171.803 Y150.51 I-.943 J-10.315 E.03813
G3 X170.663 Y149.362 I38.598 J-39.466 E.05695
G3 X170.78 Y148.369 I4.334 J.008 E.03527
G1 X170.696 Y147.829 E.01923
G3 X170.662 Y146.353 I16.768 J-1.128 E.052
G3 X171.752 Y145.49 I10.138 J11.704 E.04895
G1 X172.407 Y145.616 E.02346
G1 X172.407 Y146.453 E.02943
G1 X172.884 Y145.956 E.02423
G1 X173.191 Y145.518 E.01882
G1 X173.726 Y145.483 E.01887
G1 X174.26 Y145.476 E.0188
G3 X175.358 Y146.597 I-26.978 J27.537 E.05523
G3 X175.244 Y147.514 I-3.476 J.033 E.03262
G1 X175.329 Y148.074 E.01993
G3 X175.363 Y149.574 I-17.753 J1.158 E.05284
G1 X174.554 Y150.374 E.04002
G1 X173.651 Y150.329 E.03184
G1 X173.166 Y150.858 F12000
;TYPE:Inner wall
G1 F3000
G1 X173.126 Y150.911 E.00233
G3 X171.617 Y150.97 I-1.321 J-14.387 E.05319
G3 X170.194 Y149.536 I48.202 J-49.242 E.07109
G1 X170.242 Y148.776 E.02679
G1 X170.317 Y148.363 E.01476
G1 X170.241 Y147.879 E.01724
G3 X170.205 Y146.139 I19.32 J-1.278 E.06129
G3 X171.072 Y145.424 I20.695 J24.214 E.03956
G1 X171.643 Y145.004 E.02494
G1 X172.833 Y145.233 E.04266
G1 X172.943 Y145.076 E.00672
G3 X174.447 Y145.016 I1.344 J14.734 E.05303
G3 X175.827 Y146.426 I-33.924 J34.586 E.06942
G1 X175.782 Y147.152 E.0256
G1 X175.708 Y147.525 E.01338
G1 X175.784 Y148.025 E.01783
G3 X175.82 Y149.765 I-20.152 J1.295 E.06126
G1 X174.733 Y150.84 E.05382
G1 X173.234 Y150.766 E.05282
G1 X173.189 Y150.825 E.00262
G1 E-.5 F2400
G1 X171.698 Y150.76 F12000
G1 X170.411 Y149.478
G1 X168.632 Y144.987
G1 E.5 F1800
G1 F3000
G1 X168.71 Y145.121 E.00544
G1 X170.711 Y145.121 E.07043
G1 X169.747 Y145.925 E.04417
G2 X169.786 Y147.929 I21.919 J.576 E.07058
G1 X169.853 Y148.358 E.01526
G1 X169.788 Y148.721 E.01298
G1 X169.725 Y149.71 E.03487
G2 X171.43 Y151.429 I59.508 J-57.296 E.08524
G2 X173.367 Y151.353 I.239 J-18.536 E.06825
G1 X173.455 Y151.234 E.0052
G1 X174.911 Y151.307 E.0513
G1 X176.278 Y149.956 E.06763
G2 X176.239 Y147.977 I-22.598 J-.545 E.06969
G1 X176.172 Y147.535 E.01573
G1 X176.236 Y147.21 E.01165
G1 X176.296 Y146.255 E.03371
G2 X175.048 Y144.971 I-32.131 J30.006 E.063
G1 X177.633 Y140.494 E.18195
G1 X177.836 Y140.549 E.00741
G1 X177.836 Y188.604 E1.69124
M73 P2 R31
G1 X177.633 Y188.658 E.00741
G1 X175.626 Y185.182 E.14124
G1 X176.04 Y185.183 E.01458
G1 X176.04 Y178.309 E.24193
G2 X172.316 Y178.422 I-.775 J35.948 E.13118
G1 X172.462 Y179.62 E.04248
G2 X168.512 Y179.615 I-2.199 J180.336 E.139
G1 X168.512 Y183.877 E.14999
G2 X172.462 Y183.872 I1.751 J-180.326 E.139
G1 X172.345 Y184.836 E.03416
G1 X169.174 Y184.836 E.11159
G1 X166.048 Y190.25 E.22002
G1 X167.232 Y192.3 E.08331
G1 X167.017 Y192.443 E.00907
G1 X154.588 Y176.014 E.72502
G1 X151.764 Y176.014 E.09937
G1 X151.764 Y153.943 E.77679
G1 X154.581 Y153.943 E.09913
G1 X165.497 Y139.557 E.63555
G1 X168.105 Y144.074 E.18356
G1 X168.612 Y144.952 E.0357
G1 X168.678 Y145.578 F12000
G1 F3000
G1 X169.29 Y145.578 E.02156
G2 X169.332 Y147.98 I25.829 J.756 E.08456
G1 X169.39 Y148.352 E.01327
G1 X169.333 Y148.666 E.01121
G1 X169.256 Y149.883 E.04294
G2 X171.244 Y151.889 I69.391 J-66.784 E.09938
G2 X173.608 Y151.795 I.289 J-22.626 E.08331
G1 X173.676 Y151.703 E.00405
G1 X175.089 Y151.773 E.04978
G1 X176.735 Y150.147 E.08144
G2 X176.694 Y147.928 I-25.006 J-.644 E.07811
G1 X176.636 Y147.546 E.01362
