; HEADER_BLOCK_START
; generated by OrcaSlicer 1.6.4-beta2 on 2023-08-09 at 08:21:57
; total layer number: 229
; HEADER_BLOCK_END

; THUMBNAIL_BLOCK_START
; THUMBNAIL_BLOCK_END

; external perimeters extrusion width = 0.40mm
; perimeters extrusion width = 0.42mm
; infill extrusion width = 0.64mm
; solid infill extrusion width = 0.56mm
; top infill extrusion width = 0.42mm
; support material extrusion width = 0.46mm
; first layer extrusion width = 0.50mm

; external perimeters extrusion width = 0.40mm
; perimeters extrusion width = 0.42mm
; infill extrusion width = 0.64mm
; solid infill extrusion width = 0.56mm
; top infill extrusion width = 0.42mm
; support material extrusion width = 0.46mm
; first layer extrusion width = 0.50mm

; EXECUTABLE_BLOCK_START
EXCLUDE_OBJECT_DEFINE NAME=Gantry_MGN9_Lower.stl_id_0_copy_0 CENTER=176,165 POLYGON=[[160.25,147.5],[173.25,139.269],[181.466,134.067],[181.852,133.841],[182.161,133.683],[182.251,133.642],[182.664,133.47],[182.897,133.383],[183.086,133.326],[183.518,133.21],[183.663,133.173],[183.956,133.122],[184.448,133.055],[184.845,133.033],[185.242,133.031],[185.292,133.034],[185.738,133.064],[186.033,133.101],[186.181,133.124],[186.619,133.214],[186.811,133.264],[187.049,133.333],[187.471,133.481],[187.564,133.517],[187.882,133.657],[188.281,133.858],[188.664,134.09],[188.953,134.282],[189.031,134.343],[189.382,134.621],[189.57,134.782],[189.713,134.92],[190.024,135.241],[190.123,135.352],[190.313,135.582],[190.577,135.941],[190.606,135.983],[190.817,136.318],[191.01,136.667],[191.031,136.71],[191.218,137.116],[191.33,137.394],[191.378,137.533],[191.51,137.961],[191.562,138.153],[191.614,138.396],[191.689,138.837],[191.703,138.935],[191.735,139.281],[191.75,139.728],[191.75,190.271],[191.703,191.064],[191.562,191.846],[191.33,192.605],[191.01,193.332],[190.606,194.016],[190.123,194.647],[189.57,195.217],[188.953,195.717],[188.281,196.141],[187.564,196.482],[186.811,196.736],[186.033,196.899],[185.242,196.968],[184.448,196.944],[183.663,196.826],[182.897,196.616],[182.161,196.316],[181.466,195.932],[173.25,190.73],[160.25,182.5],[160.25,147.5]]
EXCLUDE_OBJECT_DEFINE NAME=XendStop.stl_id_1_copy_0 CENTER=146.75,165 POLYGON=[[138.25,162],[140.25,160],[155.25,160],[155.25,170],[140.25,170],[138.25,168],[138.25,162]]
M73 P0 R44
;TYPE:Custom
START_PRINT T_BED=110 T_EXTRUDER=260
G90
G21
M83 ; use relative distances for extrusion
; Filament gcode
M106 S0
;LAYER_CHANGE
;Z:0.2
;HEIGHT:0.2
;BEFORE_LAYER_CHANGE
;0.2
G92 E0

SET_VELOCITY_LIMIT ACCEL=1000 ACCEL_TO_DECEL=500
G1 E-.5 F3000
G1 X141.842 Y154.588 F12000
G1 Z.2
G1 E.5 F1800
;TYPE:Skirt
;WIDTH:0.5
G1 F3000
G1 X160.403 Y137.557 E.89038
G1 X161.07 Y137.098 E.02861
G1 X166.904 Y134.181 E.23055
G1 X167.705 Y133.917 E.02981
G1 X183.452 Y131.162 E.56505
G1 X184.664 Y131.026 E.0431
G1 X185.651 Y131.036 E.03489
G1 X186.917 Y131.221 E.04523
G1 X188.563 Y131.757 E.06117
G1 X189.745 Y132.388 E.04738
G1 X190.769 Y133.159 E.04529
G1 X191.955 Y134.42 E.06117
G1 X192.608 Y135.399 E.04163
G1 X193.22 Y136.707 E.05102
G1 X193.668 Y138.464 E.06408
G1 X193.764 Y139.728 E.04482
G1 X193.764 Y190.271 E1.78649
G1 X193.673 Y191.509 E.04387
G1 X193.444 Y192.599 E.03936
G1 X193.089 Y193.625 E.0384
G1 X192.223 Y195.212 E.06388
G1 X191.388 Y196.25 E.04708
G1 X190.609 Y196.981 E.03778
G1 X189.678 Y197.653 E.04057
G1 X188.563 Y198.242 E.04458
G1 X187.541 Y198.618 E.03848
G1 X185.842 Y198.944 E.06117
G1 X184.583 Y198.971 E.04451
G1 X183.584 Y198.857 E.03553
G1 X164.865 Y196.095 E.66881
G1 X163.309 Y195.349 E.06098
G1 X138.269 Y172.137 E1.20684
G1 X136.189 Y170.061 E.10387
G1 X135.336 Y168 E.07884
G1 X135.336 Y162 E.21208
G1 X136.189 Y159.939 E.07884
G1 X138.189 Y157.939 E.09997
G1 X141.813 Y154.615 E.17381
G1 X142.121 Y154.951 F12000
G1 F3000
G1 X160.712 Y137.894 E.8918
G1 X161.274 Y137.507 E.02413
G1 X167.109 Y134.59 E.23055
G1 X167.784 Y134.367 E.02514
G1 X183.531 Y131.612 E.56505
G1 X184.665 Y131.483 E.04035
G1 X185.611 Y131.491 E.03343
G1 X186.617 Y131.622 E.03586
G1 X187.427 Y131.824 E.0295
G1 X188.543 Y132.247 E.0422
G1 X189.636 Y132.866 E.0444
G1 X190.926 Y133.933 E.05914
G1 X191.709 Y134.848 E.04258
G1 X192.368 Y135.912 E.04424
G1 X193.02 Y137.577 E.06321
G1 X193.257 Y138.853 E.04586
G1 X193.307 Y190.271 E1.81743
G1 X193.223 Y191.428 E.041
G1 X193.009 Y192.458 E.0372
G1 X192.674 Y193.432 E.03639
G1 X191.836 Y194.969 E.06187
G1 X191.06 Y195.931 E.04371
G1 X190.321 Y196.626 E.03586
G1 X189.434 Y197.267 E.03866
G1 X188.394 Y197.817 E.0416
G1 X187.427 Y198.175 E.03645
G1 X185.784 Y198.491 E.05914
G1 X184.597 Y198.515 E.04198
G1 X183.642 Y198.404 E.03397
G1 X164.932 Y195.642 E.6685
G1 X163.62 Y195.014 E.05141
G1 X138.58 Y171.802 E1.20684
G1 X136.513 Y169.737 E.10326
G1 X135.793 Y168 E.06647
G1 X135.793 Y162 E.21208
G1 X136.513 Y160.263 E.06647
G1 X138.513 Y158.263 E.09997
G1 X142.092 Y154.978 E.1717
; printing object Gantry_MGN9_Lower.stl id:0 copy 0
EXCLUDE_OBJECT_START NAME=Gantry_MGN9_Lower.stl_id_0_copy_0
G1 E-.5
G1 X160.55 Y164.041 F12000
G1 E.5 F1800
;TYPE:Support
G1 F3000
G1 X156.539 Y164.041 E.14177
G1 X156.539 Y154.29 E.34466
G1 X160.55 Y154.29 E.14177
G1 X160.55 Y163.972 E.34224
G1 X160.139 Y163.63 F12000
G1 F3000
G1 X156.95 Y163.63 E.11269
G1 X156.95 Y154.701 E.31558
G1 X160.139 Y154.701 E.11269
G1 X160.139 Y163.63 E.31558
G1 X159.631 Y163.122 F12000
G1 F3000
G1 X157.458 Y163.122 E.07679
G1 X157.458 Y155.209 E.27968
G1 X159.631 Y155.209 E.07679
G1 X159.631 Y163.122 E.27968
G1 X159.123 Y162.614 F12000
G1 F3000
G1 X157.966 Y162.614 E.04089
G1 X157.966 Y155.717 E.24378
G1 X159.123 Y155.717 E.04089
G1 X159.123 Y162.614 E.24378
G1 E-.5
G1 X160.55 Y178.626 F12000
G1 E.5 F1800
G1 F3000
G1 X156.539 Y178.626 E.14177
G1 X156.539 Y165.958 E.44777
G1 X160.55 Y165.958 E.14177
G1 X160.55 Y178.558 E.44534
G1 X160.139 Y166.37 F12000
G1 F3000
G1 X160.139 Y178.215 E.41869
G1 X156.95 Y178.215 E.11269
G1 X156.95 Y166.37 E.41869
G1 X160.139 Y166.37 E.11269
G1 X159.631 Y166.877 F12000
G1 F3000
G1 X159.631 Y177.707 E.38278
G1 X157.458 Y177.707 E.07679
G1 X157.458 Y166.877 E.38278
G1 X159.631 Y166.877 E.07679
G1 X159.123 Y167.385 F12000
G1 F3000
G1 X159.123 Y177.199 E.34688
G1 X157.966 Y177.199 E.04089
G1 X157.966 Y167.385 E.34688
G1 X159.123 Y167.385 E.04089
G1 E-.5
G1 X160.55 Y182.158 F12000
G1 E.5 F1800
G1 F3000
G1 X160.699 Y182.429 E.0109
G1 X176.506 Y192.436 E.66128
G1 X176.281 Y193.212 E.02853
G1 X165.29 Y193.212 E.38847
G1 X165.29 Y190.295 E.10311
G1 X162.373 Y190.295 E.10311
G1 X162.373 Y187.378 E.10311
G1 X159.456 Y187.378 E.10311
G1 X159.456 Y181.058 E.22336
G1 X160.55 Y180.777 E.03992
G1 X160.55 Y182.09 E.0464
G1 X160.139 Y181.308 F12000
G1 F3000
G1 X160.139 Y182.264 E.03381
G1 X160.389 Y182.72 E.01838
G1 X176.025 Y192.619 E.65409
G1 X175.972 Y192.8 E.00669
G1 X165.702 Y192.8 E.36301
G1 X165.702 Y189.883 E.10311
G1 X162.785 Y189.883 E.10311
G1 X162.785 Y186.966 E.10311
G1 X159.868 Y186.966 E.10311
G1 X159.868 Y181.377 E.19754
G1 X160.139 Y181.308 E.00989
G1 X160.375 Y183.312 F12000
G1 F3000
G1 X174.039 Y191.963 E.57161
G1 X173.943 Y192.292 E.01214
G1 X166.21 Y192.292 E.27336
G1 X166.21 Y189.375 E.10311
G1 X163.292 Y189.375 E.10311
G1 X163.292 Y186.458 E.10311
G1 X160.375 Y186.458 E.10311
G1 X160.375 Y183.312 E.11121
G1 X163.8 Y186.081 F12000
G1 F3000
G1 X172.288 Y191.455 E.35506
G1 X172.192 Y191.785 E.01214
G1 X166.717 Y191.785 E.1935
G1 X166.717 Y188.868 E.10311
G1 X163.8 Y188.868 E.10311
G1 X163.8 Y186.081 E.09848
G1 X167.225 Y188.851 F12000
G1 F3000
G1 X170.536 Y190.947 E.1385
G1 X170.44 Y191.277 E.01214
G1 X167.225 Y191.277 E.11364
G1 X167.225 Y188.851 E.08574
G1 X167.733 Y189.774 F12000
G1 F3000
G1 X168.784 Y190.439 E.04398
G1 X168.689 Y190.769 E.01214
G1 X167.733 Y190.769 E.03378
G1 X167.733 Y189.774 E.03518
G1 X165.833 Y188.36 F12000
G1 F3000
G1 X164.308 Y188.36 E.05389
G1 X164.308 Y187.004 E.04792
G1 X165.929 Y188.03 E.06779
G1 X165.833 Y188.36 E.01214
G1 X162.977 Y185.95 F12000
G1 F3000
G1 X160.883 Y185.95 E.07401
G1 X160.883 Y184.235 E.06065
G1 X163.073 Y185.621 E.09159
G1 X162.977 Y185.95 E.01214
G1 E-.5
G1 X170.454 Y187.185 F12000
G1 X182.308 Y185.521
G1 X187.792 Y185.521
G1 X188.814 Y187.291
G1 X189.014 Y187.714
G1 X189.692 Y190.011
G1 X189.149 Y190.271
G1 E.5 F1800
G1 F3000
G1 X187.1 Y193.821 E.14489
G1 X183 Y193.821 E.14489
G1 X180.951 Y190.271 E.14489
G1 X183 Y186.721 E.14489
G1 X187.1 Y186.721 E.14489
G1 X189.115 Y190.212 E.14247
G1 X183.238 Y187.133 F12000
G1 F3000
G1 X186.862 Y187.133 E.1281
G1 X188.674 Y190.271 E.1281
G1 X186.862 Y193.41 E.1281
G1 X183.238 Y193.41 E.1281
G1 X181.426 Y190.271 E.1281
G1 X183.238 Y187.133 E.1281
G1 X183.531 Y187.64 F12000
G1 F3000
G1 X186.569 Y187.64 E.10737
G1 X188.088 Y190.271 E.10737
G1 X186.569 Y192.902 E.10737
G1 X183.531 Y192.902 E.10737
G1 X182.012 Y190.271 E.10737
G1 X183.531 Y187.64 E.10737
G1 X183.824 Y188.148 F12000
G1 F3000
G1 X186.276 Y188.148 E.08664
G1 X187.501 Y190.271 E.08664
G1 X186.276 Y192.394 E.08664
G1 X183.824 Y192.394 E.08664
G1 X182.599 Y190.271 E.08664
G1 X183.824 Y188.148 E.08664
G1 X184.118 Y188.656 F12000
G1 F3000
G1 X185.982 Y188.656 E.06592
G1 X186.915 Y190.271 E.06592
G1 X185.982 Y191.886 E.06592
G1 X184.118 Y191.886 E.06592
G1 X183.185 Y190.271 E.06592
G1 X184.118 Y188.656 E.06592
G1 X184.411 Y189.164 F12000
G1 F3000
G1 X185.689 Y189.164 E.04519
G1 X186.328 Y190.271 E.04519
G1 X185.689 Y191.378 E.04519
G1 X184.411 Y191.378 E.04519
G1 X183.772 Y190.271 E.04519
G1 X184.411 Y189.164 E.04519
G1 X184.704 Y189.672 F12000
G1 F3000
G1 X185.396 Y189.672 E.02446
G1 X185.742 Y190.271 E.02446
G1 X185.396 Y190.87 E.02446
G1 X184.704 Y190.87 E.02446
G1 X184.358 Y190.271 E.02446
G1 X184.704 Y189.672 E.02446
G1 E-.5
G1 X184.239 Y185.521 F12000
G1 X182.4 Y163.758
G1 X181.8 Y163.758
G1 E.5 F1800
G1 F3000
G1 X181.8 Y166.241 E.08775
G1 X179.65 Y167.482 E.08775
G1 X177.5 Y166.241 E.08775
G1 X177.5 Y163.758 E.08775
G1 X179.65 Y162.517 E.08775
G1 X181.741 Y163.724 E.08533
M73 P1 R44
G1 X177.911 Y163.996 F12000
G1 F3000
G1 X179.65 Y162.992 E.07096
G1 X181.389 Y163.996 E.07096
G1 X181.389 Y166.003 E.07096
G1 X179.65 Y167.007 E.07096
G1 X177.911 Y166.003 E.07096
G1 X177.911 Y163.996 E.07096
G1 X178.419 Y164.289 F12000
G1 F3000
G1 X179.65 Y163.578 E.05023
G1 X180.881 Y164.289 E.05023
G1 X180.881 Y165.71 E.05023
G1 X179.65 Y166.421 E.05023
G1 X178.419 Y165.71 E.05023
G1 X178.419 Y164.289 E.05023
G1 X178.927 Y164.582 F12000
G1 F3000
G1 X179.65 Y164.165 E.0295
G1 X180.373 Y164.582 E.0295
G1 X180.373 Y165.417 E.0295
G1 X179.65 Y165.834 E.0295
G1 X178.927 Y165.417 E.0295
G1 X178.927 Y164.582 E.0295
G1 E-.5
G1 X182.4 Y164.274 F12000
G1 X183.3 Y164.194
G1 X188.2 Y163.758
G1 E.5 F1800
G1 F3000
G1 X188.2 Y166.241 E.08775
G1 X186.05 Y167.482 E.08775
G1 X183.9 Y166.241 E.08775
G1 X183.9 Y163.758 E.08775
G1 X186.05 Y162.517 E.08775
G1 X188.141 Y163.724 E.08533
G1 X184.311 Y163.996 F12000
G1 F3000
G1 X186.05 Y162.992 E.07096
G1 X187.789 Y163.996 E.07096
G1 X187.789 Y166.003 E.07096
G1 X186.05 Y167.007 E.07096
G1 X184.311 Y166.003 E.07096
G1 X184.311 Y163.996 E.07096
G1 X184.819 Y164.289 F12000
G1 F3000
G1 X186.05 Y163.578 E.05023
G1 X187.281 Y164.289 E.05023
G1 X187.281 Y165.71 E.05023
G1 X186.05 Y166.421 E.05023
G1 X184.819 Y165.71 E.05023
G1 X184.819 Y164.289 E.05023
G1 X185.327 Y164.582 F12000
G1 F3000
G1 X186.05 Y164.165 E.0295
G1 X186.773 Y164.582 E.0295
G1 X186.773 Y165.417 E.0295
G1 X186.05 Y165.834 E.0295
G1 X185.327 Y165.417 E.0295
G1 X185.327 Y164.582 E.0295
G1 E-.5
G1 X185.844 Y161.25 F12000
G1 X189.878 Y139.728
G1 X189.727 Y139.468
G1 X189.185 Y139.728
G1 E.5 F1800
G1 F3000
G1 X187.135 Y143.278 E.14489
G1 X183.036 Y143.278 E.14489
G1 X180.986 Y139.728 E.14489
G1 X183.036 Y136.178 E.14489
G1 X187.135 Y136.178 E.14489
G1 X189.15 Y139.669 E.14247
G1 X183.273 Y142.867 F12000
G1 F3000
G1 X181.461 Y139.728 E.1281
G1 X183.273 Y136.589 E.1281
G1 X186.898 Y136.589 E.1281
G1 X188.71 Y139.728 E.1281
G1 X186.898 Y142.867 E.1281
G1 X183.273 Y142.867 E.1281
G1 X183.567 Y142.359 F12000
G1 F3000
G1 X182.048 Y139.728 E.10737
G1 X183.567 Y137.097 E.10737
G1 X186.604 Y137.097 E.10737
G1 X188.123 Y139.728 E.10737
G1 X186.604 Y142.359 E.10737
G1 X183.567 Y142.359 E.10737
G1 X183.86 Y141.851 F12000
G1 F3000
G1 X182.634 Y139.728 E.08664
G1 X183.86 Y137.605 E.08664
G1 X186.311 Y137.605 E.08664
G1 X187.537 Y139.728 E.08664
G1 X186.311 Y141.851 E.08664
G1 X183.86 Y141.851 E.08664
G1 X184.153 Y141.343 F12000
G1 F3000
G1 X183.221 Y139.728 E.06592
G1 X184.153 Y138.113 E.06592
G1 X186.018 Y138.113 E.06592
G1 X186.95 Y139.728 E.06592
G1 X186.018 Y141.343 E.06592
G1 X184.153 Y141.343 E.06592
G1 X184.446 Y140.835 F12000
G1 F3000
G1 X183.807 Y139.728 E.04519
G1 X184.446 Y138.621 E.04519
G1 X185.725 Y138.621 E.04519
G1 X186.364 Y139.728 E.04519
G1 X185.725 Y140.835 E.04519
G1 X184.446 Y140.835 E.04519
G1 X184.739 Y140.327 F12000
G1 F3000
G1 X184.393 Y139.728 E.02446
G1 X184.739 Y139.129 E.02446
G1 X185.431 Y139.129 E.02446
G1 X185.777 Y139.728 E.02446
G1 X185.431 Y140.327 E.02446
G1 X184.739 Y140.327 E.02446
G1 E-.5
G1 X180.145 Y138.785 F12000
G1 X177.972 Y138.055
G1 X176.506 Y137.563
G1 E.5 F1800
G1 F3000
G1 X160.699 Y147.571 E.66128
G1 X160.55 Y147.841 E.0109
G1 X160.55 Y149.222 E.04882
G1 X159.456 Y148.941 E.03992
G1 X159.456 Y142.622 E.22336
G1 X162.373 Y142.622 E.10311
G1 X162.373 Y139.704 E.10311
G1 X168.207 Y139.704 E.20621
G1 X168.207 Y136.787 E.10311
G1 X176.281 Y136.787 E.28537
G1 X176.487 Y137.497 E.02611
G1 E-.5
G1 X160.139 Y148.691 F12000
M73 P1 R43
G1 E.5 F1800
G1 F3000
G1 X159.868 Y148.622 E.00989
G1 X159.868 Y143.033 E.19754
G1 X162.785 Y143.033 E.10311
G1 X162.785 Y140.116 E.10311
G1 X168.619 Y140.116 E.20621
G1 X168.619 Y137.199 E.10311
G1 X175.972 Y137.199 E.2599
G1 X176.025 Y137.38 E.00669
G1 X160.389 Y147.28 E.65409
G1 X160.139 Y147.735 E.01838
G1 X160.139 Y148.691 E.03381
G1 X160.375 Y146.687 F12000
G1 F3000
G1 X160.375 Y143.541 E.11121
G1 X163.292 Y143.541 E.10311
G1 X163.292 Y140.624 E.10311
G1 X169.127 Y140.624 E.20621
G1 X169.127 Y137.707 E.10311
G1 X173.943 Y137.707 E.17025
G1 X174.039 Y138.036 E.01214
G1 X160.375 Y146.687 E.57161
G1 X160.883 Y145.765 F12000
G1 F3000
G1 X160.883 Y144.049 E.06065
G1 X162.977 Y144.049 E.07401
G1 X163.073 Y144.378 E.01214
G1 X160.883 Y145.765 E.09159
G1 X163.8 Y143.918 F12000
G1 F3000
G1 X163.8 Y141.132 E.09848
G1 X167.584 Y141.132 E.13375
G1 X167.68 Y141.461 E.01214
G1 X163.8 Y143.918 E.16231
G1 X164.308 Y142.995 F12000
G1 F3000
G1 X164.308 Y141.639 E.04792
G1 X165.833 Y141.639 E.05389
G1 X165.929 Y141.969 E.01214
G1 X164.308 Y142.995 E.06778
G1 X169.635 Y140.224 F12000
G1 F3000
G1 X169.635 Y138.215 E.07103
G1 X172.192 Y138.215 E.09039
G1 X172.287 Y138.544 E.01214
G1 X169.635 Y140.224 E.11099
G1 E-.5
G1 X161.5 Y148.188 F12000
G1 E.5 F1800
;TYPE:Outer wall
G1 F3000
G1 X180.887 Y135.913 E.81106
G3 X182.394 Y134.903 I288.439 J428.659 E.06412
G3 X184.02 Y134.377 I3.778 J8.908 E.06048
G3 X185.437 Y134.294 I1.023 J5.305 E.05031
G3 X187.077 Y134.665 I-.604 J6.468 E.0596
G3 X188.014 Y135.069 I-.871 J3.317 E.03621
G3 X189.04 Y136.016 I-14.579 J16.803 E.04935
G3 X190.401 Y138.723 I-4.002 J3.709 E.10852
G3 X190.591 Y139.731 I-6.349 J1.715 E.0363
G2 X190.5 Y141.71 I21.26 J1.965 E.07003
G1 X190.5 Y188.289 E1.6464
G2 X190.573 Y190.266 I23.786 J.11 E.06995
G3 X190.391 Y191.317 I-7.292 J-.725 E.03773
G1 X190.332 Y191.616 E.01076
G3 X188.246 Y194.706 I-5.547 J-1.495 E.13422
G3 X187.379 Y195.237 I-1.556 J-1.569 E.03624
G3 X186.112 Y195.615 I-4.352 J-12.262 E.04677
G3 X183.031 Y195.335 I-1.039 J-5.643 E.1107
G3 X181.72 Y194.639 I.805 J-3.099 E.05295
G2 X180.887 Y194.086 I-9.884 J14.001 E.03532
G1 X161.5 Y181.811 E.81107
G1 X161.5 Y148.228 E1.18705
G1 E-.5
G1 X187.684 Y144.228 F12000
G1 E.5 F1800
G1 F3000
G1 X182.487 Y144.228 E.18366
G1 X179.889 Y139.728 E.18366
G1 X181.668 Y136.647 E.12574
G3 X182.535 Y135.311 I11.321 J6.398 E.05634
G3 X183.642 Y135.232 I1.282 J10.137 E.03924
G3 X186.045 Y135.228 I1.625 J285.125 E.08493
G3 X187.625 Y135.33 I.126 J10.338 E.056
G1 X187.988 Y135.814 E.02139
G3 X189.462 Y138.309 I-40.536 J25.641 E.10244
G3 X190.156 Y139.728 I-8.302 J4.94 E.05589
