; HEADER_BLOCK_START
; generated by OrcaSlicer 1.6.4-beta2 on 2023-08-07 at 15:39:20
; total layer number: 72
; HEADER_BLOCK_END

; THUMBNAIL_BLOCK_START
; THUMBNAIL_BLOCK_END

; external perimeters extrusion width = 0.40mm
; perimeters extrusion width = 0.46mm
; infill extrusion width = 0.64mm
; solid infill extrusion width = 0.56mm
; top infill extrusion width = 0.40mm
; first layer extrusion width = 0.50mm

; external perimeters extrusion width = 0.40mm
; perimeters extrusion width = 0.46mm
; infill extrusion width = 0.64mm
; solid infill extrusion width = 0.56mm
; top infill extrusion width = 0.40mm
; first layer extrusion width = 0.50mm

; EXECUTABLE_BLOCK_START
EXCLUDE_OBJECT_DEFINE NAME=gantry_top_(1).stl_id_0_copy_0 CENTER=178.4,165 POLYGON=[[167.5,139.75],[167.542,138.971],[167.668,138.201],[167.877,137.45],[168.166,136.726],[168.531,136.037],[168.969,135.391],[169.474,134.797],[170.04,134.261],[170.661,133.789],[171.33,133.387],[172.038,133.06],[172.777,132.811],[173.539,132.644],[174.314,132.56],[175.094,132.561],[175.869,132.645],[176.631,132.813],[177.369,133.063],[178.077,133.391],[178.745,133.793],[179.365,134.266],[179.931,134.803],[180.436,135.397],[189.3,147.079],[189.3,182.886],[180.442,194.594],[179.938,195.19],[179.373,195.728],[178.752,196.201],[178.085,196.605],[177.377,196.934],[176.638,197.184],[175.876,197.353],[175.1,197.439],[174.32,197.44],[173.544,197.356],[172.782,197.19],[172.042,196.941],[171.334,196.614],[170.665,196.213],[170.043,195.741],[169.476,195.205],[168.971,194.61],[168.532,193.965],[168.167,193.276],[167.878,192.551],[167.669,191.799],[167.542,191.029],[167.5,190.25],[167.5,139.75]]
EXCLUDE_OBJECT_DEFINE NAME=gantry_top_(1).stl_id_1_copy_0 CENTER=151.6,165 POLYGON=[[140.7,147.114],[149.558,135.406],[150.062,134.81],[150.627,134.272],[151.248,133.799],[151.915,133.395],[152.623,133.066],[153.362,132.816],[154.124,132.647],[154.9,132.561],[155.68,132.56],[156.456,132.644],[157.218,132.81],[157.958,133.059],[158.666,133.386],[159.335,133.787],[159.957,134.259],[160.524,134.795],[161.029,135.39],[161.468,136.035],[161.833,136.724],[162.122,137.449],[162.331,138.201],[162.458,138.971],[162.5,139.75],[162.5,190.25],[162.458,191.029],[162.332,191.799],[162.123,192.55],[161.834,193.274],[161.469,193.963],[161.031,194.609],[160.526,195.203],[159.96,195.739],[159.339,196.211],[158.67,196.613],[157.962,196.94],[157.223,197.189],[156.461,197.356],[155.686,197.44],[154.906,197.439],[154.131,197.355],[153.369,197.187],[152.631,196.937],[151.923,196.609],[151.255,196.207],[150.635,195.734],[150.069,195.197],[149.564,194.603],[140.7,182.921],[140.7,147.114]]
M73 P0 R23
;TYPE:Custom
START_PRINT T_BED=110 T_EXTRUDER=260
G90
G21
M83 ; use relative distances for extrusion
; Filament gcode
M106 S0
;LAYER_CHANGE
;Z:0.2
;HEIGHT:0.2
;BEFORE_LAYER_CHANGE
;0.2
G92 E0

SET_VELOCITY_LIMIT ACCEL=1000 ACCEL_TO_DECEL=500
G1 E-.5 F3000
G1 X148.375 Y132.942 F12000
G1 Z.2
G1 E.5 F1800
;TYPE:Skirt
;WIDTH:0.5
G1 F3000
G1 X149.182 Y132.209 E.03854
G1 X150.066 Y131.571 E.03853
G1 X150.969 Y131.057 E.03672
G1 X151.96 Y130.63 E.03814
G1 X152.992 Y130.316 E.03814
G1 X154.921 Y130.047 E.06883
G1 X174.862 Y130.038 E.70486
G1 X176.755 Y130.261 E.06734
G1 X178.265 Y130.717 E.05575
G1 X179.924 Y131.564 E.06587
G1 X180.808 Y132.201 E.03851
G1 X181.616 Y132.933 E.03851
G1 X182.438 Y133.878 E.04429
G1 X191.621 Y145.979 E.53695
G1 X192.214 Y147.741 E.0657
G1 X192.214 Y182.223 E1.21881
G1 X191.624 Y183.981 E.06556
G1 X182.344 Y196.239 E.5434
G1 X181.069 Y197.581 E.06544
G1 X180.207 Y198.248 E.03853
G1 X179.276 Y198.815 E.03853
G1 X178.275 Y199.279 E.039
G1 X176.764 Y199.737 E.05578
G1 X174.871 Y199.961 E.06738
G1 X155.138 Y199.962 E.6975
G1 X153.842 Y199.851 E.04596
G1 X152.118 Y199.424 E.06279
G1 X150.979 Y198.948 E.04361
G1 X149.803 Y198.255 E.04824
G1 X148.941 Y197.589 E.03851
G1 X147.664 Y196.25 E.06541
G1 X138.379 Y184.021 E.54273
G1 X137.786 Y182.259 E.0657
G1 X137.786 Y147.777 E1.21881
G1 X138.376 Y146.019 E.06556
G1 X147.553 Y133.889 E.53762
G1 X148.349 Y132.972 E.0429
G1 X148.688 Y133.275 F12000
G1 F3000
G1 X149.456 Y132.575 E.03672
G1 X150.297 Y131.965 E.03672
G1 X151.162 Y131.471 E.03519
G1 X152.106 Y131.063 E.03639
G1 X153.091 Y130.762 E.03639
G1 X154.954 Y130.503 E.06649
G1 X174.862 Y130.496 E.70367
G1 X176.67 Y130.71 E.06436
G1 X178.082 Y131.135 E.0521
G1 X179.694 Y131.959 E.06398
G1 X180.535 Y132.567 E.0367
G1 X181.303 Y133.266 E.0367
G1 X182.074 Y134.154 E.04157
G1 X191.257 Y146.255 E.53695
G1 X191.757 Y147.741 E.05539
G1 X191.757 Y182.223 E1.21881
G1 X191.259 Y183.706 E.05527
G1 X181.996 Y195.943 E.54249
G1 X180.756 Y197.248 E.06363
G1 X179.933 Y197.882 E.03672
G1 X179.045 Y198.421 E.03672
G1 X178.091 Y198.86 E.03711
G1 X176.68 Y199.288 E.05212
G1 X174.871 Y199.504 E.0644
G1 X155.138 Y199.504 E.69747
G1 X153.926 Y199.402 E.04298
G1 X152.264 Y198.991 E.06053
G1 X151.171 Y198.534 E.04186
G1 X150.076 Y197.889 E.0449
G1 X149.253 Y197.256 E.0367
G1 X148.012 Y195.954 E.06359
G1 X138.743 Y183.745 E.54182
G1 X138.243 Y182.259 E.05539
G1 X138.243 Y147.777 E1.21881
G1 X138.741 Y146.294 E.05527
G1 X147.918 Y134.165 E.53762
G1 X148.662 Y133.306 E.04018
; printing object gantry top (1).stl id:0 copy 0
EXCLUDE_OBJECT_START NAME=gantry_top_(1).stl_id_0_copy_0
G1 E-.5
G1 X188.95 Y147.859 F12000
G1 E.5 F1800
;TYPE:Outer wall
G1 F3000
G1 X188.95 Y182.106 E1.21049
G1 X179.85 Y194.134 E.53312
M73 P0 R22
G3 X168.25 Y190.24 I-5.144 J-3.901 E.56856
G1 X168.25 Y139.76 E1.78427
G3 X174.848 Y133.303 I6.46 J.002 E.3635
G3 X179.844 Y135.859 I-.174 J6.5 E.20509
G1 X188.926 Y147.827 E.53103
G1 X188.493 Y148.012 F12000
;TYPE:Inner wall
G1 F3000
G1 X188.493 Y181.952 E1.19963
M73 P1 R22
G1 X179.493 Y193.848 E.52724
G3 X168.707 Y190.227 I-4.787 J-3.614 E.52921
G1 X168.707 Y139.772 E1.78336
G3 X174.832 Y133.76 I6.019 J.006 E.33772
G3 X179.488 Y136.145 I-.153 J6.035 E.19126
G1 X188.469 Y147.98 E.52514
G1 X188.036 Y148.166 F12000
G1 F3000
G1 X188.036 Y181.799 E1.18877
G1 X179.136 Y193.562 E.52136
G3 X169.164 Y190.214 I-4.431 J-3.327 E.48987
G1 X169.164 Y139.785 E1.78246
G3 X174.815 Y134.217 I5.56 J-.009 E.31223
G3 X179.131 Y136.432 I-.169 J5.642 E.17725
G1 X188.012 Y148.134 E.51925
G1 X187.579 Y148.32 F12000
G1 F3000
G1 X187.579 Y181.645 E1.17791
G1 X178.779 Y193.276 E.51549
G3 X169.621 Y190.201 I-4.075 J-3.04 E.45053
G1 X169.621 Y139.798 E1.78155
G3 X174.798 Y134.674 I5.101 J-.024 E.28675
G3 X178.775 Y136.718 I-.146 J5.174 E.16342
G1 X187.555 Y148.288 E.51336
G1 E-.5
G1 X177.176 Y137.586 F12000
G1 X176.75 Y137.179
G1 X176.258 Y136.854
G1 X175.716 Y136.622
G1 X175.141 Y136.491
G1 X174.552 Y136.465
G1 X174.043 Y136.534
G1 X174.088 Y136.866
G1 E.5 F1800
;TYPE:Outer wall
G1 F3000
G1 X174.568 Y136.802 E.0171
G3 X177.651 Y139.75 I.133 J2.948 E.16855
G3 X173.539 Y142.464 I-2.966 J-.023 E.20546
G3 X173.541 Y137.036 I1.18 J-2.714 E.24282
G1 X174.049 Y136.873 E.01886
G1 X174.397 Y136.363 F12000
;TYPE:Inner wall
G1 F3000
G1 X174.547 Y136.343 E.00535
G1 X175.158 Y136.37 E.02161
G1 X175.754 Y136.506 E.02161
G1 X176.316 Y136.747 E.02161
G1 X176.826 Y137.083 E.02161
G1 X177.268 Y137.506 E.02161
G1 X177.628 Y138.001 E.02161
G1 X177.893 Y138.551 E.02161
G1 X178.056 Y139.141 E.02161
G1 X178.11 Y139.751 E.02166
G1 X178.053 Y140.369 E.02194
G1 X177.893 Y140.948 E.02122
G1 X177.628 Y141.499 E.02161
G1 X177.268 Y141.994 E.02161
G1 X176.826 Y142.416 E.02161
G1 X176.316 Y142.753 E.02161
G1 X175.754 Y142.993 E.02161
G1 X175.158 Y143.129 E.02161
G1 X174.547 Y143.157 E.02161
G1 X173.941 Y143.075 E.02161
G1 X173.358 Y142.885 E.02166
G1 X172.813 Y142.589 E.02194
G1 X172.343 Y142.215 E.02122
G1 X171.941 Y141.754 E.02161
G1 X171.627 Y141.23 E.02161
G1 X171.413 Y140.657 E.02161
G1 X171.303 Y140.055 E.02161
G1 X171.303 Y139.444 E.02161
G1 X171.413 Y138.843 E.02161
G1 X171.627 Y138.27 E.02161
G1 X171.941 Y137.745 E.02161
G1 X172.343 Y137.285 E.02161
G1 X172.821 Y136.904 E.02161
G1 X173.361 Y136.613 E.02166
G1 X173.952 Y136.423 E.02194
G1 X174.357 Y136.369 E.01446
G1 X174.791 Y135.896 F12000
G1 F3000
G1 X175.219 Y135.916 E.01515
G1 X175.896 Y136.07 E.02452
G1 X176.534 Y136.343 E.02452
G1 X177.112 Y136.725 E.02452
G1 X177.614 Y137.204 E.02452
G1 X178.022 Y137.765 E.02452
G1 X178.323 Y138.39 E.02452
G1 X178.507 Y139.059 E.02452
G1 X178.569 Y139.752 E.0246
G1 X178.504 Y140.452 E.02485
G1 X178.323 Y141.109 E.0241
G1 X178.022 Y141.734 E.02452
G1 X177.614 Y142.296 E.02452
G1 X177.112 Y142.775 E.02452
G1 X176.534 Y143.157 E.02452
G1 X175.896 Y143.43 E.02452
G1 X175.219 Y143.584 E.02452
G1 X174.526 Y143.615 E.02452
G1 X173.839 Y143.522 E.02452
G1 X173.177 Y143.307 E.0246
G1 X172.559 Y142.972 E.02485
G1 X172.026 Y142.546 E.0241
G1 X171.57 Y142.024 E.02452
G1 X171.214 Y141.429 E.02452
G1 X170.97 Y140.779 E.02452
G1 X170.846 Y140.097 E.02452
G1 X170.846 Y139.403 E.02452
G1 X170.97 Y138.72 E.02452
G1 X171.214 Y138.071 E.02452
G1 X171.57 Y137.475 E.02452
G1 X172.026 Y136.953 E.02452
G1 X172.568 Y136.521 E.02452
G1 X173.181 Y136.191 E.0246
G1 X173.851 Y135.976 E.02485
G1 X174.526 Y135.884 E.0241
G1 X174.751 Y135.895 E.00796
G1 X175.116 Y135.453 F12000
G1 F3000
G1 X175.281 Y135.461 E.00585
G1 X176.037 Y135.633 E.02743
G1 X176.751 Y135.938 E.02743
G1 X177.399 Y136.366 E.02743
G1 X177.959 Y136.902 E.02743
G1 X178.416 Y137.53 E.02743
G1 X178.752 Y138.229 E.02743
G1 X178.959 Y138.977 E.02743
G1 X179.028 Y139.753 E.02754
G1 X178.955 Y140.535 E.02776
G1 X178.752 Y141.271 E.02698
G1 X178.416 Y141.97 E.02743
G1 X177.959 Y142.597 E.02743
G1 X177.399 Y143.134 E.02743
G1 X176.751 Y143.561 E.02743
G1 X176.037 Y143.866 E.02743
G1 X175.281 Y144.039 E.02743
G1 X174.506 Y144.074 E.02743
G1 X173.737 Y143.969 E.02743
G1 X172.996 Y143.729 E.02754
G1 X172.306 Y143.354 E.02776
G1 X171.709 Y142.878 E.02698
G1 X171.198 Y142.294 E.02743
G1 X170.8 Y141.628 E.02743
G1 X170.528 Y140.901 E.02743
G1 X170.389 Y140.138 E.02743
G1 X170.389 Y139.362 E.02743
G1 X170.528 Y138.598 E.02743
G1 X170.8 Y137.872 E.02743
G1 X171.198 Y137.206 E.02743
G1 X171.709 Y136.621 E.02743
G1 X172.316 Y136.138 E.02743
G1 X173.002 Y135.768 E.02754
G1 X173.749 Y135.528 E.02776
G1 X174.506 Y135.426 E.02698
G1 X175.076 Y135.452 E.02016
G1 E-.5
G1 X177.176 Y137.586 F12000
G1 X177.523 Y138.063
G1 X177.779 Y138.594
G1 X177.936 Y139.163
G1 X177.989 Y139.751
G1 X176.09 Y164.978
G1 X176.03 Y165.51
G1 X172.834 Y187.98
G1 X173.087 Y188.2
G1 E.5 F1800
;TYPE:Outer wall
G1 F3000
G1 X173.165 Y188.125 E.00383
G3 X174.541 Y187.373 I2.06 J2.134 E.05611
G3 X177.963 Y189.213 I.659 J2.877 E.14989
G3 X173.164 Y192.386 I-2.772 J1.024 E.28003
G1 X172.811 Y191.982 E.01895
G3 X172.819 Y188.524 I2.414 J-1.723 E.1305
G1 X173.061 Y188.231 E.01342
G1 X172.868 Y187.766 F12000
;TYPE:Inner wall
G1 F3000
G1 X173.319 Y187.405 E.0204
G1 X173.857 Y187.115 E.02162
G1 X174.439 Y186.926 E.02162
G1 X175.045 Y186.843 E.02162
G1 X175.656 Y186.87 E.02162
G1 X176.252 Y187.006 E.02162
G1 X176.815 Y187.246 E.02162
G1 X177.325 Y187.583 E.02162
G1 X177.768 Y188.005 E.02162
G1 X178.127 Y188.5 E.02162
G1 X178.393 Y189.052 E.02165
G1 X178.556 Y189.648 E.02185
G1 X178.61 Y190.25 E.02135
G1 X178.556 Y190.851 E.02134
G1 X178.395 Y191.44 E.02158
G1 X178.128 Y191.999 E.02189
G1 X177.772 Y192.488 E.02139
G1 X177.326 Y192.916 E.02186
G1 X176.815 Y193.254 E.02165
G1 X176.252 Y193.494 E.02162
G1 X175.656 Y193.63 E.02162
G1 X175.045 Y193.657 E.02162
G1 X174.439 Y193.574 E.02162
G1 X173.857 Y193.385 E.02162
G1 X173.319 Y193.094 E.02161
G1 X172.847 Y192.718 E.02136
G1 X172.439 Y192.252 E.02187
G1 X172.126 Y191.726 E.02164
G1 X171.912 Y191.153 E.02162
G1 X171.803 Y190.552 E.0216
G1 X171.803 Y189.948 E.02134
G1 X171.912 Y189.346 E.0216
G1 X172.126 Y188.774 E.02162
G1 X172.439 Y188.248 E.02162
G1 X172.837 Y187.791 E.02143
G1 X172.579 Y187.412 F12000
G1 F3000
G1 X173.066 Y187.023 E.02203
G1 X173.676 Y186.693 E.02453
G1 X174.336 Y186.478 E.02453
G1 X175.024 Y186.385 E.02453
G1 X175.717 Y186.415 E.02453
G1 X176.394 Y186.569 E.02453
G1 X177.032 Y186.842 E.02453
G1 X177.611 Y187.224 E.02453
G1 X178.113 Y187.703 E.02453
G1 X178.521 Y188.265 E.02453
G1 X178.823 Y188.891 E.02458
G1 X179.008 Y189.567 E.02476
G1 X179.069 Y190.25 E.02424
G1 X179.008 Y190.933 E.02423
G1 X178.825 Y191.6 E.02447
G1 X178.522 Y192.234 E.02482
G1 X178.118 Y192.79 E.0243
G1 X177.613 Y193.275 E.02477
G1 X177.032 Y193.658 E.02458
G1 X176.394 Y193.93 E.02453
G1 X175.717 Y194.084 E.02453
G1 X175.024 Y194.115 E.02453
G1 X174.336 Y194.021 E.02453
G1 X173.676 Y193.806 E.02453
G1 X173.066 Y193.477 E.02451
G1 X172.53 Y193.049 E.02426
G1 X172.068 Y192.522 E.02478
G1 X171.712 Y191.925 E.02456
G1 X171.469 Y191.275 E.02453
G1 X171.346 Y190.593 E.0245
G1 X171.346 Y189.907 E.02423
G1 X171.469 Y189.225 E.0245
G1 X171.712 Y188.575 E.02453
G1 X172.067 Y187.979 E.02453
G1 X172.523 Y187.456 E.02453
G1 X172.547 Y187.437 E.00108
G1 X172.289 Y187.058 F12000
G1 F3000
G1 X172.812 Y186.64 E.02367
G1 X173.496 Y186.271 E.02744
G1 X174.234 Y186.031 E.02744
G1 X175.003 Y185.926 E.02744
G1 X175.778 Y185.96 E.02744
G1 X176.535 Y186.133 E.02744
G1 X177.249 Y186.438 E.02744
G1 X177.897 Y186.865 E.02744
G1 X178.459 Y187.401 E.02744
G1 X178.915 Y188.029 E.02744
G1 X179.253 Y188.73 E.02751
G1 X179.459 Y189.485 E.02767
G1 X179.528 Y190.25 E.02713
G1 X179.459 Y191.014 E.02712
G1 X179.255 Y191.761 E.02736
G1 X178.916 Y192.469 E.02775
G1 X178.464 Y193.091 E.02721
G1 X177.899 Y193.634 E.02768
G1 X177.249 Y194.062 E.02751
G1 X176.535 Y194.367 E.02744
G1 X175.778 Y194.539 E.02744
G1 X175.003 Y194.573 E.02744
G1 X174.234 Y194.469 E.02744
G1 X173.496 Y194.228 E.02744
G1 X172.813 Y193.86 E.02741
G1 X172.213 Y193.381 E.02715
G1 X171.697 Y192.791 E.0277
G1 X171.298 Y192.123 E.02749
G1 X171.027 Y191.396 E.02744
G1 X170.889 Y190.633 E.0274
G1 X170.889 Y189.866 E.02712
G1 X171.027 Y189.103 E.0274
G1 X171.298 Y188.376 E.02744
G1 X171.696 Y187.709 E.02744
G1 X172.206 Y187.124 E.02744
G1 X172.258 Y187.083 E.00235
G1 E-.5
G1 X172.105 Y166.267 F12000
G1 E.5 F1800
;TYPE:Outer wall
G1 F3000
G1 X172.096 Y166.258 E.00048
G1 X171.851 Y165.869 E.01624
G1 X171.699 Y165.435 E.01624
G1 X171.648 Y164.978 E.01624
G1 X171.699 Y164.522 E.01624
G1 X171.851 Y164.088 E.01624
G1 X172.096 Y163.699 E.01624
G1 X172.42 Y163.374 E.01624
G1 X172.81 Y163.129 E.01624
G1 X173.243 Y162.977 E.01624
G1 X173.688 Y162.927 E.01582
G1 X174.156 Y162.977 E.01662
G1 X174.59 Y163.129 E.01628
G1 X174.98 Y163.374 E.01624
G1 X175.304 Y163.699 E.01624
M73 P2 R22
G1 X175.549 Y164.088 E.01624
G1 X175.701 Y164.522 E.01624
G1 X175.752 Y164.978 E.01624
G1 X175.701 Y165.435 E.01624
G1 X175.549 Y165.869 E.01624
G1 X175.304 Y166.258 E.01624
G1 X174.988 Y166.574 E.01582
G1 X174.591 Y166.827 E.01662
G1 X174.157 Y166.979 E.01628
G1 X173.7 Y167.03 E.01624
G1 X173.243 Y166.979 E.01624
G1 X172.81 Y166.827 E.01624
G1 X172.42 Y166.583 E.01624
G1 X172.133 Y166.296 E.01435
G1 X171.714 Y166.51 F12000
;TYPE:Inner wall
G1 F3000
G1 X171.437 Y166.068 E.01843
G1 X171.251 Y165.537 E.01988
G1 X171.188 Y164.978 E.01988
G1 X171.251 Y164.419 E.01988
G1 X171.437 Y163.888 E.01988
G1 X171.736 Y163.412 E.01988
G1 X172.134 Y163.014 E.01988
G1 X172.61 Y162.715 E.01988
G1 X173.141 Y162.529 E.01988
G1 X173.687 Y162.468 E.01941
G1 X174.257 Y162.528 E.02026
G1 X174.79 Y162.715 E.01997
G1 X175.266 Y163.014 E.01988
G1 X175.664 Y163.412 E.01988
G1 X175.963 Y163.888 E.01988
G1 X176.149 Y164.419 E.01988
G1 X176.212 Y164.978 E.01988
G1 X176.149 Y165.537 E.01988
G1 X175.963 Y166.068 E.01988
G1 X175.664 Y166.545 E.01988
G1 X175.276 Y166.933 E.01941
G1 X174.792 Y167.241 E.02026
G1 X174.259 Y167.427 E.01997
G1 X173.7 Y167.49 E.01988
G1 X173.141 Y167.427 E.01988
G1 X172.61 Y167.242 E.01988
G1 X172.134 Y166.942 E.01988
G1 X171.736 Y166.545 E.01988
G1 X171.735 Y166.544 E.00004
G1 X171.436 Y166.891 F12000
G1 F3000
G1 X171.376 Y166.831 E.00299
G1 X171.022 Y166.268 E.02352
G1 X170.802 Y165.64 E.02353
G1 X170.728 Y164.978 E.02352
G1 X170.802 Y164.317 E.02352
G1 X171.022 Y163.689 E.02352
G1 X171.376 Y163.125 E.02352
G1 X171.847 Y162.654 E.02352
G1 X172.41 Y162.3 E.02353
G1 X173.039 Y162.081 E.02352
G1 X173.685 Y162.008 E.023
G1 X174.358 Y162.079 E.0239
