; HEADER_BLOCK_START
; generated by OrcaSlicer 1.6.4-beta2 on 2023-08-06 at 21:12:05
; total layer number: 72
; HEADER_BLOCK_END

; THUMBNAIL_BLOCK_START
; THUMBNAIL_BLOCK_END

; external perimeters extrusion width = 0.40mm
; perimeters extrusion width = 0.46mm
; infill extrusion width = 0.64mm
; solid infill extrusion width = 0.56mm
; top infill extrusion width = 0.40mm
; support material extrusion width = 0.46mm
; first layer extrusion width = 0.50mm

; external perimeters extrusion width = 0.40mm
; perimeters extrusion width = 0.46mm
; infill extrusion width = 0.64mm
; solid infill extrusion width = 0.56mm
; top infill extrusion width = 0.40mm
; support material extrusion width = 0.46mm
; first layer extrusion width = 0.50mm

; EXECUTABLE_BLOCK_START
EXCLUDE_OBJECT_DEFINE NAME=gantry_top_(1)_(1).stl_id_0_copy_0 CENTER=180.9,165 POLYGON=[[170,147.114],[178.858,135.406],[179.362,134.81],[179.927,134.272],[180.548,133.799],[181.215,133.395],[181.923,133.066],[182.662,132.816],[183.424,132.647],[184.2,132.561],[184.98,132.56],[185.756,132.644],[186.518,132.81],[187.258,133.059],[187.966,133.386],[188.635,133.787],[189.257,134.259],[189.824,134.795],[190.329,135.39],[190.768,136.035],[191.133,136.724],[191.422,137.449],[191.631,138.201],[191.758,138.971],[191.8,139.75],[191.8,190.25],[191.758,191.029],[191.632,191.799],[191.423,192.55],[191.134,193.274],[190.769,193.963],[190.331,194.609],[189.826,195.203],[189.26,195.739],[188.639,196.211],[187.97,196.613],[187.262,196.94],[186.523,197.189],[185.761,197.356],[184.986,197.44],[184.206,197.439],[183.431,197.355],[182.669,197.187],[181.931,196.937],[181.223,196.609],[180.555,196.207],[179.935,195.734],[179.369,195.197],[178.864,194.603],[170,182.921],[170,147.114]]
EXCLUDE_OBJECT_DEFINE NAME=gantry_top_(1)_(1).stl_id_1_copy_0 CENTER=149.1,165 POLYGON=[[138.2,147.114],[147.058,135.406],[147.562,134.81],[148.127,134.272],[148.748,133.799],[149.415,133.395],[150.123,133.066],[150.862,132.816],[151.624,132.647],[152.4,132.561],[153.18,132.56],[153.956,132.644],[154.718,132.81],[155.458,133.059],[156.166,133.386],[156.835,133.787],[157.457,134.259],[158.024,134.795],[158.529,135.39],[158.968,136.035],[159.333,136.724],[159.622,137.449],[159.831,138.201],[159.958,138.971],[160,139.75],[160,190.25],[159.958,191.029],[159.832,191.799],[159.623,192.55],[159.334,193.274],[158.969,193.963],[158.531,194.609],[158.026,195.203],[157.46,195.739],[156.839,196.211],[156.17,196.613],[155.462,196.94],[154.723,197.189],[153.961,197.356],[153.186,197.44],[152.406,197.439],[151.631,197.355],[150.869,197.187],[150.131,196.937],[149.423,196.609],[148.755,196.207],[148.135,195.734],[147.569,195.197],[147.064,194.603],[138.2,182.921],[138.2,147.114]]
M73 P0 R23
;TYPE:Custom
START_PRINT T_BED=110 T_EXTRUDER=260
G90
G21
M83 ; use relative distances for extrusion
; Filament gcode

    PRESSURE_ADVANCE_SELECT FILAMENT=ABS
M106 S0
;LAYER_CHANGE
;Z:0.2
;HEIGHT:0.2
;BEFORE_LAYER_CHANGE
;0.2
G92 E0

SET_VELOCITY_LIMIT ACCEL=1000 ACCEL_TO_DECEL=500
G1 E-.5 F2400
G1 X145.65 Y133.179 F12000
G1 Z.2
G1 E.5 F1800
;TYPE:Skirt
;WIDTH:0.5
G1 F3000
G1 X146.682 Y132.209 E.04986
G1 X147.566 Y131.571 E.03837
G1 X148.469 Y131.057 E.03657
G1 X149.608 Y130.58 E.04345
G1 X151.333 Y130.151 E.06256
G1 X152.629 Y130.039 E.04579
G1 X184.707 Y130.041 E1.12895
G1 X186.398 Y130.207 E.05979
G1 X187.92 Y130.625 E.05554
G1 X188.764 Y130.975 E.03216
G1 X189.711 Y131.491 E.03797
G1 X191.213 Y132.642 E.06659
G1 X192.279 Y133.806 E.05554
G1 X193.299 Y135.431 E.06753
G1 X193.815 Y136.687 E.0478
G1 X194.23 Y138.499 E.06542
G1 X194.314 Y139.75 E.04412
G1 X194.314 Y190.25 E1.77729
G1 X194.23 Y191.5 E.0441
G1 X194.029 Y192.571 E.03835
G1 X193.725 Y193.576 E.03695
G1 X193.3 Y194.567 E.03795
G1 X192.768 Y195.505 E.03795
G1 X191.973 Y196.567 E.0467
G1 X190.761 Y197.757 E.05976
G1 X189.879 Y198.401 E.03845
G1 X188.769 Y199.022 E.04476
G1 X187.771 Y199.43 E.03795
G1 X186.581 Y199.759 E.04343
G1 X185.515 Y199.92 E.03795
G1 X152.638 Y199.962 E1.15709
G1 X151.562 Y199.884 E.03795
G1 X150.502 Y199.687 E.03795
G1 X149.47 Y199.374 E.03795
G1 X148.234 Y198.821 E.04764
G1 X147.303 Y198.255 E.03834
G1 X146.441 Y197.589 E.03835
G1 X145.659 Y196.831 E.03835
G1 X145.062 Y196.122 E.0326
G1 X135.879 Y184.021 E.53464
G1 X135.286 Y182.259 E.06541
G1 X135.286 Y147.777 E1.21356
G1 X135.876 Y146.019 E.06527
G1 X145.625 Y133.211 E.56648
G1 X145.989 Y133.488 F12000
G1 F3000
G1 X145.998 Y133.475 E.00055
G1 X146.956 Y132.575 E.04625
G1 X147.797 Y131.965 E.03656
G1 X148.662 Y131.472 E.03504
G1 X149.754 Y131.013 E.04171
G1 X151.417 Y130.6 E.0603
G1 X152.629 Y130.496 E.04282
G1 X184.688 Y130.498 E1.12828
G1 X186.328 Y130.659 E.05797
G1 X187.75 Y131.049 E.0519
G1 X188.572 Y131.39 E.03133
G1 X189.476 Y131.883 E.03623
G1 X190.912 Y132.985 E.0637
G1 X191.908 Y134.073 E.0519
G1 X192.895 Y135.645 E.06535
G1 X193.377 Y136.815 E.04452
G1 X193.779 Y138.576 E.06357
G1 X193.857 Y139.75 E.04142
G1 X193.857 Y190.25 E1.77729
G1 X193.78 Y191.424 E.04139
G1 X193.59 Y192.445 E.03654
G1 X193.3 Y193.407 E.03536
G1 X192.823 Y194.491 E.04168
G1 X191.91 Y195.925 E.05984
G1 X191.227 Y196.71 E.03663
G1 X190.459 Y197.413 E.03663
G1 X189.618 Y198.026 E.03663
G1 X188.578 Y198.607 E.04195
G1 X187.625 Y198.997 E.03621
G1 X186.483 Y199.312 E.04169
G1 X185.466 Y199.465 E.03621
G1 X152.638 Y199.505 E1.15535
M73 P0 R22
G1 X151.612 Y199.429 E.03621
G1 X150.6 Y199.241 E.03621
G1 X149.616 Y198.941 E.03621
G1 X148.465 Y198.426 E.04437
G1 X147.576 Y197.889 E.03654
G1 X146.753 Y197.256 E.03654
G1 X145.426 Y195.846 E.06816
G1 X136.243 Y183.745 E.53464
G1 X135.743 Y182.259 E.05515
G1 X135.743 Y147.777 E1.21356
G1 X136.241 Y146.294 E.05504
G1 X145.964 Y133.52 E.56503
; printing object gantry top (1) (1).stl id:0 copy 0
EXCLUDE_OBJECT_START NAME=gantry_top_(1)_(1).stl_id_0_copy_0
G1 E-.5 F2400
G1 X170.35 Y182.142 F12000
G1 E.5 F1800
;TYPE:Outer wall
G1 F3000
G1 X170.35 Y147.894 E1.20529
G1 X179.45 Y135.866 E.53082
G3 X184.878 Y133.315 I5.163 J3.933 E.21942
G3 X191.05 Y139.76 I-.284 J6.45 E.34673
G1 X191.05 Y190.24 E1.7766
G3 X179.456 Y194.141 I-6.456 J-.007 E.56579
G1 X170.374 Y182.173 E.52874
M73 P1 R22
G1 X170.807 Y181.988 F12000
;TYPE:Inner wall
G1 F3000
G1 X170.807 Y148.048 E1.19447
G1 X179.807 Y136.152 E.52497
G3 X184.86 Y133.772 I4.804 J3.644 E.20438
G3 X190.593 Y139.773 I-.266 J5.993 E.32257
G1 X190.593 Y190.228 E1.77569
G3 X179.812 Y193.855 I-5.998 J.007 E.52664
G1 X170.831 Y182.02 E.52288
G1 X171.264 Y181.834 F12000
G1 F3000
G1 X171.264 Y148.201 E1.18366
G1 X180.164 Y136.438 E.51912
G3 X184.841 Y134.228 I4.446 J3.356 E.18934
G3 X190.136 Y139.786 I-.247 J5.536 E.2984
G1 X190.136 Y190.215 E1.77479
G3 X180.169 Y193.568 I-5.541 J.02 E.48748
G1 X171.288 Y181.866 E.51701
G1 X171.721 Y181.68 F12000
G1 F3000
G1 X171.721 Y148.355 E1.17285
G1 X180.521 Y136.724 E.51327
G3 X184.823 Y134.685 I4.088 J3.067 E.1743
G3 X189.679 Y139.799 I-.229 J5.08 E.27424
G1 X189.679 Y190.202 E1.77389
G3 X180.525 Y193.282 I-5.084 J.034 E.44833
G1 X171.745 Y181.712 E.51115
G1 E-.5 F2400
G1 X183.749 Y187.323 F12000
G1 E.5 F1800
;TYPE:Outer wall
G1 F3000
G1 X184.232 Y187.302 E.01703
G3 X183.189 Y187.443 I-.133 J2.943 E.61407
G1 X183.709 Y187.326 E.01878
G1 X183.215 Y186.969 F12000
;TYPE:Inner wall
G1 F3000
G1 X183.653 Y186.87 E.01581
G1 X184.253 Y186.843 E.02113
G1 X184.859 Y186.925 E.02152
G1 X185.44 Y187.114 E.02152
G1 X185.979 Y187.404 E.02152
G1 X186.457 Y187.785 E.02152
G1 X186.859 Y188.246 E.02152
G1 X187.173 Y188.771 E.02152
G1 X187.387 Y189.343 E.02152
G1 X187.497 Y189.945 E.02152
G1 X187.497 Y190.556 E.02152
G1 X187.387 Y191.157 E.02152
G1 X187.173 Y191.73 E.02152
G1 X186.859 Y192.255 E.02152
G1 X186.457 Y192.715 E.02152
G1 X185.979 Y193.096 E.02152
G1 X185.44 Y193.386 E.02152
G1 X184.859 Y193.575 E.02152
G1 X184.253 Y193.657 E.02152
G1 X183.642 Y193.63 E.02152
G1 X183.046 Y193.494 E.02152
G1 X182.484 Y193.253 E.02152
G1 X181.974 Y192.917 E.02152
G1 X181.532 Y192.494 E.02152
G1 X181.172 Y191.999 E.02152
G1 X180.907 Y191.449 E.02152
G1 X180.744 Y190.859 E.02152
G1 X180.69 Y190.25 E.02152
G1 X180.744 Y189.641 E.02152
G1 X180.907 Y189.052 E.02152
G1 X181.172 Y188.501 E.02152
G1 X181.532 Y188.006 E.02152
G1 X181.974 Y187.584 E.02152
G1 X182.484 Y187.247 E.02152
G1 X183.047 Y187.006 E.02157
G1 X183.176 Y186.977 E.00463
G1 X182.679 Y186.667 F12000
G1 F3000
G1 X182.906 Y186.569 E.0087
G1 X183.592 Y186.415 E.02474
G1 X184.274 Y186.385 E.024
G1 X184.961 Y186.478 E.02441
G1 X185.621 Y186.692 E.02441
G1 X186.232 Y187.021 E.02441
G1 X186.774 Y187.454 E.02441
G1 X187.23 Y187.976 E.02441
G1 X187.586 Y188.571 E.02441
G1 X187.83 Y189.221 E.02441
G1 X187.954 Y189.903 E.02441
G1 X187.954 Y190.597 E.02441
G1 X187.83 Y191.28 E.02441
G1 X187.586 Y191.929 E.02441
G1 X187.23 Y192.525 E.02441
G1 X186.774 Y193.047 E.02441
G1 X186.232 Y193.479 E.02441
G1 X185.621 Y193.808 E.02441
G1 X184.961 Y194.022 E.02441
G1 X184.274 Y194.116 E.02441
G1 X183.581 Y194.084 E.02441
G1 X182.904 Y193.93 E.02441
G1 X182.266 Y193.657 E.02441
G1 X181.688 Y193.275 E.02441
G1 X181.186 Y192.796 E.02441
G1 X180.778 Y192.235 E.02441
G1 X180.477 Y191.61 E.02441
G1 X180.293 Y190.941 E.02441
G1 X180.231 Y190.25 E.02441
G1 X180.293 Y189.559 E.02441
G1 X180.477 Y188.891 E.02441
G1 X180.778 Y188.266 E.02441
G1 X181.186 Y187.704 E.02441
G1 X181.688 Y187.225 E.02441
G1 X182.266 Y186.843 E.02441
G1 X182.642 Y186.682 E.01439
G1 X182.22 Y186.366 F12000
G1 F3000
G1 X182.765 Y186.133 E.02086
G1 X183.532 Y185.961 E.02764
G1 X184.294 Y185.926 E.02686
G1 X185.063 Y186.031 E.02731
G1 X185.801 Y186.27 E.02731
G1 X186.484 Y186.638 E.02731
G1 X187.091 Y187.122 E.02731
G1 X187.602 Y187.706 E.02731
G1 X188 Y188.372 E.02731
G1 X188.272 Y189.099 E.02731
G1 X188.411 Y189.862 E.02731
G1 X188.411 Y190.638 E.02731
G1 X188.272 Y191.402 E.02731
G1 X188 Y192.128 E.02731
G1 X187.602 Y192.794 E.02731
G1 X187.091 Y193.379 E.02731
G1 X186.484 Y193.862 E.02731
G1 X185.801 Y194.23 E.02731
G1 X185.063 Y194.47 E.02731
G1 X184.294 Y194.574 E.02731
G1 X183.519 Y194.539 E.02731
G1 X182.763 Y194.367 E.02731
G1 X182.049 Y194.062 E.02731
G1 X181.401 Y193.634 E.02731
G1 X180.841 Y193.098 E.02731
G1 X180.384 Y192.47 E.02731
G1 X180.048 Y191.771 E.02731
G1 X179.841 Y191.023 E.02731
G1 X179.772 Y190.25 E.02731
G1 X179.841 Y189.477 E.02731
G1 X180.048 Y188.729 E.02731
G1 X180.384 Y188.03 E.02731
G1 X180.841 Y187.403 E.02731
G1 X181.401 Y186.866 E.02731
G1 X182.049 Y186.439 E.02731
G1 X182.183 Y186.381 E.00515
G1 E-.5 F2400
G1 X183.21 Y165.022 F12000
G1 X185.354 Y142.949
G1 X185.895 Y142.773
G1 X186.414 Y142.493
G1 X186.875 Y142.125
G1 X187.262 Y141.68
G1 X187.564 Y141.174
G1 X187.771 Y140.621
G1 X187.875 Y140.041
G1 X187.875 Y139.459
G1 X187.771 Y138.879
G1 X187.564 Y138.327
G1 X187.262 Y137.82
G1 X186.875 Y137.376
G1 X186.414 Y137.007
G1 X185.944 Y136.754
G1 X185.784 Y137.049
G1 E.5 F1800
;TYPE:Outer wall
G1 F3000
G1 X186.226 Y137.292 E.01773
G3 X183.202 Y142.35 I-1.636 J2.455 E.31599
G1 X182.755 Y142.054 E.01886
G3 X184.205 Y136.825 I1.863 J-2.298 E.24162
G1 X184.727 Y136.802 E.01838
G1 X185.259 Y136.873 E.01887
G3 X185.748 Y137.033 I-.668 J2.873 E.01814
G1 X185.91 Y136.605 F12000
;TYPE:Inner wall
G1 F3000
G1 X185.943 Y136.615 E.00121
G1 X186.481 Y136.906 E.02153
G1 X186.959 Y137.288 E.02153
G1 X187.361 Y137.749 E.02153
G1 X187.674 Y138.274 E.02153
G1 X187.888 Y138.847 E.02153
G1 X187.997 Y139.448 E.02151
G1 X187.997 Y140.052 E.02125
G1 X187.888 Y140.654 E.02151
G1 X187.674 Y141.226 E.02153
G1 X187.361 Y141.752 E.02153
G1 X186.959 Y142.213 E.02153
G1 X186.481 Y142.595 E.02153
G1 X185.943 Y142.885 E.02153
G1 X185.361 Y143.074 E.02153
G1 X184.755 Y143.157 E.02153
G1 X184.144 Y143.13 E.02153
G1 X183.548 Y142.994 E.02153
G1 X182.984 Y142.754 E.02156
G1 X182.469 Y142.412 E.02176
G1 X182.032 Y141.995 E.02126
G1 X181.673 Y141.5 E.02152
G1 X181.407 Y140.949 E.02153
G1 X181.245 Y140.359 E.02153
G1 X181.19 Y139.75 E.02153
G1 X181.245 Y139.141 E.02153
G1 X181.407 Y138.551 E.02153
G1 X181.673 Y138 E.02153
G1 X182.032 Y137.506 E.02153
G1 X182.475 Y137.083 E.02153
G1 X182.985 Y136.746 E.02153
G1 X183.548 Y136.506 E.02153
G1 X184.144 Y136.371 E.02152
G1 X184.748 Y136.343 E.02126
G1 X185.361 Y136.426 E.02177
G1 X185.872 Y136.592 E.01893
G1 X186.057 Y136.172 F12000
G1 F3000
G1 X186.124 Y136.194 E.00248
G1 X186.734 Y136.523 E.02442
G1 X187.277 Y136.956 E.02442
G1 X187.733 Y137.479 E.02442
G1 X188.088 Y138.075 E.02442
G1 X188.331 Y138.725 E.02442
G1 X188.454 Y139.407 E.02439
G1 X188.454 Y140.093 E.02413
G1 X188.331 Y140.775 E.02439
G1 X188.088 Y141.425 E.02442
G1 X187.733 Y142.021 E.02442
G1 X187.277 Y142.544 E.02442
G1 X186.734 Y142.977 E.02442
G1 X186.124 Y143.307 E.02442
G1 X185.464 Y143.522 E.02442
G1 X184.776 Y143.615 E.02442
G1 X184.083 Y143.585 E.02442
G1 X183.406 Y143.431 E.02442
G1 X182.767 Y143.158 E.02447
G1 X182.183 Y142.771 E.02466
G1 X181.687 Y142.297 E.02414
G1 X181.279 Y141.736 E.02442
G1 X180.978 Y141.11 E.02442
G1 X180.793 Y140.441 E.02442
G1 X180.731 Y139.75 E.02442
G1 X180.793 Y139.059 E.02442
G1 X180.978 Y138.39 E.02442
G1 X181.279 Y137.765 E.02442
G1 X181.687 Y137.204 E.02442
G1 X182.189 Y136.724 E.02442
G1 X182.768 Y136.342 E.02442
G1 X183.406 Y136.07 E.02442
G1 X184.082 Y135.916 E.02441
G1 X184.768 Y135.885 E.02415
G1 X185.463 Y135.978 E.02467
G1 X186.019 Y136.159 E.02058
G1 X186.203 Y135.739 F12000
G1 F3000
G1 X186.304 Y135.772 E.00374
G1 X186.988 Y136.14 E.02732
G1 X187.594 Y136.625 E.02732
G1 X188.104 Y137.21 E.02732
G1 X188.502 Y137.877 E.02732
G1 X188.773 Y138.604 E.02732
G1 X188.911 Y139.367 E.02728
G1 X188.911 Y140.134 E.027
G1 X188.773 Y140.897 E.02728
G1 X188.502 Y141.624 E.02732
G1 X188.104 Y142.291 E.02732
G1 X187.594 Y142.876 E.02732
G1 X186.988 Y143.36 E.02732
G1 X186.304 Y143.729 E.02732
G1 X185.566 Y143.969 E.02732
G1 X184.797 Y144.074 E.02732
G1 X184.022 Y144.04 E.02732
G1 X183.265 Y143.867 E.02732
G1 X182.549 Y143.562 E.02739
G1 X181.896 Y143.129 E.02756
G1 X181.341 Y142.599 E.02702
G1 X180.885 Y141.971 E.02731
G1 X180.548 Y141.272 E.02732
G1 X180.341 Y140.523 E.02732
G1 X180.272 Y139.75 E.02732
G1 X180.341 Y138.977 E.02732
G1 X180.548 Y138.229 E.02732
G1 X180.885 Y137.529 E.02732
G1 X181.341 Y136.902 E.02732
G1 X181.903 Y136.365 E.02732
G1 X182.551 Y135.938 E.02732
M73 P2 R22
G1 X183.265 Y135.633 E.02732
G1 X184.021 Y135.461 E.0273
G1 X184.788 Y135.427 E.02703
G1 X185.565 Y135.531 E.02757
G1 X186.165 Y135.726 E.02223
G1 E-.5 F2400
G1 X188.996 Y141.606 F12000
G1 E.5 F1800
G1 F3000
G1 X189.222 Y141.647 E.00806
G1 X189.222 Y163.143 E.75655
G1 X189.023 Y163.201 E.00726
G1 X188.643 Y162.595 E.02516
G1 X188.027 Y161.979 E.03067
G1 X187.289 Y161.515 E.03067
G1 X186.46 Y161.225 E.03091
G1 X185.582 Y161.132 E.03105
G1 X184.734 Y161.227 E.03005
G1 X183.911 Y161.515 E.03067
G1 X183.173 Y161.979 E.03067
G1 X182.557 Y162.595 E.03067
G1 X182.4 Y162.845 E.01039
G1 X182.243 Y162.595 E.01039
G1 X181.627 Y161.979 E.03067
G1 X180.889 Y161.515 E.03067
G1 X180.06 Y161.225 E.03091
G1 X179.182 Y161.132 E.03105
G1 X178.334 Y161.227 E.03005
G1 X177.511 Y161.515 E.03067
G1 X176.773 Y161.979 E.03067
G1 X176.152 Y162.6 E.03091
G1 X175.687 Y163.35 E.03105
G1 X175.405 Y164.156 E.03005
G1 X175.308 Y165.022 E.03067
G1 X175.406 Y165.888 E.03067
G1 X175.693 Y166.711 E.03067
G1 X176.157 Y167.449 E.03068
G1 X176.773 Y168.065 E.03067
G1 X177.511 Y168.528 E.03067
G1 X178.334 Y168.816 E.03067
G1 X179.2 Y168.914 E.03067
G1 X180.066 Y168.816 E.03067
G1 X180.889 Y168.528 E.03067
G1 X181.627 Y168.065 E.03067
G1 X182.243 Y167.448 E.03067
G1 X182.4 Y167.199 E.01039
G1 X182.557 Y167.448 E.01039
G1 X183.173 Y168.065 E.03067
G1 X183.911 Y168.528 E.03067
G1 X184.734 Y168.816 E.03067
G1 X185.6 Y168.914 E.03067
G1 X186.466 Y168.816 E.03067
G1 X187.289 Y168.528 E.03067
G1 X188.027 Y168.065 E.03067
G1 X188.643 Y167.448 E.03067
G1 X189.023 Y166.843 E.02516
G1 X189.222 Y166.9 E.00726
G1 X189.222 Y190.189 E.81962
G3 X188.382 Y192.892 I-4.682 J.027 E.1012
G1 X188.162 Y192.748 E.00925
G1 X188.413 Y192.327 E.01724
G1 X188.715 Y191.524 E.03021
G1 X188.868 Y190.679 E.0302
G1 X188.868 Y189.821 E.0302
G1 X188.715 Y188.977 E.0302
