; HEADER_BLOCK_START
; generated by OrcaSlicer 1.6.4-beta2 on 2023-08-07 at 16:58:19
; total layer number: 240
; HEADER_BLOCK_END

; THUMBNAIL_BLOCK_START
; THUMBNAIL_BLOCK_END

; external perimeters extrusion width = 0.40mm
; perimeters extrusion width = 0.46mm
; infill extrusion width = 0.64mm
; solid infill extrusion width = 0.56mm
; top infill extrusion width = 0.40mm
; support material extrusion width = 0.46mm
; first layer extrusion width = 0.50mm

; external perimeters extrusion width = 0.40mm
; perimeters extrusion width = 0.46mm
; infill extrusion width = 0.64mm
; solid infill extrusion width = 0.56mm
; top infill extrusion width = 0.40mm
; support material extrusion width = 0.46mm
; first layer extrusion width = 0.50mm

; EXECUTABLE_BLOCK_START
EXCLUDE_OBJECT_DEFINE NAME=gantry_bottom_(1).stl_id_0_copy_0 CENTER=184.5,165 POLYGON=[[170,150.778],[186.593,134.777],[187.189,134.22],[187.843,133.735],[188.549,133.326],[189.296,132.999],[190.075,132.76],[190.877,132.609],[191.69,132.551],[192.504,132.585],[193.31,132.71],[194.096,132.926],[194.853,133.229],[195.57,133.616],[196.24,134.082],[196.852,134.62],[197.4,135.224],[197.875,135.886],[198.273,136.598],[198.588,137.35],[198.816,138.133],[198.954,138.936],[199,139.75],[199,190.25],[198.954,191.064],[198.816,191.868],[198.588,192.652],[198.272,193.404],[197.874,194.116],[197.398,194.778],[196.85,195.382],[196.237,195.921],[195.567,196.386],[194.849,196.773],[194.091,197.076],[193.304,197.291],[192.498,197.416],[191.683,197.449],[190.87,197.39],[190.068,197.239],[189.289,196.998],[188.541,196.67],[187.836,196.261],[187.182,195.774],[186.586,195.216],[170,179.178],[170,150.778]]
EXCLUDE_OBJECT_DEFINE NAME=gantry_bottom_(1).stl_id_1_copy_0 CENTER=145.5,165 POLYGON=[[131,150.778],[147.593,134.777],[148.189,134.22],[148.843,133.735],[149.549,133.326],[150.296,132.999],[151.075,132.76],[151.877,132.609],[152.69,132.551],[153.504,132.585],[154.31,132.71],[155.096,132.926],[155.853,133.229],[156.57,133.616],[157.24,134.082],[157.852,134.62],[158.4,135.224],[158.875,135.886],[159.273,136.598],[159.588,137.35],[159.816,138.133],[159.954,138.936],[160,139.75],[160,190.25],[159.954,191.064],[159.816,191.868],[159.588,192.652],[159.272,193.404],[158.874,194.116],[158.398,194.778],[157.85,195.382],[157.237,195.921],[156.567,196.386],[155.849,196.773],[155.091,197.076],[154.304,197.291],[153.498,197.416],[152.683,197.449],[151.87,197.39],[151.068,197.239],[150.289,196.998],[149.541,196.67],[148.836,196.261],[148.182,195.774],[147.586,195.216],[131,179.178],[131,150.778]]
M73 P0 R67
;TYPE:Custom
START_PRINT T_BED=110 T_EXTRUDER=260
G90
G21
M83 ; use relative distances for extrusion
; Filament gcode
M106 S0
;LAYER_CHANGE
;Z:0.2
;HEIGHT:0.2
;BEFORE_LAYER_CHANGE
;0.2
G92 E0

SET_VELOCITY_LIMIT ACCEL=1000 ACCEL_TO_DECEL=500
G1 E-.5 F3000
G1 X127.261 Y146.086 F12000
G1 Z.2
G1 E.5 F1800
;TYPE:Skirt
;WIDTH:0.5
G1 F3000
G1 X147.441 Y131.651 E.87697
G1 X148.816 Y130.896 E.05547
G1 X150.566 Y130.3 E.06534
G1 X151.92 Y130.077 E.04848
G1 X152.927 Y130.038 E.03564
G1 X192.048 Y130.041 E1.38275
G1 X193.172 Y130.135 E.03989
G1 X194.103 Y130.317 E.03351
G1 X195.502 Y130.771 E.05201
G1 X196.376 Y131.184 E.03414
G1 X197.227 Y131.699 E.03517
G1 X198.348 Y132.577 E.05035
G1 X199.292 Y133.572 E.04848
G1 X199.825 Y134.279 E.03129
G1 X200.405 Y135.247 E.03989
G1 X200.852 Y136.236 E.03835
G1 X201.154 Y137.157 E.03428
G1 X201.462 Y138.781 E.05842
G1 X201.514 Y139.75 E.03429
G1 X201.514 Y190.25 E1.78497
G1 X201.462 Y191.219 E.03431
G1 X201.282 Y192.346 E.04035
G1 X200.97 Y193.445 E.04035
G1 X200.324 Y194.898 E.05619
G1 X199.823 Y195.724 E.03415
G1 X199.134 Y196.618 E.03992
G1 X198.345 Y197.426 E.03992
G1 X197.638 Y198.01 E.03242
G1 X196.514 Y198.742 E.0474
G1 X195.19 Y199.349 E.05149
G1 X193.473 Y199.815 E.06288
G1 X192.039 Y199.96 E.05093
G1 X152.921 Y199.962 E1.38266
G1 X151.91 Y199.922 E.03576
G1 X150.794 Y199.753 E.03992
G1 X149.704 Y199.456 E.03992
G1 X148.871 Y199.127 E.03165
G1 X147.434 Y198.344 E.05786
G1 X127.261 Y183.914 E.87668
G1 X126.301 Y182.744 E.0535
G1 X126.042 Y181.544 E.04339
G1 X126.042 Y148.456 E1.16951
G1 X126.435 Y146.994 E.0535
G1 X127.234 Y146.116 E.04198
G1 X127.527 Y146.458 F12000
G1 F3000
G1 X147.707 Y132.023 E.87697
G1 X148.999 Y131.315 E.0521
G1 X150.687 Y130.74 E.06303
G1 X151.952 Y130.533 E.04531
G1 X152.927 Y130.495 E.03448
G1 X192.029 Y130.497 E1.38208
G1 X193.102 Y130.587 E.03806
G1 X194.009 Y130.764 E.03268
G1 X195.332 Y131.195 E.04918
G1 X196.983 Y132.086 E.0663
G1 X198.047 Y132.92 E.04778
G1 X198.929 Y133.85 E.04531
G1 X199.454 Y134.546 E.03081
G1 X200.006 Y135.47 E.03806
G1 X200.433 Y136.419 E.03676
G1 X200.717 Y137.291 E.03243
G1 X201.006 Y138.808 E.05459
G1 X201.057 Y139.75 E.03334
G1 X201.053 Y190.395 E1.79007
G1 X200.972 Y191.479 E.03845
G1 X200.764 Y192.547 E.03845
G1 X200.109 Y194.324 E.06695
G1 X199.572 Y195.274 E.03855
G1 X198.927 Y196.153 E.03855
G1 X197.845 Y197.255 E.05458
G1 X196.44 Y198.256 E.06096
G1 X195.175 Y198.868 E.04968
G1 X194.002 Y199.237 E.04346
G1 X192.184 Y199.496 E.06494
G1 X152.921 Y199.505 E1.38776
G1 X151.944 Y199.466 E.03458
G1 X150.878 Y199.304 E.03809
G1 X149.839 Y199.019 E.03809
G1 X149.045 Y198.704 E.03021
G1 X147.7 Y197.972 E.05412
G1 X127.527 Y183.542 E.87668
G1 X126.672 Y182.449 E.04905
G1 X126.499 Y181.544 E.03257
G1 X126.499 Y148.456 E1.16951
G1 X126.891 Y147.125 E.04905
G1 X127.499 Y146.487 E.03116
; printing object gantry bottom (1).stl id:0 copy 0
EXCLUDE_OBJECT_START NAME=gantry_bottom_(1).stl_id_0_copy_0
G1 E-.5
G1 X173.155 Y152.078 F12000
G1 E.5 F1800
;TYPE:Support
G1 F3000
G1 X169.751 Y152.078 E.12031
G1 X169.4 Y152.43 E.01757
G1 X169.4 Y155.258 E.09997
G1 X167.956 Y156.702 E.07217
G1 X167.956 Y148.456 E.29146
G1 X175.904 Y148.456 E.28093
G1 X173.197 Y152.024 E.1583
G1 X172.951 Y151.667 F12000
G1 F3000
G1 X169.581 Y151.667 E.11912
G1 X168.989 Y152.26 E.02961
G1 X168.989 Y155.088 E.09997
G1 X168.368 Y155.709 E.03105
G1 X168.368 Y148.868 E.24181
G1 X175.076 Y148.868 E.2371
G1 X172.951 Y151.667 E.12422
G1 X172.699 Y151.159 F12000
G1 F3000
G1 X169.371 Y151.159 E.11764
G1 X168.875 Y151.655 E.02476
G1 X168.875 Y149.375 E.08056
G1 X174.053 Y149.375 E.18299
G1 X172.699 Y151.159 E.07915
G1 X172.447 Y150.651 F12000
G1 F3000
G1 X169.383 Y150.651 E.10828
G1 X169.383 Y149.883 E.02715
G1 X173.03 Y149.883 E.12889
G1 X172.447 Y150.651 E.03408
G1 E-.5
G1 X174.487 Y152.309 F12000
G1 X188.075 Y162.077
G1 X189.15 Y163.391
G1 X189.15 Y163.737
G1 X188.55 Y163.737
G1 E.5 F1800
G1 F3000
G1 X188.55 Y166.22 E.08775
G1 X186.4 Y167.461 E.08775
G1 X184.25 Y166.22 E.08775
G1 X184.25 Y163.737 E.08775
G1 X186.4 Y162.496 E.08775
G1 X188.491 Y163.703 E.08533
G1 X184.661 Y165.982 F12000
G1 F3000
G1 X184.661 Y163.975 E.07096
G1 X186.4 Y162.971 E.07096
G1 X188.139 Y163.975 E.07096
G1 X188.139 Y165.982 E.07096
G1 X186.4 Y166.986 E.07096
G1 X184.661 Y165.982 E.07096
G1 X185.169 Y165.689 F12000
G1 F3000
G1 X185.169 Y164.268 E.05023
G1 X186.4 Y163.557 E.05023
G1 X187.631 Y164.268 E.05023
G1 X187.631 Y165.689 E.05023
G1 X186.4 Y166.4 E.05023
G1 X185.169 Y165.689 E.05023
G1 X185.677 Y165.396 F12000
G1 F3000
G1 X185.677 Y164.561 E.0295
G1 X186.4 Y164.144 E.0295
G1 X187.123 Y164.561 E.0295
G1 X187.123 Y165.396 E.0295
G1 X186.4 Y165.813 E.0295
G1 X185.677 Y165.396 E.0295
G1 E-.5
G1 X189.15 Y164.775 F12000
G1 X190.05 Y164.614
G1 X194.95 Y163.737
G1 E.5 F1800
G1 F3000
G1 X194.95 Y166.22 E.08775
G1 X192.8 Y167.461 E.08775
G1 X190.65 Y166.22 E.08775
G1 X190.65 Y163.737 E.08775
G1 X192.8 Y162.496 E.08775
G1 X194.891 Y163.703 E.08533
G1 X191.061 Y165.982 F12000
G1 F3000
G1 X191.061 Y163.975 E.07096
G1 X192.8 Y162.971 E.07096
G1 X194.539 Y163.975 E.07096
G1 X194.539 Y165.982 E.07096
G1 X192.8 Y166.986 E.07096
G1 X191.061 Y165.982 E.07096
G1 X191.569 Y165.689 F12000
G1 F3000
G1 X191.569 Y164.268 E.05023
G1 X192.8 Y163.557 E.05023
G1 X194.031 Y164.268 E.05023
G1 X194.031 Y165.689 E.05023
G1 X192.8 Y166.4 E.05023
G1 X191.569 Y165.689 E.05023
G1 X192.077 Y165.396 F12000
G1 F3000
G1 X192.077 Y164.561 E.0295
G1 X192.8 Y164.144 E.0295
G1 X193.523 Y164.561 E.0295
G1 X193.523 Y165.396 E.0295
G1 X192.8 Y165.813 E.0295
G1 X192.077 Y165.396 E.0295
G1 E-.5
G1 X190.05 Y166.227 F12000
G1 X188.075 Y167.88
G1 X186.4 Y168.847
G1 X170.6 Y174.206
G1 X169.4 Y174.699
G1 E.5 F1800
G1 F3000
G1 X169.4 Y177.527 E.09997
G1 X169.751 Y177.878 E.01757
G1 X173.16 Y177.878 E.12049
G1 X175.934 Y181.544 E.16246
G1 X167.956 Y181.544 E.28197
G1 X167.956 Y173.255 E.29298
G1 X169.352 Y174.65 E.06975
G1 E-.5
G1 X170.6 Y175.911 F12000
G1 X171.36 Y176.678
G1 X172.956 Y178.29
G1 E.5 F1800
G1 F3000
G1 X175.106 Y181.132 E.12599
G1 X168.368 Y181.132 E.23819
G1 X168.368 Y174.248 E.24334
G1 X168.989 Y174.869 E.03105
G1 X168.989 Y177.697 E.09997
G1 X169.581 Y178.29 E.02961
G1 X172.956 Y178.29 E.11928
G1 X172.703 Y178.798 F12000
G1 F3000
G1 X174.085 Y180.625 E.08097
G1 X168.875 Y180.625 E.18415
G1 X168.875 Y178.302 E.08208
G1 X169.371 Y178.798 E.02476
G1 X172.703 Y178.798 E.11779
G1 X172.451 Y179.306 F12000
G1 F3000
G1 X173.064 Y180.117 E.03595
G1 X169.383 Y180.117 E.13011
G1 X169.383 Y179.306 E.02867
G1 X172.451 Y179.306 E.10842
G1 E-.5
G1 X177.605 Y181.763 F12000
G1 X187.884 Y186.666
G1 X195.399 Y190.25
G1 E.5 F1800
G1 F3000
G1 X193.35 Y193.8 E.14489
G1 X189.25 Y193.8 E.14489
G1 X187.201 Y190.25 E.14489
G1 X189.25 Y186.7 E.14489
G1 X193.35 Y186.7 E.14489
G1 X195.365 Y190.191 E.14247
G1 X189.488 Y187.111 F12000
G1 F3000
G1 X193.112 Y187.111 E.1281
G1 X194.924 Y190.25 E.1281
G1 X193.112 Y193.389 E.1281
G1 X189.488 Y193.389 E.1281
G1 X187.676 Y190.25 E.1281
G1 X189.488 Y187.111 E.1281
G1 X189.781 Y187.619 F12000
G1 F3000
G1 X192.819 Y187.619 E.10737
G1 X194.338 Y190.25 E.10737
G1 X192.819 Y192.881 E.10737
G1 X189.781 Y192.881 E.10737
G1 X188.262 Y190.25 E.10737
G1 X189.781 Y187.619 E.10737
G1 X190.074 Y188.127 F12000
G1 F3000
G1 X192.526 Y188.127 E.08664
G1 X193.751 Y190.25 E.08664
G1 X192.526 Y192.373 E.08664
G1 X190.074 Y192.373 E.08664
G1 X188.849 Y190.25 E.08664
G1 X190.074 Y188.127 E.08664
G1 X190.368 Y188.635 F12000
G1 F3000
G1 X192.232 Y188.635 E.06592
G1 X193.165 Y190.25 E.06592
G1 X192.232 Y191.865 E.06592
G1 X190.368 Y191.865 E.06592
G1 X189.435 Y190.25 E.06592
G1 X190.368 Y188.635 E.06592
G1 X190.661 Y189.143 F12000
G1 F3000
G1 X191.939 Y189.143 E.04519
G1 X192.578 Y190.25 E.04519
G1 X191.939 Y191.357 E.04519
G1 X190.661 Y191.357 E.04519
G1 X190.022 Y190.25 E.04519
G1 X190.661 Y189.143 E.04519
G1 X190.954 Y189.651 F12000
G1 F3000
G1 X191.646 Y189.651 E.02446
G1 X191.992 Y190.25 E.02446
G1 X191.646 Y190.849 E.02446
G1 X190.954 Y190.849 E.02446
G1 X190.608 Y190.25 E.02446
G1 X190.954 Y189.651 E.02446
G1 E-.5
G1 X191.333 Y185.847 F12000
G1 X189.017 Y184.033
G1 X188.629 Y183.645
G1 X188.629 Y183.026
G1 X189.229 Y182.726
G1 X191.102 Y182.726
G1 X190.05 Y166.566
G1 X190.05 Y163.391
G1 X195.066 Y150.749
G1 X195.645 Y142.608
G1 X195.935 Y139.707
G1 E.5 F1800
G1 F3000
G1 X193.885 Y143.257 E.14489
G1 X189.786 Y143.257 E.14489
G1 X187.736 Y139.707 E.14489
G1 X189.786 Y136.157 E.14489
G1 X193.885 Y136.157 E.14489
G1 X195.9 Y139.647 E.14247
G1 X190.023 Y142.845 F12000
G1 F3000
G1 X188.211 Y139.707 E.1281
G1 X190.023 Y136.568 E.1281
G1 X193.648 Y136.568 E.1281
G1 X195.46 Y139.707 E.1281
G1 X193.648 Y142.845 E.1281
G1 X190.023 Y142.845 E.1281
G1 X190.317 Y142.338 F12000
G1 F3000
G1 X188.798 Y139.707 E.10737
G1 X190.317 Y137.076 E.10737
G1 X193.354 Y137.076 E.10737
G1 X194.873 Y139.707 E.10737
G1 X193.354 Y142.338 E.10737
G1 X190.317 Y142.338 E.10737
G1 X190.61 Y141.83 F12000
G1 F3000
G1 X189.384 Y139.707 E.08664
G1 X190.61 Y137.584 E.08664
G1 X193.061 Y137.584 E.08664
G1 X194.287 Y139.707 E.08664
G1 X193.061 Y141.83 E.08664
G1 X190.61 Y141.83 E.08664
G1 X190.903 Y141.322 F12000
G1 F3000
G1 X189.971 Y139.707 E.06592
G1 X190.903 Y138.092 E.06592
G1 X192.768 Y138.092 E.06592
G1 X193.7 Y139.707 E.06592
G1 X192.768 Y141.322 E.06592
G1 X190.903 Y141.322 E.06592
G1 X191.196 Y140.814 F12000
G1 F3000
G1 X190.557 Y139.707 E.04519
G1 X191.196 Y138.6 E.04519
G1 X192.475 Y138.6 E.04519
G1 X193.114 Y139.707 E.04519
G1 X192.475 Y140.814 E.04519
G1 X191.196 Y140.814 E.04519
G1 X191.489 Y140.306 F12000
G1 F3000
G1 X191.143 Y139.707 E.02446
G1 X191.489 Y139.107 E.02446
G1 X192.181 Y139.107 E.02446
G1 X192.527 Y139.707 E.02446
G1 X192.181 Y140.306 E.02446
G1 X191.489 Y140.306 E.02446
G1 E-.5
G1 X188.091 Y142.722 F12000
G1 X173.751 Y153.279
G1 X173.593 Y153.279
G1 X173.593 Y153.028
G1 E.5 F1800
;TYPE:Outer wall
G1 F3000
G1 X173.627 Y153.028 E.00121
G1 X186.656 Y135.859 E.7618
G3 X192.068 Y133.308 I5.146 J3.901 E.21988
G3 X198.25 Y139.76 I-.269 J6.446 E.3489
G1 X198.25 Y190.24 E1.78424
G3 X186.65 Y194.133 I-6.456 J-.008 E.56854
G1 X173.633 Y176.928 E.76257
G1 X170.35 Y176.928 E.11604
G1 X170.35 Y153.028 E.84477
G1 X173.553 Y153.028 E.1132
G1 X173.775 Y153.486 F12000
;TYPE:Inner wall
G1 F3000
G1 X173.854 Y153.486 E.00278
G1 X187.012 Y136.146 E.76935
G3 X192.038 Y133.765 I4.797 J3.629 E.20438
G3 X194.764 Y134.543 I-.348 J6.383 E.10104
G1 X194.716 Y134.732 E.0069
G1 X194.852 Y134.601 E.00666
G3 X197.787 Y139.679 I-3.027 J5.137 E.21675
G1 X197.738 Y139.694 E.00181
G1 X197.793 Y139.709 E.002
G1 X197.793 Y190.226 E1.78558
G3 X188.777 Y195.412 I-5.991 J.015 E.44522
G1 X188.831 Y195.207 E.00749
G1 X194.162 Y195.207 E.18844
G1 X197.024 Y190.25 E.20232
G1 X194.162 Y185.293 E.20232
G1 X193.403 Y185.293 E.02684
G2 X195.036 Y183.73 I-22.067 J-24.698 E.07994
G2 X194.999 Y181.709 I-20.624 J-.629 E.07144
G1 X194.924 Y181.261 E.01606
G1 X194.997 Y180.946 E.01144
G1 X195.035 Y180.266 E.02408
G2 X193.567 Y178.754 I-29.416 J27.102 E.07451
G2 X191.735 Y178.785 I-.363 J31.879 E.06474
G1 X191.541 Y179.012 E.01054
G1 X190.574 Y178.791 E.03506
G1 X189.97 Y178.763 E.02137
G2 X188.422 Y180.024 I17.846 J23.486 E.07059
G2 X188.459 Y182.131 I22.147 J.663 E.07449
G1 X188.534 Y182.595 E.01662
G1 X188.46 Y182.971 E.01354
G1 X188.415 Y183.7 E.02583
G2 X189.983 Y185.293 I46.674 J-44.389 E.07901
G1 X188.438 Y185.293 E.05462
G1 X185.576 Y190.25 E.20232
G1 X188.144 Y194.699 E.18157
G1 X187.96 Y194.846 E.00834
G3 X187.007 Y193.847 I3.749 J-4.534 E.04893
G1 X173.86 Y176.471 E.77013
G1 X170.807 Y176.471 E.10792
G1 X170.807 Y153.486 E.81245
G1 X173.735 Y153.486 E.1035
G1 E-.5
G1 X187.208 Y194.695 F12000
G1 X195.111 Y195.511
G1 X197.015 Y191.18
G1 E.5 F1800
G1 F3000
G1 X197.231 Y191.259 E.00814
G1 X197.181 Y191.54 E.01008
G1 X196.99 Y192.171 E.02333
G3 X195.378 Y194.464 I-5.338 J-2.04 E.10008
G1 X195.204 Y194.316 E.00806
G1 X196.995 Y191.214 E.12657
G1 E-.5
G1 X197.032 Y139.707 F12000
M73 P0 R66
G1 E.5 F1800
;TYPE:Outer wall
G1 F3000
G1 X194.434 Y144.207 E.18366
G1 X189.237 Y144.207 E.18366
G1 X188.897 Y143.617 E.02408
G1 X186.639 Y139.707 E.15958
G1 X189.237 Y135.207 E.18366
G1 X194.434 Y135.207 E.18366
M73 P1 R66
G1 X197.012 Y139.672 E.18225
G1 X197.521 Y139.774 F12000
;TYPE:Inner wall
G1 F3000
G1 X194.697 Y144.664 E.19959
G1 X188.973 Y144.664 E.20232
G1 X188.501 Y143.845 E.03341
G1 X186.112 Y139.707 E.16891
G1 X188.973 Y134.75 E.20232
G1 X194.698 Y134.75 E.20234
G1 X197.559 Y139.707 E.20231
G1 X197.541 Y139.739 E.00132
G1 X197.336 Y141.415 F12000
G1 F3000
G1 X197.336 Y189.47 E1.69854
G1 X197.133 Y189.524 E.00744
G1 X194.477 Y184.925 E.18769
G1 X195.494 Y183.92 E.05051
G2 X195.454 Y181.656 I-22.818 J-.729 E.08008
G1 X195.39 Y181.276 E.01362
G1 X195.451 Y181.011 E.00962
G1 X195.502 Y180.095 E.0324
G2 X193.757 Y178.296 I-34.999 J32.215 E.08861
G2 X191.519 Y178.336 I-.456 J37.303 E.07914
G1 X191.374 Y178.505 E.00785
G1 X190.636 Y178.336 E.02675
G1 X189.822 Y178.299 E.02879
G2 X187.965 Y179.811 I21.393 J28.178 E.08467
G2 X188.005 Y182.183 I29.07 J.7 E.08388
G1 X188.07 Y182.587 E.01448
G1 X188.006 Y182.912 E.01171
G1 X187.946 Y183.873 E.03401
G1 X188.874 Y184.836 E.04728
G1 X188.174 Y184.836 E.02475
G1 X184.966 Y190.392 E.22679
G1 X174.088 Y176.014 E.63728
G1 X171.264 Y176.014 E.09979
G1 X171.264 Y153.943 E.78014
G1 X174.081 Y153.943 E.09956
G1 X186.57 Y137.484 E.73027
G1 X186.785 Y137.627 E.0091
G1 X185.584 Y139.707 E.0849
G1 X188.71 Y145.121 E.22097
