; generated by SuperSlicer 2.5.59 on 2023-02-08 at 06:45:30 UTC


;
;

;
;
; 

; external perimeters extrusion width = 0.40mm
; perimeters extrusion width = 0.46mm
; infill extrusion width = 0.64mm
; solid infill extrusion width = 0.56mm
; top infill extrusion width = 0.40mm
; support material extrusion width = 0.46mm
; first layer extrusion width = 0.50mm

; object:{"name":"GPU_Bracket","id":"GPU_Bracket.stl id:0 copy 0","object_center":[165.000001,165.000000,0.000000],"boundingbox_center":[165.000001,165.000000,5.000000],"boundingbox_size":[15.000000,55.000000,10.000000]}
; plater:{"center":[165.000001,165.000000,0.000000],"boundingbox_center":[165.000001,165.000000,5.000000],"boundingbox_size":[15.000000,55.000000,10.000000]}

M73 P0 R17


; Pre-Processed for Cancel-Object support by preprocess_cancellation v0.2.0
; 1 known objects
EXCLUDE_OBJECT_DEFINE NAME=GPU_Bracket_stl_id_0_copy_0 CENTER=163.352,161.378 POLYGON=[[157.7,137.7],[157.7,192.3],[172.3,192.3],[172.3,137.7]]
;TYPE:Custom
; custom gcode: start_gcode
START_PRINT T_BED=110 T_EXTRUDER=240
; custom gcode end: start_gcode
M107
G21 ; set units to millimeters
G90 ; use absolute coordinates
M82 ; use absolute distances for extrusion
G92 E0
; custom gcode: start_filament_gcode
; Filament gcode

    PRESSURE_ADVANCE_SELECT FILAMENT=ABS
; custom gcode end: start_filament_gcode
;_TOOLCHANGE 0
M104 S240 ; set temperature
M109 S240 ; set temperature and wait for it to be reached
M190 S110 ; set bed temperature and wait for it to be reached
;LAYER_CHANGE
;Z:0.2
;HEIGHT:0.2
G1 Z0.2 F9000
M73 P0 R17
G1 E-0.5 F3000
M204 S1000
G1 X154.433 Y134.736 F9000
G1 E0 F1800
;TYPE:Skirt
;WIDTH:0.52
G1 X153.313 Y136.298 E0.07626
G1 X152.917 Y138.179 E0.15252
G1 X153.831 Y191.881 E2.28313
G1 X154.077 Y193.299 E2.34025
G1 X155.056 Y194.954 E2.41651
G1 X156.619 Y196.074 E2.49277
G1 X158.5 Y196.47 E2.56904
G1 X171.5 Y196.47 E3.08474
G1 X172.999 Y196.223 E3.14502
G1 X174.654 Y195.244 E3.22128
G1 X175.774 Y193.681 E3.29754
G1 X176.17 Y191.8 E3.37381
G1 X176.157 Y190.655 E3.41923
G1 X168.396 Y138.686 E5.50365
G1 X168.095 Y137.532 E5.55099
G1 X167.698 Y136.687 E5.58803
G1 X167.169 Y135.913 E5.6252
G1 X166.343 Y135.035 E5.673
G1 X165.392 Y134.352 E5.71947
G1 X164.466 Y133.921 E5.75999
G1 X163.133 Y133.571 E5.81467
G1 X162.037 Y133.484 E5.85827
G1 X157.689 Y133.494 E6.03075
G1 X156.088 Y133.757 E6.09513
G1 X154.433 Y134.736 E6.17139
G1 X154.835 Y135.045 F9000
G1 F1800
G1 X153.79 Y136.402 E6.23934
G1 X153.394 Y138.179 E6.31156
G1 X154.308 Y191.873 E8.44184
G1 X154.446 Y192.869 E8.48173
G1 X155.281 Y194.486 E8.55395
G1 X156.723 Y195.597 E8.62616
G1 X158.5 Y195.993 E8.69838
G1 X171.5 Y195.993 E9.21408
M73 P1 R17
G1 X172.569 Y195.854 E9.25683
G1 X174.186 Y195.019 E9.32905
G1 X175.297 Y193.577 E9.40126
G1 X175.693 Y191.8 E9.47348
G1 X175.661 Y190.426 E9.528
G1 X167.924 Y138.757 E11.60053
G1 X167.65 Y137.705 E11.64367
G1 X167.288 Y136.93 E11.67758
G1 X166.803 Y136.219 E11.71174
G1 X166.021 Y135.387 E11.75704
G1 X165.145 Y134.76 E11.79977
G1 X164.313 Y134.373 E11.83615
G1 X163.074 Y134.044 E11.88703
G1 X162.014 Y133.96 E11.92917
G1 X157.327 Y133.995 E12.11515
G1 X154.901 Y134.96 E12.21871
G1 X154.835 Y135.045 E12.22298
G1 X155.223 Y135.371 F9000
G1 F1800
G1 X154.266 Y136.513 E12.2821
G1 X153.872 Y138.179 E12.35003
G1 X154.785 Y191.864 E14.47998
G1 X155.521 Y194.021 E14.57038
G1 X156.834 Y195.121 E14.63832
G1 X158.5 Y195.516 E14.70625
G1 X171.5 Y195.516 E15.22195
G1 X173.721 Y194.779 E15.31478
G1 X174.821 Y193.466 E15.38271
G1 X175.216 Y191.8 E15.45064
G1 X175.205 Y190.726 E15.49324
G1 X167.453 Y138.828 E17.57486
G1 X167.206 Y137.877 E17.61382
G1 X166.878 Y137.174 E17.64459
G1 X166.437 Y136.525 E17.67574
G1 X165.698 Y135.738 E17.71854
G1 X164.897 Y135.168 E17.75753
G1 X164.16 Y134.825 E17.78977
G1 X163.014 Y134.517 E17.83685
G1 X161.992 Y134.437 E17.87753
G1 X157.356 Y134.471 E18.06143
G1 X155.366 Y135.201 E18.14552
G1 X155.223 Y135.371 E18.15433
G1 X155.593 Y135.714 F9000
G1 F1800
G1 X154.742 Y136.632 E18.20398
G1 X154.349 Y138.179 E18.26734
G1 X155.262 Y191.856 E20.39696
M73 P2 R16
G1 X155.781 Y193.559 E20.46759
G1 X156.952 Y194.645 E20.53094
G1 X158.5 Y195.039 E20.5943
G1 X171.5 Y195.039 E21.11
G1 X173.259 Y194.519 E21.18276
G1 X174.345 Y193.348 E21.24612
G1 X174.739 Y191.8 E21.30947
G1 X174.71 Y190.497 E21.36117
G1 X166.981 Y138.899 E23.43089
G1 X166.761 Y138.05 E23.46566
G1 X166.468 Y137.418 E23.4933
G1 X166.071 Y136.83 E23.52143
G1 X165.375 Y136.09 E23.56173
G1 X164.65 Y135.576 E23.59699
G1 X164.008 Y135.277 E23.62509
G1 X162.955 Y134.991 E23.66836
G1 X161.969 Y134.913 E23.70759
G1 X157.386 Y134.947 E23.88942
G1 X155.828 Y135.46 E23.95448
G1 X155.593 Y135.714 E23.96818
G92 E0
G1 E-0.5 F3000
; printing object GPU_Bracket.stl id:0 copy 0
EXCLUDE_OBJECT_START NAME=GPU_Bracket_stl_id_0_copy_0
; acceleration to travel
M204 S3000
G1 X159.237 Y141.889 F9000
; decel to extrusion
M204 S1000
G1 X160.452 Y143.947
; end travel
G1 E0 F1800
;TYPE:Internal perimeter
;WIDTH:0.5
G1 X160.04 Y144.274 E0.02
G1 X159.846 Y144.552 E0.03286
G1 X159.728 Y144.845 E0.04486
G1 X159.693 Y145.114 E0.05518
G1 X159.693 Y189.886 E1.7568
G1 X159.728 Y190.155 E1.76713
G1 X159.846 Y190.448 E1.77912
G1 X160.019 Y190.695 E1.79059
G1 X160.436 Y191.093 E1.8125
G1 X159.207 Y191.093 E1.85922
G1 X159.207 Y143.307 E3.67538
G1 X163.309 Y143.307 E3.83127
G1 X163.309 Y143.301 E3.83151
G1 X163.647 Y143.275 E3.84442
G1 X170.777 Y190.818 E5.67155
G1 X170.798 Y191.093 E5.68204
G1 X169.411 Y191.093 E5.73474
G1 X169.919 Y190.563 E5.76266
G1 X170.068 Y190.26 E5.77547
G1 X170.137 Y189.959 E5.7872
G1 X170.131 Y189.697 E5.79717
G1 X163.416 Y144.933 E7.51753
M73 P3 R16
G1 X163.35 Y144.691 E7.52707
G1 X163.194 Y144.403 E7.5395
G1 X162.86 Y144.07 E7.55745
G1 X162.586 Y143.904 E7.56962
G1 X162.154 Y143.751 E7.58701
G1 X161.872 Y143.704 E7.5979
G1 X161.465 Y143.691 E7.61337
G1 X160.963 Y143.751 E7.63258
G1 X160.452 Y143.947 E7.65339
G1 X160.174 Y144.961 F9000
;TYPE:External perimeter
G1 F1800
G1 X160.15 Y145.144 E7.66038
G1 X160.15 Y189.856 E9.35973
G1 X160.174 Y190.039 E9.36672
G1 X160.251 Y190.229 E9.37453
G1 X160.367 Y190.396 E9.38227
G1 X160.525 Y190.546 E9.39052
G1 X160.871 Y190.74 E9.40561
G1 X161.284 Y190.84 E9.42178
G1 X168.536 Y190.841 E9.69739
G1 X168.933 Y190.749 E9.71289
G1 X169.285 Y190.564 E9.72798
G1 X169.541 Y190.297 E9.74202
G1 X169.635 Y190.106 E9.75012
G1 X169.679 Y189.913 E9.75763
G1 X169.674 Y189.737 E9.76435
G1 X162.968 Y145.028 E11.48258
G1 X162.923 Y144.862 E11.48911
G1 X162.824 Y144.679 E11.497
G1 X162.576 Y144.433 E11.51029
G1 X162.389 Y144.32 E11.51861
G1 X162.039 Y144.195 E11.53271
G1 X161.827 Y144.16 E11.54089
G1 X161.485 Y144.149 E11.5539
G1 X161.073 Y144.198 E11.56965
G1 X160.681 Y144.349 E11.58561
G1 X160.376 Y144.591 E11.60042
G1 X160.251 Y144.771 E11.60876
G1 X160.174 Y144.961 E11.61657
;WIPE_START
M204 S4000
G1 X159.793 Y145.083 F9000
;WIPE_END
G92 E0
G1 E-0.5 F3000
; acceleration to travel
M204 S3000
G1 X159.011 Y143.408 F9000
; decel to extrusion
M204 S1000
G1 X158.75 Y142.85
; end travel
G1 E0 F1800
G1 X162.851 Y142.85 E0.15585
G1 X162.845 Y140.111 E0.25993
G1 X162.816 Y139.618 E0.27871
G1 X162.719 Y138.927 E0.30523
G1 X161.506 Y138.867 E0.35137
G1 X157.837 Y138.852 E0.49082
G1 X157.837 Y138.414 E0.50745
G1 X161.81 Y138.398 E0.65846
G1 X162.497 Y138.449 E0.68462
G1 X162.865 Y138.573 E0.69939
G1 X163.034 Y138.676 E0.7069
G1 X163.175 Y138.805 E0.71417
G1 X163.38 Y139.051 E0.72632
G1 X163.454 Y139.175 E0.73181
G1 X163.534 Y139.434 E0.74213
G1 X171.232 Y190.767 E2.7149
G1 X171.25 Y191.013 E2.72427
G1 X171.25 Y191.55 E2.74469
G1 X158.75 Y191.55 E3.21977
G1 X158.75 Y142.85 E5.07068
;WIPE_START
M204 S4000
G1 X159.096 Y143.05 F9000
;WIPE_END
; acceleration to travel
M204 S3000
G1 X160.279 Y143.444
; decel to extrusion
M204 S1000
G1 X160.674 Y143.575
; end travel
;TYPE:Gap fill
;WIDTH:0.130822
G1 F1800
G1 X160.627 Y143.584 E5.07103
G1 X160.544 Y143.599 E5.07164
;WIDTH:0.179622
G1 X160.462 Y143.614 E5.07259
;WIDTH:0.220323
G1 X160.38 Y143.629 E5.07382
;WIDTH:0.261024
G1 X160.298 Y143.645 E5.07534
G1 X160.264 Y143.654 E5.07599
G1 X160.205 Y143.674 E5.07711
;WIDTH:0.325304
G1 X160.147 Y143.695 E5.07856
;WIDTH:0.3712
G1 X160.088 Y143.715 E5.08025
;WIDTH:0.417096
G1 X160.03 Y143.735 E5.08218
;WIDTH:0.462992
G1 X159.971 Y143.756 E5.08434
;WIDTH:0.508888
G1 X159.913 Y143.776 E5.08674
;WIDTH:0.554784
G1 X159.854 Y143.797 E5.08938
;WIDTH:0.60068
G1 X159.796 Y143.817 E5.09225
;WIDTH:0.646576
G1 X159.737 Y143.837 E5.09536
;WIDTH:0.613613
G1 X159.704 Y143.906 E5.09895
;WIDTH:0.551481
G1 X159.675 Y143.979 E5.10228
;WIDTH:0.522313
G1 X159.657 Y144.036 E5.10466
;WIDTH:0.480529
G1 X159.639 Y144.093 E5.10683
;WIDTH:0.438744
G1 X159.622 Y144.149 E5.10879
;WIDTH:0.396959
G1 X159.604 Y144.206 E5.11055
;WIDTH:0.355175
G1 X159.586 Y144.263 E5.11209
;WIDTH:0.31339
G1 X159.568 Y144.32 E5.11343
;WIDTH:0.269723
G1 X159.544 Y144.402 E5.11505
G1 X159.529 Y144.48 E5.11654
;WIDTH:0.218804
G1 X159.514 Y144.557 E5.11769
;WIDTH:0.178862
G1 X159.499 Y144.634 E5.11858
;WIDTH:0.13892
G1 X159.484 Y144.712 E5.11921
G1 X159.475 Y144.759 E5.11959
G92 E0
G1 E-0.5 F3000
; acceleration to travel
M204 S3000
G1 X161.637 Y143.858 F9000
; decel to extrusion
M204 S1000
G1 X162.357 Y143.557
; end travel
G1 E0 F1800
G1 X162.405 Y143.566 E0.00038
G1 X162.481 Y143.579 E0.001
;WIDTH:0.174053
G1 X162.557 Y143.592 E0.00185
;WIDTH:0.209185
G1 X162.634 Y143.605 E0.00292
;WIDTH:0.252518
G1 X162.71 Y143.618 E0.00427
G1 X162.792 Y143.64 E0.00574
;WIDTH:0.294471
G1 X162.853 Y143.657 E0.00707
;WIDTH:0.335307
G1 X162.914 Y143.674 E0.00861
;WIDTH:0.376143
G1 X162.975 Y143.691 E0.01037
;WIDTH:0.416979
G1 X163.036 Y143.708 E0.01234
;WIDTH:0.457814
G1 X163.097 Y143.725 E0.01453
;WIDTH:0.493646
G1 X163.149 Y143.743 E0.01659
G1 X163.196 Y143.762 E0.0185
;WIDTH:0.571359
G1 X163.243 Y143.782 E0.02073
G1 X163.298 Y143.84 E0.02421
;WIDTH:0.47937
G1 X163.352 Y143.897 E0.02709
;WIDTH:0.508881
G1 X163.374 Y143.921 E0.02834
G1 X163.423 Y143.975 E0.03119
;WIDTH:0.55096
G1 X163.476 Y144.054 E0.03518
;WIDTH:0.647266
G1 X163.529 Y144.132 E0.03993
;WIDTH:0.687612
G1 X163.573 Y144.197 E0.04411
; acceleration to travel
M204 S3000
G1 X163.481 Y143.358 F9000
; decel to extrusion
M204 S1000
G1 X163.45 Y143.079
; end travel
;WIDTH:0.870135
G1 F1800
G1 X163.448 Y143.002 E0.04941
;WIDTH:0.838645
G1 X163.445 Y142.931 E0.0541
G1 X163.44 Y142.818 E0.06156
;WIDTH:0.789319
G1 X163.434 Y142.706 E0.06856
G1 X163.412 Y142.417 E0.08655
;WIDTH:0.741536
G1 X163.39 Y142.128 E0.10338
;WIDTH:0.693752
G1 X163.368 Y141.839 E0.11907
;WIDTH:0.645968
G1 X163.347 Y141.55 E0.1336
;WIDTH:0.598185
G1 X163.325 Y141.261 E0.14698
;WIDTH:0.550401
G1 X163.303 Y140.972 E0.15921
;WIDTH:0.502618
G1 X163.281 Y140.683 E0.17029
;WIDTH:0.454834
G1 X163.259 Y140.394 E0.18022
;WIDTH:0.40705
G1 X163.237 Y140.105 E0.18899
G1 X163.236 Y140.095 E0.1893
G1 X163.21 Y139.841 E0.19701
;WIDTH:0.359746
G1 X163.184 Y139.588 E0.20372
G1 X163.173 Y139.516 E0.20562
G1 X163.151 Y139.418 E0.20829
;WIDTH:0.326256
G1 X163.129 Y139.319 E0.21068
G1 X163.104 Y139.246 E0.21249
;WIDTH:0.295885
G1 X163.081 Y139.194 E0.2137
;WIDTH:0.256644
G1 X163.058 Y139.142 E0.21471
;WIDTH:0.217402
G1 X163.034 Y139.089 E0.21554
;WIDTH:0.178161
G1 X163.011 Y139.037 E0.21618
;WIDTH:0.138919
G1 X162.988 Y138.985 E0.21664
G1 X162.969 Y138.941 E0.21702
G92 E0
G1 E-0.5 F3000
; acceleration to travel
M204 S3000
G1 X161.133 Y177.89 F9000
; decel to extrusion
M204 S1000
G1 X160.522 Y190.873
; end travel
M73 P4 R16
G1 E0 F1800
;WIDTH:0.219273
G1 X160.634 Y190.944 E0.00195
G1 X160.666 Y190.964 E0.00251
G1 X160.811 Y191.056 E0.00503
G1 X160.874 Y191.086 E0.00605
;WIDTH:0.257938
G1 X160.922 Y191.108 E0.00699
;WIDTH:0.296582
G1 X160.971 Y191.13 E0.00811
;WIDTH:0.335226
G1 X161.019 Y191.152 E0.0094
;WIDTH:0.37387
G1 X161.067 Y191.174 E0.01085
G1 X161.146 Y191.183 E0.01304
;WIDTH:0.334874
G1 X161.225 Y191.193 E0.01497
G1 X161.259 Y191.195 E0.01581
G1 X164.91 Y191.195 E0.10443
G1 X168.56 Y191.195 E0.19305
G1 X168.593 Y191.193 E0.19385
G1 X168.702 Y191.181 E0.1965
;WIDTH:0.360814
G1 X168.81 Y191.169 E0.19939
G1 X168.898 Y191.129 E0.20194
;WIDTH:0.255157
G1 X168.986 Y191.089 E0.20364
G1 X169.003 Y191.08 E0.20398
G1 X169.093 Y191.025 E0.20584
G1 X169.183 Y190.969 E0.20771
G1 X169.214 Y190.95 E0.20835
G1 X169.319 Y190.884 E0.21054
M106 S255
;LAYER_CHANGE
;Z:0.4
;HEIGHT:0.2
; stop printing object GPU_Bracket.stl id:0 copy 0
EXCLUDE_OBJECT_END NAME=GPU_Bracket_stl_id_0_copy_0
M204 S4000
G1 Z0.4 F9000
G92 E0
G1 E-0.5 F3000
G1 Z0.6 F9000
; printing object GPU_Bracket.stl id:0 copy 0
EXCLUDE_OBJECT_START NAME=GPU_Bracket_stl_id_0_copy_0
; acceleration to travel
M204 S3000
G1 X166.15 Y165.499
; decel to extrusion
M204 S2500
G1 X163.509 Y144.344
; end travel
G1 Z0.4
G1 E0 F1800
;TYPE:Internal perimeter
;WIDTH:0.46
G1 X162.732 Y143.571 E0.038
G1 X163.624 Y143.571 E0.06894
G1 X163.724 Y144.235 E0.09223
G1 X163.509 Y144.344 E0.10059
; acceleration to travel
M204 S3000
G1 X161.715 Y144.044 F9000
; decel to extrusion
M204 S2500
G1 X160.22 Y143.795
; end travel
G1 F1800
G1 X159.846 Y144.092 E0.11717
G1 X159.613 Y144.425 E0.13128
G1 X159.541 Y144.603 E0.13792
G1 X159.271 Y144.551 E0.14747
G1 X159.271 Y143.571 E0.18145
G1 X160.142 Y143.571 E0.21167
G1 X160.22 Y143.795 E0.21988
; acceleration to travel
M204 S3000
G1 X159.85 Y169.214 F9000
; decel to extrusion
M204 S2500
G1 X159.541 Y190.397
; end travel
G1 F1800
G1 X159.613 Y190.575 E0.22652
G1 X159.884 Y190.963 E0.24294
G1 X159.678 Y190.963 E0.25010
M106 S229.5
G1 X159.271 Y190.963 E0.2642
G1 X159.271 Y190.449 E0.282
G1 X159.541 Y190.397 E0.29155
G92 E0
G1 E-0.5 F3000
M204 S4000
G1 Z0.6 F9000
; acceleration to travel
M204 S3000
G1 X165.435 Y190.302
; decel to extrusion
M204 S2500
G1 X170.347 Y190.223
; end travel
G1 Z0.4
G1 E0 F1800
G1 X170.624 Y190.234 E0.00959
G1 X170.733 Y190.963 E0.03515
G1 X170.016 Y190.963 E0.06002
G1 X170.319 Y190.349 E0.08374
G1 X170.347 Y190.223 E0.08822
; acceleration to travel
M204 S3000
G1 X169.933 Y190.5 F9000
; decel to extrusion
M204 S2500
G1 X169.47 Y190.81
; end travel
G1 F4800
G1 X169.792 Y190.474 E0.10437
G1 X169.923 Y190.209 E0.11461
G1 X169.983 Y189.944 E0.12403
G1 X169.978 Y189.71 E0.13213
G1 X163.266 Y144.965 E1.70129
G1 X163.206 Y144.748 E1.70906
G1 X163.07 Y144.496 E1.71902
G1 X162.765 Y144.192 E1.73397
G1 X162.52 Y144.044 E1.7439
G1 X162.116 Y143.9 E1.75876
G1 X161.857 Y143.857 E1.76787
G1 X161.472 Y143.845 E1.78123
G1 X161.254 Y143.871 E1.78884
G1 X161 Y143.901 E1.7977
G1 X160.529 Y144.082 E1.8152
G1 X160.153 Y144.381 E1.83186
G1 X159.982 Y144.625 E1.84222
G1 X159.878 Y144.884 E1.85188
G1 X159.846 Y145.124 E1.86028
G1 X159.846 Y189.876 E3.4123
G1 X159.878 Y190.116 E3.42069
G1 X159.982 Y190.375 E3.43036
G1 X160.136 Y190.595 E3.43968
G1 X160.343 Y190.792 E3.4496
G1 X160.759 Y191.025 E3.46613
G1 X161.009 Y191.086 E3.47505
G1 X160.974 Y191.38 E3.48532
G1 X158.854 Y191.38 E3.55884
G1 X158.854 Y143.154 E5.23133
G1 X163.154 Y143.154 E5.38045
G1 X163.154 Y139.704 E5.50009
G1 X163.463 Y139.681 E5.51083
G1 X171.129 Y190.787 E7.30305
G1 X171.146 Y191.024 E7.31128
G1 X171.146 Y191.38 E7.32361
G1 X168.867 Y191.38 E7.40266
G1 X168.833 Y191.084 E7.41298
G1 X169.04 Y191.036 E7.42035
G1 X169.47 Y190.81 E7.43719
; acceleration to travel
M204 S3000
G1 X169.532 Y190.282 F9000
; decel to extrusion
M204 S1500
G1 X169.556 Y190.078
; end travel
;TYPE:External perimeter
;WIDTH:0.4
G1 F2400
G1 X169.595 Y189.905 E7.44246
G1 X169.591 Y189.744 E7.44725
G1 X162.886 Y145.045 E8.78926
G1 X162.845 Y144.893 E8.79393
G1 X162.757 Y144.73 E8.79945
G1 X162.525 Y144.499 E8.80917
G1 X162.353 Y144.395 E8.81512
G1 X162.018 Y144.276 E8.82567
G1 X161.819 Y144.243 E8.83167
G1 X161.488 Y144.233 E8.84149
G1 X161.299 Y144.255 E8.84715
G1 X161.094 Y144.279 E8.85329
G1 X160.723 Y144.422 E8.86507
G1 X160.438 Y144.649 E8.8759
G1 X160.324 Y144.811 E8.88178
G1 X160.255 Y144.983 E8.88728
G1 X160.233 Y145.149 E8.89226
G1 X160.233 Y189.851 E10.21951
G1 X160.255 Y190.017 E10.2245
G1 X160.324 Y190.189 E10.23
G1 X160.431 Y190.341 E10.23551
