; generated by SuperSlicer 2.5.59 on 2023-01-17 at 03:47:38 UTC


;
;

;
;
; 

; external perimeters extrusion width = 0.40mm
; perimeters extrusion width = 0.46mm
; infill extrusion width = 0.64mm
; solid infill extrusion width = 0.56mm
; top infill extrusion width = 0.40mm
; first layer extrusion width = 0.50mm

; object:{"name":"hard drive without outside feet","id":"hard drive without outside feet.stl id:0 copy 0","object_center":[165.000000,165.000000,0.000000],"boundingbox_center":[165.000000,165.000000,8.750000],"boundingbox_size":[37.728848,120.100006,17.500000]}
; plater:{"center":[165.000000,165.000000,0.000000],"boundingbox_center":[165.000000,165.000000,8.750000],"boundingbox_size":[37.728848,120.100006,17.500000]}

M73 P0 R38


; Pre-Processed for Cancel-Object support by preprocess_cancellation v0.2.0
; 1 known objects
EXCLUDE_OBJECT_DEFINE NAME=hard_drive_without_outside_feet_stl_id_0_copy_0 CENTER=161.139,120.576 POLYGON=[[146.336,105.15],[146.336,224.85],[183.664,224.85],[183.664,105.15]]
;TYPE:Custom
; custom gcode: start_gcode
START_PRINT T_BED=60 T_EXTRUDER=200
; custom gcode end: start_gcode
M107
G21 ; set units to millimeters
G90 ; use absolute coordinates
M82 ; use absolute distances for extrusion
G92 E0
; custom gcode: start_filament_gcode
; Filament gcode

    PRESSURE_ADVANCE_SELECT FILAMENT=PLA
; custom gcode end: start_filament_gcode
;_TOOLCHANGE 0
M109 S200 ; set temperature and wait for it to be reached
M190 S60 ; set bed temperature and wait for it to be reached
;LAYER_CHANGE
;Z:0.2
;HEIGHT:0.2
G1 Z0.2 F9000
M73 P0 R38
G1 E-0.8 F3000
M204 S1000
G1 X142.915 Y103.384 F9000
G1 E0 F1800
;TYPE:Skirt
;WIDTH:0.52
G1 X142.52 Y105.05 E0.06793
G1 X142.52 Y220.908 E4.66394
M73 P0 R38
G1 X143.257 Y223.129 E4.75677
G1 X144.569 Y224.229 E4.8247
G1 X146.236 Y224.624 E4.89263
G1 X149.036 Y224.624 E5.0037
G1 X150.284 Y224.408 E5.05396
G1 X151.721 Y223.476 E5.12189
G1 X152.587 Y221.999 E5.18983
G1 X187.178 Y109.392 E9.86288
G1 X187.372 Y108.628 E9.89413
G1 X187.48 Y107.161 E9.9525
G1 X187.234 Y105.71 E10.01088
G1 X186.647 Y104.36 E10.06926
G1 X185.755 Y103.19 E10.12763
G1 X184.608 Y102.268 E10.18601
G1 X183.274 Y101.646 E10.24439
G1 X181.824 Y101.361 E10.303
G1 X146.236 Y101.334 E11.71479
G1 X144.015 Y102.071 E11.80762
G1 X142.915 Y103.384 E11.87555
G1 X143.39 Y103.505 F9000
G1 F1800
G1 X142.997 Y105.05 E11.93881
G1 X142.997 Y220.908 E16.53481
G1 X143.516 Y222.667 E16.60757
G1 X144.688 Y223.753 E16.67093
G1 X146.236 Y224.146 E16.73429
G1 X149.036 Y224.146 E16.84536
G1 X149.919 Y224.024 E16.88072
G1 X151.3 Y223.223 E16.94408
G1 X152.131 Y221.859 E17.00744
G1 X186.722 Y109.252 E21.68049
G1 X186.909 Y108.514 E21.71067
G1 X187.003 Y107.161 E21.76449
G1 X186.77 Y105.824 E21.81831
G1 X186.225 Y104.582 E21.87213
G1 X185.398 Y103.507 E21.92595
G1 X184.337 Y102.66 E21.97977
G1 X183.105 Y102.092 E22.03359
G1 X181.767 Y101.835 E22.08765
G1 X146.236 Y101.811 E23.49716
G1 X144.477 Y102.331 E23.56992
G1 X143.39 Y103.505 E23.63336
G92 E0
G1 E-0.8 F3000
; printing object hard drive without outside feet.stl id:0 copy 0
EXCLUDE_OBJECT_START NAME=hard_drive_without_outside_feet_stl_id_0_copy_0
; acceleration to travel
M204 S3000
G1 X146.397 Y105.537 F9000
; decel to extrusion
M204 S1000
G1 X147.4 Y106.214
; end travel
G1 E0 F1800
;TYPE:Internal perimeter
;WIDTH:0.5
G1 X181.306 Y106.214 E1.28866
G1 X181.529 Y106.241 E1.29721
G1 X181.676 Y106.259 E1.30283
G1 X181.953 Y106.364 E1.31406
G1 X182.196 Y106.532 E1.3253
G1 X182.392 Y106.753 E1.33654
G1 X182.421 Y106.808 E1.33888
G1 X182.53 Y107.015 E1.34778
G1 X182.6 Y107.302 E1.35902
G1 X182.6 Y107.598 E1.37025
G1 X182.53 Y107.885 E1.38149
G1 X182.392 Y108.147 E1.39273
G1 X182.196 Y108.368 E1.40397
G1 X181.953 Y108.536 E1.41521
G1 X181.676 Y108.641 E1.42644
G1 X181.306 Y108.686 E1.44061
G1 X159.096 Y108.686 E2.28474
G1 X157.727 Y108.772 E2.33686
G1 X156.341 Y109.035 E2.39049
G1 X154.999 Y109.47 E2.44411
G1 X153.721 Y110.07 E2.49774
G1 X152.529 Y110.824 E2.55137
G1 X151.44 Y111.721 E2.605
G1 X150.472 Y112.748 E2.65862
G1 X149.639 Y113.887 E2.71225
G1 X148.937 Y115.157 E2.76741
G1 X148.752 Y115.72 E2.78996
G1 X148.71 Y116.353 E2.81404
G1 X148.828 Y116.975 E2.83812
G1 X149.097 Y117.549 E2.86221
G1 X149.5 Y118.038 E2.88629
G1 X150.043 Y118.433 E2.91182
G1 X149.961 Y118.686 E2.92191
G1 X147.871 Y118.686 E3.00131
G1 X147.871 Y219.744 E6.84215
M73 P1 R38
G1 X147.4 Y219.744 E6.86008
G1 X147.4 Y106.214 E11.17492
G1 X146.943 Y105.757 F9000
G1 F1800
G1 X181.334 Y105.757 E12.48201
G1 X181.585 Y105.788 E12.4916
G1 X181.786 Y105.812 E12.49933
G1 X182.167 Y105.956 E12.51479
G1 X182.501 Y106.187 E12.53024
G1 X182.771 Y106.492 E12.5457
G1 X182.825 Y106.595 E12.55015
G1 X182.96 Y106.852 E12.56116
G1 X183.057 Y107.247 E12.57662
G1 X183.057 Y107.653 E12.59207
G1 X182.96 Y108.048 E12.60753
G1 X182.771 Y108.408 E12.62299
G1 X182.501 Y108.713 E12.63844
G1 X182.167 Y108.944 E12.6539
G1 X181.786 Y109.088 E12.66936
G1 X181.334 Y109.143 E12.68668
G1 X159.11 Y109.143 E13.53132
G1 X157.785 Y109.226 E13.5818
G1 X156.455 Y109.479 E13.63325
G1 X155.167 Y109.896 E13.6847
G1 X153.941 Y110.471 E13.73614
G1 X152.797 Y111.195 E13.78759
G1 X151.753 Y112.056 E13.83904
G1 X150.824 Y113.04 E13.89049
G1 X150.025 Y114.133 E13.94194
G1 X149.357 Y115.34 E13.99436
G1 X149.204 Y115.808 E14.01307
G1 X149.17 Y116.325 E14.03276
G1 X149.266 Y116.834 E14.05244
G1 X149.486 Y117.303 E14.07213
G1 X149.816 Y117.703 E14.09182
G1 X150.234 Y118.008 E14.11151
G1 X150.716 Y118.198 E14.1312
G1 X151.179 Y118.257 E14.14894
G1 X162.833 Y118.257 E14.59185
G1 X162.998 Y118.279 E14.59821
G1 X163.104 Y118.322 E14.60253
G1 X163.194 Y118.392 E14.60686
G1 X163.263 Y118.482 E14.61118
G1 X163.307 Y118.587 E14.61551
G1 X163.322 Y118.7 E14.61983
G1 X163.307 Y118.813 E14.62416
G1 X163.263 Y118.918 E14.62848
G1 X163.194 Y119.008 E14.63281
G1 X163.104 Y119.078 E14.63714
G1 X162.998 Y119.121 E14.64146
G1 X162.833 Y119.143 E14.64781
G1 X148.328 Y119.143 E15.19906
G1 X148.328 Y220.201 E19.03991
G1 X146.943 Y220.201 E19.09258
G1 X146.943 Y105.757 E23.44217
G1 X146.486 Y105.3 F9000
;TYPE:External perimeter
G1 F1800
G1 X181.361 Y105.3 E24.76767
G1 X181.64 Y105.334 E24.77832
G1 X181.897 Y105.365 E24.78816
G1 X182.381 Y105.549 E24.80783
G1 X182.807 Y105.843 E24.82751
G1 X183.15 Y106.23 E24.84718
G1 X183.23 Y106.383 E24.85374
G1 X183.391 Y106.689 E24.86686
G1 X183.514 Y107.191 E24.88653
G1 X183.514 Y107.709 E24.90621
G1 X183.391 Y108.211 E24.92588
G1 X183.15 Y108.67 E24.94556
G1 X182.807 Y109.057 E24.96524
G1 X182.381 Y109.351 E24.98491
G1 X181.897 Y109.535 E25.00459
G1 X181.361 Y109.6 E25.02507
G1 X159.125 Y109.6 E25.87021
M73 P2 R38
G1 X157.842 Y109.68 E25.91906
G1 X156.568 Y109.923 E25.96833
G1 X155.335 Y110.322 E26.0176
G1 X154.162 Y110.873 E26.06687
G1 X153.066 Y111.566 E26.11614
G1 X152.066 Y112.39 E26.1654
G1 X151.176 Y113.333 E26.21467
G1 X150.411 Y114.38 E26.26394
G1 X149.778 Y115.524 E26.31363
G1 X149.656 Y115.895 E26.3285
G1 X149.63 Y116.297 E26.34379
G1 X149.705 Y116.692 E26.35908
G1 X149.875 Y117.057 E26.37438
G1 X150.131 Y117.367 E26.38967
G1 X150.457 Y117.604 E26.40496
G1 X150.831 Y117.752 E26.42026
G1 X151.208 Y117.8 E26.4347
G1 X162.863 Y117.8 E26.87766
G1 X163.118 Y117.834 E26.88744
G1 X163.334 Y117.923 E26.89634
G1 X163.52 Y118.066 E26.90524
G1 X163.662 Y118.252 E26.91414
G1 X163.752 Y118.468 E26.92304
G1 X163.783 Y118.7 E26.93194
G1 X163.752 Y118.932 E26.94084
G1 X163.662 Y119.148 E26.94974
G1 X163.52 Y119.334 E26.95864
G1 X163.334 Y119.477 E26.96753
G1 X163.118 Y119.566 E26.97643
G1 X162.863 Y119.6 E26.98621
G1 X148.786 Y119.6 E27.52123
G1 X148.786 Y220.658 E31.36207
M73 P2 R38
G1 X146.486 Y220.658 E31.44949
G1 X146.486 Y105.3 E35.83382
;WIPE_START
M204 S4000
G1 X146.832 Y105.5 F9000
;WIPE_END
G92 E0
G1 E-0.8 F3000
; acceleration to travel
M204 S3000
G1 X149.367 Y115.321 F9000
; decel to extrusion
M204 S1000
G1 X150.212 Y118.594
; end travel
G1 E0 F1800
;TYPE:Gap fill
;WIDTH:0.657187
G1 X150.297 Y118.607 E0.00443
G1 X150.397 Y118.627 E0.0096
;WIDTH:0.615784
G1 X150.496 Y118.646 E0.01442
G1 X150.562 Y118.659 E0.01762
;WIDTH:0.581974
G1 X150.63 Y118.667 E0.02068
G1 X150.883 Y118.683 E0.03205
;WIDTH:0.50953
G1 X151.136 Y118.699 E0.0419
G1 X151.166 Y118.7 E0.04304
G1 X162.804 Y118.7 E0.49458
G1 X162.886 Y118.7 E0.49775
G1 X162.975 Y118.714 E0.50127
;WIDTH:0.393292
G1 X163.065 Y118.728 E0.50391
G1 X163.105 Y118.734 E0.50509
G92 E0
G1 E-0.8 F3000
; acceleration to travel
M204 S3000
G1 X176.48 Y109.801 F9000
; decel to extrusion
M204 S1000
G1 X181.576 Y106.397
; end travel
G1 E0 F1800
;TYPE:Solid infill
;WIDTH:0.506407
G1 F3600
G1 X182.452 Y107.274 E0.0477
G1 X182.389 Y107.857 F9000
G1 F3600
G1 X180.883 Y106.351 E0.12968
G1 X180.237 Y106.351 F9000
G1 F3600
G1 X182.126 Y108.24 E0.23252
G1 X181.718 Y108.479 F9000
G1 F3600
G1 X179.59 Y106.351 E0.34833
G1 X178.944 Y106.351 F9000
G1 F3600
G1 X181.141 Y108.549 E0.46795
G1 X180.495 Y108.549 F9000
G1 F3600
G1 X178.298 Y106.351 E0.58758
G1 X177.651 Y106.351 F9000
G1 F3600
G1 X179.849 Y108.549 E0.7072
G1 X179.202 Y108.549 F9000
G1 F3600
G1 X177.005 Y106.351 E0.82683
G1 X176.358 Y106.351 F9000
G1 F3600
G1 X178.556 Y108.549 E0.94646
G1 X177.909 Y108.549 F9000
G1 F3600
G1 X175.712 Y106.351 E1.06608
G1 X175.066 Y106.351 F9000
G1 F3600
G1 X177.263 Y108.549 E1.18571
G1 X176.617 Y108.549 F9000
G1 F3600
G1 X174.419 Y106.351 E1.30533
G1 X173.773 Y106.351 F9000
G1 F3600
G1 X175.97 Y108.549 E1.42496
G1 X175.324 Y108.549 F9000
G1 F3600
G1 X173.126 Y106.351 E1.54459
G1 X172.48 Y106.351 F9000
G1 F3600
G1 X174.677 Y108.549 E1.66421
G1 X174.031 Y108.549 F9000
G1 F3600
G1 X171.834 Y106.351 E1.78384
G1 X171.187 Y106.351 F9000
G1 F3600
G1 X173.385 Y108.549 E1.90346
G1 X172.738 Y108.549 F9000
G1 F3600
G1 X170.541 Y106.351 E2.02309
G1 X169.894 Y106.351 F9000
G1 F3600
G1 X172.092 Y108.549 E2.14271
G1 X171.445 Y108.549 F9000
G1 F3600
G1 X169.248 Y106.351 E2.26234
G1 X168.601 Y106.351 F9000
G1 F3600
G1 X170.799 Y108.549 E2.38197
G1 X170.153 Y108.549 F9000
G1 F3600
G1 X167.955 Y106.351 E2.50159
G1 X167.309 Y106.351 F9000
G1 F3600
G1 X169.506 Y108.549 E2.62122
G1 X168.86 Y108.549 F9000
G1 F3600
G1 X166.662 Y106.351 E2.74084
G1 X166.016 Y106.351 F9000
G1 F3600
G1 X168.213 Y108.549 E2.86047
G1 X167.567 Y108.549 F9000
G1 F3600
G1 X165.369 Y106.351 E2.98009
G1 X164.723 Y106.351 F9000
G1 F3600
G1 X166.921 Y108.549 E3.09972
G1 X166.274 Y108.549 F9000
G1 F3600
G1 X164.077 Y106.351 E3.21935
G1 X163.43 Y106.351 F9000
G1 F3600
G1 X165.628 Y108.549 E3.33897
G1 X164.981 Y108.549 F9000
G1 F3600
G1 X162.784 Y106.351 E3.4586
G1 X162.137 Y106.351 F9000
G1 F3600
G1 X164.335 Y108.549 E3.57822
G1 X163.688 Y108.549 F9000
G1 F3600
G1 X161.491 Y106.351 E3.69785
G1 X160.845 Y106.351 F9000
G1 F3600
G1 X163.042 Y108.549 E3.81748
G1 X162.396 Y108.549 F9000
G1 F3600
G1 X160.198 Y106.351 E3.9371
G1 X159.552 Y106.351 F9000
G1 F3600
G1 X161.749 Y108.549 E4.05673
G1 X161.103 Y108.549 F9000
G1 F3600
G1 X158.905 Y106.351 E4.17635
G1 X158.259 Y106.351 F9000
G1 F3600
G1 X160.456 Y108.549 E4.29598
G1 X159.81 Y108.549 F9000
G1 F3600
G1 X157.613 Y106.351 E4.4156
G1 X156.966 Y106.351 F9000
G1 F3600
G1 X159.164 Y108.549 E4.53523
G1 X158.551 Y108.583 F9000
G1 F3600
G1 X156.32 Y106.351 E4.6567
G1 X155.673 Y106.351 F9000
G1 F3600
G1 X157.943 Y108.621 E4.78025
G1 X157.375 Y108.699 F9000
G1 F3600
G1 X155.027 Y106.351 E4.90807
G1 X154.381 Y106.351 F9000
G1 F3600
G1 X156.832 Y108.803 E5.04151
G1 X156.291 Y108.908 F9000
G1 F3600
G1 X153.734 Y106.351 E5.18068
G1 X153.088 Y106.351 F9000
G1 F3600
G1 X155.802 Y109.066 E5.32845
G1 X155.314 Y109.224 F9000
G1 F3600
G1 X152.441 Y106.351 E5.48484
G1 X151.795 Y106.351 F9000
G1 F3600
G1 X154.838 Y109.394 E5.6505
G1 X154.398 Y109.601 F9000
G1 F3600
G1 X151.148 Y106.351 E5.82739
G1 X150.502 Y106.351 F9000
G1 F3600
G1 X153.958 Y109.807 E6.01552
G1 X153.532 Y110.027 F9000
G1 F3600
G1 X149.856 Y106.351 E6.21564
G1 X149.209 Y106.351 F9000
G1 F3600
G1 X153.136 Y110.278 E6.42938
G1 X152.74 Y110.528 F9000
G1 F3600
G1 X148.563 Y106.351 E6.65676
G1 X147.916 Y106.351 F9000
G1 F3600
G1 X152.355 Y110.79 E6.89837
G1 X152 Y111.082 F9000
G1 F3600
G1 X147.537 Y106.618 E7.14136
G1 X147.537 Y107.264 F9000
G1 F3600
G1 X151.646 Y111.374 E7.36505
G1 X151.298 Y111.672 F9000
G1 F3600
G1 X147.537 Y107.911 E7.5698
G1 X147.537 Y108.557 F9000
G1 F3600
G1 X150.984 Y112.005 E7.75746
G1 X150.67 Y112.337 F9000
G1 F3600
G1 X147.537 Y109.204 E7.92804
G1 X147.537 Y109.85 F9000
G1 F3600
G1 X150.358 Y112.671 E8.08161
G1 X150.085 Y113.045 F9000
G1 F3600
G1 X147.537 Y110.496 E8.22032
G1 X147.537 Y111.143 F9000
G1 F3600
G1 X149.812 Y113.418 E8.34418
G1 X149.539 Y113.792 F9000
G1 F3600
G1 X147.537 Y111.789 E8.45319
G1 X147.537 Y112.436 F9000
G1 F3600
G1 X149.306 Y114.205 E8.54952
G1 X149.076 Y114.621 F9000
G1 F3600
G1 X147.537 Y113.082 E8.63332
G1 X147.537 Y113.729 F9000
G1 F3600
G1 X148.846 Y115.038 E8.70458
G1 X148.675 Y115.513 F9000
G1 F3600
G1 X147.537 Y114.375 E8.76655
G1 X147.537 Y115.021 F9000
G1 F3600
G1 X148.591 Y116.076 E8.82394
G1 X148.652 Y116.783 F9000
G1 F3600
G1 X147.537 Y115.668 E8.88464
G1 X147.537 Y116.314 F9000
G1 F3600
G1 X149.611 Y118.388 E8.99755
G1 X149.125 Y118.549 F9000
G1 F3600
G1 X147.537 Y116.961 E9.08401
G1 X147.537 Y117.607 F9000
G1 F3600
G1 X148.479 Y118.549 E9.13527
;LAYER_CHANGE
;Z:0.4
;HEIGHT:0.2
; stop printing object hard drive without outside feet.stl id:0 copy 0
EXCLUDE_OBJECT_END NAME=hard_drive_without_outside_feet_stl_id_0_copy_0
M204 S4000
G1 Z0.4 F9000
; printing object hard drive without outside feet.stl id:0 copy 0
EXCLUDE_OBJECT_START NAME=hard_drive_without_outside_feet_stl_id_0_copy_0
; acceleration to travel
M204 S3000
G1 X148.269 Y118.716
; decel to extrusion
M204 S2500
G1 X148.065 Y118.879
; end travel
;TYPE:Internal perimeter
;WIDTH:0.46
G1 F4800
G1 X148.065 Y220.684 E12.66588
G1 X147.206 Y220.684 E12.69565
G1 X147.206 Y106.021 E16.67219
G1 X181.318 Y106.021 E17.85519
G1 X181.553 Y106.049 E17.86339
G1 X181.723 Y106.07 E17.86933
G1 X182.043 Y106.191 E17.88121
G1 X182.325 Y106.386 E17.8931
G1 X182.552 Y106.643 E17.90498
G1 X182.712 Y106.946 E17.91686
G1 X182.794 Y107.279 E17.92875
G1 X182.794 Y107.621 E17.94063
G1 X182.712 Y107.954 E17.95251
G1 X182.552 Y108.257 E17.96439
G1 X182.325 Y108.514 E17.97628
G1 X182.043 Y108.709 E17.98816
G1 X181.723 Y108.83 E18.00004
G1 X181.318 Y108.879 E18.01419
G1 X159.102 Y108.879 E18.78464
G1 X157.752 Y108.964 E18.83157
G1 X156.389 Y109.223 E18.87966
G1 X155.07 Y109.65 E18.92776
G1 X153.814 Y110.239 E18.97585
G1 X152.642 Y110.981 E19.02394
G1 X151.572 Y111.863 E19.07203
G1 X150.621 Y112.871 E19.12013
G1 X149.803 Y113.991 E19.16822
G1 X149.115 Y115.234 E19.2175
G1 X148.943 Y115.757 E19.23659
G1 X148.905 Y116.341 E19.25687
G1 X149.013 Y116.916 E19.27715
G1 X149.261 Y117.445 E19.29743
G1 X149.633 Y117.896 E19.31771
G1 X150.106 Y118.24 E19.33799
G1 X150.65 Y118.456 E19.35827
G1 X151.162 Y118.521 E19.37619
G1 X162.815 Y118.521 E19.78032
G1 X162.941 Y118.537 E19.78471
G1 X163.009 Y118.577 E19.78745
G1 X163.054 Y118.655 E19.79057
G1 X163.054 Y118.745 E19.79369
G1 X163.009 Y118.823 E19.79682
G1 X162.941 Y118.863 E19.79956
G1 X162.815 Y118.879 E19.80394
G1 X148.065 Y118.879 E20.3155
; acceleration to travel
M204 S3000
G1 X148.292 Y119.107 F9000
; decel to extrusion
M204 S2500
G1 X148.482 Y119.296
; end travel
G1 F4800
G1 X148.482 Y221.101 E23.84611
G1 X146.789 Y221.101 E23.9048
G1 X146.789 Y105.604 E27.91027
M73 P3 R37
G1 X181.343 Y105.604 E29.10861
G1 X181.603 Y105.635 E29.11769
G1 X181.823 Y105.662 E29.12538
G1 X182.238 Y105.819 E29.14078
G1 X182.604 Y106.072 E29.15617
G1 X182.898 Y106.404 E29.17157
G1 X183.104 Y106.797 E29.18697
G1 X183.211 Y107.228 E29.20236
G1 X183.211 Y107.672 E29.21776
G1 X183.104 Y108.103 E29.23315
G1 X182.898 Y108.496 E29.24855
G1 X182.604 Y108.828 E29.26394
G1 X182.238 Y109.081 E29.27934
G1 X181.823 Y109.238 E29.29473
G1 X181.343 Y109.296 E29.31151
G1 X159.115 Y109.296 E30.08239
G1 X157.804 Y109.379 E30.12795
G1 X156.493 Y109.628 E30.17423
G1 X155.223 Y110.039 E30.22051
G1 X154.015 Y110.606 E30.26679
G1 X152.888 Y111.319 E30.31306
G1 X151.858 Y112.168 E30.35934
