; generated by SuperSlicer 2.5.59 on 2023-04-27 at 16:49:07 UTC


;
;

;
;
; 

; external perimeters extrusion width = 0.40mm
; perimeters extrusion width = 0.46mm
; infill extrusion width = 0.64mm
; solid infill extrusion width = 0.56mm
; top infill extrusion width = 0.40mm
; support material extrusion width = 0.46mm
; first layer extrusion width = 0.50mm

; object:{"name":"Hard Drive Adapter(1)","id":"Hard Drive Adapter(1) id:0 copy 0","object_center":[165.000000,165.000000,0.000000],"boundingbox_center":[165.000000,165.000000,19.495188],"boundingbox_size":[146.000000,134.059860,38.990376]}
EXCLUDE_OBJECT_DEFINE NAME=Hard_Drive_Adapter_1__id_0_copy_0 CENTER=165.000000,165.000000 POLYGON=[[92.000000,97.970072],[238.000000,97.970072],[238.000000,214.829920],[225.800000,227.029936],[220.800000,232.029936],[109.200000,232.029936],[104.200000,227.029936],[92.000000,214.829920],[92.000000,97.970072]]
; plater:{"center":[165.000000,165.000000,0.000000],"boundingbox_center":[165.000000,165.000000,19.495188],"boundingbox_size":[146.000000,134.059860,38.990376]}

M73 P0 R217
;TYPE:Custom
; custom gcode: start_gcode
START_PRINT T_BED=70 T_EXTRUDER=235
; custom gcode end: start_gcode
M107
G21 ; set units to millimeters
G90 ; use absolute coordinates
M82 ; use absolute distances for extrusion
G92 E0
; custom gcode: start_filament_gcode
; Filament gcode
PRESSURE_ADVANCE_SELECT FILAMENT=PETG
; custom gcode end: start_filament_gcode
;_TOOLCHANGE 0
M104 S235 ; set temperature
M109 S235 ; set temperature and wait for it to be reached
M190 S70 ; set bed temperature and wait for it to be reached
;LAYER_CHANGE
;Z:0.2
;HEIGHT:0.2
G1 Z0.2 F9000
G1 E-1 F3000
M204 S1000
G1 X89.879 Y95.091 F9000
G1 E0 F1800
;TYPE:Skirt
;WIDTH:0.52
G1 X88.779 Y96.404 E0.06793
G1 X88.384 Y98.07 E0.13586
G1 X88.384 Y214.789 E4.76601
G1 X88.573 Y215.959 E4.81302
G1 X89.473 Y217.416 E4.88095
G1 X106.614 Y234.557 E5.8426
M73 P0 R217
G1 X107.575 Y235.251 E5.88962
G1 X109.241 Y235.646 E5.95755
G1 X220.759 Y235.646 E10.38136
G1 X221.929 Y235.457 E10.42838
G1 X223.386 Y234.557 E10.49631
G1 X240.527 Y217.416 E11.45796
G1 X241.221 Y216.455 E11.50497
G1 X241.616 Y214.789 E11.5729
G1 X241.616 Y98.07 E16.20305
G1 X240.879 Y95.849 E16.29587
G1 X239.566 Y94.749 E16.3638
G1 X237.9 Y94.354 E16.43174
G1 X92.1 Y94.354 E22.21553
G1 X89.879 Y95.091 E22.30835
G1 X90.257 Y95.442 F9000
G1 F1800
G1 X89.255 Y96.522 E22.3668
G1 X88.861 Y98.07 E22.43016
G1 X88.861 Y214.789 E27.0603
G1 X88.994 Y215.706 E27.09706
G1 X89.81 Y217.079 E27.16042
G1 X106.951 Y234.22 E28.12207
G1 X107.694 Y234.775 E28.15882
G1 X109.241 Y235.168 E28.22218
G1 X220.759 Y235.168 E32.64599
G1 X221.676 Y235.036 E32.68275
G1 X223.049 Y234.22 E32.74611
G1 X240.19 Y217.078 E33.70776
G1 X240.745 Y216.336 E33.74451
G1 X241.139 Y214.789 E33.80787
G1 X241.139 Y98.07 E38.43801
G1 X240.619 Y96.311 E38.51077
G1 X239.448 Y95.225 E38.57413
G1 X237.9 Y94.832 E38.63748
G1 X92.1 Y94.832 E44.42127
G1 X90.341 Y95.351 E44.49403
G1 X90.257 Y95.442 E44.49893
G92 E0
G1 E-1 F3000
; printing object Hard Drive Adapter(1) id:0 copy 0
EXCLUDE_OBJECT_START NAME=Hard_Drive_Adapter_1__id_0_copy_0
; acceleration to travel
M204 S3000
G1 X138.259 Y154.194 F9000
; decel to extrusion
M204 S1000
G1 X154.26 Y173.778
; end travel
G1 E0 F1800
;TYPE:Internal perimeter
;WIDTH:0.5
G1 X165 Y179.979 E0.47134
G1 X175.807 Y173.739 E0.94562
G1 X175.807 Y161.261 E1.4199
G1 X165 Y155.021 E1.89418
G1 X164.555 Y155.278 E1.91371
G1 X154.193 Y161.261 E2.36846
G1 X154.193 Y173.739 E2.84273
G1 X154.26 Y173.778 E2.84567
G1 X154.65 Y173.476 F9000
;TYPE:External perimeter
G1 F1800
G1 X165 Y179.451 E3.29989
G1 X175.35 Y173.476 E3.75411
G1 X175.35 Y161.524 E4.20833
G1 X165 Y155.549 E4.66255
G1 X164.783 Y155.674 E4.67205
G1 X154.65 Y161.524 E5.11677
G1 X154.65 Y173.476 E5.57099
;WIPE_START
M204 S4000
G1 X154.513 Y173.851 F9000
;WIPE_END
G92 E0
G1 E-1 F3000
; acceleration to travel
M204 S3000
G1 X163.648 Y157.472 F9000
; decel to extrusion
M204 S1000
G1 X166.693 Y152.012
; end travel
G1 E0 F1800
;TYPE:Internal perimeter
G1 X166.693 Y152.089 E0.00294
G1 X177.5 Y158.328 E0.47722
G1 X188.307 Y152.089 E0.9515
G1 X188.307 Y139.61 E1.42577
G1 X177.5 Y133.37 E1.90005
G1 X176.68 Y133.844 E1.93605
G1 X166.693 Y139.61 E2.37433
G1 X166.693 Y152.012 E2.84567
G1 X167.15 Y151.825 F9000
;TYPE:External perimeter
G1 F1800
G1 X177.5 Y157.801 E3.29989
G1 X187.85 Y151.825 E3.75411
G1 X187.85 Y139.874 E4.20833
G1 X177.5 Y133.898 E4.66255
G1 X176.908 Y134.24 E4.68852
G1 X167.15 Y139.874 E5.11677
G1 X167.15 Y151.825 E5.57099
;WIPE_START
M204 S4000
G1 X167.013 Y152.201 F9000
;WIPE_END
G92 E0
G1 E-1 F3000
; acceleration to travel
M204 S3000
G1 X184.303 Y140.529 F9000
; decel to extrusion
M204 S1000
G1 X190.067 Y136.639
; end travel
G1 E0 F1800
;TYPE:Internal perimeter
G1 X200.807 Y130.438 E0.47134
G1 X200.807 Y117.959 E0.94562
G1 X190 Y111.72 E1.4199
G1 X189.18 Y112.193 E1.45589
G1 X179.193 Y117.959 E1.89418
G1 X179.193 Y130.438 E2.36846
G1 X190 Y136.678 E2.84273
G1 X190.067 Y136.639 E2.84567
G1 X190 Y136.15 F9000
;TYPE:External perimeter
G1 F1800
G1 X200.35 Y130.174 E3.29989
G1 X200.35 Y118.223 E3.75411
G1 X190 Y112.248 E4.20833
G1 X189.408 Y112.589 E4.2343
G1 X179.65 Y118.223 E4.66255
G1 X179.65 Y130.174 E5.11677
G1 X190 Y136.15 E5.57099
;WIPE_START
M204 S4000
G1 X190.257 Y136.456 F9000
;WIPE_END
G92 E0
G1 E-1 F3000
; acceleration to travel
M204 S3000
G1 X206.27 Y114.486 F9000
; decel to extrusion
M204 S1000
G1 X211.607 Y107.163
; end travel
G1 E0 F1800
;TYPE:Internal perimeter
G1 X191.693 Y107.163 E0.75686
G1 X191.693 Y108.788 E0.81861
G1 X202.5 Y115.027 E1.29289
G1 X211.607 Y109.769 E1.69256
G1 X211.607 Y107.163 E1.79161
G1 X211.15 Y107.62 F9000
;TYPE:External perimeter
G1 F1800
G1 X192.15 Y107.62 E2.51373
G1 X192.15 Y108.524 E2.54807
G1 X202.5 Y114.499 E3.00229
G1 X211.15 Y109.505 E3.3819
G1 X211.15 Y107.62 E3.45355
;WIPE_START
M204 S4000
G1 X211.15 Y107.22 F9000
;WIPE_END
G92 E0
G1 E-1 F3000
; acceleration to travel
M204 S3000
G1 X211.493 Y112.064 F9000
; decel to extrusion
M204 S1000
G1 X211.607 Y113.679
; end travel
G1 E0 F1800
;TYPE:Internal perimeter
G1 X209.982 Y114.617 E0.07131
G1 X204.193 Y117.959 E0.32538
G1 X204.193 Y130.438 E0.79966
G1 X211.607 Y134.719 E1.12503
G1 X211.607 Y113.679 E1.92469
G1 X211.15 Y114.47 F9000
;TYPE:External perimeter
G1 F1800
G1 X210.211 Y115.013 E1.96591
G1 X204.65 Y118.223 E2.20995
G1 X204.65 Y130.174 E2.66417
G1 X211.15 Y133.927 E2.94943
G1 X211.15 Y114.47 E3.6889
;WIPE_START
M204 S4000
G1 X211.013 Y114.094 F9000
;WIPE_END
G92 E0
G1 E-1 F3000
; acceleration to travel
M204 S3000
G1 X204.679 Y147.241 F9000
; decel to extrusion
M204 S1000
G1 X202.567 Y158.29
; end travel
G1 E0 F1800
;TYPE:Internal perimeter
G1 X211.607 Y153.07 E0.39674
G1 X211.607 Y138.628 E0.94562
G1 X202.5 Y133.37 E1.34529
G1 X201.68 Y133.844 E1.38129
G1 X191.693 Y139.61 E1.81957
G1 X191.693 Y152.089 E2.29385
G1 X202.5 Y158.328 E2.76813
G1 X202.567 Y158.29 E2.77107
G1 X202.5 Y157.801 F9000
;TYPE:External perimeter
G1 F1800
G1 X211.15 Y152.806 E3.15068
M73 P1 R216
G1 X211.15 Y138.892 E3.67951
G1 X202.5 Y133.898 E4.05912
G1 X201.908 Y134.24 E4.08509
G1 X192.15 Y139.874 E4.51334
G1 X192.15 Y151.825 E4.96756
G1 X202.5 Y157.801 E5.42178
;WIPE_START
M204 S4000
G1 X202.757 Y158.107 F9000
;WIPE_END
G92 E0
G1 E-1 F3000
; acceleration to travel
M204 S3000
G1 X201.244 Y160.443 F9000
; decel to extrusion
M204 S1000
G1 X200.74 Y161.222
; end travel
G1 E0 F1800
;TYPE:Internal perimeter
G1 X190 Y155.021 E0.47134
G1 X189.18 Y155.495 E0.50734
G1 X179.193 Y161.261 E0.94562
G1 X179.193 Y173.739 E1.4199
G1 X190 Y179.979 E1.89418
G1 X200.807 Y173.739 E2.36846
G1 X200.807 Y161.261 E2.84273
G1 X200.74 Y161.222 E2.84567
G1 X200.35 Y161.524 F9000
;TYPE:External perimeter
G1 F1800
G1 X190 Y155.549 E3.29989
G1 X189.408 Y155.89 E3.32586
G1 X179.65 Y161.524 E3.75411
G1 X179.65 Y173.476 E4.20833
G1 X190 Y179.451 E4.66255
G1 X200.35 Y173.476 E5.11677
G1 X200.35 Y161.524 E5.57099
;WIPE_START
M204 S4000
G1 X200.487 Y161.149 F9000
;WIPE_END
G92 E0
G1 E-1 F3000
; acceleration to travel
M204 S3000
G1 X208.827 Y173.802 F9000
; decel to extrusion
M204 S1000
G1 X211.607 Y178.02
; end travel
G1 E0 F1800
;TYPE:Internal perimeter
G1 X211.607 Y157.912 E0.76424
G1 X210.8 Y157.446 E0.79966
G1 X210.356 Y157.702 E0.81915
G1 X204.193 Y161.261 E1.08961
G1 X204.193 Y173.739 E1.56389
G1 X211.607 Y178.02 E1.88927
G1 X211.15 Y177.228 F9000
;TYPE:External perimeter
G1 F1800
G1 X211.15 Y158.176 E2.61339
G1 X210.8 Y157.974 E2.62875
G1 X210.584 Y158.098 E2.63821
G1 X204.65 Y161.524 E2.89865
G1 X204.65 Y173.476 E3.35287
G1 X211.15 Y177.228 E3.63812
;WIPE_START
M204 S4000
G1 X211.544 Y177.298 F9000
;WIPE_END
G92 E0
G1 E-1 F3000
; acceleration to travel
M204 S3000
G1 X211.591 Y180.83 F9000
; decel to extrusion
M204 S1000
G1 X211.607 Y182.007
; end travel
G1 E0 F1800
;TYPE:Internal perimeter
G1 X211.607 Y181.93 E0.00294
G1 X202.5 Y176.672 E0.40261
G1 X201.68 Y177.145 E0.43861
G1 X191.693 Y182.911 E0.87689
G1 X191.693 Y195.39 E1.35117
G1 X202.5 Y201.63 E1.82545
G1 X211.607 Y196.372 E2.22512
G1 X211.607 Y182.007 E2.77107
G1 X211.15 Y182.194 F9000
;TYPE:External perimeter
G1 F1800
G1 X202.5 Y177.199 E3.15068
G1 X201.908 Y177.541 E3.17665
G1 X192.15 Y183.175 E3.6049
G1 X192.15 Y195.126 E4.05912
G1 X202.5 Y201.102 E4.51334
G1 X211.15 Y196.108 E4.89295
G1 X211.15 Y182.194 E5.42178
;WIPE_START
M204 S4000
G1 X211.287 Y181.818 F9000
;WIPE_END
G92 E0
G1 E-1 F3000
; acceleration to travel
M204 S3000
G1 X194.052 Y191.939 F9000
; decel to extrusion
M204 S1000
G1 X188.307 Y195.313
; end travel
G1 E0 F1800
;TYPE:Internal perimeter
G1 X188.307 Y182.911 E0.47134
G1 X177.5 Y176.672 E0.94562
G1 X176.68 Y177.145 E0.98162
G1 X166.693 Y182.911 E1.4199
G1 X166.693 Y195.39 E1.89418
G1 X177.5 Y201.63 E2.36846
G1 X188.307 Y195.39 E2.84273
G1 X188.307 Y195.313 E2.84567
G1 X187.85 Y195.126 F9000
;TYPE:External perimeter
G1 F1800
G1 X187.85 Y183.175 E3.29989
G1 X177.5 Y177.199 E3.75411
G1 X176.908 Y177.541 E3.78008
G1 X167.15 Y183.175 E4.20833
G1 X167.15 Y195.126 E4.66255
G1 X177.5 Y201.102 E5.11677
G1 X187.85 Y195.126 E5.57099
;WIPE_START
M204 S4000
G1 X188.244 Y195.057 F9000
;WIPE_END
G92 E0
G1 E-1 F3000
; acceleration to travel
M204 S3000
G1 X169.541 Y195.249 F9000
; decel to extrusion
M204 S1000
G1 X163.307 Y195.313
; end travel
G1 E0 F1800
;TYPE:Internal perimeter
G1 X163.307 Y182.911 E0.47134
G1 X152.5 Y176.672 E0.94562
G1 X151.68 Y177.145 E0.98162
G1 X141.693 Y182.911 E1.4199
G1 X141.693 Y195.39 E1.89418
G1 X152.5 Y201.63 E2.36846
G1 X163.307 Y195.39 E2.84273
G1 X163.307 Y195.313 E2.84567
G1 X162.85 Y195.126 F9000
;TYPE:External perimeter
G1 F1800
G1 X162.85 Y183.175 E3.29989
G1 X152.5 Y177.199 E3.75411
G1 X151.908 Y177.541 E3.78008
G1 X142.15 Y183.175 E4.20833
G1 X142.15 Y195.126 E4.66255
G1 X152.5 Y201.102 E5.11677
G1 X162.85 Y195.126 E5.57099
;WIPE_START
M204 S4000
G1 X163.244 Y195.057 F9000
;WIPE_END
G92 E0
G1 E-1 F3000
; acceleration to travel
M204 S3000
G1 X144.491 Y195.336 F9000
; decel to extrusion
M204 S1000
G1 X138.24 Y195.429
; end travel
G1 E0 F1800
;TYPE:Internal perimeter
G1 X138.307 Y195.39 E0.00294
G1 X138.307 Y182.911 E0.47722
G1 X127.5 Y176.672 E0.9515
G1 X126.681 Y177.144 E0.98742
G1 X118.393 Y181.93 E1.35117
G1 X118.393 Y196.372 E1.90005
G1 X127.5 Y201.63 E2.29973
G1 X138.24 Y195.429 E2.77107
G1 X137.85 Y195.126 F9000
;TYPE:External perimeter
G1 F1800
G1 X137.85 Y183.175 E3.22529
G1 X127.5 Y177.199 E3.67951
G1 X126.91 Y177.54 E3.7054
G1 X118.85 Y182.194 E4.05912
G1 X118.85 Y196.108 E4.58794
G1 X127.5 Y201.102 E4.96756
G1 X137.85 Y195.126 E5.42178
;WIPE_START
M204 S4000
G1 X138.244 Y195.057 F9000
;WIPE_END
G92 E0
G1 E-1 F3000
; acceleration to travel
M204 S3000
G1 X123.66 Y182.104 F9000
; decel to extrusion
M204 S1000
G1 X118.799 Y177.786
; end travel
G1 E0 F1800
;TYPE:Internal perimeter
G1 X125.807 Y173.739 E0.30757
G1 X125.807 Y161.261 E0.78185
G1 X118.393 Y156.98 E1.10723
G1 X118.393 Y178.02 E1.90688
G1 X118.799 Y177.786 E1.92469
G1 X118.85 Y177.228 F9000
;TYPE:External perimeter
G1 F1800
G1 X125.35 Y173.476 E2.20995
G1 X125.35 Y161.524 E2.66417
G1 X118.85 Y157.772 E2.94942
G1 X118.85 Y177.228 E3.6889
;WIPE_START
M204 S4000
G1 X118.987 Y177.604 F9000
;WIPE_END
G92 E0
G1 E-1 F3000
; acceleration to travel
M204 S3000
G1 X142.852 Y207.124 F9000
; decel to extrusion
M204 S1000
M73 P1 R215
G1 X150.807 Y216.963
; end travel
G1 E0 F1800
;TYPE:Internal perimeter
G1 X150.807 Y204.562 E0.47134
G1 X140 Y198.322 E0.94562
G1 X139.18 Y198.796 E0.98162
G1 X129.193 Y204.562 E1.4199
G1 X129.193 Y217.041 E1.89418
G1 X140 Y223.28 E2.36846
G1 X150.807 Y217.041 E2.84273
G1 X150.807 Y216.963 E2.84567
G1 X150.35 Y216.777 F9000
;TYPE:External perimeter
G1 F1800
G1 X150.35 Y204.826 E3.29989
G1 X140 Y198.85 E3.75411
G1 X139.408 Y199.192 E3.78008
G1 X129.65 Y204.826 E4.20833
G1 X129.65 Y216.777 E4.66255
G1 X140 Y222.752 E5.11677
G1 X150.35 Y216.777 E5.57099
;WIPE_START
M204 S4000
G1 X150.744 Y216.707 F9000
;WIPE_END
G92 E0
G1 E-1 F3000
; acceleration to travel
M204 S3000
G1 X141.416 Y225.055 F9000
; decel to extrusion
M204 S1000
G1 X138.307 Y227.837
; end travel
G1 E0 F1800
;TYPE:Internal perimeter
G1 X138.307 Y226.212 E0.06174
G1 X127.5 Y219.973 E0.53602
G1 X126.681 Y220.446 E0.57194
G1 X118.393 Y225.231 E0.9357
G1 X118.393 Y227.837 E1.03474
G1 X138.307 Y227.837 E1.79161
G1 X137.85 Y227.38 F9000
;TYPE:External perimeter
G1 F1800
G1 X137.85 Y226.476 E1.82595
G1 X127.5 Y220.501 E2.28017
G1 X126.91 Y220.841 E2.30606
G1 X118.85 Y225.495 E2.65978
G1 X118.85 Y227.38 E2.73143
G1 X137.85 Y227.38 E3.45355
;WIPE_START
M204 S4000
G1 X138.25 Y227.38 F9000
;WIPE_END
G92 E0
G1 E-1 F3000
; acceleration to travel
M204 S3000
G1 X123.357 Y207.056 F9000
; decel to extrusion
M204 S1000
G1 X118.393 Y200.281
; end travel
G1 E0 F1800
;TYPE:Internal perimeter
G1 X118.393 Y221.321 E0.79966
G1 X125.807 Y217.041 E1.12503
G1 X125.807 Y204.562 E1.59931
G1 X118.393 Y200.281 E1.92469
G1 X118.85 Y201.073 F9000
;TYPE:External perimeter
G1 F1800
G1 X118.85 Y220.53 E2.66417
G1 X125.35 Y216.777 E2.94943
G1 X125.35 Y204.826 E3.40365
G1 X118.85 Y201.073 E3.6889
;WIPE_START
M204 S4000
G1 X118.456 Y201.003 F9000
;WIPE_END
G92 E0
G1 E-1 F3000
; acceleration to travel
M204 S3000
G1 X152.094 Y221.129 F9000
; decel to extrusion
M204 S1000
G1 X163.307 Y227.837
; end travel
G1 E0 F1800
;TYPE:Internal perimeter
G1 X163.307 Y226.212 E0.06174
G1 X152.5 Y219.973 E0.53602
G1 X151.68 Y220.447 E0.57202
G1 X141.693 Y226.212 E1.0103
G1 X141.693 Y227.837 E1.07205
G1 X163.307 Y227.837 E1.89352
G1 X162.85 Y227.38 F9000
;TYPE:External perimeter
G1 F1800
G1 X162.85 Y226.476 E1.92786
G1 X152.5 Y220.501 E2.38208
G1 X151.908 Y220.842 E2.40805
G1 X142.15 Y226.476 E2.8363
G1 X142.15 Y227.38 E2.87064
G1 X162.85 Y227.38 E3.65737
;WIPE_START
M204 S4000
G1 X163.25 Y227.38 F9000
;WIPE_END
G92 E0
G1 E-1 F3000
; acceleration to travel
M204 S3000
G1 X165.832 Y227.723 F9000
; decel to extrusion
M204 S1000
G1 X166.693 Y227.837
; end travel
G1 E0 F1800
;TYPE:Internal perimeter
G1 X188.307 Y227.837 E0.82147
G1 X188.307 Y226.212 E0.88322
G1 X177.5 Y219.973 E1.3575
G1 X176.68 Y220.447 E1.39349
G1 X166.693 Y226.212 E1.83178
G1 X166.693 Y227.837 E1.89352
G1 X167.15 Y227.38 F9000
;TYPE:External perimeter
G1 F1800
G1 X187.85 Y227.38 E2.68025
G1 X187.85 Y226.476 E2.71459
G1 X177.5 Y220.501 E3.16881
G1 X176.908 Y220.842 E3.19478
G1 X167.15 Y226.476 E3.62303
G1 X167.15 Y227.38 E3.65737
;WIPE_START
M204 S4000
G1 X167.15 Y227.78 F9000
;WIPE_END
G92 E0
G1 E-1 F3000
; acceleration to travel
M204 S3000
G1 X185.557 Y227.823 F9000
; decel to extrusion
M204 S1000
G1 X191.693 Y227.837
; end travel
G1 E0 F1800
;TYPE:Internal perimeter
G1 X211.607 Y227.837 E0.75686
G1 X211.607 Y225.231 E0.85591
G1 X202.5 Y219.973 E1.25558
G1 X201.68 Y220.447 E1.29158
G1 X191.693 Y226.212 E1.72986
G1 X191.693 Y227.837 E1.79161
G1 X192.15 Y227.38 F9000
;TYPE:External perimeter
G1 F1800
G1 X211.15 Y227.38 E2.51373
G1 X211.15 Y225.495 E2.58537
G1 X202.5 Y220.501 E2.96499
G1 X201.908 Y220.842 E2.99095
G1 X192.15 Y226.476 E3.41921
G1 X192.15 Y227.38 E3.45355
;WIPE_START
