; HEADER_BLOCK_START
; generated by OrcaSlicer 1.6.2 on 2023-05-21 at 12:15:10
; total layer number: 58
; HEADER_BLOCK_END

; THUMBNAIL_BLOCK_START
; THUMBNAIL_BLOCK_END

; external perimeters extrusion width = 0.40mm
; perimeters extrusion width = 0.45mm
; infill extrusion width = 0.45mm
; solid infill extrusion width = 0.40mm
; top infill extrusion width = 0.40mm
; first layer extrusion width = 0.50mm

; EXECUTABLE_BLOCK_START
EXCLUDE_OBJECT_DEFINE NAME=HDD_cage.stl_id_0_copy_0 CENTER=170,160 POLYGON=[[102.5,98.3802],[103,97.8802],[237,97.8802],[237.5,98.3802],[237.5,221.62],[237,222.12],[103,222.12],[102.5,221.62],[102.5,98.3802]]
M73 P0 R106
;TYPE:Custom
START_PRINT T_BED=70 T_EXTRUDER=240
G90
G21
M83 ; use relative distances for extrusion
; filament start gcode
PRESSURE_ADVANCE_SELECT FILAMENT=PETG
M106 S0
;LAYER_CHANGE
;Z:0.2
;HEIGHT:0.2
M204 S500
G1 E-1 F3000
G1 Z.2 F21000
G1 X100.839 Y96.32
G1 E1 F1800
;TYPE:Skirt
;WIDTH:0.5
G1 F3000
G1 X100.939 Y96.22 E.00511
G1 X103 Y95.366 E.08053
G1 X237 Y95.366 E4.83821
G1 X239.061 Y96.22 E.08053
G1 X239.161 Y96.32 E.00511
G1 X240.014 Y98.38 E.08053
G1 X240.014 Y221.62 E4.44969
G1 X239.161 Y223.68 E.08053
G1 X239.061 Y223.78 E.00511
G1 X237 Y224.634 E.08053
G1 X103 Y224.634 E4.83821
G1 X100.939 Y223.78 E.08053
G1 X100.839 Y223.68 E.00511
G1 X99.986 Y221.62 E.08053
G1 X99.986 Y98.38 E4.44969
G1 X100.816 Y96.375 E.07836
G1 X101.163 Y96.643 F21000
G1 F3000
G1 X101.263 Y96.543 E.00511
G1 X103 Y95.823 E.0679
G1 X237 Y95.823 E4.83821
G1 X238.737 Y96.543 E.0679
G1 X238.837 Y96.643 E.00511
G1 X239.557 Y98.38 E.0679
G1 X239.557 Y221.62 E4.44969
G1 X238.837 Y223.357 E.0679
G1 X238.737 Y223.457 E.00511
G1 X237 Y224.177 E.0679
G1 X103 Y224.177 E4.83821
G1 X101.263 Y223.457 E.0679
G1 X101.163 Y223.357 E.00511
G1 X100.443 Y221.62 E.0679
G1 X100.443 Y98.38 E4.44969
G1 X101.14 Y96.698 E.06573
; printing object HDD cage.stl id:0 copy 0
EXCLUDE_OBJECT_START NAME=HDD_cage.stl_id_0_copy_0
G1 E-1
G1 Z.4 F21000
G1 X234.097 Y99.023
G1 Z.2
G1 E1 F1800
;TYPE:Inner wall
;WIDTH:0.571704
G1 F3000
G1 X234.448 Y99.005 E.01469
;WIDTH:0.535852
G1 X234.799 Y98.987 E.0137
;WIDTH:0.499999
G1 X236.393 Y98.987 E.05753
G1 X236.393 Y100.629 E.05926
;WIDTH:0.525988
G1 X236.38 Y100.975 E.01323
;WIDTH:0.551977
G1 X236.367 Y101.321 E.01394
G1 X236.383 Y101.88 E.02248
;WIDTH:0.555129
G1 X236.365 Y102.48 E.02429
G1 X236.379 Y102.803 E.01305
;WIDTH:0.527564
G1 X236.393 Y103.125 E.01235
;WIDTH:0.499999
G1 X236.393 Y216.929 E4.10899
;WIDTH:0.525988
G1 X236.38 Y217.275 E.01323
;WIDTH:0.551977
G1 X236.367 Y217.621 E.01394
G1 X236.383 Y218.18 E.02248
;WIDTH:0.555129
G1 X236.365 Y218.78 E.02429
G1 X236.379 Y219.106 E.01319
;WIDTH:0.527564
G1 X236.393 Y219.432 E.01248
;WIDTH:0.499999
G1 X236.393 Y221.013 E.05707
G1 X234.787 Y221.013 E.05797
;WIDTH:0.541607
G1 X234.097 Y220.992 E.0272
G1 X233.54 Y221.008 E.02197
G1 X232.982 Y220.992 E.02197
G1 X232.299 Y221.013 E.02692
;WIDTH:0.499999
G1 X171.292 Y221.013 E2.20272
;WIDTH:0.541606
G1 X170.602 Y220.992 E.0272
G1 X170.045 Y221.008 E.02197
G1 X169.487 Y220.992 E.02197
G1 X168.804 Y221.013 E.02692
;WIDTH:0.499999
G1 X107.76 Y221.013 E2.20405
;WIDTH:0.541606
G1 X107.07 Y220.992 E.0272
G1 X106.513 Y221.008 E.02197
G1 X105.955 Y220.992 E.02197
G1 X105.272 Y221.013 E.02692
;WIDTH:0.499999
G1 X103.607 Y221.013 E.06013
G1 X103.607 Y219.442 E.05669
;WIDTH:0.539193
G1 X103.627 Y219.092 E.01374
;WIDTH:0.578383
G1 X103.646 Y218.742 E.01483
G1 X103.63 Y218.18 E.02379
G1 X103.646 Y217.618 E.02379
G1 X103.627 Y217.268 E.01483
;WIDTH:0.539191
G1 X103.607 Y216.918 E.01374
;WIDTH:0.499999
G1 X103.607 Y103.142 E4.10798
;WIDTH:0.539193
G1 X103.627 Y102.792 E.01374
;WIDTH:0.578383
G1 X103.646 Y102.442 E.01483
G1 X103.63 Y101.88 E.02379
G1 X103.646 Y101.318 E.02379
G1 X103.627 Y100.968 E.01483
;WIDTH:0.539191
G1 X103.607 Y100.618 E.01374
;WIDTH:0.499999
G1 X103.607 Y98.987 E.05888
G1 X105.253 Y98.987 E.05943
;WIDTH:0.535994
G1 X105.602 Y99.005 E.01362
;WIDTH:0.571988
G1 X105.951 Y99.023 E.01461
G1 X106.506 Y99.007 E.02317
;WIDTH:0.571707
G1 X107.07 Y99.023 E.02358
G1 X107.421 Y99.005 E.01469
;WIDTH:0.535853
G1 X107.772 Y98.987 E.0137
;WIDTH:0.499999
G1 X168.785 Y98.987 E2.20291
;WIDTH:0.535994
G1 X169.134 Y99.005 E.01362
;WIDTH:0.571989
G1 X169.483 Y99.023 E.01461
G1 X170.037 Y99.007 E.02317
;WIDTH:0.571704
G1 X170.602 Y99.023 E.02358
G1 X170.953 Y99.005 E.01469
;WIDTH:0.535852
G1 X171.304 Y98.987 E.0137
;WIDTH:0.499999
G1 X232.28 Y98.987 E2.20159
;WIDTH:0.535994
G1 X232.629 Y99.005 E.01362
;WIDTH:0.571988
G1 X232.978 Y99.023 E.01461
G1 X233.533 Y99.007 E.02317
;WIDTH:0.571704
G1 X234.037 Y99.021 E.02107
G1 E-1
G1 Z.4 F21000
G1 X236.85 Y98.53
G1 Z.2
G1 E1 F1800
;TYPE:Outer wall
;WIDTH:0.499999
G1 F3000
G1 X236.85 Y221.47 E4.43885
G1 X103.15 Y221.47 E4.82737
G1 X103.15 Y98.53 E4.43885
G1 X236.79 Y98.53 E4.8252
G1 X236.828 Y98.607
G1 E-1
G1 Z.4 F21000
G1 X234.233 Y99.623
G1 Z.2
G1 E1 F1800
;TYPE:Inner wall
;WIDTH:0.571704
G1 F3000
G1 X234.351 Y99.674 E.00536
;WIDTH:0.535852
G1 X234.638 Y99.799 E.01219
;WIDTH:0.499999
G1 X234.793 Y99.889 E.00646
G1 X235.197 Y100.204 E.01849
G1 X235.531 Y100.627 E.01949
;WIDTH:0.518342
G1 X235.796 Y101.182 E.02308
;WIDTH:0.551977
G1 X235.86 Y101.355 E.00741
G1 X235.907 Y101.88 E.02122
G1 X235.86 Y102.406 E.02122
G1 X235.742 Y102.689 E.01233
;WIDTH:0.525986
G1 X235.624 Y102.972 E.0117
;WIDTH:0.499999
G1 X235.268 Y103.477 E.02233
G1 X234.793 Y103.872 E.02228
G1 X234.242 Y104.126 E.02192
G1 X233.632 Y104.231 E.02233
G1 X233.091 Y104.184 E.01961
G1 X232.845 Y104.128 E.00912
G1 X232.287 Y103.872 E.02218
G1 X231.814 Y103.48 E.02218
G1 X231.459 Y102.978 E.02218
G1 X231.245 Y102.402 E.02218
G1 X231.188 Y101.791 E.02218
G1 X231.292 Y101.185 E.02218
G1 X231.544 Y100.636 E.02182
G1 X231.94 Y100.154 E.02253
G1 X232.442 Y99.799 E.02218
;WIDTH:0.537605
G1 X232.712 Y99.676 E.0116
;WIDTH:0.57521
G1 X232.982 Y99.553 E.01249
G1 X233.533 Y99.504 E.02324
;WIDTH:0.571704
G1 X234.064 Y99.55 E.02226
G1 X234.178 Y99.599 E.00521
G1 X234.049 Y100.053 F21000
;TYPE:Outer wall
;WIDTH:0.499999
G1 F3000
G1 X234.06 Y100.054 E.00039
G1 X234.515 Y100.251 E.0179
G1 X234.903 Y100.559 E.01789
G1 X235.199 Y100.957 E.0179
G1 X235.381 Y101.418 E.01789
G1 X235.438 Y101.91 E.01789
G1 X235.366 Y102.4 E.01789
G1 X235.172 Y102.848 E.0176
G1 X234.861 Y103.244 E.01818
G1 X234.463 Y103.539 E.01789
G1 X233.929 Y103.73 E.02049
G1 X233.51 Y103.778 E.01522
G1 X233.02 Y103.706 E.0179
G1 X232.565 Y103.509 E.01789
G1 X232.177 Y103.201 E.01789
G1 X231.881 Y102.804 E.0179
G1 X231.695 Y102.312 E.01897
G1 X231.642 Y101.85 E.01679
G1 X231.714 Y101.36 E.01789
G1 X231.908 Y100.913 E.0176
G1 X232.219 Y100.517 E.01818
G1 X232.617 Y100.221 E.0179
G1 X233.077 Y100.039 E.01789
G1 X233.562 Y99.983 E.0176
G1 X233.99 Y100.044 E.01563
G1 X234.051 Y100.051
G1 E-1
G1 Z.4 F21000
G1 X169.252 Y104.072
G1 Z.2
G1 E1 F1800
;TYPE:Inner wall
G1 F3000
G1 X168.88 Y103.929 E.0144
G1 X168.445 Y103.606 E.01955
G1 X168.053 Y103.133 E.02218
G1 X167.796 Y102.575 E.02218
G1 X167.693 Y101.97 E.02218
G1 X167.75 Y101.358 E.02218
G1 X167.963 Y100.782 E.02218
G1 X168.319 Y100.281 E.02218
G1 X168.791 Y99.889 E.02218
;WIDTH:0.533483
G1 X169.343 Y99.617 E.02384
;WIDTH:0.571989
G1 X169.518 Y99.55 E.00781
G1 X170.037 Y99.504 E.0218
;WIDTH:0.571704
G1 X170.568 Y99.55 E.02226
G1 X170.856 Y99.674 E.01308
;WIDTH:0.535852
G1 X171.143 Y99.799 E.01219
;WIDTH:0.499999
G1 X171.644 Y100.154 E.02218
G1 X172.036 Y100.627 E.02218
G1 X172.293 Y101.185 E.02218
G1 X172.396 Y101.791 E.02218
G1 X172.339 Y102.402 E.02218
G1 X172.128 Y102.972 E.02192
G1 X171.772 Y103.477 E.02233
G1 X171.298 Y103.872 E.02228
G1 X170.746 Y104.126 E.02192
G1 X170.137 Y104.231 E.02233
G1 X169.522 Y104.175 E.02228
G1 X169.308 Y104.093 E.00828
G1 X169.074 Y103.509 F21000
;TYPE:Outer wall
G1 F3000
G1 X168.681 Y103.201 E.01799
G1 X168.386 Y102.804 E.01789
G1 X168.199 Y102.312 E.01897
G1 X168.146 Y101.85 E.01679
G1 X168.219 Y101.36 E.01789
G1 X168.416 Y100.905 E.01789
G1 X168.723 Y100.517 E.01789
G1 X169.121 Y100.221 E.0179
G1 X169.582 Y100.039 E.01789
G1 X170.066 Y99.983 E.0176
G1 X170.565 Y100.054 E.01818
G1 X171.02 Y100.251 E.0179
G1 X171.408 Y100.559 E.01789
G1 X171.703 Y100.957 E.01789
G1 X171.886 Y101.418 E.01789
G1 X171.943 Y101.91 E.01789
G1 X171.87 Y102.4 E.01789
G1 X171.677 Y102.848 E.0176
G1 X171.366 Y103.244 E.01818
G1 X170.968 Y103.539 E.0179
G1 X170.515 Y103.719 E.0176
G1 X170.015 Y103.778 E.01818
G1 X169.483 Y103.689 E.01947
G1 X169.125 Y103.539 E.01402
G1 X169.004 Y103.548
G1 E-1
G1 Z.4 F21000
G1 X158.889 Y212.869
G1 Z.2
G1 E1 F1800
;TYPE:Inner wall
G1 F3000
G1 X158.71 Y212.833 E.00659
G1 X158.485 Y212.678 E.00987
G1 X158.382 Y212.541 E.00619
G1 X158.293 Y212.202 E.01265
G1 X158.293 Y107.859 E3.7674
G1 X158.383 Y107.519 E.0127
G1 X158.58 Y107.301 E.01062
G1 X158.864 Y107.183 E.01108
G1 X159.526 Y107.173 E.02392
G1 X159.638 Y106.933 E.00956
G1 X159.865 Y106.807 E.00937
G1 X160.079 Y106.773 E.0078
G1 X167.921 Y106.773 E.28318
G1 X168.197 Y106.831 E.01016
G1 X168.362 Y106.933 E.00701
G1 X168.474 Y107.173 E.00956
G1 X169.021 Y107.173 E.01977
G1 X169.334 Y107.248 E.0116
G1 X169.568 Y107.444 E.01101
G1 X169.692 Y107.716 E.01079
G1 X169.707 Y107.859 E.00519
G1 X169.707 Y212.202 E3.7674
G1 X169.653 Y212.468 E.00982
G1 X169.499 Y212.694 E.00986
G1 X169.245 Y212.85 E.01076
G1 X169.021 Y212.887 E.00819
G1 X168.474 Y212.887 E.01977
G1 X168.318 Y213.161 E.01136
G1 X168.065 Y213.272 E.00998
G1 X167.37 Y213.287 E.02511
G1 X160.079 Y213.287 E.26327
G1 X159.768 Y213.213 E.01155
G1 X159.638 Y213.127 E.0056
G1 X159.526 Y212.887 E.00956
G1 X158.979 Y212.887 E.01977
G1 X158.948 Y212.881 E.00113
G1 X158.979 Y212.43 F21000
;TYPE:Outer wall
G1 F3000
G1 X158.814 Y212.36 E.00645
G1 X158.75 Y212.202 E.00618
G1 X158.75 Y107.859 E3.7674
M73 P0 R105
G1 X158.815 Y107.7 E.0062
G1 X158.979 Y107.63 E.00643
G1 X159.85 Y107.63 E.03146
G1 X159.85 Y107.459 E.00619
G1 X159.975 Y107.255 E.00863
G1 X160.079 Y107.23 E.00384
G1 X167.921 Y107.23 E.28318
G1 X168.068 Y107.284 E.00564
G1 X168.15 Y107.459 E.00698
G1 X168.15 Y107.63 E.00619
G1 X169.021 Y107.63 E.03146
G1 X169.182 Y107.697 E.00629
G1 X169.25 Y107.859 E.00635
G1 X169.25 Y212.202 E3.7674
G1 X169.181 Y212.366 E.00643
G1 X169.021 Y212.43 E.0062
G1 X168.15 Y212.43 E.03146
G1 X168.15 Y212.602 E.00619
G1 X168.034 Y212.8 E.0083
G1 X167.807 Y212.83 E.0083
G1 X160.079 Y212.83 E.27903
G1 X159.932 Y212.777 E.00564
G1 X159.85 Y212.602 E.00698
G1 X159.85 Y212.43 E.00619
G1 X159.039 Y212.43 E.0293
G1 X158.952 Y212.454
G1 E-1
G1 Z.4 F21000
G1 X126.389 Y212.869
G1 Z.2
G1 E1 F1800
;TYPE:Inner wall
G1 F3000
G1 X126.21 Y212.833 E.00659
G1 X125.985 Y212.678 E.00987
G1 X125.882 Y212.541 E.00619
G1 X125.793 Y212.202 E.01265
G1 X125.793 Y107.859 E3.7674
G1 X125.883 Y107.519 E.0127
G1 X126.08 Y107.301 E.01062
G1 X126.364 Y107.183 E.01108
G1 X127.026 Y107.173 E.02392
G1 X127.138 Y106.933 E.00956
G1 X127.365 Y106.807 E.00937
G1 X127.579 Y106.773 E.0078
G1 X135.421 Y106.773 E.28318
G1 X135.732 Y106.847 E.01153
G1 X135.862 Y106.933 E.00562
G1 X135.974 Y107.173 E.00956
G1 X136.521 Y107.173 E.01977
G1 X136.777 Y107.222 E.00939
G1 X137.019 Y107.387 E.01056
G1 X137.131 Y107.546 E.00704
G1 X137.207 Y107.859 E.01162
G1 X137.207 Y212.202 E3.7674
M73 P1 R105
G1 X137.133 Y212.513 E.01154
G1 X136.952 Y212.735 E.01037
G1 X136.66 Y212.873 E.01166
G1 X135.974 Y212.887 E.02477
G1 X135.862 Y213.127 E.00956
G1 X135.635 Y213.253 E.00936
G1 X135.421 Y213.287 E.00782
G1 X127.579 Y213.287 E.28318
G1 X127.268 Y213.213 E.01155
G1 X127.138 Y213.127 E.0056
G1 X127.026 Y212.887 E.00956
G1 X126.479 Y212.887 E.01977
G1 X126.448 Y212.881 E.00113
G1 X126.479 Y212.43 F21000
;TYPE:Outer wall
G1 F3000
G1 X126.314 Y212.36 E.00645
G1 X126.25 Y212.202 E.00618
G1 X126.25 Y107.859 E3.7674
G1 X126.315 Y107.7 E.0062
G1 X126.479 Y107.63 E.00643
G1 X127.35 Y107.63 E.03146
G1 X127.35 Y107.459 E.00619
G1 X127.475 Y107.255 E.00863
G1 X127.579 Y107.23 E.00384
G1 X135.421 Y107.23 E.28318
G1 X135.568 Y107.284 E.00564
G1 X135.65 Y107.459 E.00698
G1 X135.65 Y107.63 E.00619
G1 X136.521 Y107.63 E.03146
G1 X136.687 Y107.701 E.00651
G1 X136.725 Y107.754 E.00235
G1 X136.75 Y107.859 E.00387
G1 X136.75 Y212.202 E3.7674
G1 X136.688 Y212.358 E.00608
G1 X136.521 Y212.43 E.00655
G1 X135.65 Y212.43 E.03146
G1 X135.65 Y212.602 E.00619
G1 X135.525 Y212.805 E.00863
G1 X135.421 Y212.83 E.00385
G1 X127.579 Y212.83 E.28318
G1 X127.432 Y212.777 E.00564
G1 X127.35 Y212.602 E.00698
G1 X127.35 Y212.43 E.00619
G1 X126.539 Y212.43 E.0293
G1 X126.452 Y212.454
G1 E-1
G1 Z.4 F21000
G1 X107.073 Y104.15
G1 Z.2
G1 E1 F1800
;TYPE:Inner wall
G1 F3000
G1 X106.605 Y104.231 E.01715
G1 X105.991 Y104.175 E.02228
G1 X105.415 Y103.961 E.02218
G1 X104.913 Y103.606 E.02218
G1 X104.521 Y103.133 E.02218
;WIDTH:0.536047
G1 X104.248 Y102.582 E.02397
;WIDTH:0.578387
G1 X104.179 Y102.408 E.00794
G1 X104.133 Y101.88 E.02239
G1 X104.179 Y101.353 E.02239
G1 X104.306 Y101.068 E.0132
;WIDTH:0.539191
G1 X104.432 Y100.782 E.01223
;WIDTH:0.499999
G1 X104.787 Y100.281 E.02218
G1 X105.26 Y99.889 E.02218
;WIDTH:0.533483
G1 X105.811 Y99.617 E.02384
;WIDTH:0.571988
G1 X105.986 Y99.55 E.00781
G1 X106.506 Y99.504 E.0218
;WIDTH:0.571707
G1 X107.036 Y99.55 E.02226
G1 X107.324 Y99.674 E.01308
;WIDTH:0.535853
G1 X107.611 Y99.799 E.01219
;WIDTH:0.499999
G1 X108.112 Y100.154 E.02218
G1 X108.504 Y100.627 E.02218
G1 X108.761 Y101.185 E.02218
G1 X108.864 Y101.791 E.02218
G1 X108.811 Y102.372 E.02108
G1 X108.597 Y102.972 E.02299
G1 X108.241 Y103.477 E.02233
G1 X107.766 Y103.872 E.02228
G1 X107.214 Y104.126 E.02192
G1 X107.132 Y104.14 E.00301
G1 X106.976 Y103.719 F21000
;TYPE:Outer wall
G1 F3000
G1 X106.483 Y103.778 E.01792
G1 X105.993 Y103.706 E.0179
G1 X105.538 Y103.509 E.01789
G1 X105.149 Y103.201 E.01789
G1 X104.854 Y102.804 E.01789
G1 X104.671 Y102.343 E.01789
G1 X104.615 Y101.85 E.01789
G1 X104.687 Y101.36 E.01789
G1 X104.884 Y100.905 E.0179
G1 X105.192 Y100.517 E.01789
G1 X105.589 Y100.221 E.0179
G1 X106.05 Y100.039 E.01789
G1 X106.534 Y99.983 E.0176
G1 X107.033 Y100.054 E.01818
G1 X107.488 Y100.251 E.0179
G1 X107.876 Y100.559 E.01789
G1 X108.172 Y100.957 E.01789
G1 X108.354 Y101.418 E.01789
G1 X108.411 Y101.91 E.01789
G1 X108.339 Y102.4 E.01789
G1 X108.145 Y102.848 E.0176
G1 X107.834 Y103.244 E.01818
G1 X107.488 Y103.509 E.01576
G1 X107.032 Y103.7 E.01784
G1 X106.954 Y103.796
G1 E-1
G1 Z.4 F21000
G1 X112.496 Y213.272
G1 Z.2
G1 E1 F1800
;TYPE:Inner wall
G1 F3000
G1 X112.333 Y213.242 E.00597
G1 X112.106 Y213.099 E.00967
G1 X111.953 Y212.882 E.00961
G1 X111.893 Y212.602 E.01034
G1 X111.893 Y107.459 E3.79629
G1 X111.953 Y107.179 E.01034
G1 X112.109 Y106.96 E.00971
G1 X112.334 Y106.818 E.00962
G1 X112.671 Y106.773 E.01225
G1 X122.421 Y106.773 E.35206
G1 X122.66 Y106.816 E.00875
G1 X122.921 Y106.989 E.0113
G1 X123.072 Y107.242 E.01062
G1 X123.107 Y107.859 E.02232
G1 X123.107 Y212.602 E3.78184
G1 X123.072 Y212.818 E.0079
G1 X122.922 Y213.07 E.01059
G1 X122.859 Y213.13 E.00317
G1 X122.661 Y213.244 E.00823
G1 X122.421 Y213.287 E.0088
G1 X112.579 Y213.287 E.35539
G1 X112.555 Y213.283 E.00088
G1 X112.579 Y212.83 F21000
;TYPE:Outer wall
G1 F3000
G1 X112.421 Y212.767 E.00612
G1 X112.35 Y212.602 E.00651
G1 X112.35 Y107.459 E3.79629
G1 X112.422 Y107.292 E.00655
G1 X112.579 Y107.23 E.00608
G1 X122.421 Y107.23 E.35539
G1 X122.588 Y107.302 E.00655
G1 X122.65 Y107.459 E.00608
G1 X122.65 Y212.602 E3.79629
G1 X122.567 Y212.778 E.00703
G1 X122.421 Y212.83 E.00559
G1 X112.639 Y212.83 E.35322
G1 X112.555 Y212.854
G1 E-1
G1 Z.4 F21000
G1 X108.85 Y218.244
G1 Z.2
G1 E1 F1800
;TYPE:Inner wall
G1 F3000
G1 X108.807 Y218.702 E.01662
G1 X108.597 Y219.272 E.02192
G1 X108.241 Y219.777 E.02233
G1 X107.766 Y220.172 E.02228
;WIDTH:0.520679
G1 X107.212 Y220.438 E.0232
;WIDTH:0.54161
G1 X107.038 Y220.495 E.00722
G1 X106.513 Y220.542 E.02076
G1 X105.988 Y220.495 E.02076
G1 X105.421 Y220.264 E.02411
;WIDTH:0.499999
G1 X104.916 Y219.908 E.02233
G1 X104.521 Y219.433 E.02228
;WIDTH:0.536047
G1 X104.248 Y218.882 E.02397
;WIDTH:0.578387
G1 X104.179 Y218.708 E.00794
G1 X104.133 Y218.18 E.02239
G1 X104.179 Y217.653 E.02239
