; HEADER_BLOCK_START
; generated by OrcaSlicer 1.6.2 on 2023-05-21 at 09:45:42
; total layer number: 58
; HEADER_BLOCK_END

; THUMBNAIL_BLOCK_START
; THUMBNAIL_BLOCK_END

; external perimeters extrusion width = 0.40mm
; perimeters extrusion width = 0.45mm
; infill extrusion width = 0.45mm
; solid infill extrusion width = 0.40mm
; top infill extrusion width = 0.40mm
; first layer extrusion width = 0.50mm

; EXECUTABLE_BLOCK_START
EXCLUDE_OBJECT_DEFINE NAME=HDD_cage.stl_id_0_copy_0 CENTER=150,150 POLYGON=[[82.5,88.3802],[83,87.8802],[217,87.8802],[217.5,88.3802],[217.5,211.62],[217,212.12],[83,212.12],[82.5,211.62],[82.5,88.3802]]
M73 P0 R103
;TYPE:Custom
START_PRINT T_BED=60 T_EXTRUDER=220
G90
G21
M83 ; use relative distances for extrusion
; filament start gcode

    PRESSURE_ADVANCE_SELECT FILAMENT=PLA
M106 S0
;LAYER_CHANGE
;Z:0.2
;HEIGHT:0.2
M204 S500
G1 E-.8 F3000
G1 Z.2 F21000
G1 X80.939 Y86.22
G1 E.8 F1800
;TYPE:Skirt
;WIDTH:0.5
G1 F3000
G1 X83 Y85.366 E.08307
G1 X217 Y85.366 E4.99099
G1 X219.061 Y86.22 E.08307
G1 X219.161 Y86.32 E.00527
G1 X220.014 Y88.38 E.08307
G1 X220.014 Y211.62 E4.5902
M73 P0 R102
G1 X219.161 Y213.68 E.08307
G1 X219.061 Y213.78 E.00527
G1 X217 Y214.634 E.08307
G1 X83 Y214.634 E4.99099
G1 X80.939 Y213.78 E.08307
G1 X80.839 Y213.68 E.00527
G1 X79.986 Y211.62 E.08307
G1 X79.986 Y88.38 E4.5902
G1 X80.839 Y86.32 E.08307
G1 X80.897 Y86.262 E.00303
G1 X81.22 Y86.585 F21000
G1 F3000
G1 X81.263 Y86.543 E.00223
G1 X83 Y85.823 E.07004
G1 X217 Y85.823 E4.99099
G1 X218.737 Y86.543 E.07004
G1 X218.837 Y86.643 E.00527
G1 X219.557 Y88.38 E.07004
G1 X219.557 Y211.62 E4.5902
G1 X218.837 Y213.357 E.07004
G1 X218.737 Y213.457 E.00527
G1 X217 Y214.177 E.07004
G1 X83 Y214.177 E4.99099
G1 X81.263 Y213.457 E.07004
G1 X81.163 Y213.357 E.00527
G1 X80.443 Y211.62 E.07004
G1 X80.443 Y88.38 E4.5902
G1 X81.163 Y86.643 E.07004
G1 X81.178 Y86.628 E.0008
; printing object HDD cage.stl id:0 copy 0
EXCLUDE_OBJECT_START NAME=HDD_cage.stl_id_0_copy_0
G1 E-.8
G1 Z.4 F21000
G1 X214.097 Y89.023
G1 Z.2
G1 E.8 F1800
;TYPE:Inner wall
;WIDTH:0.571704
G1 F3000
G1 X214.448 Y89.005 E.01516
;WIDTH:0.535852
G1 X214.799 Y88.987 E.01413
;WIDTH:0.499999
G1 X216.393 Y88.987 E.05935
G1 X216.393 Y90.629 E.06113
;WIDTH:0.525988
G1 X216.38 Y90.975 E.01365
;WIDTH:0.551977
G1 X216.367 Y91.321 E.01438
G1 X216.383 Y91.88 E.02319
;WIDTH:0.555129
G1 X216.365 Y92.48 E.02506
G1 X216.379 Y92.803 E.01346
;WIDTH:0.527564
G1 X216.393 Y93.125 E.01274
;WIDTH:0.499999
G1 X216.393 Y206.929 E4.23875
;WIDTH:0.525988
G1 X216.38 Y207.275 E.01365
;WIDTH:0.551977
G1 X216.367 Y207.621 E.01438
G1 X216.383 Y208.18 E.02319
;WIDTH:0.555129
G1 X216.365 Y208.78 E.02506
G1 X216.379 Y209.106 E.01361
;WIDTH:0.527564
G1 X216.393 Y209.432 E.01288
;WIDTH:0.499999
G1 X216.393 Y211.013 E.05888
G1 X214.787 Y211.013 E.0598
;WIDTH:0.541607
G1 X214.097 Y210.992 E.02806
G1 X213.54 Y211.008 E.02266
G1 X212.982 Y210.992 E.02266
G1 X212.299 Y211.013 E.02777
;WIDTH:0.499999
G1 X151.292 Y211.013 E2.27228
;WIDTH:0.541606
G1 X150.602 Y210.992 E.02806
G1 X150.045 Y211.008 E.02266
G1 X149.487 Y210.992 E.02266
G1 X148.804 Y211.013 E.02777
;WIDTH:0.499999
G1 X87.76 Y211.013 E2.27365
;WIDTH:0.541606
G1 X87.07 Y210.992 E.02806
G1 X86.513 Y211.008 E.02266
G1 X85.955 Y210.992 E.02266
G1 X85.272 Y211.013 E.02777
;WIDTH:0.499999
G1 X83.607 Y211.013 E.06202
G1 X83.607 Y209.442 E.05848
;WIDTH:0.539193
G1 X83.627 Y209.092 E.01418
;WIDTH:0.578383
G1 X83.646 Y208.742 E.0153
G1 X83.63 Y208.18 E.02454
G1 X83.646 Y207.618 E.02454
G1 X83.627 Y207.268 E.0153
;WIDTH:0.539191
G1 X83.607 Y206.918 E.01418
;WIDTH:0.499999
G1 X83.607 Y93.142 E4.2377
;WIDTH:0.539193
G1 X83.627 Y92.792 E.01418
;WIDTH:0.578383
G1 X83.646 Y92.442 E.0153
G1 X83.63 Y91.88 E.02454
G1 X83.646 Y91.318 E.02454
G1 X83.627 Y90.968 E.0153
;WIDTH:0.539191
G1 X83.607 Y90.618 E.01418
;WIDTH:0.499999
G1 X83.607 Y88.987 E.06074
G1 X85.253 Y88.987 E.06131
;WIDTH:0.535994
G1 X85.602 Y89.005 E.01405
;WIDTH:0.571988
G1 X85.951 Y89.023 E.01507
G1 X86.506 Y89.007 E.0239
;WIDTH:0.571707
G1 X87.07 Y89.023 E.02433
G1 X87.421 Y89.005 E.01516
;WIDTH:0.535853
G1 X87.772 Y88.987 E.01413
;WIDTH:0.499999
G1 X148.785 Y88.987 E2.27248
;WIDTH:0.535994
G1 X149.134 Y89.005 E.01405
;WIDTH:0.571989
G1 X149.483 Y89.023 E.01507
G1 X150.037 Y89.007 E.0239
;WIDTH:0.571704
G1 X150.602 Y89.023 E.02432
G1 X150.953 Y89.005 E.01516
;WIDTH:0.535852
G1 X151.304 Y88.987 E.01413
;WIDTH:0.499999
G1 X212.28 Y88.987 E2.27112
;WIDTH:0.535994
G1 X212.629 Y89.005 E.01405
;WIDTH:0.571988
G1 X212.978 Y89.023 E.01507
G1 X213.533 Y89.007 E.0239
;WIDTH:0.571704
G1 X214.037 Y89.021 E.02174
G1 E-.8
G1 Z.4 F21000
G1 X216.85 Y88.53
G1 Z.2
G1 E.8 F1800
;TYPE:Outer wall
;WIDTH:0.499999
G1 F3000
G1 X216.85 Y211.47 E4.57902
G1 X83.15 Y211.47 E4.97981
G1 X83.15 Y88.53 E4.57902
G1 X216.79 Y88.53 E4.97758
G1 X216.828 Y88.607
G1 E-.8
G1 Z.4 F21000
G1 X214.233 Y89.623
G1 Z.2
G1 E.8 F1800
;TYPE:Inner wall
;WIDTH:0.571704
G1 F3000
G1 X214.351 Y89.674 E.00553
;WIDTH:0.535852
G1 X214.638 Y89.799 E.01258
;WIDTH:0.499999
G1 X215.139 Y90.154 E.02288
G1 X215.531 Y90.627 E.02288
;WIDTH:0.518342
G1 X215.796 Y91.182 E.02381
;WIDTH:0.551977
G1 X215.86 Y91.355 E.00765
G1 X215.907 Y91.88 E.02189
;WIDTH:0.551972
G1 X215.86 Y92.406 E.02189
G1 X215.742 Y92.689 E.01272
;WIDTH:0.525986
G1 X215.624 Y92.972 E.01207
;WIDTH:0.499999
G1 X215.268 Y93.477 E.02303
G1 X214.793 Y93.872 E.02299
G1 X214.242 Y94.126 E.02261
G1 X213.632 Y94.231 E.02303
G1 X213.091 Y94.184 E.02023
G1 X212.845 Y94.128 E.00941
G1 X212.287 Y93.872 E.02288
G1 X211.814 Y93.48 E.02288
G1 X211.459 Y92.978 E.02288
G1 X211.245 Y92.402 E.02288
G1 X211.188 Y91.791 E.02288
G1 X211.292 Y91.185 E.02288
G1 X211.544 Y90.636 E.02251
G1 X211.94 Y90.154 E.02324
G1 X212.442 Y89.799 E.02288
;WIDTH:0.537605
G1 X212.712 Y89.676 E.01197
;WIDTH:0.57521
G1 X212.982 Y89.553 E.01288
G1 X213.533 Y89.504 E.02397
;WIDTH:0.571704
G1 X214.064 Y89.55 E.02296
G1 X214.178 Y89.599 E.00537
G1 X214.049 Y90.053 F21000
;TYPE:Outer wall
;WIDTH:0.499999
G1 F3000
G1 X214.06 Y90.054 E.0004
G1 X214.515 Y90.251 E.01846
G1 X214.903 Y90.559 E.01846
G1 X215.199 Y90.957 E.01846
G1 X215.381 Y91.418 E.01846
G1 X215.44 Y91.88 E.01737
G1 X215.366 Y92.4 E.01957
G1 X215.172 Y92.848 E.01816
G1 X214.861 Y93.244 E.01875
G1 X214.463 Y93.539 E.01846
G1 X213.929 Y93.73 E.02114
G1 X213.51 Y93.778 E.0157
G1 X213.02 Y93.706 E.01846
G1 X212.565 Y93.509 E.01846
G1 X212.177 Y93.201 E.01846
G1 X211.881 Y92.804 E.01846
G1 X211.695 Y92.312 E.01956
G1 X211.642 Y91.85 E.01732
G1 X211.714 Y91.36 E.01846
G1 X211.908 Y90.913 E.01816
G1 X212.219 Y90.517 E.01875
G1 X212.617 Y90.221 E.01846
G1 X213.077 Y90.039 E.01846
G1 X213.562 Y89.983 E.01816
G1 X213.99 Y90.044 E.01612
G1 X214.051 Y90.051
G1 E-.8
G1 Z.4 F21000
G1 X181.564 Y202.875
G1 Z.2
G1 E.8 F1800
;TYPE:Inner wall
G1 F3000
G1 X180.974 Y202.887 E.02197
G1 X180.862 Y203.127 E.00986
G1 X180.635 Y203.253 E.00966
G1 X180.421 Y203.287 E.00806
G1 X172.579 Y203.287 E.29212
G1 X172.268 Y203.213 E.01191
G1 X172.138 Y203.127 E.00578
G1 X172.026 Y202.887 E.00986
G1 X171.479 Y202.887 E.0204
G1 X171.21 Y202.833 E.01019
G1 X170.985 Y202.678 E.01018
G1 X170.882 Y202.541 E.00639
G1 X170.793 Y202.202 E.01305
G1 X170.793 Y97.859 E3.88637
G1 X170.883 Y97.519 E.01311
G1 X171.08 Y97.301 E.01095
G1 X171.257 Y97.21 E.00737
G1 X171.479 Y97.173 E.00838
G1 X172.026 Y97.173 E.0204
G1 X172.138 Y96.933 E.00986
G1 X172.365 Y96.807 E.00967
G1 X172.579 Y96.773 E.00805
G1 X180.421 Y96.773 E.29212
G1 X180.732 Y96.847 E.01189
G1 X180.862 Y96.933 E.0058
G1 X180.974 Y97.173 E.00986
G1 X181.521 Y97.173 E.0204
G1 X181.777 Y97.222 E.00968
G1 X182.019 Y97.387 E.0109
G1 X182.178 Y97.661 E.01181
G1 X182.207 Y97.859 E.00745
G1 X182.207 Y202.202 E3.88637
G1 X182.133 Y202.513 E.0119
G1 X181.952 Y202.735 E.01069
G1 X181.66 Y202.873 E.01203
G1 X181.624 Y202.874 E.00134
G1 X181.521 Y202.43 F21000
;TYPE:Outer wall
G1 F3000
G1 X180.65 Y202.43 E.03246
G1 X180.65 Y202.602 E.00639
G1 X180.525 Y202.805 E.0089
G1 X180.421 Y202.83 E.00397
G1 X172.579 Y202.83 E.29212
G1 X172.432 Y202.777 E.00582
G1 X172.35 Y202.602 E.0072
G1 X172.35 Y202.43 E.00639
G1 X171.479 Y202.43 E.03246
G1 X171.314 Y202.36 E.00665
G1 X171.25 Y202.202 E.00637
G1 X171.25 Y97.859 E3.88637
G1 X171.315 Y97.7 E.0064
G1 X171.405 Y97.643 E.00397
G1 X172.35 Y97.63 E.03522
G1 X172.35 Y97.459 E.00639
G1 X172.475 Y97.255 E.0089
G1 X172.579 Y97.23 E.00396
G1 X180.421 Y97.23 E.29212
G1 X180.568 Y97.284 E.00582
G1 X180.65 Y97.459 E.0072
G1 X180.65 Y97.63 E.00639
G1 X181.521 Y97.63 E.03246
G1 X181.687 Y97.701 E.00672
G1 X181.75 Y97.859 E.00631
G1 X181.75 Y202.202 E3.88637
G1 X181.688 Y202.358 E.00627
G1 X181.577 Y202.406 E.00452
G1 X181.501 Y202.508
G1 E-.8
G1 Z.4 F21000
G1 X152.382 Y91.944
G1 Z.2
G1 E.8 F1800
;TYPE:Inner wall
G1 F3000
G1 X152.339 Y92.402 E.01715
G1 X152.128 Y92.972 E.02261
G1 X151.772 Y93.477 E.02303
G1 X151.644 Y93.606 E.00677
G1 X151.208 Y93.93 E.02023
G1 X150.746 Y94.126 E.01868
G1 X150.137 Y94.231 E.02303
G1 X149.522 Y94.175 E.02299
G1 X148.946 Y93.961 E.02288
G1 X148.445 Y93.606 E.02288
G1 X148.053 Y93.133 E.02288
G1 X147.796 Y92.575 E.02288
G1 X147.693 Y91.97 E.02288
G1 X147.75 Y91.358 E.02288
G1 X147.963 Y90.782 E.02288
G1 X148.319 Y90.281 E.02288
G1 X148.791 Y89.889 E.02288
;WIDTH:0.533483
G1 X149.343 Y89.617 E.02459
;WIDTH:0.571989
G1 X149.518 Y89.55 E.00805
G1 X150.037 Y89.504 E.02249
;WIDTH:0.571704
G1 X150.568 Y89.55 E.02296
G1 X150.856 Y89.674 E.01349
;WIDTH:0.535852
G1 X151.143 Y89.799 E.01258
;WIDTH:0.499999
G1 X151.644 Y90.154 E.02288
G1 X152.036 Y90.627 E.02288
G1 X152.293 Y91.185 E.02288
G1 X152.396 Y91.791 E.02288
G1 X152.387 Y91.884 E.0035
G1 X151.941 Y91.893 F21000
;TYPE:Outer wall
G1 F3000
G1 X151.943 Y91.91 E.00063
G1 X151.87 Y92.4 E.01846
G1 X151.677 Y92.848 E.01816
G1 X151.366 Y93.244 E.01875
G1 X150.968 Y93.539 E.01846
G1 X150.515 Y93.719 E.01815
G1 X150.015 Y93.778 E.01875
G1 X149.483 Y93.689 E.02009
G1 X149.07 Y93.509 E.01679
G1 X148.681 Y93.201 E.01846
G1 X148.386 Y92.804 E.01846
G1 X148.199 Y92.312 E.01956
G1 X148.146 Y91.85 E.01732
G1 X148.219 Y91.36 E.01846
G1 X148.416 Y90.905 E.01846
G1 X148.723 Y90.517 E.01846
G1 X149.121 Y90.221 E.01846
G1 X149.582 Y90.039 E.01846
G1 X150.066 Y89.983 E.01816
G1 X150.565 Y90.054 E.01875
G1 X151.02 Y90.251 E.01846
G1 X151.408 Y90.559 E.01846
G1 X151.703 Y90.957 E.01846
G1 X151.886 Y91.418 E.01846
G1 X151.934 Y91.834 E.0156
G1 X151.944 Y91.895
G1 E-.8
G1 Z.4 F21000
G1 X138.889 Y202.869
M73 P1 R102
G1 Z.2
G1 E.8 F1800
;TYPE:Inner wall
G1 F3000
G1 X138.71 Y202.833 E.0068
G1 X138.485 Y202.678 E.01018
G1 X138.382 Y202.541 E.00639
G1 X138.293 Y202.202 E.01305
G1 X138.293 Y97.859 E3.88637
G1 X138.306 Y97.725 E.00501
G1 X138.383 Y97.519 E.0082
G1 X138.58 Y97.301 E.01095
G1 X138.864 Y97.183 E.01143
G1 X139.526 Y97.173 E.02468
G1 X139.638 Y96.933 E.00986
G1 X139.865 Y96.807 E.00967
G1 X140.079 Y96.773 E.00805
G1 X147.921 Y96.773 E.29212
G1 X148.197 Y96.831 E.01049
G1 X148.362 Y96.933 E.00723
G1 X148.474 Y97.173 E.00986
G1 X149.021 Y97.173 E.0204
G1 X149.334 Y97.248 E.01196
G1 X149.568 Y97.444 E.01136
G1 X149.692 Y97.716 E.01113
G1 X149.707 Y97.859 E.00535
G1 X149.707 Y202.202 E3.88637
M73 P1 R101
G1 X149.653 Y202.468 E.01013
G1 X149.499 Y202.694 E.01017
G1 X149.245 Y202.85 E.0111
G1 X149.021 Y202.887 E.00845
G1 X148.474 Y202.887 E.0204
G1 X148.318 Y203.161 E.01171
G1 X148.065 Y203.272 E.01029
G1 X147.37 Y203.287 E.0259
G1 X140.079 Y203.287 E.27158
G1 X139.768 Y203.213 E.01191
G1 X139.638 Y203.127 E.00578
G1 X139.526 Y202.887 E.00986
G1 X138.979 Y202.887 E.0204
G1 X138.948 Y202.881 E.00116
G1 X138.979 Y202.43 F21000
;TYPE:Outer wall
G1 F3000
G1 X138.814 Y202.36 E.00665
G1 X138.75 Y202.202 E.00637
G1 X138.754 Y97.814 E3.88803
G1 X138.846 Y97.673 E.00627
G1 X138.979 Y97.63 E.00519
G1 X139.85 Y97.63 E.03246
G1 X139.85 Y97.459 E.00639
G1 X139.975 Y97.255 E.0089
G1 X140.079 Y97.23 E.00396
G1 X147.921 Y97.23 E.29212
G1 X148.068 Y97.284 E.00582
G1 X148.15 Y97.459 E.0072
G1 X148.15 Y97.63 E.00639
G1 X149.021 Y97.63 E.03246
G1 X149.182 Y97.697 E.00648
G1 X149.25 Y97.859 E.00655
G1 X149.25 Y202.202 E3.88637
G1 X149.181 Y202.366 E.00663
G1 X149.021 Y202.43 E.0064
G1 X148.15 Y202.43 E.03246
G1 X148.15 Y202.602 E.00639
G1 X148.034 Y202.8 E.00856
G1 X147.807 Y202.83 E.00856
G1 X140.079 Y202.83 E.28784
G1 X139.932 Y202.777 E.00582
G1 X139.85 Y202.602 E.0072
G1 X139.85 Y202.43 E.00639
G1 X139.039 Y202.43 E.03022
G1 X138.952 Y202.454
G1 E-.8
G1 Z.4 F21000
G1 X135.595 Y202.678
G1 Z.2
G1 E.8 F1800
;TYPE:Inner wall
G1 F3000
G1 X135.572 Y202.818 E.00526
G1 X135.422 Y203.07 E.01092
G1 X135.161 Y203.244 E.0117
G1 X134.921 Y203.287 E.00908
G1 X125.079 Y203.287 E.36661
G1 X124.762 Y203.21 E.01213
G1 X124.537 Y203.023 E.0109
G1 X124.406 Y202.736 E.01174
G1 X124.393 Y202.202 E.01991
G1 X124.393 Y97.459 E3.90127
G1 X124.442 Y97.204 E.00966
G1 X124.601 Y96.966 E.01066
G1 X124.862 Y96.808 E.01136
G1 X125.079 Y96.773 E.00817
G1 X135.044 Y96.784 E.37116
G1 X135.306 Y96.891 E.01055
G1 X135.497 Y97.086 E.01018
G1 X135.572 Y97.242 E.00641
G1 X135.607 Y97.859 E.02303
G1 X135.607 Y202.602 E3.90127
G1 X135.604 Y202.619 E.00065
G1 X135.15 Y202.602 F21000
;TYPE:Outer wall
G1 F3000
G1 X135.088 Y202.758 E.00625
G1 X134.921 Y202.83 E.00678
G1 X125.079 Y202.83 E.36661
G1 X124.919 Y202.765 E.00643
G1 X124.85 Y202.602 E.0066
G1 X124.85 Y97.459 E3.91617
G1 X124.919 Y97.295 E.00664
G1 X125.079 Y97.23 E.00639
G1 X134.962 Y97.234 E.36813
G1 X135.113 Y97.335 E.00677
G1 X135.15 Y97.459 E.00482
G1 X135.15 Y202.542 E3.91393
G1 X135.174 Y202.625
G1 E-.8
G1 Z.4 F21000
G1 X92.496 Y203.272
G1 Z.2
G1 E.8 F1800
;TYPE:Inner wall
G1 F3000
G1 X92.333 Y203.242 E.00615
G1 X92.106 Y203.099 E.00998
G1 X91.953 Y202.882 E.00991
G1 X91.893 Y202.602 E.01067
G1 X91.893 Y97.459 E3.91617
G1 X91.953 Y97.179 E.01066
G1 X92.109 Y96.96 E.01002
G1 X92.179 Y96.901 E.00341
G1 X92.41 Y96.794 E.00948
G1 X92.671 Y96.773 E.00974
G1 X102.421 Y96.773 E.36318
G1 X102.66 Y96.816 E.00903
G1 X102.921 Y96.989 E.01166
G1 X103.072 Y97.242 E.01095
G1 X103.107 Y97.859 E.02303
G1 X103.107 Y202.602 E3.90127
G1 X103.072 Y202.818 E.00814
G1 X102.922 Y203.07 E.01092
G1 X102.661 Y203.244 E.0117
G1 X102.421 Y203.287 E.00908
G1 X92.579 Y203.287 E.36661
G1 X92.555 Y203.283 E.00091
G1 X92.579 Y202.83 F21000
;TYPE:Outer wall
G1 F3000
G1 X92.421 Y202.767 E.00631
G1 X92.35 Y202.602 E.00672
G1 X92.35 Y97.459 E3.91617
G1 X92.422 Y97.292 E.00675
G1 X92.445 Y97.273 E.00114
G1 X92.64 Y97.23 E.00743
G1 X102.421 Y97.23 E.36431
G1 X102.588 Y97.302 E.00676
G1 X102.65 Y97.459 E.00627
G1 X102.65 Y202.602 E3.91617
G1 X102.588 Y202.758 E.00625
G1 X102.421 Y202.83 E.00678
G1 X92.639 Y202.83 E.36438
G1 X92.555 Y202.854
G1 E-.8
G1 Z.4 F21000
G1 X87.065 Y94.152
G1 Z.2
G1 E.8 F1800
;TYPE:Inner wall
G1 F3000
G1 X86.605 Y94.231 E.01738
G1 X85.991 Y94.175 E.02299
G1 X85.415 Y93.961 E.02288
G1 X84.913 Y93.606 E.02288
G1 X84.521 Y93.133 E.02288
;WIDTH:0.536047
G1 X84.248 Y92.582 E.02472
;WIDTH:0.578387
G1 X84.179 Y92.408 E.00819
G1 X84.133 Y91.88 E.0231
G1 X84.179 Y91.353 E.0231
G1 X84.306 Y91.068 E.01362
;WIDTH:0.539191
G1 X84.432 Y90.782 E.01262
;WIDTH:0.499999
G1 X84.787 Y90.281 E.02288
G1 X85.26 Y89.889 E.02288
;WIDTH:0.533483
G1 X85.811 Y89.617 E.02459
;WIDTH:0.571988
G1 X85.986 Y89.55 E.00805
G1 X86.506 Y89.504 E.02249
;WIDTH:0.571707
G1 X87.036 Y89.55 E.02296
G1 X87.324 Y89.674 E.01349
;WIDTH:0.535853
G1 X87.611 Y89.799 E.01258
;WIDTH:0.499999
G1 X88.112 Y90.154 E.02288
G1 X88.504 Y90.627 E.02288
G1 X88.761 Y91.185 E.02288
G1 X88.864 Y91.791 E.02288
G1 X88.811 Y92.372 E.02174
G1 X88.761 Y92.575 E.00779
G1 X88.559 Y93.048 E.01914
G1 X88.241 Y93.477 E.01991
G1 X87.766 Y93.872 E.02299
G1 X87.214 Y94.126 E.02261
G1 X87.124 Y94.141 E.00342
G1 X86.99 Y93.716 F21000
;TYPE:Outer wall
G1 F3000
G1 X86.983 Y93.719 E.00028
G1 X86.483 Y93.778 E.01875
G1 X85.993 Y93.706 E.01846
G1 X85.538 Y93.509 E.01846
G1 X85.149 Y93.201 E.01846
G1 X84.854 Y92.804 E.01846
G1 X84.671 Y92.343 E.01846
G1 X84.615 Y91.85 E.01846
G1 X84.687 Y91.36 E.01846
G1 X84.884 Y90.905 E.01846
G1 X85.192 Y90.517 E.01846
G1 X85.589 Y90.221 E.01846
