; HEADER_BLOCK_START
; generated by OrcaSlicer 1.6.6 on 2023-08-31 at 14:22:10
; total layer number: 12
; HEADER_BLOCK_END

; THUMBNAIL_BLOCK_START
; THUMBNAIL_BLOCK_END

; external perimeters extrusion width = 0.40mm
; perimeters extrusion width = 0.46mm
; infill extrusion width = 0.64mm
; solid infill extrusion width = 0.56mm
; top infill extrusion width = 0.40mm
; first layer extrusion width = 0.50mm

; EXECUTABLE_BLOCK_START
EXCLUDE_OBJECT_DEFINE NAME=Hello_Kitty_Booba_Feet_2.4mm.stl_id_0_copy_0 CENTER=165.001,165 POLYGON=[[142.865,171.659],[142.873,171.497],[145.297,152.311],[145.403,151.687],[145.671,151.062],[152.483,138.082],[152.914,137.539],[153.223,137.151],[153.951,136.533],[154.129,136.382],[155.178,135.801],[155.859,135.542],[156.571,135.373],[157.456,135.267],[158.652,135.201],[159.218,135.191],[171.127,135],[171.234,135.001],[172.144,135.014],[173.12,135.082],[174.039,135.202],[174.886,135.374],[175.644,135.596],[176.126,135.796],[176.297,135.866],[177.095,136.356],[177.778,136.972],[178.343,137.712],[184.985,150.375],[185.35,151.681],[187.136,171.575],[187.134,171.784],[187.084,171.979],[187.08,171.997],[180.938,188.945],[180.74,189.375],[180.508,189.734],[180.281,189.982],[180.234,190.034],[179.912,190.286],[179.534,190.505],[179.177,190.664],[178.821,190.776],[178.441,190.841],[169.296,192.301],[154.813,194.59],[154.451,194.634],[153.961,194.681],[153.421,194.725],[152.923,194.765],[152.73,194.78],[152.721,194.78],[151.487,194.871],[150.596,194.929],[149.838,194.969],[149.201,194.993],[148.675,195],[148.249,194.992],[148.087,194.98],[147.91,194.967],[147.65,194.928],[147.126,194.768],[146.641,194.555],[146.555,194.517],[146.027,194.219],[145.633,193.92],[145.335,193.542],[145.251,193.146],[142.891,171.925],[142.865,171.659]]
M73 P0 R10
M73 C4
;TYPE:Custom
START_PRINT T_BED=60 T_EXTRUDER=220
G90
G21
M83 ; use relative distances for extrusion
; filament start gcode

    PRESSURE_ADVANCE_SELECT FILAMENT=PLA
M106 S0
;LAYER_CHANGE
;Z:0.2
;HEIGHT:0.2
;BEFORE_LAYER_CHANGE
;0.2
G92 E0

SET_VELOCITY_LIMIT ACCEL=5000 ACCEL_TO_DECEL=2500
G1 E-.8 F1800
G1 X150.941 Y135.338 F12000
G1 Z.2
G1 E.8 F1800
;TYPE:Skirt
;WIDTH:0.5
G1 F3000
G1 X151.337 Y134.929 E.02119
G1 X152.715 Y133.834 E.06558
G1 X153.765 Y133.252 E.04468
G1 X154.824 Y132.818 E.04265
G1 X155.897 Y132.538 E.04129
G1 X157.11 Y132.373 E.04559
G1 X158.603 Y132.287 E.0557
G1 X172.183 Y132.1 E.50588
G1 X174.619 Y132.347 E.09118
G1 X176.758 Y132.903 E.08233
G1 X177.82 Y133.382 E.04341
G1 X178.618 Y133.871 E.03487
G1 X180.094 Y135.203 E.07404
G1 X180.924 Y136.359 E.05298
G1 X187.566 Y149.021 E.53258
G1 X188.157 Y150.898 E.07329
G1 X190.048 Y171.814 E.78219
G1 X189.819 Y172.989 E.04461
G1 X183.677 Y189.938 E.67144
G1 X182.955 Y191.317 E.05799
G1 X182.033 Y192.326 E.05091
G1 X180.726 Y193.164 E.05783
G1 X179.312 Y193.649 E.05566
G1 X154.8 Y197.527 E.92434
G1 X150.784 Y197.837 E.15004
G1 X148.617 Y197.914 E.08074
G1 X147.21 Y197.808 E.05255
G1 X145.954 Y197.436 E.04881
G1 X144.595 Y196.758 E.05656
G1 X143.868 Y196.238 E.0333
G1 X143.05 Y195.351 E.04495
G1 X142.483 Y194.143 E.04967
G1 X142.355 Y193.468 E.02562
G1 X139.965 Y171.945 E.80655
G1 X139.982 Y171.132 E.03029
G1 X142.406 Y151.946 E.72029
G1 X142.725 Y150.536 E.05386
G1 X143.091 Y149.708 E.03371
G1 X149.903 Y136.728 E.54598
G1 X150.917 Y135.37 E.06313
G1 X151.31 Y135.683 F12000
G1 F3000
G1 X151.633 Y135.278 E.0193
G1 X152.937 Y134.234 E.06223
G1 X153.986 Y133.652 E.04468
G1 X154.986 Y133.245 E.04021
G1 X156.002 Y132.982 E.03909
G1 X157.32 Y132.814 E.04948
G1 X172.177 Y132.557 E.55345
G1 X174.528 Y132.795 E.08801
G1 X176.583 Y133.326 E.07907
G1 X177.581 Y133.772 E.04073
G1 X178.38 Y134.261 E.03487
G1 X179.731 Y135.481 E.06779
G1 X180.519 Y136.571 E.05011
G1 X187.161 Y149.234 E.53258
G1 X187.716 Y151.021 E.06972
G1 X189.591 Y171.809 E.77741
M73 P1 R10
G1 X189.39 Y172.834 E.03889
G1 X183.248 Y189.782 E.67144
G1 X182.571 Y191.068 E.05414
G1 X181.751 Y191.966 E.0453
G1 X180.539 Y192.747 E.05369
G1 X179.235 Y193.198 E.05139
G1 X154.745 Y197.073 E.9235
G1 X150.754 Y197.38 E.14909
G1 X148.626 Y197.457 E.07931
G1 X147.279 Y197.356 E.0503
G1 X146.138 Y197.018 E.04436
G1 X144.82 Y196.359 E.05487
G1 X144.145 Y195.874 E.03096
G1 X143.408 Y195.067 E.04071
G1 X142.93 Y194.049 E.04188
G1 X140.42 Y171.9 E.83023
G1 X140.435 Y171.189 E.02649
G1 X142.859 Y152.003 E.72029
G1 X143.145 Y150.716 E.04911
G1 X143.496 Y149.92 E.0324
G1 X150.307 Y136.94 E.54598
G1 X151.285 Y135.714 E.0584
; printing object Hello_Kitty_Booba_Feet_2.4mm.stl id:0 copy 0
G1 E-.8 F1800
EXCLUDE_OBJECT_START NAME=Hello_Kitty_Booba_Feet_2.4mm.stl_id_0_copy_0
G1 X182.653 Y172.31 F12000
G1 E.8 F1800
;TYPE:Outer wall
G1 F3000
G2 X182.01 Y176.773 I171.657 J27.044 E.16793
G2 X181.932 Y179.014 I18.111 J1.746 E.0836
G1 X182.547 Y180.448 E.0581
G3 X182.711 Y181.363 I-2.13 J.853 E.03486
G1 X182.728 Y181.934 E.0213
G2 X181.873 Y183.803 I44.311 J21.413 E.07653
G1 X181.542 Y184.736 E.03687
G1 X181.286 Y185.757 E.03921
G1 X180.915 Y187.748 E.07545
G3 X180.432 Y189.206 I-5.988 J-1.171 E.05737
G3 X179.053 Y190.337 I-2.215 J-1.297 E.06783
G3 X177.56 Y190.479 I-1.056 J-3.171 E.05635
G3 X176.321 Y190.278 I1.507 J-13.222 E.04675
G2 X173.38 Y189.7 I-8.817 J37.077 E.11168
G2 X172.541 Y189.737 I-.315 J2.407 E.03144
G2 X171.844 Y190.185 I.724 J1.892 E.03109
G1 X171.11 Y190.977 E.04022
G1 X170.662 Y191.379 E.0224
G1 X170.251 Y191.631 E.01796
G3 X167.687 Y191.896 I-1.65 J-3.432 E.09795
G1 X167.142 Y191.667 E.02202
G1 X166.666 Y191.366 E.02098
G1 X166.242 Y190.978 E.02142
G3 X165.493 Y190.008 I15.338 J-12.613 E.04564
G2 X164.838 Y189.401 I-2.033 J1.539 E.03344
G1 X164.494 Y189.253 E.01394
G2 X162.579 Y188.933 I-4.626 J21.731 E.07234
G2 X158.694 Y188.54 I-6.774 J47.569 E.14546
G2 X157.221 Y188.759 I-.23 J3.508 E.05589
G3 X153.815 Y189.966 I-635.065 J-1786.812 E.13461
G3 X152.9 Y190.227 I-1.772 J-4.474 E.03549
G3 X151.946 Y190.245 I-.604 J-6.944 E.03557
G1 X151.751 Y190.782 E.02129
G3 X152.81 Y192.007 I-1.797 J2.624 E.06099
G1 X152.895 Y192.238 E.00917
G3 X153.789 Y193.058 I-4.26 J5.54 E.04526
G3 X154.881 Y194.223 I-11.1 J11.493 E.05949
G3 X152.72 Y194.43 I-4.128 J-31.838 E.08088
G3 X148.676 Y194.65 I-5.261 J-59.314 E.15086
G3 X147.728 Y194.585 I-.092 J-5.636 E.03543
G3 X145.88 Y193.668 I1.14 J-4.615 E.07745
G1 X145.66 Y193.389 E.01322
G1 X145.611 Y193.157 E.00886
G1 X145.711 Y192.794 E.014
G3 X146.382 Y191.63 I16.109 J8.512 E.05005
G2 X146.873 Y189.746 I-3.219 J-1.844 E.07339
G2 X146.953 Y183.234 I-178.396 J-5.456 E.24259
G2 X146.618 Y181.076 I-7.758 J.102 E.08158
G1 X146.089 Y179.447 E.06379
G3 X146.154 Y172.793 I202.4 J-1.347 E.24788
G2 X145.061 Y172.503 I-2.042 J5.481 E.04219
G1 X144.107 Y172.352 E.03599
G1 X143.633 Y172.223 E.01827
G1 X143.377 Y172.09 E.01076
G3 X143.216 Y171.65 I.36 J-.381 E.01809
G3 X143.318 Y171.391 I.298 J-.032 E.01077
G1 X143.402 Y171.307 E.00443
G2 X147.149 Y171.35 I2.714 J-73.543 E.13959
G1 X147.491 Y171.294 E.01291
G1 X147.663 Y171.028 E.01178
G2 X147.725 Y170.408 I-2.476 J-.563 E.02328
G2 X147.687 Y168.892 I-9.902 J-.509 E.05654
G2 X147.235 Y168.271 I-.984 J.241 E.02935
G2 X146.375 Y167.813 I-5.985 J10.221 E.03631
G3 X145.83 Y167.388 I1.394 J-2.349 E.02582
G3 X146.286 Y167.315 I.375 J.88 E.01741
G2 X147.134 Y167.421 I1.098 J-5.308 E.03186
G1 X147.371 Y167.361 E.0091
G1 X147.554 Y167.182 E.00955
G1 X147.652 Y166.926 E.01021
G2 X147.758 Y165.869 I-8.107 J-1.346 E.0396
G3 X147.89 Y163.845 I30.246 J.951 E.07555
G3 X147.935 Y163.619 I.558 J-.005 E.00863
G1 X148.014 Y163.543 E.00408
G3 X148.79 Y163.148 I2.426 J3.801 E.0325
G1 X150.217 Y162.55 E.05764
G2 X151.01 Y162.137 I-1.705 J-4.236 E.03333
G1 X151.234 Y161.914 E.0118
G1 X151.313 Y161.668 E.0096
G2 X151.13 Y161.211 I-.823 J.063 E.01861
G2 X150.315 Y160.277 I-8.766 J6.829 E.0462
G3 X147.407 Y157.187 I60.671 J-60.01 E.15805
G3 X145.993 Y154.761 I6.375 J-5.342 E.10511
G1 X145.779 Y153.944 E.03146
G1 X145.661 Y153.096 E.0319
G1 X145.648 Y152.338 E.02824
G1 X145.741 Y151.786 E.02083
G3 X146.785 Y149.827 I10.961 J4.583 E.0828
G1 X147.129 Y149.372 E.02124
G1 X147.712 Y148.932 E.02723
G3 X149.554 Y148.245 I5.564 J12.11 E.07328
G1 X150.272 Y147.959 E.02878
G1 X150.799 Y147.676 E.02229
G1 X151.169 Y147.372 E.01782
G2 X151.486 Y146.734 I-.778 J-.784 E.02702
G2 X151.639 Y144.826 I-22.232 J-2.749 E.07131
G3 X151.841 Y141.062 I128.684 J5.018 E.14042
G3 X152.257 Y139.288 I6.368 J.558 E.06809
G1 X152.779 Y138.273 E.0425
G1 X153.475 Y137.396 E.04171
G1 X154.329 Y136.672 E.04169
G1 X155.326 Y136.119 E.04246
G3 X157.486 Y135.616 I2.566 J6.13 E.08301
G3 X161.333 Y135.586 I2.179 J32.491 E.14338
G3 X163.371 Y135.741 I-.898 J25.267 E.07613
G3 X164.665 Y136.396 I-2.031 J5.614 E.05417
M73 P2 R10
G2 X165.512 Y136.606 I.777 J-1.326 E.03295
G2 X166.418 Y136.395 I-.044 J-2.244 E.03489
G1 X167.565 Y135.876 E.04692
G3 X169.076 Y135.489 I2.064 J4.914 E.05829
G3 X171.803 Y135.359 I2.343 J20.534 E.10175
G3 X175.527 Y135.927 I-.007 J12.546 E.14086
G1 X176.138 Y136.179 E.0246
G1 X176.885 Y136.637 E.03263
G1 X177.519 Y137.21 E.03183
G1 X178.046 Y137.9 E.03235
G1 X178.468 Y138.718 E.03426
G3 X178.7 Y139.811 I-3.606 J1.335 E.04178
G3 X178.842 Y143.29 I-89.975 J5.429 E.12969
G2 X178.95 Y145.811 I46.991 J-.745 E.09397
G2 X179.9 Y147.402 I2.821 J-.604 E.0703
G1 X180.271 Y147.627 E.01614
G2 X181.259 Y147.915 I1.608 J-3.676 E.03844
G3 X182.277 Y148.184 I-1.747 J8.69 E.03925
G1 X182.992 Y148.577 E.03038
G1 X183.677 Y149.146 E.03316
G1 X184.26 Y149.819 E.03316
G1 X184.66 Y150.512 E.0298
G1 X185.002 Y151.737 E.04737
G1 X185.06 Y153.083 E.0502
G1 X184.838 Y154.406 E.04997
G1 X184.346 Y155.573 E.04717
G3 X182.909 Y157.233 I-10.922 J-8 E.08187
G2 X179.494 Y160.749 I538.22 J526.28 E.18254
G1 X179.16 Y161.166 E.0199
G2 X180.015 Y161.749 I2.219 J-2.335 E.03873
G3 X181.575 Y162.579 I-9.938 J20.543 E.06581
G1 X181.827 Y162.777 E.01195
G3 X181.998 Y163.22 I-.512 J.452 E.01806
G2 X182.307 Y166.716 I420.377 J-35.424 E.13069
G1 X182.378 Y167.15 E.0164
G1 X182.577 Y167.449 E.01338
G1 X182.917 Y167.579 E.01357
G1 X183.293 Y167.569 E.01401
G1 X184.321 Y167.385 E.03887
G3 X185.088 Y167.362 I.465 J2.73 E.02867
G1 X185.224 Y167.408 E.00534
G3 X185.19 Y167.679 I-.647 J.059 E.01028
G3 X184.329 Y167.988 I-1.882 J-3.899 E.03415
G2 X183.307 Y168.275 I4.583 J18.252 E.03952
G2 X182.713 Y168.637 I.484 J1.464 E.02613
G1 X182.534 Y168.917 E.01237
G2 X182.531 Y170.145 I3.868 J.626 E.04592
G1 X182.612 Y170.559 E.01572
G1 X182.741 Y170.849 E.01182
G1 X182.978 Y171.101 E.0129
G2 X184.211 Y171.229 I1.199 J-5.557 E.04624
G3 X186.363 Y171.298 I-.39 J45.319 E.08023
G3 X186.715 Y171.915 I.03 J.392 E.03303
G3 X186.339 Y172.032 I-.379 J-.556 E.01489
G3 X183.124 Y172.234 I-13.369 J-187.131 E.11999
G1 X182.693 Y172.304 E.01627
G1 X182.243 Y171.967 F12000
;TYPE:Inner wall
G1 F3000
G1 X181.687 Y175.736 E.14189
G2 X181.555 Y176.724 I181.256 J24.776 E.03712
G2 X181.475 Y179.108 I19.178 J1.837 E.0889
G1 X182.12 Y180.612 E.06099
G3 X182.254 Y181.381 I-1.722 J.695 E.02928
G1 X182.268 Y181.839 E.01705
G2 X181.448 Y183.633 I42.561 J20.531 E.07348
G1 X181.104 Y184.603 E.03835
G1 X180.839 Y185.659 E.04054
G1 X180.468 Y187.652 E.0755
G3 X180.031 Y188.986 I-5.51 J-1.066 E.05242
G3 X178.891 Y189.908 I-1.806 J-1.065 E.05581
G3 X177.605 Y190.024 I-.895 J-2.76 E.04849
G3 X176.411 Y189.83 I1.457 J-12.748 E.04508
G2 X173.426 Y189.245 I-8.837 J37.179 E.11331
G2 X172.41 Y189.296 I-.362 J2.902 E.03809
G2 X171.524 Y189.858 I.867 J2.349 E.03937
G1 X170.789 Y190.651 E.04027
G1 X170.388 Y191.011 E.02006
G3 X168.66 Y191.549 I-1.764 J-2.625 E.06835
G3 X166.945 Y191.001 I-.103 J-2.64 E.06844
G1 X166.577 Y190.665 E.01857
G3 X165.846 Y189.716 I15.006 J-12.321 E.04462
G1 X165.478 Y189.315 E.02028
G1 X165.07 Y189.004 E.01909
G1 X164.634 Y188.816 E.0177
G2 X162.64 Y188.48 I-4.756 J22.103 E.07532
G2 X158.707 Y188.083 I-6.824 J47.929 E.1473
G2 X157.08 Y188.324 I-.244 J3.952 E.06171
G2 X154.304 Y189.315 I34.476 J101.015 E.1098
G3 X152.967 Y189.755 I-8.938 J-24.922 E.05243
G3 X151.629 Y189.781 I-.815 J-7.485 E.04991
G1 X151.209 Y190.933 E.04569
G3 X152.103 Y191.724 I-2.976 J4.263 E.04456
G3 X152.513 Y192.523 I-1.663 J1.359 E.0337
G3 X153.465 Y193.38 I-3.788 J5.163 E.04778
G1 X153.946 Y193.873 E.02565
G3 X148.678 Y194.193 I-7.631 J-82.079 E.19664
G3 X147.83 Y194.139 I-.093 J-5.199 E.03168
G3 X146.203 Y193.339 I1.031 J-4.151 E.06802
G1 X146.078 Y193.181 E.00749
G1 X146.137 Y192.968 E.00824
G3 X146.784 Y191.85 I15.475 J8.197 E.04811
G2 X147.33 Y189.766 I-3.578 J-2.051 E.08119
G2 X147.41 Y183.218 I-178.519 J-5.469 E.24393
G2 X147.055 Y180.944 I-8.19 J.114 E.08598
G1 X146.546 Y179.374 E.06148
G3 X146.619 Y172.466 I205.363 J-1.284 E.25734
G1 X145.788 Y172.189 E.03262
G2 X145.174 Y172.058 I-1.817 J7.02 E.02339
G1 X145.198 Y171.807 E.00941
G2 X147.194 Y171.806 I.983 J-32.224 E.07434
G1 X147.765 Y171.712 E.02156
G1 X148.097 Y171.198 E.02281
G2 X148.182 Y170.42 I-3.102 J-.733 E.02922
G2 X148.135 Y168.789 I-10.224 J-.52 E.06084
G1 X148.009 Y168.423 E.01443
G1 X147.768 Y168.104 E.01486
G1 X147.487 Y167.888 E.01323
G1 X147.945 Y167.438 E.02392
G1 X148.097 Y167.041 E.01585
G2 X148.214 Y165.899 I-8.753 J-1.471 E.04277
G3 X148.345 Y163.878 I30.208 J.951 E.07545
G3 X148.975 Y163.566 I1.924 J3.086 E.02621
G1 X150.403 Y162.968 E.05767
G2 X151.292 Y162.501 I-1.932 J-4.757 E.03747
G1 X151.635 Y162.159 E.01804
G1 X151.786 Y161.687 E.01845
G1 X151.684 Y161.25 E.01672
G2 X151.022 Y160.367 I-3.784 J2.147 E.04121
G3 X148.235 Y157.426 I902.284 J-857.983 E.1509
G3 X146.612 Y155.079 I5.792 J-5.739 E.10686
G1 X146.428 Y154.618 E.01849
G3 X146.105 Y152.372 I6.24 J-2.042 E.08492
G1 X146.182 Y151.916 E.01721
G3 X147.162 Y150.086 I10.432 J4.406 E.07744
G1 X147.455 Y149.699 E.01808
G1 X147.941 Y149.332 E.02271
G3 X149.711 Y148.675 I5.326 J11.637 E.07037
G1 X150.465 Y148.374 E.03024
G1 X151.055 Y148.057 E.02492
G1 X151.486 Y147.704 E.02078
G2 X151.936 Y146.819 I-1.111 J-1.121 E.03759
G2 X152.096 Y144.851 I-22.57 J-2.826 E.07357
G3 X152.296 Y141.106 I128.009 J4.985 E.13969
G3 X152.678 Y139.469 I5.862 J.503 E.06283
G1 X153.164 Y138.522 E.03966
G1 X153.805 Y137.715 E.03836
G1 X154.59 Y137.049 E.03833
G1 X155.519 Y136.535 E.03955
G3 X157.526 Y136.071 I2.368 J5.68 E.07709
G3 X161.314 Y136.042 I2.14 J31.995 E.1412
G3 X163.267 Y136.187 I-.943 J25.923 E.07293
G3 X164.45 Y136.8 I-2.067 J5.44 E.04976
G2 X165.519 Y137.063 I.993 J-1.734 E.04153
G2 X166.594 Y136.818 I-.054 J-2.708 E.04134
G1 X167.74 Y136.298 E.04689
G3 X169.132 Y135.943 I1.886 J4.477 E.05369
G3 X171.797 Y135.816 I2.287 J20.048 E.09944
G3 X175.375 Y136.359 I-.007 J12.126 E.13532
G1 X175.93 Y136.588 E.02234
G1 X176.61 Y137.005 E.02972
G1 X177.182 Y137.521 E.02868
G1 X177.659 Y138.146 E.02928
G1 X178.05 Y138.903 E.03175
G3 X178.245 Y139.853 I-3.706 J1.255 E.03622
G3 X178.386 Y143.305 I-89.932 J5.401 E.12866
G2 X178.497 Y145.884 I46.567 J-.726 E.09619
G2 X179.622 Y147.768 I3.297 J-.69 E.08324
G1 X180.071 Y148.041 E.01957
G2 X181.162 Y148.362 I1.787 J-4.054 E.04245
G3 X182.09 Y148.602 I-1.7 J8.476 E.03573
G1 X182.733 Y148.957 E.02737
G1 X183.357 Y149.473 E.03014
G1 X183.886 Y150.085 E.03013
G1 X184.235 Y150.69 E.02603
G1 X184.547 Y151.809 E.04326
G1 X184.601 Y153.055 E.04646
G1 X184.396 Y154.278 E.04619
G1 X183.942 Y155.355 E.04354
G3 X182.578 Y156.919 I-10.993 J-8.214 E.07738
G2 X179.148 Y160.45 I508.424 J497.26 E.18333
G1 X178.526 Y161.226 E.03708
G1 X179.241 Y161.834 E.03498
G2 X180.878 Y162.699 I14.255 J-24.987 E.06895
G3 X181.513 Y163.112 I-1.21 J2.557 E.02828
G3 X181.688 Y165.037 I-20.379 J2.82 E.07202
G2 X181.942 Y167.321 I25.089 J-1.642 E.08565
G1 X182.278 Y167.824 E.0225
G1 X182.769 Y168.012 E.0196
G1 X182.37 Y168.325 E.0189
G1 X182.097 Y168.753 E.0189
G2 X182.03 Y169.717 I2.943 J.687 E.03617
G2 X182.174 Y170.697 I5.014 J-.233 E.03695
G1 X182.354 Y171.106 E.01665
G1 X182.742 Y171.516 E.02103
G1 X182.979 Y171.569 E.00903
G1 X182.972 Y171.796 E.00844
G1 X182.251 Y171.912 E.02718
G1 X182.249 Y171.927 E.00059
G1 X181.833 Y171.624 F12000
G1 F3000
G1 X181.235 Y175.672 E.15242
G2 X181.101 Y176.675 I190.539 J26.023 E.03766
G2 X181.018 Y179.201 I20.25 J1.929 E.0942
