; generated by SuperSlicer 2.5.59 on 2023-02-01 at 01:48:43 UTC


;
;

;
;
; 

; external perimeters extrusion width = 0.40mm
; perimeters extrusion width = 0.46mm
; infill extrusion width = 0.64mm
; solid infill extrusion width = 0.56mm
; top infill extrusion width = 0.40mm
; support material extrusion width = 0.46mm
; first layer extrusion width = 0.50mm

; object:{"name":"hello-kitty-black","id":"hello-kitty-black.stl id:0 copy 0","object_center":[165.000000,165.000000,0.000000],"boundingbox_center":[165.000000,165.000000,2.000000],"boundingbox_size":[119.924202,89.099228,4.000000]}
; plater:{"center":[165.000000,165.000000,0.000000],"boundingbox_center":[165.000000,165.000000,2.000000],"boundingbox_size":[119.924202,89.099228,4.000000]}

M73 P0 R58


; Pre-Processed for Cancel-Object support by preprocess_cancellation v0.2.0
; 1 known objects
EXCLUDE_OBJECT_DEFINE NAME=hello_kitty_black_stl_id_0_copy_0 CENTER=173.129,167.541 POLYGON=[[105.245,120.65],[105.245,209.35],[224.757,209.35],[224.757,120.65]]
;TYPE:Custom
; custom gcode: start_gcode
START_PRINT T_BED=60 T_EXTRUDER=200
; custom gcode end: start_gcode
M107
G21 ; set units to millimeters
G90 ; use absolute coordinates
M82 ; use absolute distances for extrusion
G92 E0
; custom gcode: start_filament_gcode
; Filament gcode

    PRESSURE_ADVANCE_SELECT FILAMENT=PLA
; custom gcode end: start_filament_gcode
;_TOOLCHANGE 0
M104 S200 ; set temperature
M109 S200 ; set temperature and wait for it to be reached
M190 S60 ; set bed temperature and wait for it to be reached
;LAYER_CHANGE
;Z:0.2
;HEIGHT:0.2
G1 Z0.2 F9000
M73 P0 R58
G1 E-0.8 F3000
M204 S1000
G1 X111.767 Y127.026 F9000
G1 E0 F1800
;TYPE:Skirt
;WIDTH:0.52
G1 X111.176 Y127.827 E0.03949
G1 X110.794 Y128.597 E0.07361
G1 X101.668 Y154.057 E1.14651
G1 X101.48 Y154.823 E1.17779
G1 X101.433 Y155.751 E1.21463
G1 X101.674 Y157.086 E1.26847
G1 X115.687 Y200.93 E3.0944
G1 X116.497 Y203.194 E3.18976
G1 X117.784 Y205.72 E3.30224
G1 X118.384 Y206.535 E3.34239
G1 X119.397 Y207.566 E3.39973
G1 X120.69 Y208.487 E3.46272
G1 X121.593 Y208.944 E3.50286
G1 X122.963 Y209.407 E3.5602
G1 X124.026 Y209.597 E3.60306
G1 X173.209 Y213.165 E5.55923
G1 X203.374 Y211.83 E6.75702
G1 X204.386 Y211.733 E6.79736
G1 X205.382 Y211.525 E6.83772
G1 X206.908 Y210.97 E6.90216
G1 X208.149 Y210.269 E6.95869
G1 X209.414 Y209.249 E7.02313
G1 X210.36 Y208.184 E7.07966
G1 X211.095 Y207.003 E7.13482
G1 X212.117 Y204.603 E7.2383
G1 X228.266 Y161.574 E9.06148
G1 X228.468 Y160.85 E9.09131
G1 X228.567 Y159.667 E9.13839
G1 X228.439 Y158.698 E9.1772
G1 X222.301 Y133.062 E10.22289
G1 X221.94 Y132.024 E10.26649
G1 X221.392 Y131.155 E10.30723
G1 X220.787 Y130.518 E10.34209
G1 X219.948 Y129.925 E10.38284
G1 X219.108 Y129.569 E10.41904
G1 X187.441 Y119.97 E11.7317
G1 X181.198 Y118.531 E11.98584
G1 X175.167 Y117.545 E12.22827
G1 X169.069 Y116.979 E12.47119
G1 X164.412 Y116.868 E12.656
G1 X162.737 Y116.837 E12.72246
G1 X156.14 Y117.066 E12.98432
G1 X148.934 Y117.989 E13.27251
G1 X114.363 Y125.502 E14.67593
M73 P0 R58
G1 X113.409 Y125.834 E14.716
G1 X112.64 Y126.272 E14.75111
G1 X111.767 Y127.026 E14.79685
G1 X112.115 Y127.353 F9000
G1 F1800
G1 X111.576 Y128.087 E14.83296
G1 X111.243 Y128.758 E14.8627
G1 X102.117 Y154.218 E15.9356
G1 X101.95 Y154.902 E15.9635
G1 X101.91 Y155.744 E15.99696
G1 X102.129 Y156.941 E16.04523
G1 X116.141 Y200.785 E17.87116
G1 X116.927 Y202.988 E17.96394
G1 X118.193 Y205.474 E18.07459
G1 X118.761 Y206.243 E18.11252
G1 X119.696 Y207.194 E18.16545
G1 X120.944 Y208.083 E18.22622
G1 X121.798 Y208.513 E18.26414
G1 X123.062 Y208.94 E18.31707
G1 X124.061 Y209.121 E18.35735
G1 X173.209 Y212.688 E20.31215
G1 X203.339 Y211.354 E21.50854
G1 X204.299 Y211.264 E21.54681
G1 X205.244 Y211.068 E21.58508
G1 X206.721 Y210.531 E21.64744
G1 X207.871 Y209.882 E21.69981
G1 X209.094 Y208.895 E21.76217
G1 X209.971 Y207.908 E21.81454
G1 X210.656 Y206.816 E21.86569
G1 X211.67 Y204.436 E21.96832
G1 X227.819 Y161.407 E23.7915
G1 X228.004 Y160.74 E23.81896
G1 X228.09 Y159.671 E23.86147
G1 X227.975 Y158.809 E23.896
G1 X221.837 Y133.173 E24.9417
G1 X221.513 Y132.237 E24.98098
G1 X221.009 Y131.441 E25.01837
G1 X220.482 Y130.885 E25.04875
G1 X219.713 Y130.34 E25.08614
G1 X218.95 Y130.019 E25.11898
G1 X187.333 Y120.435 E26.42955
G1 X181.091 Y118.996 E26.68368
G1 X175.09 Y118.016 E26.92487
G1 X169.026 Y117.454 E27.16647
G1 X164.401 Y117.345 E27.34998
G1 X162.753 Y117.314 E27.41536
G1 X156.156 Y117.542 E27.67722
G1 X149.035 Y118.455 E27.96202
G1 X114.464 Y125.968 E29.36545
G1 X113.594 Y126.274 E29.40205
G1 X112.923 Y126.656 E29.43265
G1 X112.115 Y127.353 E29.47501
G92 E0
G1 E-0.8 F3000
; printing object hello-kitty-black.stl id:0 copy 0
EXCLUDE_OBJECT_START NAME=hello_kitty_black_stl_id_0_copy_0
; acceleration to travel
M204 S3000
G1 X115.69 Y149.323 F9000
; decel to extrusion
M204 S1000
G1 X116.882 Y156.647
; end travel
G1 E0 F1800
;TYPE:Internal perimeter
;WIDTH:0.5
G1 X117.272 Y152.473 E0.1593
G1 X117.808 Y149.687 E0.26716
G1 X118.955 Y145.807 E0.42091
G1 X118.889 Y145.78 E0.42361
G1 X120.383 Y141.821 E0.58443
G1 X121.541 Y139.325 E0.68902
G1 X123.521 Y135.767 E0.84378
G1 X123.38 Y135.69 E0.84988
G1 X126.605 Y132.56 E1.02069
G1 X129.053 Y130.658 E1.13853
G1 X131.717 Y129.021 E1.25734
G1 X135.516 Y127.035 E1.42029
G1 X139.472 Y125.424 E1.58261
G1 X143.578 Y124.193 E1.74553
G1 X149.925 Y122.768 E1.99276
G1 X156.362 Y121.941 E2.23942
G1 X163.04 Y121.719 E2.49338
G1 X168.665 Y121.842 E2.7072
G1 X174.426 Y122.369 E2.92707
G1 X180.139 Y123.295 E3.14703
G1 X186.284 Y124.711 E3.3867
G1 X192.219 Y126.765 E3.62539
G1 X197.913 Y129.442 E3.86452
G1 X200.067 Y130.698 E3.95929
G1 X202.048 Y132.184 E4.0534
G1 X203.845 Y133.887 E4.14752
G1 X205.434 Y135.787 E4.24163
G1 X207.43 Y138.827 E4.37987
G1 X211.555 Y136.928 E4.55245
G1 X214.596 Y135.568 E4.67908
G1 X214.751 Y135.886 E4.69252
G1 X211.859 Y137.419 E4.81693
G1 X207.548 Y139.181 E4.99393
G1 X209.327 Y143.162 E5.15964
G1 X210.389 Y145.985 E5.27427
G1 X211.597 Y149.895 E5.4298
G1 X211.633 Y149.891 E5.43119
G1 X212.503 Y154.044 E5.59247
G1 X212.873 Y156.683 E5.69374
G1 X213.151 Y160.558 E5.84138
G1 X213.299 Y160.557 E5.84699
G1 X212.939 Y166.089 E6.05768
G1 X212.333 Y170.19 E6.21523
G1 X211.285 Y174.706 E6.39142
G1 X212.367 Y177.004 E6.48798
G1 X213.008 Y178.927 E6.56501
G1 X213.416 Y180.912 E6.64203
G1 X213.586 Y182.932 E6.71906
G1 X213.514 Y185.015 E6.79826
G1 X213.433 Y186.305 E6.84739
G1 X213.217 Y187.525 E6.89448
G1 X212.866 Y188.713 E6.94158
G1 X212.383 Y189.854 E6.98867
G1 X211.806 Y190.878 E7.03334
G1 X211.529 Y191.19 E7.0492
G1 X211.17 Y191.52 E7.06773
G1 X210.779 Y191.811 E7.08626
G1 X210.36 Y192.061 E7.10479
G1 X209.918 Y192.267 E7.12332
G1 X208.486 Y192.763 E7.18093
G1 X208.704 Y196.104 E7.30817
G1 X208.583 Y198.41 E7.39596
G1 X208.194 Y200.687 E7.48375
G1 X207.54 Y202.903 E7.57154
G1 X206.656 Y204.971 E7.65703
G1 X206.416 Y205.31 E7.67281
G1 X206.097 Y205.669 E7.69107
G1 X205.74 Y205.991 E7.70933
G1 X205.35 Y206.272 E7.72759
G1 X204.932 Y206.508 E7.74585
G1 X204.49 Y206.697 E7.76412
G1 X204.03 Y206.836 E7.78238
G1 X203.558 Y206.923 E7.80064
G1 X203.079 Y206.959 E7.8189
G1 X202.575 Y206.94 E7.83804
G1 X200.409 Y206.701 E7.92086
G1 X198.288 Y206.261 E8.0032
G1 X196.218 Y205.623 E8.08553
G1 X194.168 Y204.773 E8.16989
G1 X191.452 Y203.613 E8.28212
G1 X188.827 Y202.322 E8.39331
G1 X185.285 Y200.334 E8.54768
G1 X183.437 Y202.774 E8.664
G1 X182.134 Y204.137 E8.73567
G1 X180.683 Y205.341 E8.80734
G1 X179.104 Y206.371 E8.879
G1 X177.418 Y207.213 E8.95061
G1 X174.974 Y208.093 E9.04935
G1 X174.419 Y208.221 E9.07099
G1 X173.849 Y208.285 E9.0928
G1 X173.275 Y208.285 E9.11461
G1 X172.705 Y208.221 E9.13642
G1 X172.145 Y208.092 E9.15823
G1 X171.715 Y207.94 E9.17559
G1 X170.103 Y206.752 E9.25169
G1 X168.539 Y205.316 E9.33239
G1 X167.139 Y203.72 E9.41309
G1 X165.917 Y201.983 E9.49379
G1 X164.519 Y199.455 E9.60357
G1 X158.097 Y199.086 E9.84806
G1 X152.456 Y198.345 E10.0643
G1 X146.298 Y197.074 E10.30326
G1 X142.966 Y199.449 E10.4588
G1 X139.947 Y201.174 E10.59095
G1 X136.769 Y202.586 E10.72309
G1 X133.466 Y203.672 E10.85524
G1 X130.051 Y204.425 E10.98817
G1 X128.167 Y204.708 E11.06057
G1 X126.282 Y204.809 E11.1323
G1 X124.442 Y204.732 E11.20231
G1 X124.042 Y204.647 E11.21786
G1 X123.624 Y204.506 E11.23462
G1 X123.225 Y204.317 E11.25139
G1 X122.852 Y204.083 E11.26815
G1 X122.508 Y203.806 E11.28491
G1 X122.199 Y203.492 E11.30167
G1 X121.929 Y203.143 E11.31843
G1 X121.695 Y202.754 E11.33568
G1 X120.928 Y201.149 E11.40328
G1 X120.347 Y199.478 E11.47054
G1 X119.954 Y197.752 E11.53779
G1 X119.755 Y195.994 E11.60505
G1 X119.751 Y194.197 E11.67336
G1 X120.038 Y189.82 E11.84007
G1 X120.7 Y185.496 E12.00631
G1 X121.847 Y180.788 E12.19048
G1 X119.445 Y175.079 E12.42588
G1 X117.889 Y169.595 E12.64251
G1 X117.01 Y163.964 E12.85914
G1 X116.782 Y157.08 E13.12089
G1 X112.394 Y156.656 E13.28843
G1 X109.995 Y156.264 E13.38082
G1 X110.039 Y155.914 E13.39423
G1 X112.393 Y156.128 E13.48405
G1 X116.882 Y156.647 E13.65578
G92 E0
G1 E-0.8 F3000
; acceleration to travel
M204 S3000
G1 X121.474 Y140.775 F9000
; decel to extrusion
M204 S1000
G1 X123.004 Y135.484
; end travel
G1 E0 F1800
G1 X119.87 Y133.77 E0.13578
G1 X117.493 Y132.218 E0.24367
G1 X115.315 Y130.54 E0.34816
G1 X115.328 Y130.415 E0.35291
G1 X115.344 Y130.368 E0.3548
G1 X115.378 Y130.316 E0.35717
G1 X115.428 Y130.279 E0.35954
G1 X115.474 Y130.26 E0.36143
G1 X115.535 Y130.25 E0.3638
G1 X115.634 Y130.27 E0.36761
G1 X117.916 Y131.896 E0.47414
G1 X120.339 Y133.478 E0.58411
G1 X123.182 Y135.173 E0.70989
G1 X123.004 Y135.484 E0.72353
G92 E0
G1 E-0.8 F3000
; acceleration to travel
M204 S3000
G1 X118.104 Y150.975 F9000
; decel to extrusion
M204 S1000
G1 X116.47 Y156.139
; end travel
G1 E0 F1800
G1 X116.819 Y152.409 E0.14239
G1 X117.364 Y149.578 E0.25193
G1 X118.399 Y146.075 E0.39078
G1 X115.767 Y145.008 E0.49873
G1 X113.934 Y144.047 E0.57737
G1 X112.225 Y142.924 E0.65509
G1 X112.135 Y142.842 E0.65973
G1 X112.046 Y142.688 E0.6665
G1 X112.035 Y142.588 E0.67032
G1 X112.062 Y142.437 E0.67616
G1 X112.136 Y142.316 E0.68152
G1 X112.245 Y142.228 E0.68687
G1 X112.405 Y142.179 E0.69321
G1 X112.551 Y142.201 E0.69885
G1 X114.188 Y143.148 E0.77069
G1 X116.039 Y144.029 E0.84861
G1 X118.681 Y145.036 E0.95608
G1 X119.961 Y141.644 E1.09386
G1 X121.133 Y139.117 E1.19973
G1 X122.898 Y135.947 E1.33763
G1 X119.635 Y134.162 E1.47897
G1 X117.228 Y132.591 E1.58822
G1 X115 Y130.873 E1.69515
G1 X114.91 Y130.708 E1.70231
G1 X114.858 Y130.515 E1.70991
G1 X114.878 Y130.316 E1.7175
G1 X114.931 Y130.165 E1.72356
G1 X115.04 Y129.998 E1.73116
G1 X115.2 Y129.879 E1.73875
G1 X115.347 Y129.817 E1.74481
G1 X115.545 Y129.786 E1.75241
G1 X115.765 Y129.83 E1.76093
G1 X115.817 Y129.851 E1.76306
G1 X115.886 Y129.888 E1.76608
G1 X118.174 Y131.519 E1.87284
G1 X120.582 Y133.09 E1.98211
G1 X123.568 Y134.871 E2.11426
G1 X126.305 Y132.215 E2.2592
G1 X128.793 Y130.281 E2.37895
G1 X131.491 Y128.623 E2.49932
G1 X135.324 Y126.62 E2.66369
G1 X139.32 Y124.993 E2.82767
G1 X143.462 Y123.751 E2.99203
G1 X149.846 Y122.317 E3.24068
G1 X156.325 Y121.485 E3.48898
G1 X163.038 Y121.261 E3.74423
G1 X168.691 Y121.385 E3.95913
G1 X174.484 Y121.915 E4.18021
G1 X180.227 Y122.846 E4.40135
G1 X186.41 Y124.271 E4.64251
G1 X192.391 Y126.341 E4.88306
G1 X198.125 Y129.037 E5.12388
G1 X200.32 Y130.317 E5.22042
G1 X202.343 Y131.834 E5.31654
G1 X204.179 Y133.574 E5.41266
G1 X205.801 Y135.514 E5.50879
G1 X207.596 Y138.247 E5.63308
G1 X211.366 Y136.512 E5.7908
G1 X214.516 Y135.103 E5.92194
G1 X217.577 Y133.775 E6.04878
G1 X217.691 Y133.768 E6.05311
G1 X217.805 Y133.802 E6.05762
G1 X217.895 Y133.87 E6.0619
G1 X217.964 Y133.972 E6.0666
G1 X217.983 Y134.036 E6.06914
G1 X217.98 Y134.165 E6.07403
G1 X217.934 Y134.28 E6.07875
G1 X217.892 Y134.334 E6.08133
G1 X217.781 Y134.422 E6.08671
G1 X214.999 Y136.272 E6.21367
G1 X212.053 Y137.833 E6.3404
G1 X208.158 Y139.425 E6.50033
G1 X209.75 Y142.988 E6.64862
G1 X210.822 Y145.837 E6.76431
G1 X211.923 Y149.401 E6.9061
G1 X215.414 Y149.039 E7.03951
G1 X218.248 Y148.644 E7.14827
G1 X220.974 Y148.165 E7.25346
G1 X221.109 Y148.176 E7.25861
G1 X221.198 Y148.233 E7.26262
G1 X221.265 Y148.324 E7.2669
G1 X221.272 Y148.473 E7.27257
G1 X221.203 Y148.576 E7.27726
G1 X221.147 Y148.615 E7.27985
G1 X218.561 Y149.298 E7.38153
G1 X215.829 Y149.882 E7.48768
G1 X212.222 Y150.475 E7.62661
G1 X212.954 Y153.965 E7.76214
G1 X213.328 Y156.635 E7.86459
G1 X213.577 Y160.1 E7.99664
G1 X217.38 Y160.099 E8.14116
G1 X220.453 Y159.865 E8.25832
M73 P1 R57
G1 X223.567 Y159.382 E8.37807
G1 X223.723 Y159.38 E8.38402
G1 X223.836 Y159.406 E8.38841
G1 X223.933 Y159.456 E8.39257
G1 X224.063 Y159.586 E8.39953
G1 X224.133 Y159.743 E8.40606
G1 X224.143 Y159.92 E8.41282
G1 X224.119 Y160.021 E8.41676
G1 X224.055 Y160.146 E8.42209
G1 X224.037 Y160.169 E8.42321
G1 X224.003 Y160.203 E8.42503
G1 X223.9 Y160.274 E8.4298
G1 X223.76 Y160.327 E8.43546
G1 X220.633 Y160.852 E8.55598
G1 X217.569 Y161.13 E8.67293
G1 X213.716 Y161.187 E8.81936
G1 X213.394 Y166.137 E9.0079
G1 X212.783 Y170.275 E9.16687
G1 X211.766 Y174.655 E9.33774
G1 X212.793 Y176.834 E9.4293
G1 X213.45 Y178.809 E9.50838
G1 X213.869 Y180.847 E9.58747
G1 X214.044 Y182.92 E9.66656
G1 X213.971 Y185.037 E9.74704
G1 X213.888 Y186.359 E9.79739
M73 P1 R57
G1 X213.663 Y187.63 E9.84644
G1 X213.297 Y188.867 E9.8955
G1 X212.794 Y190.056 E9.94455
G1 X212.18 Y191.145 E9.99205
G1 X211.855 Y191.511 E10.01066
G1 X211.462 Y191.872 E10.03097
G1 X211.033 Y192.192 E10.05128
G1 X210.574 Y192.466 E10.07159
G1 X210.09 Y192.691 E10.09189
G1 X208.965 Y193.081 E10.13715
G1 X209.161 Y196.101 E10.25217
G1 X209.038 Y198.461 E10.342
G1 X208.64 Y200.791 E10.43183
G1 X207.971 Y203.058 E10.52166
G1 X207.058 Y205.196 E10.61002
G1 X206.775 Y205.595 E10.62861
G1 X206.422 Y205.991 E10.64879
G1 X206.028 Y206.347 E10.66896
G1 X205.597 Y206.657 E10.68914
G1 X205.135 Y206.918 E10.70932
G1 X204.647 Y207.127 E10.72949
G1 X204.138 Y207.28 E10.74967
G1 X203.617 Y207.377 E10.76984
G1 X203.087 Y207.416 E10.79002
G1 X202.542 Y207.397 E10.81075
G1 X200.338 Y207.153 E10.89504
G1 X198.174 Y206.704 E10.97901
G1 X196.063 Y206.053 E11.06298
G1 X193.991 Y205.194 E11.14825
G1 X191.261 Y204.029 E11.26104
G1 X188.614 Y202.726 E11.37317
G1 X185.409 Y200.927 E11.51287
G1 X183.786 Y203.071 E11.61504
G1 X182.446 Y204.472 E11.68871
G1 X180.955 Y205.71 E11.76237
G1 X179.331 Y206.768 E11.83604
G1 X177.598 Y207.634 E11.90967
G1 X175.103 Y208.533 E12.01046
G1 X174.496 Y208.672 E12.03413
G1 X173.875 Y208.743 E12.05791
G1 X173.249 Y208.743 E12.08168
G1 X172.627 Y208.672 E12.10546
G1 X172.018 Y208.532 E12.12923
G1 X171.498 Y208.349 E12.15016
G1 X169.812 Y207.105 E12.2298
G1 X168.212 Y205.636 E12.31237
G1 X166.779 Y204.003 E12.39493
G1 X165.529 Y202.226 E12.4775
G1 X164.241 Y199.897 E12.57864
G1 X158.054 Y199.541 E12.81418
G1 X152.38 Y198.796 E13.03169
G1 X146.401 Y197.562 E13.2637
G1 X143.213 Y199.835 E13.41253
G1 X140.153 Y201.582 E13.54643
G1 X136.934 Y203.013 E13.68033
G1 X133.587 Y204.113 E13.81423
G1 X130.134 Y204.875 E13.94862
G1 X128.213 Y205.163 E14.02244
G1 X126.285 Y205.267 E14.09583
G1 X124.385 Y205.187 E14.16812
G1 X123.921 Y205.089 E14.18615
G1 X123.452 Y204.93 E14.20494
G1 X123.005 Y204.718 E14.22374
G1 X122.586 Y204.456 E14.24254
G1 X122.201 Y204.146 E14.26134
G1 X121.854 Y203.793 E14.28014
G1 X121.551 Y203.402 E14.29894
G1 X121.292 Y202.971 E14.31805
G1 X120.505 Y201.323 E14.38745
G1 X119.907 Y199.604 E14.45663
G1 X119.503 Y197.829 E14.52582
G1 X119.298 Y196.02 E14.595
G1 X119.294 Y194.182 E14.66486
G1 X119.583 Y189.77 E14.83291
G1 X120.252 Y185.407 E15.00066
G1 X121.367 Y180.826 E15.17986
G1 X119.013 Y175.23 E15.41059
G1 X117.442 Y169.693 E15.62933
G1 X116.554 Y164.007 E15.84808
G1 X116.338 Y157.497 E16.09563
G1 X112.335 Y157.109 E16.24848
G1 X109.092 Y156.58 E16.3734
G1 X105.999 Y155.866 E16.49404
G1 X105.921 Y155.779 E16.49846
G1 X105.877 Y155.697 E16.50201
G1 X105.857 Y155.618 E16.50512
G1 X105.862 Y155.473 E16.51062
G1 X105.915 Y155.345 E16.5159
G1 X106.017 Y155.235 E16.52158
G1 X106.121 Y155.177 E16.5261
G1 X109.231 Y155.382 E16.64456
G1 X112.44 Y155.673 E16.76702
