; generated by SuperSlicer 2.5.59 on 2023-01-31 at 22:03:02 UTC


;
;

;
;
; 

; external perimeters extrusion width = 0.40mm
; perimeters extrusion width = 0.46mm
; infill extrusion width = 0.64mm
; solid infill extrusion width = 0.56mm
; top infill extrusion width = 0.40mm
; support material extrusion width = 0.46mm
; first layer extrusion width = 0.50mm

; external perimeters extrusion width = 0.40mm
; perimeters extrusion width = 0.46mm
; infill extrusion width = 0.64mm
; solid infill extrusion width = 0.56mm
; top infill extrusion width = 0.40mm
; support material extrusion width = 0.46mm
; first layer extrusion width = 0.50mm

; object:{"name":"hello-kitty-red","id":"hello-kitty-red.stl id:0 copy 0","object_center":[159.048534,179.158108,0.000000],"boundingbox_center":[159.048534,179.158108,0.950000],"boundingbox_size":[48.427671,36.108492,1.900000]}
; object:{"name":"hello-kitty-red","id":"hello-kitty-red.stl id:1 copy 0","object_center":[170.951623,150.841893,0.000000],"boundingbox_center":[170.951623,150.841893,0.950000],"boundingbox_size":[48.427671,36.108492,1.900000]}
; plater:{"center":[165.000078,165.000000,0.000000],"boundingbox_center":[165.000078,165.000000,0.950000],"boundingbox_size":[60.330760,64.424707,1.900000]}

M73 P0 R12


; Pre-Processed for Cancel-Object support by preprocess_cancellation v0.2.0
; 2 known objects
EXCLUDE_OBJECT_DEFINE NAME=hello_kitty_red_stl_id_0_copy_0 CENTER=158.307,176.474 POLYGON=[[135.035,161.304],[135.035,197.012],[183.062,197.012],[183.062,161.304]]
EXCLUDE_OBJECT_DEFINE NAME=hello_kitty_red_stl_id_1_copy_0 CENTER=170.209,148.156 POLYGON=[[146.938,132.988],[146.938,168.696],[194.965,168.696],[194.965,132.988]]
;TYPE:Custom
; custom gcode: start_gcode
START_PRINT T_BED=60 T_EXTRUDER=200
; custom gcode end: start_gcode
M107
G21 ; set units to millimeters
G90 ; use absolute coordinates
M82 ; use absolute distances for extrusion
G92 E0
; custom gcode: start_filament_gcode
; Filament gcode

    PRESSURE_ADVANCE_SELECT FILAMENT=PLA
; custom gcode end: start_filament_gcode
;_TOOLCHANGE 0
M104 S200 ; set temperature
M109 S200 ; set temperature and wait for it to be reached
M190 S60 ; set bed temperature and wait for it to be reached
;LAYER_CHANGE
;Z:0.2
;HEIGHT:0.2
G1 Z0.2 F9000
M73 P0 R12
G1 E-0.8 F3000
M204 S1000
G1 X146.908 Y133.075 F9000
M73 P0 R12
G1 E0 F1800
;TYPE:Skirt
;WIDTH:0.52
G1 X146.37 Y133.669 E0.0305
G1 X145.725 Y134.532 E0.07153
G1 X144.923 Y135.851 E0.13034
G1 X144.239 Y137.329 E0.19236
G1 X132.194 Y166.033 E1.37781
G1 X131.26 Y169.152 E1.50181
G1 X130.886 Y171.269 E1.58366
G1 X130.755 Y172.958 E1.64819
G1 X130.826 Y175.484 E1.74442
G1 X131.271 Y178.72 E1.86884
G1 X131.744 Y180.245 E1.92962
G1 X132.219 Y181.258 E1.97225
G1 X132.807 Y182.211 E2.01488
G1 X133.932 Y183.548 E2.08143
G1 X135.111 Y184.423 E2.13734
G1 X167.927 Y199.655 E3.5151
G1 X169.596 Y200.36 E3.5841
G1 X171.574 Y200.991 E3.66319
G1 X172.776 Y201.24 E3.70991
G1 X174.029 Y201.305 E3.75771
G1 X175.688 Y201.091 E3.82142
G1 X177.324 Y200.352 E3.88978
G1 X179.155 Y198.961 E3.97734
G1 X180.842 Y197.374 E4.06554
G1 X182.354 Y195.62 E4.15374
G1 X183.673 Y193.716 E4.24194
G1 X184.785 Y191.685 E4.33013
G1 X185.54 Y189.928 E4.40294
G1 X197.443 Y161.612 E5.5727
G1 X198.203 Y159.491 E5.65849
G1 X198.883 Y156.697 E5.76801
G1 X199.154 Y154.701 E5.8447
G1 X199.256 Y152.259 E5.93781
G1 X199.053 Y149.39 E6.04733
G1 X198.553 Y146.744 E6.14987
G1 X198.101 Y145.504 E6.20013
G1 X197.697 Y144.746 E6.23286
G1 X196.652 Y143.384 E6.29822
G1 X195.717 Y142.553 E6.34585
G1 X194.869 Y142.031 E6.38379
G1 X193.545 Y141.42 E6.43932
G1 X161.912 Y129.664 E7.7245
M73 P1 R12
G1 X160.088 Y129.088 E7.79732
G1 X157.843 Y128.722 E7.88396
G1 X156.287 Y128.695 E7.94321
G1 X154.269 Y128.926 E8.02057
G1 X152.759 Y129.303 E8.07982
G1 X151.742 Y129.664 E8.12093
G1 X150.334 Y130.323 E8.18013
G1 X148.937 Y131.219 E8.24333
G1 X147.407 Y132.524 E8.31993
G1 X146.908 Y133.075 E8.34825
G1 X147.26 Y133.395 F9000
G1 F1800
G1 X146.752 Y133.954 E8.377
G1 X146.108 Y134.817 E8.41803
G1 X145.334 Y136.092 E8.47482
G1 X144.678 Y137.514 E8.53445
G1 X132.65 Y166.174 E9.71811
G1 X131.728 Y169.24 E9.84005
G1 X131.362 Y171.306 E9.91994
G1 X131.23 Y172.995 E9.98447
G1 X131.299 Y175.426 E10.07708
G1 X131.584 Y177.762 E10.1667
G1 X131.842 Y179.043 E10.21646
G1 X132.181 Y180.053 E10.25702
G1 X132.631 Y181.018 E10.29758
G1 X133.574 Y182.439 E10.36252
G1 X134.279 Y183.221 E10.40262
G1 X135.324 Y183.996 E10.45217
G1 X136.45 Y184.557 E10.50007
G1 X168.127 Y199.222 E11.82943
G1 X169.781 Y199.92 E11.89778
G1 X171.715 Y200.535 E11.97508
G1 X172.825 Y200.765 E12.01826
G1 X174.029 Y200.828 E12.06417
G1 X175.59 Y200.624 E12.12411
G1 X177.039 Y199.969 E12.18468
G1 X178.832 Y198.61 E12.27034
G1 X180.211 Y197.338 E12.3418
G1 X181.964 Y195.344 E12.44292
G1 X183.257 Y193.483 E12.52921
M73 P2 R12
G1 X184.174 Y191.846 E12.60067
G1 X197.003 Y161.427 E13.85791
G1 X197.754 Y159.332 E13.94268
G1 X198.339 Y157.008 E14.03392
G1 X198.714 Y154.256 E14.1397
G1 X198.772 Y151.861 E14.23094
G1 X198.63 Y149.852 E14.30763
G1 X198.09 Y146.857 E14.42352
G1 X197.497 Y145.359 E14.48489
G1 X196.841 Y144.336 E14.53115
G1 X196.317 Y143.723 E14.56188
G1 X195.421 Y142.927 E14.60751
G1 X194.669 Y142.464 E14.64114
G1 X193.345 Y141.853 E14.69667
G1 X161.752 Y130.114 E15.98019
M73 P2 R12
G1 X159.98 Y129.553 E16.05095
G1 X157.788 Y129.196 E16.13552
G1 X156.287 Y129.172 E16.19271
G1 X154.376 Y129.39 E16.26595
G1 X152.919 Y129.752 E16.32313
G1 X151.902 Y130.114 E16.36424
G1 X150.544 Y130.751 E16.42137
G1 X149.204 Y131.614 E16.48204
G1 X147.755 Y132.85 E16.55459
G1 X147.26 Y133.395 E16.58263
G1 X147.6 Y133.713 F9000
G1 F1800
G1 X147.366 Y133.962 E16.59562
G1 X146.49 Y135.103 E16.65039
G1 X145.746 Y136.333 E16.70515
G1 X133.106 Y166.315 E17.94424
G1 X132.197 Y169.329 E18.06413
G1 X131.837 Y171.343 E18.14204
G1 X131.706 Y173.032 E18.20657
G1 X131.773 Y175.368 E18.29558
G1 X132.058 Y177.704 E18.3852
G1 X132.298 Y178.902 E18.43171
G1 X132.876 Y180.448 E18.49458
G1 X133.367 Y181.331 E18.53307
G1 X133.956 Y182.153 E18.57156
G1 X134.626 Y182.893 E18.60958
G1 X135.537 Y183.569 E18.65277
G1 X136.662 Y184.13 E18.70067
G1 X168.327 Y198.789 E20.02951
G1 X169.965 Y199.48 E20.09721
G1 X171.855 Y200.08 E20.17272
G1 X172.875 Y200.291 E20.21237
G1 X174.029 Y200.351 E20.25638
G1 X175.491 Y200.157 E20.31255
G1 X176.755 Y199.587 E20.36534
G1 X178.508 Y198.259 E20.4491
G1 X180.125 Y196.744 E20.53348
G1 X181.364 Y195.335 E20.60494
G1 X182.659 Y193.537 E20.68933
G1 X183.758 Y191.613 E20.77371
G1 X196.563 Y161.242 E22.02891
G1 X197.304 Y159.172 E22.11265
G1 X197.875 Y156.896 E22.20202
G1 X198.237 Y154.24 E22.30407
G1 X198.302 Y152.228 E22.38076
G1 X198.154 Y149.886 E22.47013
G1 X197.626 Y146.971 E22.58295
G1 X197.246 Y145.928 E22.62522
G1 X196.894 Y145.26 E22.65395
G1 X195.981 Y144.062 E22.71133
M73 P3 R12
G1 X195.124 Y143.301 E22.75497
G1 X194.469 Y142.897 E22.78428
G1 X193.145 Y142.286 E22.8398
G1 X161.592 Y130.563 E24.12167
G1 X159.873 Y130.018 E24.19036
G1 X157.734 Y129.67 E24.27287
G1 X156.287 Y129.649 E24.32799
G1 X154.484 Y129.855 E24.3971
G1 X153.079 Y130.202 E24.45222
G1 X152.062 Y130.563 E24.49333
G1 X150.754 Y131.18 E24.5484
G1 X149.472 Y132.009 E24.60654
G1 X148.103 Y133.176 E24.67504
G1 X147.6 Y133.713 E24.70308
G92 E0
G1 E-0.8 F3000
; printing object hello-kitty-red.stl id:0 copy 0
EXCLUDE_OBJECT_START NAME=hello_kitty_red_stl_id_0_copy_0
; acceleration to travel
M204 S3000
G1 X164.417 Y164.566 F9000
; decel to extrusion
M204 S1000
G1 X170.022 Y174.851
; end travel
G1 E0 F1800
;TYPE:Internal perimeter
;WIDTH:0.5
G1 X170.328 Y174.703 E0.01239
G1 X171.588 Y174.259 E0.06114
G1 X172.889 Y173.955 E0.10988
G1 X174.216 Y173.797 E0.15863
G1 X175.552 Y173.786 E0.20738
G1 X175.972 Y173.829 E0.22278
G1 X176.881 Y173.922 E0.25612
G1 X178.187 Y174.203 E0.30487
G1 X179.454 Y174.626 E0.35362
G1 X180.593 Y175.152 E0.39939
G1 X180.741 Y175.27 E0.40627
G1 X180.933 Y175.46 E0.41614
G1 X181.103 Y175.67 E0.426
G1 X181.249 Y175.898 E0.43586
G1 X181.369 Y176.14 E0.44572
G1 X181.461 Y176.394 E0.45559
G1 X181.532 Y176.684 E0.46646
G1 X181.863 Y178.572 E0.53642
G1 X181.997 Y180.461 E0.60552
G1 X181.935 Y182.354 E0.67461
G1 X181.68 Y184.23 E0.74371
G1 X181.233 Y186.071 E0.81281
G1 X180.59 Y187.878 E0.8828
G1 X179.888 Y189.513 E0.94773
G1 X179.03 Y191.043 E1.01172
G1 X178.017 Y192.475 E1.07571
G1 X176.859 Y193.792 E1.13971
G1 X175.569 Y194.981 E1.2037
G1 X174.331 Y195.902 E1.26001
G1 X174.255 Y195.918 E1.26284
G1 X173.968 Y195.948 E1.27336
G1 X173.68 Y195.948 E1.28389
G1 X173.393 Y195.918 E1.29442
G1 X173.102 Y195.857 E1.30525
G1 X171.619 Y195.399 E1.3619
G1 X170.192 Y194.8 E1.41836
G1 X168.832 Y194.062 E1.47483
G1 X167.556 Y193.197 E1.53104
G1 X166.56 Y192.349 E1.57877
G1 X165.679 Y191.392 E1.62624
G1 X164.92 Y190.335 E1.67371
G1 X164.295 Y189.194 E1.72117
G1 X163.812 Y187.986 E1.76864
G1 X163.479 Y186.729 E1.81611
G1 X163.424 Y186.326 E1.83095
G1 X163.931 Y186.082 E1.85149
G1 X164.283 Y186.239 E1.86555
G1 X165.312 Y186.598 E1.90533
G1 X167 Y187.013 E1.96872
G1 X167.766 Y187.099 E1.99687
G1 X168.527 Y187.099 E2.02463
G1 X169.283 Y187.014 E2.05239
G1 X170.062 Y186.837 E2.08151
G1 X170.673 Y186.582 E2.10569
G1 X171.22 Y186.278 E2.12849
G1 X171.729 Y185.916 E2.15129
G1 X172.195 Y185.5 E2.17409
G1 X172.611 Y185.034 E2.19689
G1 X172.973 Y184.525 E2.2197
G1 X173.277 Y183.978 E2.2425
G1 X173.508 Y183.424 E2.26439
G1 X173.707 Y182.827 E2.28738
G1 X173.847 Y182.189 E2.31118
G1 X173.917 Y181.541 E2.33498
G1 X173.917 Y180.888 E2.35879
G1 X173.847 Y180.24 E2.38259
G1 X173.707 Y179.602 E2.40639
G1 X173.495 Y178.967 E2.43084
G1 X173.007 Y177.978 E2.47107
G1 X172.408 Y177.063 E2.51097
G1 X171.702 Y176.228 E2.55087
G1 X170.9 Y175.485 E2.59077
G1 X170.022 Y174.851 E2.63027
G1 X169.32 Y174.682 F9000
G1 F1800
G1 X170.152 Y174.28 E2.66399
G1 X171.46 Y173.819 E2.71458
G1 X172.81 Y173.505 E2.76517
G1 X174.187 Y173.34 E2.81576
G1 X175.573 Y173.329 E2.86634
G1 X176.018 Y173.374 E2.88266
G1 X176.953 Y173.47 E2.91693
G1 X178.308 Y173.762 E2.96752
G1 X179.623 Y174.201 E3.01811
G1 X180.835 Y174.76 E3.0668
G1 X181.045 Y174.927 E3.07659
G1 X181.273 Y175.153 E3.08829
G1 X181.474 Y175.402 E3.09999
G1 X181.647 Y175.672 E3.11169
G1 X181.79 Y175.96 E3.12339
G1 X181.899 Y176.261 E3.13509
G1 X181.98 Y176.59 E3.14744
G1 X182.318 Y178.516 E3.2188
G1 X182.454 Y180.452 E3.28962
G1 X182.391 Y182.392 E3.36044
G1 X182.129 Y184.315 E3.43125
G1 X181.671 Y186.202 E3.50207
G1 X181.016 Y188.045 E3.57346
G1 X180.298 Y189.716 E3.6398
G1 X179.417 Y191.288 E3.70555
G1 X178.376 Y192.758 E3.7713
G1 X177.186 Y194.112 E3.83704
G1 X175.861 Y195.333 E3.90279
G1 X174.524 Y196.329 E3.96363
G1 X174.327 Y196.37 E3.97098
G1 X173.992 Y196.405 E3.98324
G1 X173.656 Y196.405 E3.99551
G1 X173.322 Y196.37 E4.00778
G1 X172.987 Y196.3 E4.02024
G1 X171.462 Y195.829 E4.07847
G1 X169.994 Y195.212 E4.13658
G1 X168.594 Y194.453 E4.19469
G1 X167.279 Y193.562 E4.25264
G1 X166.243 Y192.679 E4.30231
G1 X165.324 Y191.681 E4.3518
G1 X165.026 Y191.265 E4.37048
G1 X164.533 Y190.579 E4.40129
G1 X163.881 Y189.39 E4.45079
G1 X163.378 Y188.13 E4.50028
G1 X163.03 Y186.819 E4.54977
G1 X162.925 Y186.058 E4.5778
G1 X163.645 Y185.713 E4.60693
G1 X163.9 Y185.568 E4.61764
G1 X164.452 Y185.814 E4.63967
G1 X165.442 Y186.16 E4.67796
G1 X167.08 Y186.562 E4.73948
G1 X167.792 Y186.642 E4.76562
G1 X168.502 Y186.642 E4.79151
G1 X169.207 Y186.563 E4.8174
G1 X169.922 Y186.4 E4.84416
G1 X170.474 Y186.17 E4.86598
G1 X170.976 Y185.891 E4.88692
G1 X171.443 Y185.559 E4.90786
G1 X171.871 Y185.176 E4.9288
G1 X172.254 Y184.748 E4.94973
G1 X172.586 Y184.28 E4.97067
G1 X172.865 Y183.779 E4.99161
M73 P4 R11
G1 X173.079 Y183.264 E5.01197
G1 X173.266 Y182.705 E5.03346
G1 X173.395 Y182.116 E5.05547
G1 X173.46 Y181.516 E5.07747
G1 X173.46 Y180.913 E5.09948
G1 X173.395 Y180.313 E5.12149
G1 X173.266 Y179.724 E5.14349
G1 X173.071 Y179.141 E5.16592
G1 X172.609 Y178.205 E5.20399
G1 X172.041 Y177.337 E5.24186
G1 X171.371 Y176.545 E5.27973
G1 X170.61 Y175.839 E5.3176
G1 X169.768 Y175.231 E5.35547
G1 X169.32 Y174.984 E5.37415
G1 X169.32 Y174.682 E5.38516
G1 X168.863 Y174.395 F9000
;TYPE:External perimeter
G1 F1800
G1 X169.976 Y173.858 E5.43027
G1 X171.332 Y173.38 E5.4827
G1 X172.731 Y173.054 E5.53513
G1 X174.158 Y172.884 E5.58756
G1 X175.595 Y172.872 E5.63999
G1 X176.065 Y172.92 E5.65723
G1 X177.024 Y173.018 E5.69241
G1 X178.429 Y173.32 E5.74484
G1 X179.792 Y173.775 E5.79727
G1 X181.076 Y174.368 E5.84887
G1 X181.349 Y174.585 E5.86159
G1 X181.612 Y174.846 E5.87512
G1 X181.846 Y175.135 E5.88866
G1 X182.046 Y175.447 E5.9022
G1 X182.21 Y175.779 E5.91574
G1 X182.338 Y176.128 E5.92927
G1 X182.427 Y176.496 E5.94309
G1 X182.772 Y178.461 E6.01586
G1 X182.912 Y180.444 E6.0884
G1 X182.848 Y182.431 E6.16094
G1 X182.579 Y184.401 E6.23347
G1 X182.11 Y186.332 E6.30601
G1 X181.442 Y188.212 E6.37879
G1 X180.709 Y189.918 E6.44655
G1 X179.804 Y191.532 E6.51405
G1 X178.735 Y193.042 E6.58155
G1 X177.514 Y194.432 E6.64905
G1 X176.153 Y195.686 E6.71655
G1 X174.716 Y196.755 E6.78193
G1 X174.398 Y196.822 E6.7938
G1 X174.016 Y196.862 E6.8078
G1 X173.632 Y196.862 E6.8218
G1 X173.25 Y196.822 E6.83581
G1 X172.873 Y196.743 E6.8499
G1 X171.306 Y196.26 E6.90971
G1 X169.796 Y195.625 E6.96947
G1 X168.356 Y194.844 E7.02924
G1 X167.002 Y193.926 E7.08893
G1 X165.925 Y193.009 E7.14052
G1 X164.969 Y191.97 E7.19204
G1 X164.654 Y191.532 E7.21173
G1 X164.146 Y190.823 E7.24356
G1 X163.467 Y189.585 E7.29508
G1 X162.943 Y188.274 E7.3466
G1 X162.581 Y186.909 E7.39811
G1 X162.423 Y185.761 E7.4404
G1 X162.805 Y185.609 E7.4554
G1 X163.433 Y185.307 E7.48085
G1 X163.876 Y185.057 E7.49941
G1 X164.62 Y185.389 E7.52915
G1 X165.573 Y185.721 E7.56594
G1 X167.161 Y186.111 E7.62561
G1 X167.818 Y186.185 E7.64973
G1 X168.476 Y186.185 E7.67375
G1 X169.13 Y186.111 E7.69777
G1 X169.782 Y185.963 E7.72217
G1 X170.274 Y185.757 E7.74162
G1 X170.731 Y185.504 E7.7607
G1 X171.158 Y185.201 E7.77978
G1 X171.547 Y184.852 E7.79886
G1 X171.896 Y184.463 E7.81793
G1 X172.199 Y184.036 E7.83701
G1 X172.453 Y183.579 E7.85609
G1 X172.651 Y183.103 E7.87491
G1 X172.825 Y182.583 E7.8949
G1 X172.943 Y182.042 E7.91511
G1 X173.002 Y181.492 E7.93532
G1 X173.002 Y180.938 E7.95553
G1 X172.943 Y180.387 E7.97574
G1 X172.825 Y179.846 E7.99596
G1 X172.648 Y179.316 E8.01635
G1 X172.212 Y178.433 E8.05227
G1 X171.674 Y177.611 E8.08811
G1 X171.04 Y176.861 E8.12395
G1 X170.319 Y176.193 E8.15978
G1 X169.523 Y175.618 E8.19562
G1 X168.863 Y175.253 E8.22314
G1 X168.863 Y174.395 E8.25446
;WIPE_START
M204 S4000
G1 X169.253 Y174.484 F9000
;WIPE_END
G92 E0
G1 E-0.8 F3000
; acceleration to travel
M204 S3000
G1 X177.059 Y174.89 F9000
; decel to extrusion
M204 S1000
G1 X180.032 Y175.044
; end travel
G1 E0 F1800
;TYPE:Solid infill
;WIDTH:0.50546
G1 F3600
G1 X181.277 Y176.289 E0.06495
G1 X181.455 Y177.113 F9000
G1 F3600
G1 X178.941 Y174.6 E0.19607
; acceleration to travel
M204 S3000
G1 X178.234 Y174.377 F9000
; decel to extrusion
M204 S1000
G1 X177.998 Y174.303
; end travel
G1 F3600
G1 X181.601 Y177.906 E0.38402
G1 X181.734 Y178.685 F9000
G1 F3600
G1 X177.174 Y174.125 E0.62188
G1 X176.414 Y174.012 F9000
G1 F3600
G1 X181.783 Y179.381 E0.90192
G1 X181.832 Y180.076 F9000
G1 F3600
G1 X175.694 Y173.938 E1.22208
G1 X175.037 Y173.928 F9000
G1 F3600
G1 X181.851 Y180.741 E1.57749
G1 X181.83 Y181.367 F9000
G1 F3600
G1 X174.396 Y173.933 E1.96528
G1 X173.801 Y173.985 F9000
G1 F3600
G1 X181.81 Y181.993 E2.38302
G1 X181.764 Y182.594 F9000
G1 F3600
G1 X173.224 Y174.054 E2.82851
G1 X172.671 Y174.147 F9000
G1 F3600
G1 X181.687 Y183.163 E3.29879
G1 X181.609 Y183.732 F9000
G1 F3600
G1 X172.147 Y174.269 E3.79239
G1 X171.623 Y174.392 F9000
G1 F3600
G1 X181.524 Y184.292 E4.30883
G1 X181.397 Y184.813 F9000
G1 F3600
G1 X171.145 Y174.56 E4.84361
G1 X170.667 Y174.729 F9000
G1 F3600
G1 X181.271 Y185.333 E5.39673
G1 X181.144 Y185.853 F9000
G1 F3600
G1 X172.983 Y177.691 E5.82246
; acceleration to travel
M204 S3000
M73 P5 R11
G1 X173.485 Y178.678 F9000
; decel to extrusion
M204 S1000
G1 X173.653 Y179.008
; end travel
G1 F3600
G1 X180.99 Y186.344 E6.20517
G1 X180.82 Y186.821 F9000
