; generated by SuperSlicer 2.5.59 on 2023-04-07 at 03:03:09 UTC


;
;

;
;
; 

; external perimeters extrusion width = 0.40mm
; perimeters extrusion width = 0.46mm
; infill extrusion width = 0.64mm
; solid infill extrusion width = 0.56mm
; top infill extrusion width = 0.40mm
; support material extrusion width = 0.46mm
; first layer extrusion width = 0.50mm

; object:{"name":"HyperX_Cloud_Orbit_S_Earcup_Swivel_Left","id":"HyperX_Cloud_Orbit_S_Earcup_Swivel_Left.stl id:0 copy 0","object_center":[164.999344,165.057970,0.000000],"boundingbox_center":[164.999344,165.057970,9.711037],"boundingbox_size":[82.054649,91.492706,19.422073]}
EXCLUDE_OBJECT_DEFINE NAME=HyperX_Cloud_Orbit_S_Earcup_Swivel_Left_stl_id_0_copy_0 CENTER=164.999344,165.057970 POLYGON=[[123.972016,134.485776],[124.047744,131.750064],[124.759264,123.914768],[124.901400,123.015320],[125.019000,122.366792],[125.186784,121.560464],[125.316680,121.017992],[125.446032,120.530520],[125.609456,119.996200],[125.686184,119.782536],[125.823416,119.468128],[125.933360,119.311616],[205.963568,135.194416],[206.001648,135.267520],[206.026672,135.533552],[206.013936,135.951440],[205.977872,136.360272],[205.921680,136.831024],[205.809248,137.556544],[205.657472,138.365936],[205.468848,139.231200],[205.363296,139.674784],[204.433408,143.027184],[204.137472,143.989040],[202.658896,148.271312],[201.146448,152.000464],[181.312000,199.858336],[180.975168,200.200128],[169.955952,210.148096],[169.823200,210.234608],[169.658912,210.318000],[169.464240,210.396256],[169.240256,210.470400],[168.991088,210.537440],[168.717792,210.599392],[168.422480,210.653264],[168.109200,210.700064],[167.780064,210.737776],[167.439008,210.767456],[167.088176,210.789088],[166.732544,210.801712],[166.374160,210.804320],[166.016992,210.798928],[165.665088,210.783552],[165.320352,210.759200],[164.987824,210.726896],[164.669376,210.686640],[164.369040,210.637472],[164.088720,210.581360],[163.832352,210.517328],[163.601824,210.448432],[163.398064,210.372624],[163.224976,210.292912],[163.083472,210.208352],[162.974352,210.120896],[151.516112,199.450320],[151.360176,199.271664],[132.867400,168.939664],[130.729536,165.230320],[128.908568,161.338192],[128.112856,159.336080],[127.387408,157.288240],[126.436144,154.117504],[125.619336,150.853296],[125.120816,148.336352],[124.625760,145.195408],[124.151696,140.506512],[123.999464,137.209904],[123.972016,134.485776]]
; plater:{"center":[164.999344,165.057970,0.000000],"boundingbox_center":[164.999344,165.057970,9.711037],"boundingbox_size":[82.054649,91.492706,19.422073]}

M73 P0 R50
;TYPE:Custom
; custom gcode: start_gcode
START_PRINT T_BED=60 T_EXTRUDER=200
; custom gcode end: start_gcode
M107
G21 ; set units to millimeters
G90 ; use absolute coordinates
M82 ; use absolute distances for extrusion
G92 E0
; custom gcode: start_filament_gcode
; Filament gcode

    PRESSURE_ADVANCE_SELECT FILAMENT=PLA
; custom gcode end: start_filament_gcode
;_TOOLCHANGE 0
M104 S200 ; set temperature
M109 S200 ; set temperature and wait for it to be reached
M190 S60 ; set bed temperature and wait for it to be reached
;LAYER_CHANGE
;Z:0.2
;HEIGHT:0.2
G1 Z0.2 F9000
M73 P0 R50
G1 E-0.8 F3000
M204 S1000
G1 X120.812 Y115.708 F9000
G1 E0 F1800
;TYPE:Skirt
;WIDTH:0.52
G1 X120.178 Y117.299 E0.06793
G1 X119.367 Y122.767 E0.28724
G1 X119.351 Y123.737 E0.3257
G1 X121.924 Y146.06 E1.2171
G1 X122.923 Y151.593 E1.44013
G1 X123.703 Y154.721 E1.56803
G1 X124.557 Y157.618 E1.68785
G1 X125.277 Y159.717 E1.77585
G1 X126.861 Y163.636 E1.94355
G1 X127.858 Y165.746 E2.03612
G1 X147.821 Y203.418 E3.72742
G1 X148.517 Y204.345 E3.7734
G1 X159.277 Y214.745 E4.36704
G1 X160.68 Y215.842 E4.4377
G1 X161.756 Y216.411 E4.48595
G1 X162.981 Y216.771 E4.5366
G1 X164.246 Y216.961 E4.58734
G1 X167.85 Y217.003 E4.73032
G1 X170.078 Y216.736 E4.81936
G1 X171.336 Y216.351 E4.87151
G1 X172.364 Y215.799 E4.91782
G1 X176.282 Y212.779 E5.11408
G1 X184.51 Y204.72 E5.57096
G1 X185.353 Y203.464 E5.63095
G1 X210.63 Y141.254 E8.29471
M73 P0 R50
G1 X211.98 Y135.623 E8.52441
G1 X211.858 Y133.532 E8.60749
G1 X210.924 Y132.097 E8.67542
G1 X209.446 Y131.232 E8.74335
G1 X197.563 Y127.621 E9.23605
G1 X134.96 Y115.402 E11.76632
G1 X124.285 Y114.153 E12.19268
G1 X122.093 Y114.571 E12.28121
G1 X120.812 Y115.708 E12.34914
G1 X121.265 Y115.898 F9000
G1 F1800
G1 X120.65 Y117.369 E12.41239
G1 X119.839 Y122.837 E12.6317
G1 X119.825 Y123.682 E12.66522
G1 X122.398 Y146.005 E13.5566
G1 X123.386 Y151.478 E13.77722
G1 X124.16 Y154.586 E13.9043
G1 X125.015 Y157.483 E14.02412
G1 X125.728 Y159.561 E14.11126
G1 X127.3 Y163.449 E14.27762
G1 X128.281 Y165.525 E14.3687
G1 X148.243 Y203.195 E16.05989
G1 X148.849 Y204.002 E16.09996
G1 X159.607 Y214.4 E16.69347
G1 X160.969 Y215.463 E16.76201
G1 X161.907 Y215.958 E16.80406
G1 X162.563 Y216.177 E16.83152
G1 X163.953 Y216.448 E16.88767
G1 X165.054 Y216.534 E16.93148
G1 X168.773 Y216.458 E17.07906
G1 X169.998 Y216.266 E17.12824
G1 X171.179 Y215.901 E17.17726
G1 X172.075 Y215.419 E17.21763
G1 X175.949 Y212.438 E17.41154
G1 X184.177 Y204.379 E17.86842
G1 X184.911 Y203.284 E17.9207
G1 X210.188 Y141.074 E20.58447
G1 X211.515 Y135.516 E20.81117
G1 X211.475 Y133.898 E20.87535
G1 X210.672 Y132.518 E20.93871
G1 X209.307 Y131.689 E21.00207
G1 X197.47 Y128.089 E21.49285
G1 X134.905 Y115.876 E24.02163
G1 X124.229 Y114.627 E24.44799
G1 X122.512 Y114.896 E24.51696
G1 X121.265 Y115.898 E24.58041
G92 E0
G1 E-0.8 F3000
; printing object HyperX_Cloud_Orbit_S_Earcup_Swivel_Left.stl id:0 copy 0
EXCLUDE_OBJECT_START NAME=HyperX_Cloud_Orbit_S_Earcup_Swivel_Left_stl_id_0_copy_0
; acceleration to travel
M204 S3000
G1 X181.36 Y131.487 F9000
; decel to extrusion
M204 S1000
G1 X201.391 Y136.683
; end travel
G1 E0 F1800
;TYPE:Support material interface
;WIDTH:0.5
G1 X201.633 Y136.525 E0.01099
G1 X203.229 Y136.802 E0.07254
G1 X204.993 Y137.142 E0.14082
G1 X204.772 Y137.89 E0.17048
G1 X201.249 Y137.258 E0.30651
G1 X201.391 Y136.683 E0.32901
G92 E0
G1 E-0.8 F3000
; acceleration to travel
M204 S3000
G1 X203.576 Y137.015 F9000
; decel to extrusion
M204 S1000
G1 X204.304 Y137.125
; end travel
G1 E0 F1800
G1 X201.4 Y137.125 E0.1104
G92 E0
G1 E-0.8 F3000
; acceleration to travel
M204 S3000
G1 X147.474 Y126.599 F9000
; decel to extrusion
M204 S1000
G1 X129.498 Y123.09
; end travel
G1 E0 F1800
G1 X127.299 Y122.576 E0.08585
G1 X126.024 Y122.324 E0.13522
G1 X126.037 Y122.001 E0.14752
G1 X126.103 Y121.563 E0.16435
G1 X129.209 Y122.157 E0.28452
G1 X129.428 Y122.202 E0.29301
G1 X129.616 Y122.469 E0.30543
G1 X129.498 Y123.09 E0.32945
G1 X129.426 Y122.397 F9000
G1 F1800
G1 X126.983 Y122.397 E0.42231
G92 E0
G1 E-0.8 F3000
; acceleration to travel
M204 S3000
G1 X147.457 Y169.877 F9000
; decel to extrusion
M204 S1000
G1 X154.282 Y185.703
; end travel
G1 E0 F1800
;TYPE:Support material
G1 X154.797 Y185.947 E0.02168
G1 X155.742 Y186.347 E0.06067
G1 X157.017 Y186.828 E0.11245
G1 X158.951 Y187.38 E0.18893
G1 X158.759 Y187.583 E0.19956
G1 X159.237 Y188.357 E0.23414
G1 X160.089 Y188.602 E0.26783
G1 X160.779 Y188.688 E0.29425
G1 X161.894 Y188.882 E0.33727
G1 X163.442 Y188.981 E0.39621
G1 X164.773 Y188.964 E0.44681
G1 X167.076 Y188.733 E0.53479
G1 X168.049 Y188.538 E0.57249
G1 X169.011 Y188.294 E0.61019
G1 X170.449 Y187.817 E0.66779
G1 X171.73 Y187.22 E0.72152
G1 X172.217 Y187.012 E0.74164
G1 X173.786 Y186.129 E0.81007
G1 X174.501 Y185.685 E0.84205
G1 X174.931 Y185.373 E0.86224
G1 X175.446 Y184.953 E0.8875
G1 X175.513 Y184.373 E0.90968
G1 X175.109 Y184.133 E0.92755
G1 X175.659 Y183.73 E0.95346
G1 X176.923 Y182.69 E1.01567
G1 X178.001 Y181.692 E1.07149
G1 X178.48 Y181.207 E1.09739
G1 X180.18 Y182.215 E1.1725
G1 X180.584 Y182.231 E1.18788
G1 X182.078 Y182.937 E1.25067
G1 X182.961 Y184.494 E1.31869
G1 X182.711 Y185.714 E1.366
G1 X182.601 Y186.098 E1.38119
G1 X182.656 Y186.593 E1.40014
G1 X182.543 Y186.989 E1.41576
G1 X182.599 Y187.482 E1.43463
G1 X182.489 Y187.872 E1.45002
G1 X182.545 Y188.364 E1.46884
G1 X182.436 Y188.751 E1.48411
G1 X182.492 Y189.241 E1.50287
G1 X182.351 Y189.743 E1.52267
G1 X182.403 Y190.23 E1.5413
G1 X182.342 Y190.445 E1.54979
G1 X182.398 Y190.954 E1.56923
G1 X182.335 Y191.181 E1.5782
G1 X182.39 Y191.675 E1.59708
G1 X182.314 Y191.948 E1.60787
G1 X182.37 Y192.441 E1.62673
G1 X182.311 Y192.663 E1.63545
G1 X182.363 Y193.141 E1.65372
G1 X182.307 Y193.368 E1.66259
G1 X182.331 Y193.61 E1.67185
G1 X182.301 Y194.075 E1.68955
G1 X182.359 Y194.581 E1.7089
G1 X182.302 Y194.811 E1.71792
G1 X182.329 Y195.058 E1.72734
G1 X182.301 Y195.469 E1.74302
G1 X182.325 Y195.702 E1.75193
G1 X182.301 Y196.199 E1.77081
G1 X182.334 Y196.478 E1.78152
G1 X182.305 Y196.91 E1.79797
G1 X182.338 Y197.197 E1.80894
G1 X182.308 Y197.627 E1.8253
G1 X182.37 Y198.16 E1.8457
G1 X182.254 Y198.601 E1.86305
G1 X182.376 Y199.516 E1.89813
G1 X182.3 Y199.821 E1.91006
G1 X182.358 Y200.27 E1.92727
G1 X181.91 Y202.065 E1.99759
G1 X180.807 Y202.913 E2.05047
G1 X180.15 Y203.13 E2.07677
G1 X177.876 Y203.465 E2.16414
G1 X177.717 Y203.463 E2.1702
G1 X177.519 Y203.513 E2.17794
G1 X177.257 Y203.509 E2.1879
G1 X177.058 Y203.559 E2.19569
G1 X176.626 Y203.552 E2.21212
G1 X176.4 Y203.601 E2.2209
G1 X176.019 Y203.595 E2.23539
G1 X175.794 Y203.644 E2.24414
G1 X175.412 Y203.638 E2.25865
G1 X175.188 Y203.687 E2.2674
G1 X174.457 Y203.676 E2.29515
G1 X174.167 Y203.724 E2.30635
G1 X173.639 Y203.716 E2.32642
G1 X173.683 Y210.124 E2.56999
G1 X171.66 Y210.135 E2.64688
G1 X171.191 Y211.997 E2.71984
G1 X170.113 Y212.843 E2.77191
G1 X169.45 Y213.074 E2.79858
G1 X168.836 Y213.175 E2.82225
G1 X168.707 Y213.176 E2.82715
G1 X168.502 Y213.231 E2.83522
G1 X168.063 Y213.233 E2.85188
G1 X167.828 Y213.287 E2.86105
G1 X165.259 Y213.302 E2.9587
G1 X165.007 Y213.25 E2.96847
G1 X164.481 Y213.253 E2.98847
G1 X164.292 Y213.2 E2.99593
G1 X163.587 Y213.105 E3.02294
G1 X162.931 Y212.886 E3.04925
G1 X161.845 Y212.059 E3.10111
G1 X161.281 Y209.969 E3.1834
G1 X159.39 Y209.712 E3.25593
G1 X159.424 Y207.389 E3.34424
G1 X159.403 Y203.437 E3.49443
G1 X158.799 Y203.428 E3.51739
G1 X158.546 Y203.371 E3.52724
G1 X158.049 Y203.363 E3.54615
G1 X157.796 Y203.306 E3.55601
G1 X157.342 Y203.299 E3.57326
G1 X157.126 Y203.242 E3.58174
G1 X156.775 Y203.237 E3.59507
G1 X156.559 Y203.18 E3.60355
G1 X156.133 Y203.173 E3.61976
G1 X155.939 Y203.117 E3.62742
G1 X155.68 Y203.113 E3.63729
G1 X155.487 Y203.057 E3.64492
G1 X155.246 Y203.053 E3.65409
G1 X155.051 Y202.997 E3.66178
G1 X154.479 Y202.916 E3.68376
G1 X152.68 Y202.584 E3.75326
G1 X152.126 Y202.403 E3.77544
G1 X151.104 Y201.677 E3.82306
G1 X150.741 Y200.688 E3.86312
G1 X150.412 Y199.217 E3.92043
G1 X150.488 Y198.735 E3.93896
G1 X150.438 Y198.51 E3.94772
G1 X150.513 Y198.028 E3.96627
G1 X150.464 Y197.804 E3.97498
G1 X150.539 Y197.321 E3.99356
G1 X150.492 Y197.1 E4.00216
G1 X150.565 Y196.614 E4.02081
G1 X150.522 Y196.399 E4.02916
G1 X150.592 Y195.911 E4.04788
G1 X150.555 Y195.701 E4.05601
G1 X150.619 Y195.216 E4.0746
G1 X150.585 Y195 E4.08289
G1 X150.629 Y194.573 E4.09924
G1 X150.065 Y192.512 E4.18043
G1 X150.38 Y191.929 E4.20562
G1 X149.581 Y189.623 E4.2984
G1 X151.745 Y188.68 E4.38811
G1 X152.444 Y188.234 E4.41962
G1 X152.421 Y187.945 E4.43065
G1 X154.282 Y185.703 E4.5414
G92 E0
G1 E-0.8 F3000
; acceleration to travel
M204 S3000
G1 X175.27 Y188.641 F9000
; decel to extrusion
M204 S1000
G1 X182.267 Y189.62
; end travel
G1 E0 F1800
G1 X182.267 Y183.901 E0.21738
G1 X181.856 Y183.176 E0.24903
G1 X181.759 Y183.13 E0.25311
G1 X181.759 Y201.389 E0.94704
G1 X181.635 Y201.885 E0.96647
G1 X181.251 Y202.18 E0.98488
G1 X181.251 Y182.89 E1.718
G1 X180.743 Y182.65 E1.73935
G1 X180.743 Y202.57 E2.49643
G1 X180.66 Y202.634 E2.50044
G1 X180.235 Y202.775 E2.51742
G1 X180.235 Y182.528 E3.28692
G1 X180.089 Y182.522 E3.29249
G1 X179.727 Y182.308 E3.30846
G1 X179.727 Y202.875 E4.09016
G1 X179.22 Y202.946 E4.10965
G1 X179.22 Y182.007 E4.90546
G1 X178.712 Y181.706 E4.92789
G1 X178.712 Y203.024 E5.73811
G1 X178.204 Y203.1 E5.75763
G1 X178.204 Y181.927 E6.56235
M73 P1 R49
G1 X177.696 Y182.398 E6.58867
G1 X177.696 Y203.152 E7.37744
G1 X177.483 Y203.201 E7.38575
G1 X177.188 Y203.205 E7.39695
G1 X177.188 Y182.869 E8.16987
G1 X176.68 Y183.292 E8.195
G1 X176.68 Y203.242 E8.95321
G1 X176.595 Y203.241 E8.95645
G1 X176.369 Y203.29 E8.96523
G1 X176.172 Y203.287 E8.97272
G1 X176.172 Y183.71 E9.71675
G1 X175.673 Y184.106 E9.74098
G1 X175.845 Y184.209 E9.74863
G1 X175.74 Y185.114 E9.78326
G1 X175.665 Y185.176 E9.78697
G1 X175.665 Y203.331 E10.47699
G1 X175.381 Y203.327 E10.48776
G1 X175.157 Y203.376 E10.4965
G1 X175.157 Y185.59 E11.17246
G1 X174.649 Y185.96 E11.19633
G1 X174.649 Y203.368 E11.85794
G1 X174.434 Y203.364 E11.86609
G1 X174.141 Y203.413 E11.87739
G1 X174.141 Y186.275 E12.52872
G1 X173.633 Y186.572 E12.55107
G1 X173.633 Y203.405 E13.19083
G1 X173.326 Y203.4 E13.20251
G1 X173.369 Y209.815 E13.44634
G1 X173.125 Y209.816 E13.45561
G1 X173.125 Y186.858 E14.32819
G1 X172.617 Y187.143 E14.35034
G1 X172.617 Y209.819 E15.21216
G1 X172.109 Y209.822 E15.23146
G1 X172.109 Y187.398 E16.08372
G1 X171.602 Y187.623 E16.10483
G1 X171.602 Y209.825 E16.94866
G1 X171.417 Y209.826 E16.95567
G1 X171.094 Y211.11 E17.00599
G1 X171.094 Y187.86 E17.88965
M73 P2 R49
G1 X170.586 Y188.096 E17.91095
G1 X170.586 Y212.077 E18.82235
G1 X170.078 Y212.475 E18.84688
G1 X170.078 Y188.27 E19.76681
G1 X169.57 Y188.437 E19.78713
G1 X169.57 Y212.703 E20.70937
G1 X169.374 Y212.771 E20.71725
G1 X169.062 Y212.824 E20.72928
G1 X169.062 Y188.603 E21.64985
G1 X168.554 Y188.731 E21.66976
G1 X168.554 Y212.895 E22.58814
G1 X168.46 Y212.92 E22.59185
G1 X168.047 Y212.922 E22.60757
G1 X168.047 Y188.856 E23.52224
G1 X167.539 Y188.959 E23.54194
G1 X167.539 Y212.978 E24.45483
G1 X167.031 Y212.981 E24.47413
G1 X167.031 Y189.049 E25.38368
G1 X166.523 Y189.101 E25.40307
G1 X166.523 Y212.984 E26.31079
G1 X166.015 Y212.987 E26.33009
G1 X166.015 Y189.152 E27.23598
G1 X165.507 Y189.203 E27.25538
G1 X165.507 Y212.99 E28.15944
G1 X165.29 Y212.991 E28.1677
G1 X164.999 Y212.939 E28.17892
G1 X164.999 Y189.254 E29.07911
G1 X164.491 Y189.28 E29.09844
G1 X164.491 Y212.933 E29.9974
G1 X164.334 Y212.889 E30.00363
G1 X163.984 Y212.853 E30.017
G1 X163.984 Y189.286 E30.9127
G1 X163.476 Y189.291 E30.93201
G1 X163.476 Y212.74 E31.8232
G1 X163.078 Y212.607 E31.83913
G1 X162.968 Y212.523 E31.8444
G1 X162.968 Y189.263 E32.72843
G1 X162.46 Y189.23 E32.74777
G1 X162.46 Y212.137 E33.61836
G1 X162.118 Y211.876 E33.63472
G1 X161.952 Y211.263 E33.65884
G1 X161.952 Y189.198 E34.49748
G1 X161.444 Y189.122 E34.517
G1 X161.444 Y209.678 E35.29825
G1 X160.936 Y209.609 E35.31773
G1 X160.936 Y189.032 E36.09978
G1 X160.429 Y188.957 E36.11928
G1 X160.429 Y209.54 E36.90154
M73 P2 R49
G1 X159.921 Y209.471 E36.92101
G1 X159.921 Y188.883 E37.70347
G1 X159.413 Y188.733 E37.7236
G1 X159.413 Y203.126 E38.27063
G1 X158.905 Y203.118 E38.28994
G1 X158.905 Y188.407 E38.84907
G1 X158.397 Y187.584 E38.88581
G1 X158.397 Y203.057 E39.47388
G1 X158.086 Y203.052 E39.48571
G1 X157.889 Y203.008 E39.49337
G1 X157.889 Y187.401 E40.08654
G1 X157.381 Y187.256 E40.10661
G1 X157.381 Y202.988 E40.7045
G1 X157.168 Y202.932 E40.71287
G1 X156.873 Y202.927 E40.72407
G1 X156.873 Y187.106 E41.32538
G1 X156.366 Y186.915 E41.346
G1 X156.366 Y202.866 E41.95226
G1 X156.179 Y202.863 E41.95934
G1 X155.986 Y202.807 E41.96699
G1 X155.858 Y202.805 E41.97187
G1 X155.858 Y186.723 E42.58308
G1 X155.35 Y186.519 E42.60389
G1 X155.35 Y202.744 E43.22056
G1 X155.099 Y202.687 E43.23033
G1 X154.842 Y202.658 E43.24017
G1 X154.842 Y186.303 E43.86176
G1 X154.367 Y186.087 E43.88161
G1 X154.334 Y186.126 E43.88354
G1 X154.334 Y202.572 E44.50857
G1 X153.826 Y202.477 E44.5282
G1 X153.826 Y186.738 E45.12639
G1 X153.318 Y187.35 E45.15661
G1 X153.318 Y202.376 E45.7277
G1 X152.811 Y202.291 E45.74727
G1 X152.811 Y187.962 E46.29186
G1 X152.741 Y188.046 E46.29602
G1 X152.769 Y188.396 E46.30936
G1 X152.303 Y188.693 E46.33039
G1 X152.303 Y202.134 E46.84122
G1 X151.795 Y201.787 E46.86459
G1 X151.795 Y188.997 E47.35068
G1 X151.287 Y189.218 E47.37173
G1 X151.287 Y201.274 E47.82991
G1 X151.04 Y200.6 E47.85718
G1 X150.779 Y199.435 E47.90258
G1 X150.779 Y189.44 E48.28245
