; HEADER_BLOCK_START
; generated by OrcaSlicer 1.6.3 on 2023-07-13 at 19:24:15
; total layer number: 32
; HEADER_BLOCK_END

; THUMBNAIL_BLOCK_START
; THUMBNAIL_BLOCK_END

; external perimeters extrusion width = 0.40mm
; perimeters extrusion width = 0.45mm
; infill extrusion width = 0.45mm
; solid infill extrusion width = 0.40mm
; top infill extrusion width = 0.40mm
; first layer extrusion width = 0.50mm

; external perimeters extrusion width = 0.40mm
; perimeters extrusion width = 0.45mm
; infill extrusion width = 0.45mm
; solid infill extrusion width = 0.40mm
; top infill extrusion width = 0.40mm
; first layer extrusion width = 0.50mm

; external perimeters extrusion width = 0.40mm
; perimeters extrusion width = 0.45mm
; infill extrusion width = 0.45mm
; solid infill extrusion width = 0.40mm
; top infill extrusion width = 0.40mm
; first layer extrusion width = 0.50mm

; external perimeters extrusion width = 0.40mm
; perimeters extrusion width = 0.45mm
; infill extrusion width = 0.45mm
; solid infill extrusion width = 0.40mm
; top infill extrusion width = 0.40mm
; first layer extrusion width = 0.50mm

; external perimeters extrusion width = 0.40mm
; perimeters extrusion width = 0.45mm
; infill extrusion width = 0.45mm
; solid infill extrusion width = 0.40mm
; top infill extrusion width = 0.40mm
; first layer extrusion width = 0.50mm

; external perimeters extrusion width = 0.40mm
; perimeters extrusion width = 0.45mm
; infill extrusion width = 0.45mm
; solid infill extrusion width = 0.40mm
; top infill extrusion width = 0.40mm
; first layer extrusion width = 0.50mm

; EXECUTABLE_BLOCK_START
EXCLUDE_OBJECT_DEFINE NAME=ICT.stl_id_0_copy_0 CENTER=232.966,226.714 POLYGON=[[200.466,196.128],[202.466,181.114],[209.93,179.114],[256.001,179.114],[265.466,181.114],[265.466,272.314],[263.466,274.314],[202.466,274.314],[200.466,257.3],[200.466,196.128]]
EXCLUDE_OBJECT_DEFINE NAME=ICT.stl_id_1_copy_0 CENTER=162.966,226.714 POLYGON=[[130.466,196.128],[132.466,181.114],[139.93,179.114],[186.001,179.114],[195.466,181.114],[195.466,272.314],[193.466,274.314],[132.466,274.314],[130.466,257.3],[130.466,196.128]]
EXCLUDE_OBJECT_DEFINE NAME=ICT.stl_id_2_copy_0 CENTER=232.966,126.514 POLYGON=[[200.466,95.928],[202.466,80.9138],[209.93,78.9138],[256.001,78.9138],[265.466,80.9138],[265.466,172.114],[263.466,174.114],[202.466,174.114],[200.466,157.1],[200.466,95.928]]
EXCLUDE_OBJECT_DEFINE NAME=ICT.stl_id_3_copy_0 CENTER=162.966,126.514 POLYGON=[[130.466,95.928],[132.466,80.9138],[139.93,78.9138],[186.001,78.9138],[195.466,80.9138],[195.466,172.114],[193.466,174.114],[132.466,174.114],[130.466,157.1],[130.466,95.928]]
EXCLUDE_OBJECT_DEFINE NAME=ICT.stl_id_4_copy_0 CENTER=86.5013,217.263 POLYGON=[[54.0013,186.677],[56.0013,171.663],[63.4655,169.663],[109.537,169.663],[119.001,171.663],[119.001,262.863],[117.001,264.863],[56.0013,264.863],[54.0013,247.848],[54.0013,186.677]]
EXCLUDE_OBJECT_DEFINE NAME=ICT.stl_id_5_copy_0 CENTER=87.203,118.865 POLYGON=[[54.703,88.2792],[56.703,73.265],[64.1672,71.265],[110.239,71.265],[119.703,73.265],[119.703,164.465],[117.703,166.465],[56.703,166.465],[54.703,149.451],[54.703,88.2792]]
M73 P0 R97
M73 C51
;TYPE:Custom
START_PRINT T_BED=60 T_EXTRUDER=220
G90
G21
M83 ; use relative distances for extrusion
; filament start gcode

    PRESSURE_ADVANCE_SELECT FILAMENT=PLA
M106 S0
;LAYER_CHANGE
;Z:0.2
;HEIGHT:0.2
;BEFORE_LAYER_CHANGE
;0.2
G92 E0

M204 S1000
G1 E-.8 F3000
G1 X55.273 Y70.726 F9000
G1 Z.2
G1 E.8 F1800
;TYPE:Skirt
;WIDTH:0.5
G1 F3000
G1 X56.703 Y70.351 E.05505
G1 X117.856 Y70.355 E2.27771
G1 X263.618 Y78.004 E5.43657
G1 X265.057 Y78.473 E.05638
G1 X266.067 Y79.601 E.05638
G1 X266.38 Y80.914 E.05028
G1 X266.38 Y272.314 E7.12892
G1 X265.987 Y273.776 E.05638
G1 X264.913 Y274.843 E.05638
G1 X263.466 Y275.228 E.0558
G1 X132.466 Y275.228 E4.87925
G1 X55.644 Y265.755 E2.88299
G1 X54.241 Y265.185 E.05638
G1 X53.314 Y263.989 E.05638
G1 X53.087 Y262.863 E.0428
G1 X53.087 Y171.642 E3.39763
G1 X53.789 Y73.244 E3.66503
G1 X54.192 Y71.785 E.05638
G1 X55.231 Y70.768 E.05415
G1 X55.554 Y71.148 F9000
G1 F3000
G1 X55.704 Y71.02 E.00735
G1 X56.703 Y70.808 E.03803
G1 X117.832 Y70.811 E2.27681
G1 X263.594 Y78.46 E5.43657
G1 X264.903 Y78.921 E.05169
G1 X265.754 Y80.018 E.05169
G1 X265.923 Y80.914 E.03396
G1 X265.923 Y272.314 E7.12892
G1 X265.531 Y273.645 E.05169
G1 X264.48 Y274.552 E.05169
G1 X263.466 Y274.771 E.03866
G1 X132.466 Y274.771 E4.87925
M73 C50
G1 X55.7 Y265.301 E2.8809
G1 X54.427 Y264.749 E.05169
G1 X53.656 Y263.595 E.05169
G1 X53.544 Y262.863 E.0276
G1 X53.544 Y171.663 E3.39685
G1 X54.246 Y73.248 E3.66568
G1 X54.647 Y71.919 E.05169
G1 X55.508 Y71.187 E.0421
; printing object ICT.stl id:2 copy 0
EXCLUDE_OBJECT_START NAME=ICT.stl_id_2_copy_0
G1 E-.8
G1 X247.316 Y171.764 F9000
G1 E.8 F1800
;TYPE:Outer wall
;WIDTH:0.499999
G1 F3000
G1 X247.316 Y170.111 E.06157
G1 X247.268 Y169.649 E.0173
G1 X247.121 Y169.18 E.01829
G1 X246.88 Y168.752 E.01829
G1 X246.547 Y168.375 E.01876
G1 X246.139 Y168.078 E.01879
G1 X245.662 Y167.871 E.01937
G1 X245.082 Y167.759 E.022
G1 X220.807 Y167.763 E.90416
G1 X220.265 Y167.872 E.02059
G1 X219.812 Y168.068 E.01838
G1 X219.412 Y168.352 E.01829
G1 X219.079 Y168.714 E.01829
G1 X218.875 Y169.057 E.01489
G1 X218.673 Y169.602 E.02164
G1 X218.616 Y170.111 E.01906
G1 X218.616 Y171.764 E.06157
G1 X202.816 Y171.764 E.58849
G1 X202.816 Y140.864 E1.15091
G1 X204.469 Y140.864 E.06157
G1 X204.931 Y140.816 E.0173
G1 X205.399 Y140.669 E.01829
G1 X205.827 Y140.428 E.01829
G1 X206.195 Y140.103 E.01829
G1 X206.488 Y139.709 E.01829
G1 X206.708 Y139.21 E.02031
G1 X206.821 Y138.63 E.022
G1 X206.821 Y114.397 E.90258
G1 X206.707 Y113.813 E.02217
G1 X206.512 Y113.36 E.01838
G1 X206.227 Y112.96 E.01829
G1 X205.866 Y112.628 E.01829
G1 X205.443 Y112.378 E.0183
G1 X204.977 Y112.221 E.01828
G1 X204.469 Y112.164 E.01906
G1 X202.816 Y112.164 E.06157
G1 X202.816 Y81.264 E1.15091
G1 X218.616 Y81.264 E.58849
G1 X218.616 Y82.912 E.06139
G1 X218.663 Y83.379 E.01747
G1 X218.81 Y83.847 E.0183
G1 X219.051 Y84.275 E.01829
G1 X219.385 Y84.653 E.01877
G1 X219.792 Y84.95 E.01878
G1 X220.269 Y85.156 E.01937
G1 X220.849 Y85.269 E.022
G1 X245.124 Y85.265 E.90416
G1 X245.666 Y85.156 E.02059
G1 X246.119 Y84.96 E.01838
G1 X246.52 Y84.675 E.01829
G1 X246.852 Y84.314 E.01829
G1 X247.056 Y83.97 E.01489
G1 X247.258 Y83.426 E.02164
G1 X247.316 Y82.917 E.01906
G1 X247.316 Y81.264 E.06157
G1 X263.116 Y81.264 E.58849
G1 X263.116 Y112.164 E1.15091
G1 X261.462 Y112.164 E.06157
G1 X261.001 Y112.211 E.0173
G1 X260.532 Y112.358 E.01829
G1 X260.104 Y112.599 E.01829
G1 X259.736 Y112.924 E.01829
G1 X259.443 Y113.319 E.01829
G1 X259.223 Y113.818 E.02031
G1 X259.111 Y114.397 E.022
G1 X259.111 Y138.63 E.90258
G1 X259.224 Y139.215 E.02217
G1 X259.419 Y139.668 E.01838
G1 X259.704 Y140.068 E.01829
G1 X260.066 Y140.4 E.01829
G1 X260.489 Y140.65 E.0183
G1 X260.954 Y140.806 E.01828
G1 X261.462 Y140.864 E.01906
G1 X263.116 Y140.864 E.06157
G1 X263.116 Y142.517 E.06157
G1 X263.116 Y171.764 E1.08933
G1 X247.376 Y171.764 E.58625
G1 X247.329 Y171.685
G1 E-.8
G1 X247.651 Y171.428 F9000
G1 X253.401 Y157.647
G1 X253.727 Y156.798
G1 X253.962 Y155.92
G1 X254.105 Y155.022
G1 X254.151 Y154.132
G1 X254.151 Y98.896
G1 X254.105 Y98.006
G1 X253.962 Y97.108
G1 X253.727 Y96.229
G1 X253.401 Y95.381
G1 X252.988 Y94.57
G1 X252.493 Y93.808
G1 X251.921 Y93.101
G1 X251.278 Y92.458
G1 X250.572 Y91.886
G1 X249.809 Y91.391
G1 X248.999 Y90.978
G1 X248.15 Y90.652
G1 X247.272 Y90.417
G1 X246.918 Y90.361
G1 X246.866 Y90.693
G1 E.8 F1800
G1 F3000
G1 X246.874 Y90.694 E.00032
G3 X253.816 Y98.911 I-1.418 J8.238 E.43521
G1 X253.816 Y154.117 E2.05622
G3 X249.651 Y161.339 I-8.352 J-.005 E.32511
G3 X246.35 Y162.417 I-4.54 J-8.313 E.13006
G3 X245.082 Y162.464 I-1.314 J-18.271 E.04728
G1 X220.462 Y162.464 E.91699
G1 X219.866 Y162.433 E.02226
G3 X212.116 Y154.117 I.609 J-8.337 E.46557
G1 X212.116 Y144.502 E.3581
G1 X212.116 Y98.911 E1.69812
G3 X216.28 Y91.689 I8.352 J.005 E.32511
G3 X219.581 Y90.611 I4.54 J8.313 E.13006
G3 X220.849 Y90.564 I1.327 J18.616 E.04728
G1 X245.469 Y90.564 E.91699
G1 X246.066 Y90.595 E.02226
G1 X246.806 Y90.686 E.0278
G1 X246.867 Y90.692
G1 E-.8
G1 X262.979 Y82.327 F9000
G1 E.8 F1800
;TYPE:Bottom surface
;WIDTH:0.501146
G1 F6300
G1 X262.258 Y81.607 E.03806
G1 X261.61 Y81.607 E.0242
G1 X262.773 Y82.77 E.06142
G1 X262.773 Y83.418 E.0242
G1 X260.962 Y81.607 E.09564
G1 X260.314 Y81.607 E.0242
G1 X262.773 Y84.066 E.12986
G1 X262.773 Y84.714 E.0242
G1 X259.666 Y81.607 E.16408
G1 X259.018 Y81.607 E.0242
G1 X262.773 Y85.362 E.1983
G1 X262.773 Y86.01 E.0242
G1 X258.37 Y81.607 E.23252
G1 X257.722 Y81.607 E.0242
G1 X262.773 Y86.658 E.26674
G1 X262.773 Y87.306 E.0242
G1 X257.074 Y81.607 E.30096
G1 X256.426 Y81.607 E.0242
G1 X262.773 Y87.954 E.33518
G1 X262.773 Y88.602 E.0242
G1 X255.777 Y81.607 E.3694
G1 X255.129 Y81.607 E.0242
G1 X262.773 Y89.25 E.40362
G1 X262.773 Y89.898 E.0242
G1 X254.481 Y81.607 E.43784
G1 X253.833 Y81.607 E.0242
G1 X262.773 Y90.546 E.47206
G1 X262.773 Y91.194 E.0242
G1 X253.185 Y81.607 E.50628
G1 X252.537 Y81.607 E.0242
G1 X262.773 Y91.842 E.5405
G1 X262.773 Y92.49 E.0242
G1 X251.889 Y81.607 E.57472
G1 X251.241 Y81.607 E.0242
G1 X262.773 Y93.138 E.60894
G1 X262.773 Y93.786 E.0242
G1 X250.593 Y81.607 E.64316
G1 X249.945 Y81.607 E.0242
G1 X262.773 Y94.434 E.67738
G1 X262.773 Y95.082 E.0242
G1 X249.297 Y81.607 E.7116
G1 X248.649 Y81.607 E.0242
G1 X262.773 Y95.73 E.74582
G1 X262.773 Y96.378 E.0242
G1 X248.001 Y81.607 E.78004
G1 X247.658 Y81.607 E.0128
G1 X247.658 Y81.912 E.0114
G1 X262.773 Y97.026 E.79813
G1 X262.773 Y97.674 E.0242
G1 X247.658 Y82.56 E.79813
G3 X247.632 Y83.182 I-3.115 J.181 E.02329
G1 X262.773 Y98.322 E.79951
G1 X262.773 Y98.97 E.0242
G1 X247.519 Y83.717 E.80548
G3 X247.328 Y84.173 I-1.167 J-.221 E.01862
G1 X262.773 Y99.618 E.81559
G1 X262.773 Y100.266 E.0242
G1 X247.075 Y84.568 E.82896
M73 P0 R96
G1 X246.771 Y84.912 E.01714
G1 X262.773 Y100.914 E.84501
G1 X262.773 Y101.563 E.0242
G1 X246.396 Y85.186 E.8648
G1 X246.309 Y85.248 E.004
G1 X245.963 Y85.401 E.01412
G1 X262.773 Y102.211 E.88765
G1 X262.773 Y102.859 E.0242
G1 X245.457 Y85.542 E.9144
G3 X244.878 Y85.612 I-.471 J-1.484 E.0219
G1 X262.773 Y103.507 E.94497
G1 X262.773 Y104.155 E.0242
G1 X244.23 Y85.611 E.97919
G1 X243.582 Y85.611 E.0242
G1 X248.905 Y90.935 E.28111
G1 X248.129 Y90.639 E.03101
G1 X247.901 Y90.579 E.00879
G1 X242.933 Y85.611 E.26233
G1 X242.285 Y85.611 E.0242
G1 X247.049 Y90.374 E.25153
G1 X246.292 Y90.266 E.02855
G1 X241.637 Y85.611 E.24579
G1 X240.989 Y85.611 E.0242
G1 X245.606 Y90.228 E.24383
G2 X244.951 Y90.221 I-.395 J6.014 E.02448
G1 X240.341 Y85.611 E.24345
G1 X239.693 Y85.611 E.0242
G1 X244.303 Y90.221 E.24345
G1 X243.655 Y90.221 E.0242
G1 X239.045 Y85.611 E.24346
G1 X238.396 Y85.61 E.0242
G1 X243.007 Y90.221 E.24346
G1 X242.359 Y90.221 E.0242
G1 X237.748 Y85.61 E.24347
M73 P1 R96
G1 X237.1 Y85.61 E.0242
G1 X241.711 Y90.221 E.24347
G1 X241.063 Y90.221 E.0242
G1 X236.452 Y85.61 E.24348
G1 X235.804 Y85.61 E.0242
G1 X240.415 Y90.221 E.24349
G1 X239.767 Y90.221 E.0242
G1 X235.156 Y85.61 E.24349
G1 X234.508 Y85.61 E.0242
G1 X239.119 Y90.221 E.2435
G1 X238.471 Y90.221 E.0242
G1 X233.859 Y85.61 E.2435
G1 X233.211 Y85.61 E.0242
G1 X237.823 Y90.221 E.24351
G1 X237.175 Y90.221 E.0242
G1 X232.563 Y85.61 E.24351
G1 X231.915 Y85.609 E.0242
G1 X236.527 Y90.221 E.24352
G1 X235.879 Y90.221 E.0242
G1 X231.267 Y85.609 E.24353
G1 X230.619 Y85.609 E.0242
G1 X235.231 Y90.221 E.24353
G1 X234.583 Y90.221 E.0242
G1 X229.971 Y85.609 E.24354
G1 X229.323 Y85.609 E.0242
G1 X233.935 Y90.221 E.24354
G1 X233.286 Y90.221 E.0242
G1 X228.674 Y85.609 E.24355
G1 X228.026 Y85.609 E.0242
G1 X232.638 Y90.221 E.24355
G1 X231.99 Y90.221 E.0242
G1 X227.378 Y85.609 E.24356
G1 X226.73 Y85.609 E.0242
G1 X231.342 Y90.221 E.24356
G1 X230.694 Y90.221 E.0242
G1 X226.082 Y85.608 E.24357
G1 X225.434 Y85.608 E.0242
G1 X230.046 Y90.221 E.24358
G1 X229.398 Y90.221 E.0242
G1 X224.786 Y85.608 E.24358
G1 X224.137 Y85.608 E.0242
G1 X228.75 Y90.221 E.24359
G1 X228.102 Y90.221 E.0242
G1 X223.489 Y85.608 E.24359
G1 X222.841 Y85.608 E.0242
G1 X227.454 Y90.221 E.2436
G1 X226.806 Y90.221 E.0242
G1 X222.193 Y85.608 E.2436
G1 X221.545 Y85.608 E.0242
G1 X226.158 Y90.221 E.24361
G1 X225.51 Y90.221 E.0242
G1 X220.664 Y85.375 E.25591
G1 E-.8 F3000
G1 X218.478 Y81.893 F9000
G1 E.8 F1800
G1 F6300
G1 X218.192 Y81.607 E.01514
G1 X217.544 Y81.607 E.0242
G1 X218.273 Y82.336 E.0385
G1 X218.28 Y82.991 E.02447
G1 X216.896 Y81.607 E.0731
G1 X216.248 Y81.607 E.0242
G1 X218.436 Y83.795 E.11554
G1 X218.487 Y83.963 E.00656
G1 X218.764 Y84.464 E.0214
G1 X219.165 Y84.917 E.02256
G1 X219.622 Y85.248 E.0211
G1 X220.101 Y85.459 E.01953
G1 X224.862 Y90.221 E.25144
G1 X224.214 Y90.221 E.0242
G1 X215.6 Y81.607 E.45489
G1 X214.952 Y81.607 E.0242
G1 X223.566 Y90.221 E.45489
G1 X222.918 Y90.221 E.0242
G1 X214.304 Y81.607 E.45489
G1 X213.656 Y81.607 E.0242
G1 X222.27 Y90.221 E.45489
G1 X221.622 Y90.221 E.0242
G1 X213.008 Y81.607 E.45489
G1 X212.36 Y81.607 E.0242
G1 X220.974 Y90.221 E.45489
G1 X220.849 Y90.221 E.00465
G2 X220.332 Y90.228 I-.197 J4.845 E.01931
G1 X211.711 Y81.607 E.45524
G1 X211.063 Y81.607 E.0242
G1 X219.718 Y90.261 E.45702
G2 X219.143 Y90.334 I.059 J2.764 E.02168
G1 X210.415 Y81.607 E.46088
G1 X209.767 Y81.607 E.0242
G1 X218.589 Y90.429 E.46585
G1 X218.079 Y90.567 E.01973
G1 X209.119 Y81.607 E.47315
G1 X208.471 Y81.607 E.0242
G1 X217.585 Y90.72 E.48126
G1 X217.117 Y90.9 E.01872
G1 X207.823 Y81.607 E.49076
G1 X207.175 Y81.607 E.0242
G1 X216.673 Y91.104 E.50152
G1 X216.244 Y91.323 E.01798
G1 X206.527 Y81.607 E.51311
G1 X205.879 Y81.607 E.0242
G1 X215.84 Y91.567 E.52597
G1 X215.448 Y91.823 E.01748
G1 X205.231 Y81.607 E.5395
G1 X204.583 Y81.607 E.0242
G1 X215.08 Y92.103 E.5543
G1 X214.722 Y92.393 E.0172
G1 X203.935 Y81.607 E.56961
G1 X203.287 Y81.607 E.0242
G1 X214.392 Y92.711 E.58641
G1 X214.067 Y93.035 E.01711
G1 X203.158 Y82.126 E.57604
G1 X203.158 Y82.774 E.0242
G1 X213.771 Y93.387 E.56044
G1 X213.481 Y93.744 E.0172
G1 X203.158 Y83.422 E.54508
G1 X203.158 Y84.07 E.0242
G1 X213.221 Y94.133 E.53139
G1 X212.966 Y94.526 E.01749
G1 X203.158 Y84.718 E.51791
G1 X203.158 Y85.366 E.0242
G1 X212.743 Y94.95 E.5061
G1 X212.525 Y95.381 E.01801
G1 X203.158 Y86.014 E.4946
G1 X203.158 Y86.662 E.0242
G1 X212.344 Y95.848 E.48507
G2 X212.172 Y96.324 I2.175 J1.059 E.01892
G1 X203.158 Y87.31 E.47596
G1 X203.158 Y87.958 E.0242
G1 X212.036 Y96.836 E.46879
G2 X211.92 Y97.368 I2.544 J.832 E.02038
G1 X203.158 Y88.606 E.46269
G1 X203.158 Y89.254 E.0242
G1 X211.832 Y97.928 E.45801
G1 X211.793 Y98.537 E.0228
G1 X203.158 Y89.902 E.45596
G1 X203.158 Y90.55 E.0242
G1 X211.773 Y99.165 E.45489
G1 X211.773 Y99.813 E.0242
G1 X203.158 Y91.198 E.45489
G1 X203.158 Y91.846 E.0242
G1 X211.773 Y100.461 E.45489
G1 X211.773 Y101.109 E.0242
G1 X203.158 Y92.494 E.45489
G1 X203.158 Y93.142 E.0242
G1 X211.773 Y101.757 E.45489
G1 X211.773 Y102.405 E.0242
G1 X203.158 Y93.79 E.45489
G1 X203.158 Y94.438 E.0242
G1 X211.773 Y103.053 E.45489
G1 X211.773 Y103.701 E.0242
G1 X203.158 Y95.087 E.45489
G1 X203.158 Y95.735 E.0242
G1 X211.773 Y104.349 E.45489
G1 X211.773 Y104.997 E.0242
G1 X203.158 Y96.383 E.45489
G1 X203.158 Y97.031 E.0242
G1 X211.773 Y105.645 E.45489
G1 X211.773 Y106.293 E.0242
G1 X203.158 Y97.679 E.45489
G1 X203.158 Y98.327 E.0242
G1 X211.773 Y106.941 E.45489
G1 X211.773 Y107.589 E.0242
G1 X203.158 Y98.975 E.45489
G1 X203.158 Y99.623 E.0242
G1 X211.773 Y108.237 E.45489
G1 X211.773 Y108.885 E.0242
G1 X203.158 Y100.271 E.45489
G1 X203.158 Y100.919 E.0242
G1 X211.773 Y109.533 E.45489
G1 X211.773 Y110.181 E.0242
G1 X203.158 Y101.567 E.45489
G1 X203.158 Y102.215 E.0242
G1 X211.773 Y110.829 E.45489
G1 X211.773 Y111.477 E.0242
G1 X203.158 Y102.863 E.45489
G1 X203.158 Y103.511 E.0242
G1 X211.773 Y112.125 E.45489
G1 X211.773 Y112.773 E.0242
G1 X203.158 Y104.159 E.45489
G1 X203.158 Y104.807 E.0242
G1 X211.773 Y113.421 E.45489
G1 X211.773 Y114.069 E.0242
G1 X203.158 Y105.455 E.45489
G1 X203.158 Y106.103 E.0242
G1 X211.773 Y114.717 E.45489
G1 X211.773 Y115.365 E.0242
