; HEADER_BLOCK_START
; generated by OrcaSlicer 1.6.3 on 2023-07-12 at 17:36:52
; total layer number: 99
; HEADER_BLOCK_END

; THUMBNAIL_BLOCK_START
; THUMBNAIL_BLOCK_END

; external perimeters extrusion width = 0.40mm
; perimeters extrusion width = 0.45mm
; infill extrusion width = 0.45mm
; solid infill extrusion width = 0.40mm
; top infill extrusion width = 0.40mm
; support material extrusion width = 0.40mm
; first layer extrusion width = 0.50mm

; external perimeters extrusion width = 0.40mm
; perimeters extrusion width = 0.45mm
; infill extrusion width = 0.45mm
; solid infill extrusion width = 0.40mm
; top infill extrusion width = 0.40mm
; support material extrusion width = 0.40mm
; first layer extrusion width = 0.50mm

; EXECUTABLE_BLOCK_START
EXCLUDE_OBJECT_DEFINE NAME=Ikea_Skadis_Shelf_150x60mm.stl_id_0_copy_0 CENTER=165,206 POLYGON=[[90,171],[90.2929,170.293],[90.3536,170.146],[90.5,170],[239,170],[239.854,170.354],[240,170.5],[240,229.5],[239.5,230],[207.2,242],[122.8,242],[90.5,230],[90,229.5],[90,171]]
EXCLUDE_OBJECT_DEFINE NAME=Ikea_Skadis_Shelf_150x60mm.stl_id_1_copy_0 CENTER=165,124 POLYGON=[[90,89],[90.2929,88.2929],[90.3536,88.1464],[90.5,88],[239,88],[239.854,88.3536],[240,88.5],[240,147.5],[239.5,148],[207.2,160],[122.8,160],[90.5,148],[90,147.5],[90,89]]
M73 P0 R124
;TYPE:Custom
START_PRINT T_BED=60 T_EXTRUDER=220
G90
G21
M83 ; use relative distances for extrusion
; filament start gcode

    PRESSURE_ADVANCE_SELECT FILAMENT=PLA
M106 S0
;LAYER_CHANGE
;Z:0.2
;HEIGHT:0.2
;BEFORE_LAYER_CHANGE
;0.2
G92 E0

M204 S1000
G1 E-.8 F3000
G1 X87.879 Y86.938 F9000
G1 Z.2
G1 E.8 F1800
;TYPE:Skirt
;WIDTH:0.5
G1 F3000
G1 X88.952 Y85.871 E.05638
G1 X90.4 Y85.486 E.0558
G1 X239.6 Y85.486 E5.55713
G1 X241.062 Y85.879 E.05638
G1 X242.129 Y86.952 E.05638
G1 X242.514 Y88.4 E.0558
G1 X242.514 Y229.9 E5.27034
G1 X241.661 Y231.961 E.08307
G1 X241.561 Y232.061 E.00527
G1 X240.818 Y232.599 E.03416
G1 X211.103 Y247.669 E1.24099
G1 X209.785 Y247.985 E.05048
G1 X120.215 Y247.985 E3.33612
G1 X118.897 Y247.669 E.05048
G1 X89.182 Y232.599 E1.24099
G1 X88.339 Y231.961 E.03937
G1 X87.486 Y229.9 E.08307
G1 X87.486 Y88.4 E5.27034
G1 X87.863 Y86.996 E.05415
G1 X88.317 Y87.13 F9000
G1 F3000
G1 X88.335 Y87.069 E.00236
G1 X89.385 Y86.162 E.05169
G1 X90.4 Y85.943 E.03866
G1 X239.6 Y85.943 E5.55713
M73 P0 R123
G1 X240.931 Y86.335 E.05169
G1 X241.838 Y87.385 E.05169
G1 X242.057 Y88.4 E.03866
G1 X242.057 Y229.9 E5.27034
G1 X241.337 Y231.637 E.07004
G1 X241.237 Y231.737 E.00527
G1 X240.611 Y232.191 E.0288
G1 X210.896 Y247.262 E1.24099
G1 X209.785 Y247.528 E.04256
G1 X120.215 Y247.528 E3.33612
G1 X119.104 Y247.262 E.04256
G1 X89.389 Y232.191 E1.24099
G1 X88.663 Y231.637 E.03401
G1 X87.943 Y229.9 E.07004
G1 X87.943 Y88.4 E5.27034
G1 X88.3 Y87.187 E.04709
; printing object Ikea_Skadis_Shelf_150x60mm.stl id:0 copy 0
EXCLUDE_OBJECT_START NAME=Ikea_Skadis_Shelf_150x60mm.stl_id_0_copy_0
G1 E-.8
G1 X129.786 Y245.07 F9000
G1 E.8 F1800
;TYPE:Support
G1 F3000
G1 X120.215 Y245.07 E.35649
G1 X120.215 Y230.6 E.53897
G1 X129.786 Y230.6 E.35649
G1 X129.786 Y245.002 E.53642
G1 X129.375 Y231.011 F9000
G1 F3000
G1 X129.375 Y244.659 E.50833
G1 X120.627 Y244.659 E.32584
G1 X120.627 Y231.011 E.50833
G1 X129.375 Y231.011 E.32584
G1 X128.867 Y231.519 F9000
G1 F3000
G1 X128.867 Y244.151 E.47049
G1 X121.135 Y244.151 E.28801
G1 X121.135 Y231.519 E.47049
G1 X128.867 Y231.519 E.28801
G1 X128.359 Y232.027 F9000
G1 F3000
G1 X128.359 Y243.643 E.43266
G1 X121.642 Y243.643 E.25018
G1 X121.642 Y232.027 E.43266
G1 X128.359 Y232.027 E.25018
G1 X127.851 Y232.535 F9000
G1 F3000
G1 X127.851 Y243.136 E.39483
G1 X122.15 Y243.136 E.21234
G1 X122.15 Y232.535 E.39483
G1 X127.851 Y232.535 E.21234
G1 X127.344 Y233.043 F9000
G1 F3000
G1 X127.344 Y242.628 E.357
G1 X122.658 Y242.628 E.17451
G1 X122.658 Y233.043 E.357
G1 X127.344 Y233.043 E.17451
G1 X126.836 Y233.551 F9000
G1 F3000
G1 X126.836 Y242.12 E.31917
G1 X123.166 Y242.12 E.13668
G1 X123.166 Y233.551 E.31917
G1 X126.836 Y233.551 E.13668
G1 X126.328 Y234.059 F9000
G1 F3000
G1 X126.328 Y241.612 E.28133
G1 X123.674 Y241.612 E.09885
G1 X123.674 Y234.059 E.28133
G1 X126.328 Y234.059 E.09885
G1 X125.82 Y234.566 F9000
G1 F3000
G1 X125.82 Y241.104 E.2435
G1 X124.182 Y241.104 E.06102
G1 X124.182 Y234.566 E.2435
G1 X125.82 Y234.566 E.06102
G1 X125.312 Y235.074 F9000
G1 F3000
G1 X125.312 Y240.596 E.20567
G1 X124.69 Y240.596 E.02318
G1 X124.69 Y235.074 E.20567
G1 X125.312 Y235.074 E.02318
G1 E-.8
G1 X169.786 Y245.07 F9000
G1 E.8 F1800
G1 F3000
G1 X160.214 Y245.07 E.35649
G1 X160.214 Y230.6 E.53897
G1 X169.786 Y230.6 E.35649
G1 X169.786 Y245.002 E.53642
G1 X160.626 Y231.011 F9000
G1 F3000
G1 X169.374 Y231.011 E.32584
G1 X169.374 Y244.659 E.50833
G1 X160.626 Y244.659 E.32584
G1 X160.626 Y231.011 E.50833
G1 X161.134 Y231.519 F9000
G1 F3000
G1 X168.866 Y231.519 E.28801
G1 X168.866 Y244.151 E.47049
G1 X161.134 Y244.151 E.28801
G1 X161.134 Y231.519 E.47049
G1 X161.642 Y232.027 F9000
G1 F3000
G1 X168.358 Y232.027 E.25018
G1 X168.358 Y243.643 E.43266
G1 X161.642 Y243.643 E.25018
G1 X161.642 Y232.027 E.43266
G1 X162.149 Y232.535 F9000
G1 F3000
G1 X167.851 Y232.535 E.21234
G1 X167.851 Y243.136 E.39483
G1 X162.149 Y243.136 E.21234
G1 X162.149 Y232.535 E.39483
G1 X162.657 Y233.043 F9000
G1 F3000
G1 X167.343 Y233.043 E.17451
G1 X167.343 Y242.628 E.357
G1 X162.657 Y242.628 E.17451
G1 X162.657 Y233.043 E.357
G1 X163.165 Y233.551 F9000
G1 F3000
G1 X166.835 Y233.551 E.13668
G1 X166.835 Y242.12 E.31917
G1 X163.165 Y242.12 E.13668
G1 X163.165 Y233.551 E.31917
G1 X163.673 Y234.059 F9000
G1 F3000
G1 X166.327 Y234.059 E.09885
G1 X166.327 Y241.612 E.28133
G1 X163.673 Y241.612 E.09885
G1 X163.673 Y234.059 E.28133
G1 X164.181 Y234.566 F9000
G1 F3000
G1 X165.819 Y234.566 E.06102
G1 X165.819 Y241.104 E.2435
G1 X164.181 Y241.104 E.06102
G1 X164.181 Y234.566 E.2435
G1 X164.689 Y235.074 F9000
G1 F3000
G1 X165.311 Y235.074 E.02318
G1 X165.311 Y240.596 E.20567
G1 X164.689 Y240.596 E.02318
G1 X164.689 Y235.074 E.20567
G1 E-.8
G1 X209.785 Y245.07 F9000
G1 E.8 F1800
G1 F3000
G1 X200.214 Y245.07 E.35649
G1 X200.214 Y230.6 E.53897
G1 X209.785 Y230.6 E.35649
G1 X209.785 Y245.002 E.53642
G1 X200.625 Y231.011 F9000
G1 F3000
G1 X209.373 Y231.011 E.32584
G1 X209.373 Y244.659 E.50833
G1 X200.625 Y244.659 E.32584
G1 X200.625 Y231.011 E.50833
G1 X201.133 Y231.519 F9000
G1 F3000
G1 X208.865 Y231.519 E.28801
G1 X208.865 Y244.151 E.47049
G1 X201.133 Y244.151 E.28801
G1 X201.133 Y231.519 E.47049
G1 X201.641 Y232.027 F9000
G1 F3000
G1 X208.358 Y232.027 E.25018
G1 X208.358 Y243.643 E.43266
G1 X201.641 Y243.643 E.25018
G1 X201.641 Y232.027 E.43266
G1 X202.149 Y232.535 F9000
G1 F3000
G1 X207.85 Y232.535 E.21234
G1 X207.85 Y243.136 E.39483
G1 X202.149 Y243.136 E.21234
G1 X202.149 Y232.535 E.39483
G1 X202.656 Y233.043 F9000
G1 F3000
G1 X207.342 Y233.043 E.17451
G1 X207.342 Y242.628 E.357
G1 X202.656 Y242.628 E.17451
G1 X202.656 Y233.043 E.357
G1 X203.164 Y233.551 F9000
G1 F3000
G1 X206.834 Y233.551 E.13668
G1 X206.834 Y242.12 E.31917
G1 X203.164 Y242.12 E.13668
G1 X203.164 Y233.551 E.31917
G1 X203.672 Y234.059 F9000
G1 F3000
G1 X206.326 Y234.059 E.09885
G1 X206.326 Y241.612 E.28133
G1 X203.672 Y241.612 E.09885
G1 X203.672 Y234.059 E.28133
G1 X204.18 Y234.566 F9000
G1 F3000
G1 X205.818 Y234.566 E.06102
G1 X205.818 Y241.104 E.2435
G1 X204.18 Y241.104 E.06102
G1 X204.18 Y234.566 E.2435
G1 X204.688 Y235.074 F9000
G1 F3000
G1 X205.31 Y235.074 E.02318
G1 X205.31 Y240.596 E.20567
G1 X204.688 Y240.596 E.02318
G1 X204.688 Y235.074 E.20567
G1 E-.8
G1 X207.737 Y229.4 F9000
G1 X239 Y171.215
G1 X239.25 Y170.75
G1 E.8 F1800
;TYPE:Outer wall
;WIDTH:0.499999
G1 F3000
G1 X239.25 Y200.2 E1.0969
G1 X239.25 Y229.65 E1.0969
G1 X90.75 Y229.65 E5.53105
G1 X90.75 Y170.75 E2.1938
G1 X239.19 Y170.75 E5.52882
G1 X239.219 Y170.824
G1 X238.793 Y171.207 F9000
;TYPE:Inner wall
G1 F3000
G1 X238.793 Y200.2 E1.07987
G1 X238.793 Y229.193 E1.07987
G1 X91.207 Y229.193 E5.497
G1 X91.207 Y171.207 E2.15975
G1 X238.733 Y171.207 E5.49477
G1 X238.336 Y171.664 F9000
G1 F3000
G1 X238.336 Y200.2 E1.06285
G1 X238.336 Y228.736 E1.06285
G1 X91.664 Y228.736 E5.46296
G1 X91.664 Y171.664 E2.1257
G1 X238.276 Y171.664 E5.46072
M73 P1 R122
G1 X237.879 Y172.121 F9000
G1 F3000
G1 X237.879 Y200.2 E1.04583
G1 X237.879 Y228.279 E1.04583
G1 X92.121 Y228.279 E5.42891
G1 X92.121 Y172.121 E2.09165
G1 X237.819 Y172.121 E5.42667
G1 X236.816 Y172.258 F9000
;TYPE:Bottom surface
;WIDTH:0.500966
G1 F6300
G1 X237.536 Y172.979 E.03802
G1 X237.536 Y173.626 E.02418
G1 X236.374 Y172.464 E.06136
G1 X235.726 Y172.464 E.02418
G1 X237.536 Y174.274 E.09555
G1 X237.536 Y174.922 E.02418
G1 X235.078 Y172.464 E.12975
G1 X234.43 Y172.464 E.02418
G1 X237.536 Y175.57 E.16394
G1 X237.536 Y176.218 E.02418
G1 X233.782 Y172.464 E.19813
G1 X233.135 Y172.464 E.02418
G1 X237.536 Y176.865 E.23232
G1 X237.536 Y177.513 E.02418
G1 X232.487 Y172.464 E.26652
G1 X231.839 Y172.464 E.02418
G1 X237.536 Y178.161 E.30071
G1 X237.536 Y178.809 E.02418
G1 X231.191 Y172.464 E.3349
G1 X230.544 Y172.464 E.02418
G1 X237.536 Y179.456 E.3691
G1 X237.536 Y180.104 E.02418
G1 X229.896 Y172.464 E.40329
G1 X229.248 Y172.464 E.02418
G1 X237.536 Y180.752 E.43748
G1 X237.536 Y181.4 E.02418
G1 X228.6 Y172.464 E.47168
G1 X227.952 Y172.464 E.02418
G1 X237.536 Y182.048 E.50587
G1 X237.536 Y182.695 E.02418
G1 X227.305 Y172.464 E.54006
G1 X226.657 Y172.464 E.02418
G1 X237.536 Y183.343 E.57426
G1 X237.536 Y183.991 E.02418
G1 X226.009 Y172.464 E.60845
G1 X225.361 Y172.464 E.02418
G1 X237.536 Y184.639 E.64264
G1 X237.536 Y185.286 E.02418
G1 X224.714 Y172.464 E.67683
G1 X224.066 Y172.464 E.02418
G1 X237.536 Y185.934 E.71103
G1 X237.536 Y186.582 E.02418
G1 X223.418 Y172.464 E.74522
G1 X222.77 Y172.464 E.02418
G1 X237.536 Y187.23 E.77941
G1 X237.536 Y187.878 E.02418
G1 X222.122 Y172.464 E.81361
G1 X221.475 Y172.464 E.02418
G1 X237.536 Y188.525 E.8478
G1 X237.536 Y189.173 E.02418
G1 X220.827 Y172.464 E.88199
G1 X220.179 Y172.464 E.02418
G1 X237.536 Y189.821 E.91619
G1 X237.536 Y190.469 E.02418
G1 X219.531 Y172.464 E.95038
G1 X218.884 Y172.464 E.02418
G1 X237.536 Y191.116 E.98457
G1 X237.536 Y191.764 E.02418
G1 X218.236 Y172.464 E1.01877
G1 X217.588 Y172.464 E.02418
G1 X237.536 Y192.412 E1.05296
G1 X237.536 Y193.06 E.02418
G1 X216.94 Y172.464 E1.08715
G1 X216.293 Y172.464 E.02418
G1 X237.536 Y193.707 E1.12134
G1 X237.536 Y194.355 E.02418
G1 X215.645 Y172.464 E1.15554
G1 X214.997 Y172.464 E.02418
G1 X237.536 Y195.003 E1.18973
G1 X237.536 Y195.651 E.02418
G1 X214.349 Y172.464 E1.22392
G1 X213.701 Y172.464 E.02418
G1 X237.536 Y196.299 E1.25812
G1 X237.536 Y196.946 E.02418
G1 X213.054 Y172.464 E1.29231
G1 X212.406 Y172.464 E.02418
G1 X237.536 Y197.594 E1.3265
G1 X237.536 Y198.242 E.02418
G1 X211.758 Y172.464 E1.3607
G1 X211.11 Y172.464 E.02418
G1 X237.536 Y198.89 E1.39489
G1 X237.536 Y199.537 E.02418
G1 X210.463 Y172.464 E1.42908
G1 X209.815 Y172.464 E.02418
G1 X237.536 Y200.185 E1.46328
G1 X237.536 Y200.833 E.02418
G1 X209.167 Y172.464 E1.49747
G1 X208.519 Y172.464 E.02418
G1 X237.536 Y201.481 E1.53166
G1 X237.536 Y202.129 E.02418
G1 X207.871 Y172.464 E1.56585
G1 X207.224 Y172.464 E.02418
G1 X237.536 Y202.776 E1.60005
G1 X237.536 Y203.424 E.02418
G1 X206.576 Y172.464 E1.63424
G1 X205.928 Y172.464 E.02418
G1 X237.536 Y204.072 E1.66843
G1 X237.536 Y204.72 E.02418
G1 X205.28 Y172.464 E1.70263
G1 X204.633 Y172.464 E.02418
G1 X237.536 Y205.367 E1.73682
G1 X237.536 Y206.015 E.02418
G1 X203.985 Y172.464 E1.77101
G1 X203.337 Y172.464 E.02418
G1 X237.536 Y206.663 E1.80521
G1 X237.536 Y207.311 E.02418
G1 X202.689 Y172.464 E1.8394
G1 X202.041 Y172.464 E.02418
G1 X237.536 Y207.959 E1.87359
G1 X237.536 Y208.606 E.02418
G1 X201.394 Y172.464 E1.90779
G1 X200.746 Y172.464 E.02418
G1 X237.536 Y209.254 E1.94198
G1 X237.536 Y209.902 E.02418
G1 X200.098 Y172.464 E1.97617
G1 X199.45 Y172.464 E.02418
G1 X237.536 Y210.55 E2.01036
G1 X237.536 Y211.197 E.02418
G1 X198.803 Y172.464 E2.04456
G1 X198.155 Y172.464 E.02418
G1 X237.536 Y211.845 E2.07875
G1 X237.536 Y212.493 E.02418
G1 X197.507 Y172.464 E2.11294
G1 X196.859 Y172.464 E.02418
G1 X237.536 Y213.141 E2.14714
G1 X237.536 Y213.789 E.02418
G1 X196.211 Y172.464 E2.18133
G1 X195.564 Y172.464 E.02418
G1 X237.536 Y214.436 E2.21552
G1 X237.536 Y215.084 E.02418
G1 X194.916 Y172.464 E2.24972
G1 X194.268 Y172.464 E.02418
G1 X237.536 Y215.732 E2.28391
G1 X237.536 Y216.38 E.02418
G1 X193.62 Y172.464 E2.3181
G1 X192.973 Y172.464 E.02418
G1 X237.536 Y217.027 E2.3523
G1 X237.536 Y217.675 E.02418
G1 X192.325 Y172.464 E2.38649
G1 X191.677 Y172.464 E.02418
G1 X237.536 Y218.323 E2.42068
G1 X237.536 Y218.971 E.02418
G1 X191.029 Y172.464 E2.45487
G1 X190.382 Y172.464 E.02418
G1 X237.536 Y219.618 E2.48907
G1 X237.536 Y220.266 E.02418
G1 X189.734 Y172.464 E2.52326
G1 X189.086 Y172.464 E.02418
G1 X237.536 Y220.914 E2.55745
G1 X237.536 Y221.562 E.02418
G1 X188.438 Y172.464 E2.59165
G1 X187.79 Y172.464 E.02418
G1 X237.536 Y222.21 E2.62584
G1 X237.536 Y222.857 E.02418
G1 X187.143 Y172.464 E2.66003
G1 X186.495 Y172.464 E.02418
G1 X237.536 Y223.505 E2.69423
G1 X237.536 Y224.153 E.02418
G1 X185.847 Y172.464 E2.72842
G1 X185.199 Y172.464 E.02418
G1 X237.536 Y224.801 E2.76261
G1 X237.536 Y225.448 E.02418
G1 X184.552 Y172.464 E2.79681
G1 X183.904 Y172.464 E.02418
G1 X237.536 Y226.096 E2.831
G1 X237.536 Y226.744 E.02418
G1 X183.256 Y172.464 E2.86519
G1 X182.608 Y172.464 E.02418
G1 X237.536 Y227.392 E2.89938
G1 X237.536 Y227.936 E.02031
G1 X237.432 Y227.936 E.00387
G1 X181.96 Y172.464 E2.92811
G1 X181.313 Y172.464 E.02418
G1 X236.785 Y227.936 E2.92811
G1 X236.137 Y227.936 E.02418
G1 X180.665 Y172.464 E2.92811
G1 X180.017 Y172.464 E.02418
G1 X235.489 Y227.936 E2.92811
G1 X234.841 Y227.936 E.02418
G1 X179.369 Y172.464 E2.92811
G1 X178.722 Y172.464 E.02418
G1 X234.194 Y227.936 E2.92811
G1 X233.546 Y227.936 E.02418
G1 X178.074 Y172.464 E2.92811
G1 X177.426 Y172.464 E.02418
G1 X232.898 Y227.936 E2.92811
G1 X232.25 Y227.936 E.02418
G1 X176.778 Y172.464 E2.92811
M73 P1 R121
G1 X176.13 Y172.464 E.02418
G1 X231.602 Y227.936 E2.92811
G1 X230.955 Y227.936 E.02418
G1 X175.483 Y172.464 E2.92811
G1 X174.835 Y172.464 E.02418
G1 X230.307 Y227.936 E2.92811
G1 X229.659 Y227.936 E.02418
G1 X174.187 Y172.464 E2.92811
G1 X173.539 Y172.464 E.02418
G1 X229.011 Y227.936 E2.92811
G1 X228.364 Y227.936 E.02418
G1 X172.892 Y172.464 E2.92811
G1 X172.244 Y172.464 E.02418
G1 X227.716 Y227.936 E2.92811
G1 X227.068 Y227.936 E.02418
G1 X171.596 Y172.464 E2.92811
G1 X170.948 Y172.464 E.02418
G1 X226.42 Y227.936 E2.92811
G1 X225.772 Y227.936 E.02418
G1 X170.301 Y172.464 E2.92811
G1 X169.653 Y172.464 E.02418
G1 X225.125 Y227.936 E2.92811
G1 X224.477 Y227.936 E.02418
G1 X169.005 Y172.464 E2.92811
G1 X168.357 Y172.464 E.02418
G1 X223.829 Y227.936 E2.92811
G1 X223.181 Y227.936 E.02418
G1 X167.709 Y172.464 E2.92811
G1 X167.062 Y172.464 E.02418
G1 X222.534 Y227.936 E2.92811
G1 X221.886 Y227.936 E.02418
G1 X166.414 Y172.464 E2.92811
M73 P2 R121
G1 X165.766 Y172.464 E.02418
G1 X221.238 Y227.936 E2.92811
G1 X220.59 Y227.936 E.02418
G1 X165.118 Y172.464 E2.92811
G1 X164.471 Y172.464 E.02418
G1 X219.942 Y227.936 E2.92811
G1 X219.295 Y227.936 E.02418
G1 X163.823 Y172.464 E2.92811
G1 X163.175 Y172.464 E.02418
G1 X218.647 Y227.936 E2.92811
G1 X217.999 Y227.936 E.02418
G1 X162.527 Y172.464 E2.92811
G1 X161.879 Y172.464 E.02418
G1 X217.351 Y227.936 E2.92811
G1 X216.704 Y227.936 E.02418
G1 X161.232 Y172.464 E2.92811
G1 X160.584 Y172.464 E.02418
G1 X216.056 Y227.936 E2.92811
G1 X215.408 Y227.936 E.02418
G1 X159.936 Y172.464 E2.92811
G1 X159.288 Y172.464 E.02418
G1 X214.76 Y227.936 E2.92811
G1 X214.112 Y227.936 E.02418
G1 X158.641 Y172.464 E2.92811
G1 X157.993 Y172.464 E.02418
G1 X213.465 Y227.936 E2.92811
G1 X212.817 Y227.936 E.02418
G1 X157.345 Y172.464 E2.92811
G1 X156.697 Y172.464 E.02418
G1 X212.169 Y227.936 E2.92811
G1 X211.521 Y227.936 E.02418
G1 X156.049 Y172.464 E2.92811
G1 X155.402 Y172.464 E.02418
G1 X210.874 Y227.936 E2.92811
G1 X210.226 Y227.936 E.02418
G1 X154.754 Y172.464 E2.92811
G1 X154.106 Y172.464 E.02418
G1 X209.578 Y227.936 E2.92811
