; generated by SuperSlicer 2.5.59 on 2023-01-30 at 00:23:21 UTC


;
;

;
;
; 

; external perimeters extrusion width = 0.40mm
; perimeters extrusion width = 0.46mm
; infill extrusion width = 0.64mm
; solid infill extrusion width = 0.56mm
; top infill extrusion width = 0.40mm
; first layer extrusion width = 0.50mm

; external perimeters extrusion width = 0.40mm
; perimeters extrusion width = 0.46mm
; infill extrusion width = 0.64mm
; solid infill extrusion width = 0.56mm
; top infill extrusion width = 0.40mm
; first layer extrusion width = 0.50mm

; object:{"name":"JST","id":"JST.STL id:0 copy 0","object_center":[178.508183,160.708693,0.000000],"boundingbox_center":[178.508183,160.708693,5.000000],"boundingbox_size":[38.658049,109.132698,10.000000]}
; object:{"name":"JST 2","id":"JST 2.STL id:1 copy 0","object_center":[151.492273,169.291309,0.000000],"boundingbox_center":[151.492273,169.291309,5.000000],"boundingbox_size":[38.658960,109.132698,10.000000]}
; plater:{"center":[165.000000,165.000001,0.000000],"boundingbox_center":[165.000000,165.000001,5.000000],"boundingbox_size":[65.674414,117.715314,10.000000]}

M73 P0 R55


; Pre-Processed for Cancel-Object support by preprocess_cancellation v0.2.0
; 2 known objects
EXCLUDE_OBJECT_DEFINE NAME=JST_STL_id_0_copy_0 CENTER=178.211,152.778 POLYGON=[[159.379,106.342],[159.379,215.074],[197.637,215.074],[197.637,106.342]]
EXCLUDE_OBJECT_DEFINE NAME=JST_2_STL_id_1_copy_0 CENTER=152.510,179.217 POLYGON=[[132.363,114.926],[132.363,223.658],[170.622,223.658],[170.622,114.926]]
;TYPE:Custom
; custom gcode: start_gcode
START_PRINT T_BED=60 T_EXTRUDER=200
; custom gcode end: start_gcode
M107
G21 ; set units to millimeters
G90 ; use absolute coordinates
M82 ; use absolute distances for extrusion
G92 E0
; custom gcode: start_filament_gcode
; Filament gcode

    PRESSURE_ADVANCE_SELECT FILAMENT=PLA
; custom gcode end: start_filament_gcode
;_TOOLCHANGE 0
M109 S200 ; set temperature and wait for it to be reached
M190 S60 ; set bed temperature and wait for it to be reached
;LAYER_CHANGE
;Z:0.2
;HEIGHT:0.2
G1 Z0.2 F9000
G1 E-0.8 F3000
M204 S1000
G1 X133.17 Y116.166 F9000
G1 E0 F1800
;TYPE:Skirt
;WIDTH:0.52
G1 X132.736 Y116.689 E0.02508
G1 X132.138 Y117.563 E0.06413
G1 X131.408 Y119.04 E0.12491
G1 X130.853 Y121.127 E0.2046
G1 X130.484 Y127.857 E0.45326
G1 X130.448 Y134.056 E0.68195
G1 X130.684 Y140.272 E0.91146
G1 X131.187 Y146.439 E1.13971
G1 X132.01 Y152.89 E1.37964
G1 X133.015 Y158.767 E1.59958
G1 X134.329 Y164.843 E1.82893
G1 X135.907 Y170.856 E2.0583
G1 X137.775 Y176.88 E2.29096
G1 X144.385 Y196.492 E3.05449
G1 X155.257 Y224.454 E4.16131
G1 X155.873 Y225.495 E4.20595
G1 X156.703 Y226.287 E4.24824
G1 X157.627 Y226.779 E4.28689
G1 X158.745 Y227.052 E4.32934
G1 X166.919 Y227.073 E4.63088
G1 X167.67 Y227.001 E4.65871
G1 X168.514 Y226.761 E4.69109
G1 X193.348 Y216.285 E5.68546
G1 X194.813 Y215.535 E5.74617
G1 X195.631 Y214.96 E5.78307
G1 X196.825 Y213.84 E5.84348
G1 X197.24 Y213.344 E5.86733
G1 X197.816 Y212.519 E5.90445
G1 X198.561 Y211.05 E5.96523
G1 X198.781 Y210.442 E5.98909
G1 X199.147 Y208.873 E6.04851
G1 X199.52 Y201.988 E6.30288
G1 X199.549 Y195.787 E6.53167
G1 X199.306 Y189.567 E6.76131
G1 X198.778 Y183.273 E6.99432
G1 X198.01 Y177.215 E7.2196
G1 X196.968 Y171.146 E7.44679
G1 X195.637 Y165.017 E7.67816
G1 X194.098 Y159.164 E7.90143
G1 X192.26 Y153.228 E8.13071
G1 X185.618 Y133.507 E8.89842
G1 X174.7 Y105.301 E10.01422
G1 X174.214 Y104.421 E10.05131
G1 X172.901 Y103.321 E10.11448
G1 X171.235 Y102.927 E10.17766
G1 X163.081 Y102.927 E10.47848
G1 X162.334 Y102.999 E10.50616
G1 X161.475 Y103.245 E10.53914
G1 X136.791 Y113.653 E11.52744
M73 P0 R55
G1 X135.747 Y114.139 E11.56991
G1 X134.369 Y115.04 E11.63065
G1 X133.17 Y116.166 E11.69134
G1 X133.544 Y116.514 F9000
G1 F1800
G1 X133.13 Y116.959 E11.71377
G1 X132.532 Y117.832 E11.75282
G1 X131.843 Y119.236 E11.81052
G1 X131.328 Y121.173 E11.88444
G1 X130.957 Y128.017 E12.13731
G1 X130.928 Y134.2 E12.36543
G1 X131.169 Y140.395 E12.59416
G1 X131.678 Y146.546 E12.82184
G1 X132.483 Y152.83 E13.05556
G1 X133.512 Y158.824 E13.27996
G1 X134.828 Y164.879 E13.50856
G1 X136.369 Y170.735 E13.73193
G1 X138.203 Y176.653 E13.96053
G1 X144.887 Y196.479 E14.73241
G1 X155.702 Y224.281 E15.83294
M73 P0 R55
G1 X156.239 Y225.189 E15.87185
G1 X156.976 Y225.896 E15.90955
G1 X157.79 Y226.331 E15.9436
G1 X158.787 Y226.576 E15.98146
G1 X166.919 Y226.596 E16.28146
G1 X167.595 Y226.529 E16.30652
G1 X168.331 Y226.321 E16.33475
G1 X193.027 Y215.906 E17.32355
G1 X194.051 Y215.428 E17.36523
G1 X195.356 Y214.569 E17.42288
G1 X196.849 Y213.071 E17.50092
G1 X197.425 Y212.246 E17.53804
G1 X198.128 Y210.849 E17.59575
G1 X198.672 Y208.827 E17.67298
G1 X199.043 Y201.986 E17.92576
G1 X199.072 Y195.805 E18.15378
G1 X198.831 Y189.607 E18.38262
G1 X198.302 Y183.313 E18.61563
G1 X197.54 Y177.296 E18.8394
G1 X196.501 Y171.247 E19.06582
G1 X195.176 Y165.138 E19.29642
G1 X193.598 Y159.149 E19.52492
G1 X191.804 Y153.369 E19.74819
G1 X185.173 Y133.679 E20.5147
G1 X174.255 Y105.473 E21.63051
G1 X172.783 Y103.798 E21.7128
G1 X171.235 Y103.404 E21.77172
G1 X163.081 Y103.404 E22.07254
G1 X162.409 Y103.47 E22.09745
G1 X161.66 Y103.684 E22.12619
G1 X135.95 Y114.571 E23.15624
G1 X134.213 Y115.794 E23.2346
G1 X133.544 Y116.514 E23.27087
G92 E0
G1 E-0.8 F3000
; printing object JST.STL id:0 copy 0
EXCLUDE_OBJECT_START NAME=JST_STL_id_0_copy_0
; acceleration to travel
M204 S3000
G1 X157.785 Y130.63 F9000
; decel to extrusion
M204 S1000
G1 X165.866 Y135.335
; end travel
G1 E0 F1800
;TYPE:Internal perimeter
;WIDTH:0.5
G1 X165.394 Y136.348 E0.03949
G1 X165.084 Y137.504 E0.08182
G1 X164.98 Y138.697 E0.12414
G1 X165.084 Y139.89 E0.16646
G1 X165.394 Y141.046 E0.20878
G1 X165.9 Y142.131 E0.2511
G1 X166.587 Y143.112 E0.29342
G1 X167.433 Y143.959 E0.33574
G1 X168.414 Y144.646 E0.37806
G1 X169.499 Y145.152 E0.42038
G1 X170.656 Y145.462 E0.46271
G1 X171.848 Y145.566 E0.50503
G1 X173.041 Y145.462 E0.54735
G1 X174.198 Y145.152 E0.58967
G1 X175.283 Y144.646 E0.63199
G1 X176.264 Y143.959 E0.67431
G1 X177.11 Y143.112 E0.71663
G1 X177.797 Y142.131 E0.75895
G1 X178.303 Y141.046 E0.80128
G1 X178.613 Y139.89 E0.8436
G1 X178.717 Y138.697 E0.88592
G1 X178.613 Y137.504 E0.92824
G1 X178.303 Y136.348 E0.97056
G1 X177.797 Y135.262 E1.01288
G1 X177.11 Y134.282 E1.0552
G1 X176.264 Y133.435 E1.09752
G1 X175.283 Y132.748 E1.13984
G1 X174.198 Y132.242 E1.18217
G1 X173.041 Y131.932 E1.22449
G1 X171.848 Y131.828 E1.26681
G1 X171.294 Y131.877 E1.28649
G1 X170.656 Y131.932 E1.30913
G1 X169.499 Y132.242 E1.35145
G1 X168.414 Y132.748 E1.39377
G1 X167.433 Y133.435 E1.43609
G1 X166.587 Y134.282 E1.47841
G1 X165.9 Y135.262 E1.52073
G1 X165.866 Y135.335 E1.52356
G1 X166.28 Y135.528 F9000
G1 F1800
G1 X165.825 Y136.505 E1.56164
G1 X165.536 Y137.584 E1.60114
G1 X165.438 Y138.697 E1.64063
G1 X165.536 Y139.81 E1.68012
G1 X165.825 Y140.889 E1.71962
G1 X166.297 Y141.902 E1.75911
G1 X166.938 Y142.817 E1.79861
G1 X167.728 Y143.607 E1.8381
G1 X168.643 Y144.248 E1.8776
G1 X169.656 Y144.721 E1.91709
G1 X170.735 Y145.01 E1.95658
G1 X171.848 Y145.107 E1.99608
G1 X172.962 Y145.01 E2.03557
G1 X174.041 Y144.721 E2.07507
G1 X175.054 Y144.248 E2.11456
G1 X175.969 Y143.607 E2.15406
G1 X176.759 Y142.817 E2.19355
G1 X177.4 Y141.902 E2.23304
G1 X177.872 Y140.889 E2.27254
G1 X178.161 Y139.81 E2.31203
G1 X178.259 Y138.697 E2.35153
G1 X178.161 Y137.584 E2.39102
G1 X177.872 Y136.505 E2.43052
G1 X177.4 Y135.492 E2.47001
G1 X176.759 Y134.577 E2.5095
G1 X175.969 Y133.786 E2.549
G1 X175.054 Y133.146 E2.58849
G1 X174.041 Y132.673 E2.62799
G1 X172.962 Y132.384 E2.66748
G1 X171.848 Y132.287 E2.70697
G1 X171.333 Y132.332 E2.72525
G1 X170.735 Y132.384 E2.74647
G1 X169.656 Y132.673 E2.78596
G1 X168.643 Y133.146 E2.82546
G1 X167.728 Y133.786 E2.86495
G1 X166.938 Y134.577 E2.90445
G1 X166.297 Y135.492 E2.94394
G1 X166.28 Y135.528 E2.94535
G1 X166.694 Y135.721 F9000
;TYPE:External perimeter
G1 F1800
G1 X166.256 Y136.661 E2.98202
G1 X165.988 Y137.664 E3.01869
G1 X165.897 Y138.697 E3.05536
G1 X165.988 Y139.73 E3.09202
G1 X166.256 Y140.732 E3.12869
G1 X166.694 Y141.673 E3.16536
G1 X167.289 Y142.522 E3.20202
G1 X168.023 Y143.256 E3.23869
G1 X168.873 Y143.851 E3.27536
G1 X169.813 Y144.289 E3.31203
G1 X170.815 Y144.558 E3.34869
G1 X171.848 Y144.648 E3.38536
G1 X172.882 Y144.558 E3.42203
G1 X173.884 Y144.289 E3.4587
G1 X174.824 Y143.851 E3.49536
G1 X175.674 Y143.256 E3.53203
G1 X176.407 Y142.522 E3.5687
G1 X177.002 Y141.673 E3.60537
G1 X177.441 Y140.732 E3.64203
G1 X177.709 Y139.73 E3.6787
G1 X177.8 Y138.697 E3.71537
G1 X177.709 Y137.664 E3.75204
G1 X177.441 Y136.661 E3.7887
G1 X177.002 Y135.721 E3.82537
G1 X176.407 Y134.872 E3.86204
G1 X175.674 Y134.138 E3.8987
G1 X174.824 Y133.543 E3.93537
G1 X173.884 Y133.105 E3.97204
G1 X172.882 Y132.836 E4.00871
G1 X171.848 Y132.746 E4.04537
G1 X171.373 Y132.787 E4.06223
G1 X170.815 Y132.836 E4.08204
G1 X169.813 Y133.105 E4.11871
G1 X168.873 Y133.543 E4.15538
G1 X168.023 Y134.138 E4.19204
G1 X167.289 Y134.872 E4.22871
G1 X166.694 Y135.721 E4.26538
;WIPE_START
M204 S4000
G1 X166.295 Y135.733 F9000
;WIPE_END
G92 E0
G1 E-0.8 F3000
; acceleration to travel
M204 S3000
G1 X175.223 Y143.782 F9000
; decel to extrusion
M204 S1000
G1 X178.2 Y146.465
; end travel
G1 E0 F1800
;TYPE:Internal perimeter
G1 X175.765 Y147.716 E0.09675
G1 X174.361 Y148.202 E0.14926
G1 X172.819 Y148.48 E0.20466
G1 X171.421 Y148.52 E0.25407
G1 X169.948 Y148.344 E0.30652
G1 X168.52 Y147.948 E0.3589
G1 X167.134 Y147.325 E0.4126
G1 X165.896 Y146.523 E0.46473
G1 X164.809 Y145.561 E0.51605
G1 X163.856 Y144.424 E0.56847
G1 X163.086 Y143.158 E0.62086
G1 X162.515 Y141.79 E0.67325
G1 X162.156 Y140.348 E0.72578
G1 X162.01 Y138.901 E0.77719
G1 X161.387 Y133.957 E0.9533
G1 X161.003 Y130.249 E1.08508
G1 X160.844 Y126.385 E1.22178
G1 X160.93 Y122.519 E1.35844
G1 X161.262 Y118.667 E1.49511
G1 X161.837 Y114.843 E1.63177
G1 X162.653 Y111.064 E1.76844
G1 X163.576 Y107.807 E1.88811
G1 X167.374 Y107.807 E2.02236
G1 X166.79 Y108.353 E2.05065
G1 X166.52 Y108.708 E2.0664
G1 X166.312 Y109.103 E2.08216
G1 X166.174 Y109.526 E2.09791
G1 X166.111 Y109.944 E2.11283
G1 X166.054 Y112.885 E2.21682
G1 X166.267 Y115.796 E2.31998
G1 X166.752 Y118.684 E2.42351
G1 X167.501 Y121.509 E2.52679
G1 X168.508 Y124.251 E2.63003
G1 X169.71 Y126.784 E2.72912
G1 X170.855 Y128.829 E2.812
G1 X172.992 Y128.931 E2.88761
G1 X174.506 Y129.231 E2.94217
G1 X175.951 Y129.762 E2.99656
G1 X177.31 Y130.521 E3.05159
G1 X178.503 Y131.459 E3.10524
G1 X179.551 Y132.586 E3.15963
G1 X180.41 Y133.862 E3.214
G1 X181.059 Y135.258 E3.26841
G1 X181.472 Y136.687 E3.32099
G1 X181.668 Y138.209 E3.37524
G1 X181.619 Y139.798 E3.43142
G1 X181.327 Y141.309 E3.48581
G1 X180.802 Y142.761 E3.5404
G1 X179.559 Y145.07 E3.63309
G1 X183.348 Y147.258 E3.78775
G1 X184.217 Y145.706 E3.85061
G1 X185.579 Y149.049 E3.97821
G1 X187.607 Y154.698 E4.19036
G1 X189.386 Y160.43 E4.40247
G1 X190.912 Y166.233 E4.61458
G1 X192.193 Y172.153 E4.82868
G1 X193.196 Y178.013 E5.03882
G1 X193.917 Y183.706 E5.24165
G1 X194.442 Y189.949 E5.46308
G1 X194.672 Y195.948 E5.67529
G1 X194.64 Y201.937 E5.88698
G1 X194.373 Y207.542 E6.08532
G1 X194.299 Y208.311 E6.1126
G1 X194.092 Y209.087 E6.14098
G1 X193.757 Y209.809 E6.16914
G1 X193.297 Y210.467 E6.19751
G1 X192.739 Y211.028 E6.22547
G1 X192.087 Y211.487 E6.25365
G1 X191.366 Y211.825 E6.28182
G1 X190.596 Y212.034 E6.30999
G1 X189.803 Y212.106 E6.33815
G1 X189.008 Y212.039 E6.36634
G1 X188.244 Y211.838 E6.39426
G1 X187.466 Y211.469 E6.42469
G1 X186.86 Y211.048 E6.45079
G1 X186.295 Y210.49 E6.47886
G1 X185.835 Y209.84 E6.507
G1 X185.492 Y209.116 E6.53531
G1 X185.28 Y208.342 E6.56368
G1 X185.214 Y207.754 E6.58461
G1 X185.625 Y202.386 E6.7749
G1 X185.856 Y196.386 E6.98714
G1 X185.849 Y190.38 E7.1994
G1 X185.604 Y184.38 E7.41168
G1 X185.122 Y178.393 E7.62397
G1 X184.375 Y172.245 E7.84288
G1 X183.45 Y166.502 E8.04848
G1 X182.279 Y160.691 E8.258
G1 X180.842 Y154.781 E8.47299
G1 X179.288 Y149.319 E8.67371
G1 X178.2 Y146.465 E8.78166
G1 X177.954 Y147.105 F9000
G1 F1800
G1 X175.945 Y148.137 E8.86152
G1 X174.477 Y148.646 E8.91642
G1 X172.866 Y148.936 E8.97428
G1 X171.4 Y148.978 E9.0261
G1 X169.859 Y148.793 E9.08098
G1 X168.364 Y148.38 E9.13581
G1 X166.915 Y147.728 E9.19197
G1 X165.619 Y146.888 E9.24654
G1 X164.48 Y145.881 E9.30028
G1 X163.484 Y144.691 E9.35513
G1 X162.678 Y143.366 E9.40996
G1 X162.08 Y141.934 E9.4648
G1 X161.704 Y140.426 E9.51972
G1 X161.556 Y138.952 E9.57209
G1 X160.933 Y134.009 E9.74818
G1 X160.547 Y130.282 E9.88064
G1 X160.387 Y126.389 E10.01835
G1 X160.474 Y122.494 E10.15604
G1 X160.808 Y118.613 E10.29373
G1 X161.387 Y114.761 E10.43142
G1 X162.209 Y110.953 E10.56912
G1 X163.23 Y107.349 E10.70151
G1 X170.528 Y107.349 E10.95946
G1 X170.528 Y107.935 E10.98016
G1 X168.736 Y107.935 E11.0435
G1 X168.402 Y107.963 E11.05535
G1 X168.045 Y108.055 E11.06839
G1 X167.707 Y108.205 E11.08144
G1 X167.4 Y108.409 E11.09449
G1 X167.13 Y108.661 E11.10753
G1 X166.906 Y108.955 E11.12058
G1 X166.735 Y109.281 E11.13363
G1 X166.62 Y109.632 E11.14668
G1 X166.567 Y109.982 E11.15919
G1 X166.511 Y112.873 E11.26138
G1 X166.722 Y115.741 E11.36303
G1 X167.199 Y118.588 E11.46506
G1 X167.937 Y121.371 E11.56684
G1 X168.93 Y124.074 E11.6686
G1 X170.116 Y126.574 E11.76641
G1 X171.13 Y128.385 E11.83978
G1 X173.048 Y128.476 E11.90763
G1 X174.63 Y128.79 E11.96466
G1 X176.142 Y129.345 E12.02159
G1 X177.322 Y130 E12.06929
G1 X177.564 Y130.139 E12.07916
G1 X178.814 Y131.122 E12.13534
G1 X179.91 Y132.301 E12.19226
G1 X180.809 Y133.637 E12.24915
G1 X181.489 Y135.097 E12.30608
G1 X181.921 Y136.594 E12.36115
G1 X182.126 Y138.187 E12.41794
G1 X182.126 Y138.464 E12.42773
G1 X182.074 Y139.849 E12.4767
G1 X181.769 Y141.431 E12.53365
G1 X181.22 Y142.948 E12.59069
G1 X180.172 Y144.896 E12.66889
G1 X183.176 Y146.63 E12.79149
G1 X184.282 Y144.654 E12.87155
G1 X186.006 Y148.885 E13.03305
G1 X188.041 Y154.553 E13.2459
G1 X189.825 Y160.304 E13.45872
G1 X191.356 Y166.127 E13.67154
G1 X192.642 Y172.066 E13.88634
G1 X193.648 Y177.946 E14.09718
G1 X194.372 Y183.658 E14.3007
G1 X194.898 Y189.921 E14.52285
G1 X195.129 Y195.941 E14.73578
G1 X195.097 Y201.95 E14.94816
G1 X194.829 Y207.575 E15.14723
G1 X194.75 Y208.392 E15.17623
G1 X194.524 Y209.243 E15.20736
G1 X194.155 Y210.038 E15.23834
G1 X193.649 Y210.762 E15.26954
G1 X193.034 Y211.379 E15.30032
G1 X192.317 Y211.883 E15.33132
G1 X191.524 Y212.256 E15.36231
G1 X190.678 Y212.486 E15.3933
G1 X189.804 Y212.565 E15.42429
G1 X188.93 Y212.492 E15.45529
G1 X188.087 Y212.269 E15.48612
G1 X187.237 Y211.866 E15.51937
G1 X186.566 Y211.401 E15.54821
G1 X185.945 Y210.786 E15.5791
G1 X185.439 Y210.072 E15.61005
G1 X185.062 Y209.276 E15.64119
G1 X184.83 Y208.429 E15.67223
G1 X184.755 Y207.762 E15.69595
G1 X185.169 Y202.36 E15.88746
G1 X185.399 Y196.377 E16.09907
G1 X185.392 Y190.39 E16.3107
G1 X185.148 Y184.407 E16.52233
M73 P1 R54
G1 X184.668 Y178.439 E16.73398
G1 X183.923 Y172.309 E16.95225
G1 X183 Y166.584 E17.15722
G1 X181.832 Y160.79 E17.3661
G1 X180.4 Y154.897 E17.58046
G1 X178.854 Y149.463 E17.78016
G1 X177.954 Y147.105 E17.86936
G1 X177.709 Y147.745 F9000
;TYPE:External perimeter
G1 F1800
G1 X176.125 Y148.559 E17.93232
G1 X174.593 Y149.09 E17.98963
G1 X172.913 Y149.392 E18.04996
G1 X171.38 Y149.436 E18.10418
G1 X169.77 Y149.243 E18.16147
G1 X168.208 Y148.811 E18.21876
G1 X166.695 Y148.13 E18.2774
G1 X165.342 Y147.253 E18.3344
G1 X164.152 Y146.2 E18.39056
G1 X163.111 Y144.958 E18.44784
G1 X162.269 Y143.574 E18.50511
G1 X161.645 Y142.078 E18.56239
G1 X161.253 Y140.505 E18.6197
G1 X161.102 Y139.004 E18.67304
G1 X160.479 Y134.062 E18.8491
G1 X160.091 Y130.315 E18.98224
G1 X159.929 Y126.393 E19.12097
G1 X160.017 Y122.47 E19.25968
G1 X160.353 Y118.56 E19.3984
G1 X160.937 Y114.679 E19.53712
G1 X161.765 Y110.843 E19.67583
G1 X162.829 Y107.088 E19.81377
G1 X162.874 Y106.999 E19.81729
G1 X162.928 Y106.944 E19.82002
G1 X162.997 Y106.909 E19.82275
G1 X163.101 Y106.892 E19.82647
G1 X170.985 Y106.892 E20.10514
G1 X170.985 Y108.392 E20.15816
G1 X168.755 Y108.392 E20.23697
G1 X168.479 Y108.416 E20.24679
G1 X168.195 Y108.488 E20.25713
