; generated by SuperSlicer 2.5.59 on 2023-01-15 at 21:38:37 UTC


;
;

;
;
; 

; external perimeters extrusion width = 0.40mm
; perimeters extrusion width = 0.46mm
; infill extrusion width = 0.64mm
; solid infill extrusion width = 0.56mm
; top infill extrusion width = 0.40mm
; first layer extrusion width = 0.50mm

; external perimeters extrusion width = 0.40mm
; perimeters extrusion width = 0.46mm
; infill extrusion width = 0.64mm
; solid infill extrusion width = 0.56mm
; top infill extrusion width = 0.40mm
; first layer extrusion width = 0.50mm

; object:{"name":"KlickyProbe_Longer_v2","id":"KlickyProbe_Longer_v2.stl id:0 copy 0","object_center":[180.197168,154.616631,0.000000],"boundingbox_center":[180.197168,154.616631,18.069870],"boundingbox_size":[27.033966,16.046341,36.139740]}
; object:{"name":"KlickyProbe_Microswitch_XL","id":"KlickyProbe_Microswitch_XL.stl id:1 copy 0","object_center":[148.469622,174.794013,0.000000],"boundingbox_center":[148.469622,174.794013,11.195936],"boundingbox_size":[27.033997,17.225052,22.391871]}
; plater:{"center":[164.333387,165.000000,0.000000],"boundingbox_center":[164.333387,165.000000,18.069870],"boundingbox_size":[58.761527,36.813078,36.139740]}

M73 P0 R60


; Pre-Processed for Cancel-Object support by preprocess_cancellation v0.2.0
; 2 known objects
EXCLUDE_OBJECT_DEFINE NAME=KlickyProbe_Longer_v2_stl_id_0_copy_0 CENTER=179.923,153.849 POLYGON=[[166.88,146.799],[166.88,162.44],[193.514,162.44],[193.514,146.799]]
EXCLUDE_OBJECT_DEFINE NAME=KlickyProbe_Microswitch_XL_stl_id_1_copy_0 CENTER=148.426,175.137 POLYGON=[[135.153,166.381],[135.153,183.207],[161.787,183.207],[161.787,166.381]]
;TYPE:Custom
; custom gcode: start_gcode
START_PRINT T_BED=110 T_EXTRUDER=240
; custom gcode end: start_gcode
M107
G21 ; set units to millimeters
G90 ; use absolute coordinates
M82 ; use absolute distances for extrusion
G92 E0
; custom gcode: start_filament_gcode
; Filament gcode

    PRESSURE_ADVANCE_SELECT FILAMENT=ABS
; custom gcode end: start_filament_gcode
;_TOOLCHANGE 0
M109 S240 ; set temperature and wait for it to be reached
M190 S110 ; set bed temperature and wait for it to be reached
;LAYER_CHANGE
;Z:0.2
;HEIGHT:0.2
G1 Z0.2 F9000
G1 E-0.5 F3000
M204 S1000
G1 X132.73 Y162.619 F9000
G1 E0 F1800
;TYPE:Skirt
;WIDTH:0.52
G1 X131.079 Y164.602 E0.10237
G1 X130.683 Y166.483 E0.17864
G1 X130.683 Y182.472 E0.81289
G1 X130.902 Y183.885 E0.86962
G1 X131.848 Y185.558 E0.94589
G1 X133.389 Y186.709 E1.02215
G1 X135.262 Y187.141 E1.09841
G1 X140.24 Y187.236 E1.29593
G1 X156.699 Y187.236 E1.94884
G1 X161.677 Y187.141 E2.14635
G1 X164.083 Y186.418 E2.246
G1 X195.91 Y166.286 E3.73995
M73 P0 R60
G1 X197.689 Y164.217 E3.84818
G1 X198.084 Y162.336 E3.92445
G1 X198.082 Y160.099 E4.0132
G1 X197.999 Y159.226 E4.04798
G1 X197.597 Y157.96 E4.10066
G1 X197.003 Y156.984 E4.14598
G1 X196.208 Y156.159 E4.19141
G1 X189.4 Y150.967 E4.53109
G1 X186.891 Y150.023 E4.63743
G1 X186.469 Y149.994 E4.65421
G1 X173.787 Y150.083 E5.15732
G1 X172.487 Y150.284 E5.2095
G1 X134.068 Y161.964 E6.80243
G1 X132.73 Y162.619 E6.86152
G1 X133.005 Y163.008 F9000
G1 F1800
G1 X131.555 Y164.706 E6.9501
G1 X131.16 Y166.483 E7.02232
G1 X131.16 Y182.472 E7.65657
G1 X131.278 Y183.462 E7.69612
G1 X132.082 Y185.095 E7.76834
G1 X133.502 Y186.234 E7.84055
G1 X135.271 Y186.664 E7.91277
G1 X140.24 Y186.759 E8.10992
G1 X156.699 Y186.759 E8.76283
G1 X161.668 Y186.664 E8.95997
G1 X163.828 Y186.015 E9.04944
G1 X195.655 Y165.883 E10.54339
G1 X197.213 Y164.114 E10.6369
G1 X197.607 Y162.336 E10.70911
G1 X197.605 Y160.099 E10.79786
G1 X197.53 Y159.315 E10.82909
G1 X197.162 Y158.156 E10.87733
G1 X196.629 Y157.28 E10.91802
G1 X195.908 Y156.53 E10.95932
G1 X189.111 Y151.346 E11.2984
G1 X186.858 Y150.499 E11.39388
G1 X186.436 Y150.47 E11.41066
G1 X173.793 Y150.56 E11.91223
G1 X172.626 Y150.741 E11.95908
G1 X134.206 Y162.42 E13.55201
G1 X133.005 Y163.008 E13.60507
G1 X133.281 Y163.398 F9000
G1 F1800
G1 X132.032 Y164.817 E13.68006
M73 P0 R59
G1 X131.637 Y166.483 E13.74799
G1 X131.637 Y182.472 E14.38225
G1 X132.331 Y184.635 E14.47236
G1 X133.622 Y185.76 E14.54029
G1 X135.281 Y186.187 E14.60822
G1 X140.24 Y186.282 E14.805
G1 X156.699 Y186.282 E15.45791
G1 X161.659 Y186.187 E15.65469
G1 X163.573 Y185.612 E15.73398
G1 X195.4 Y165.48 E17.22793
G1 X196.736 Y164.003 E17.30691
G1 X197.129 Y162.337 E17.37485
G1 X197.128 Y160.099 E17.4636
G1 X197.041 Y159.295 E17.49571
G1 X196.777 Y158.463 E17.53032
G1 X196.255 Y157.576 E17.57114
G1 X195.538 Y156.844 E17.61182
G1 X188.822 Y151.726 E17.94676
G1 X186.825 Y150.975 E18.03138
G1 X186.403 Y150.945 E18.04816
G1 X173.799 Y151.037 E18.54819
G1 X172.764 Y151.197 E18.58971
G1 X134.345 Y162.877 E20.18265
G1 X133.281 Y163.398 E20.22966
G1 X133.556 Y163.787 F9000
G1 F1800
G1 X132.508 Y164.935 E20.29134
G1 X132.114 Y166.483 E20.35469
G1 X132.114 Y182.472 E20.98895
G1 X132.6 Y184.178 E21.05931
G1 X133.75 Y185.286 E21.12267
G1 X135.29 Y185.71 E21.18603
G1 X140.24 Y185.805 E21.38244
G1 X156.758 Y185.804 E22.03767
G1 X161.649 Y185.71 E22.23176
G1 X163.318 Y185.209 E22.30087
G1 X195.145 Y165.076 E23.79482
G1 X196.26 Y163.885 E23.85954
G1 X196.652 Y162.337 E23.9229
G1 X196.651 Y160.1 E24.01165
G1 X196.572 Y159.384 E24.0402
G1 X196.342 Y158.659 E24.07038
G1 X195.802 Y157.773 E24.11154
G1 X195.156 Y157.15 E24.14713
G1 X188.533 Y152.105 E24.47743
G1 X186.793 Y151.45 E24.55118
G1 X186.371 Y151.421 E24.56796
G1 X173.805 Y151.514 E25.06646
G1 X172.903 Y151.654 E25.10264
G1 X134.484 Y163.333 E26.69558
G1 X133.556 Y163.787 E26.73656
G92 E0
G1 E-0.5 F3000
; printing object KlickyProbe_Longer_v2.stl id:0 copy 0
EXCLUDE_OBJECT_START NAME=KlickyProbe_Longer_v2_stl_id_0_copy_0
; acceleration to travel
M204 S3000
G1 X159.498 Y161.828 F9000
; decel to extrusion
M204 S1000
G1 X168.145 Y161.175
; end travel
G1 E0 F1800
;TYPE:Internal perimeter
;WIDTH:0.5
G1 X168.145 Y160.804 E0.01412
G1 X170.92 Y160.803 E0.11958
G1 X171.345 Y160.776 E0.13575
G1 X171.998 Y160.62 E0.16127
G1 X172.527 Y160.386 E0.18327
G1 X173.072 Y160.018 E0.20826
G1 X173.412 Y159.697 E0.22602
G1 X173.771 Y159.238 E0.24817
G1 X173.984 Y158.861 E0.26461
G1 X174.17 Y158.397 E0.28363
G1 X174.295 Y157.864 E0.30444
G1 X174.336 Y157.396 E0.32231
G1 X174.314 Y156.937 E0.33975
G1 X174.25 Y156.564 E0.35416
G1 X174.176 Y156.303 E0.36447
G1 X174.185 Y156.181 E0.36908
G1 X174.218 Y156.058 E0.37394
G1 X174.281 Y155.916 E0.37983
G1 X180.273 Y155.914 E0.60757
G1 X180.009 Y156.361 E0.6273
G1 X179.808 Y156.804 E0.64578
G1 X179.655 Y157.266 E0.66428
G1 X179.554 Y157.742 E0.68277
G1 X179.503 Y158.226 E0.70127
G1 X179.506 Y158.708 E0.71958
G1 X179.544 Y159.066 E0.73327
G1 X179.662 Y159.658 E0.7562
G1 X179.824 Y160.132 E0.77524
G1 X180.029 Y160.573 E0.79373
G1 X180.394 Y161.176 E0.82051
G1 X168.145 Y161.175 E1.28605
G1 X167.688 Y161.632 F9000
G1 F1800
G1 X167.688 Y160.347 E1.33491
G1 X170.906 Y160.346 E1.45719
G1 X171.277 Y160.322 E1.47132
G1 X171.851 Y160.185 E1.49375
G1 X172.305 Y159.984 E1.51263
G1 X172.786 Y159.66 E1.53467
G1 X173.073 Y159.389 E1.54969
G1 X173.39 Y158.984 E1.56922
G1 X173.571 Y158.663 E1.58322
G1 X173.733 Y158.259 E1.59976
G1 X173.842 Y157.791 E1.61801
G1 X173.878 Y157.386 E1.63347
G1 X173.859 Y156.987 E1.64866
G1 X173.803 Y156.665 E1.66109
G1 X173.714 Y156.349 E1.67356
G1 X173.733 Y156.105 E1.68288
G1 X173.786 Y155.905 E1.69072
G1 X173.851 Y155.759 E1.6968
G1 X173.932 Y155.63 E1.70258
G1 X174.087 Y155.459 E1.71136
G1 X180.433 Y155.457 E1.95256
G1 X181.305 Y155.436 E1.9857
G1 X180.901 Y155.846 E2.00758
G1 X180.576 Y156.301 E2.02883
G1 X180.415 Y156.573 E2.04084
G1 X180.234 Y156.971 E2.05745
G1 X180.097 Y157.386 E2.07407
G1 X180.006 Y157.814 E2.09069
G1 X179.961 Y158.249 E2.10732
G1 X179.963 Y158.683 E2.12382
G1 X179.996 Y158.997 E2.13582
G1 X180.105 Y159.539 E2.15682
G1 X180.249 Y159.961 E2.17378
G1 X180.433 Y160.357 E2.1904
G1 X180.66 Y160.732 E2.20702
G1 X180.926 Y161.08 E2.22368
G1 X181.454 Y161.633 E2.25275
G1 X167.688 Y161.632 E2.77597
G92 E0
G1 E-0.5 F3000
; acceleration to travel
M204 S3000
G1 X182.952 Y160.737 F9000
; decel to extrusion
M204 S1000
G1 X188.041 Y160.438
; end travel
G1 E0 F1800
G1 X188.315 Y160.589 E0.01188
G1 X188.975 Y160.765 E0.03785
G1 X189.465 Y160.803 E0.05652
G1 X192.248 Y160.805 E0.16232
G1 X192.249 Y161.176 E0.17643
G1 X187.601 Y161.178 E0.35307
G1 X187.917 Y160.712 E0.37447
G1 X188.041 Y160.438 E0.38587
G1 X187.783 Y159.775 F9000
G1 F1800
G1 X188.486 Y160.161 E0.41636
G1 X189.052 Y160.312 E0.43863
G1 X189.483 Y160.346 E0.45503
G1 X192.705 Y160.348 E0.57751
G1 X192.706 Y161.633 E0.62635
G1 X186.546 Y161.635 E0.86049
G1 X186.992 Y161.205 E0.88406
G1 X187.198 Y160.958 E0.89627
G1 X187.517 Y160.488 E0.91788
G1 X187.717 Y160.044 E0.93639
G1 X187.783 Y159.775 E0.9469
; acceleration to travel
M204 S3000
G1 X187.571 Y158.985 F9000
; decel to extrusion
M204 S1000
G1 X187.5 Y158.722
; end travel
;TYPE:External perimeter
G1 F1800
G1 X187.679 Y158.954 E0.95804
G1 X188.211 Y159.489 E0.98671
G1 X188.657 Y159.734 E1.00606
G1 X189.129 Y159.86 E1.02462
G1 X189.5 Y159.888 E1.03877
G1 X192.911 Y159.891 E1.16838
G1 X193.044 Y159.932 E1.17369
G1 X193.131 Y160.023 E1.17847
G1 X193.162 Y160.126 E1.18255
G1 X193.164 Y162.09 E1.25718
G1 X186.605 Y162.092 E1.50644
G1 X186.102 Y162.107 E1.52559
G1 X185.119 Y162.19 E1.56307
G1 X183.65 Y162.19 E1.61888
G1 X182.68 Y162.184 E1.65578
G1 X182.19 Y162.123 E1.67454
G1 X181.188 Y162.09 E1.71265
G1 X167.231 Y162.09 E2.24311
G1 X167.231 Y160.163 E2.31631
G1 X167.262 Y160.034 E2.32135
G1 X167.327 Y159.946 E2.32552
G1 X167.431 Y159.899 E2.32988
G1 X167.502 Y159.89 E2.33258
G1 X170.891 Y159.889 E2.4614
G1 X171.209 Y159.869 E2.4735
G1 X171.704 Y159.751 E2.49285
G1 X172.083 Y159.583 E2.5086
G1 X172.499 Y159.302 E2.52768
G1 X172.734 Y159.08 E2.53997
G1 X173.008 Y158.729 E2.55688
G1 X173.158 Y158.464 E2.56844
G1 X173.296 Y158.121 E2.58251
G1 X173.39 Y157.719 E2.5982
G1 X173.42 Y157.377 E2.61124
G1 X173.404 Y157.037 E2.62418
G1 X173.357 Y156.766 E2.63464
G1 X173.252 Y156.396 E2.64927
G1 X173.28 Y156.028 E2.66328
G1 X173.354 Y155.753 E2.67411
G1 X173.447 Y155.543 E2.68281
G1 X173.567 Y155.353 E2.69137
G1 X173.794 Y155.102 E2.70425
G1 X173.928 Y155.002 E2.71059
G1 X180.428 Y155 E2.95762
G1 X180.911 Y154.988 E2.976
G1 X181.853 Y154.902 E3.01194
G1 X182.064 Y154.902 E3.01996
G1 X182.061 Y155.283 E3.03441
G1 X181.958 Y155.473 E3.04264
G1 X181.811 Y155.649 E3.05136
G1 X181.533 Y155.856 E3.06451
G1 X181.252 Y156.141 E3.07973
G1 X180.959 Y156.551 E3.09886
G1 X180.821 Y156.784 E3.10918
G1 X180.661 Y157.137 E3.12392
G1 X180.539 Y157.506 E3.13867
G1 X180.458 Y157.885 E3.15341
G1 X180.418 Y158.271 E3.16816
G1 X180.42 Y158.658 E3.18285
G1 X180.448 Y158.928 E3.19318
G1 X180.547 Y159.419 E3.21223
G1 X180.673 Y159.79 E3.22713
G1 X180.837 Y160.142 E3.24187
G1 X181.038 Y160.474 E3.25661
G1 X181.274 Y160.783 E3.27137
G1 X181.54 Y161.061 E3.28604
G1 X181.747 Y161.239 E3.29641
G1 X182.072 Y161.461 E3.31136
G1 X182.432 Y161.63 E3.32648
G1 X183.14 Y161.837 E3.35449
G1 X183.507 Y161.912 E3.36872
G1 X183.885 Y161.947 E3.38317
G1 X184.375 Y161.927 E3.40179
G1 X184.634 Y161.894 E3.41174
G1 X184.996 Y161.808 E3.42585
G1 X185.705 Y161.59 E3.45407
G1 X186.06 Y161.4 E3.46937
G1 X186.376 Y161.164 E3.48438
G1 X186.657 Y160.893 E3.49919
G1 X186.832 Y160.683 E3.50958
G1 X187.116 Y160.264 E3.52884
G1 X187.283 Y159.894 E3.54425
G1 X187.376 Y159.514 E3.55911
G1 X187.5 Y158.722 E3.5896
;WIPE_START
M204 S4000
G1 X187.651 Y159.092 F9000
;WIPE_END
G92 E0
G1 E-0.5 F3000
; acceleration to travel
M204 S3000
G1 X183.51 Y156.012 F9000
; decel to extrusion
M204 S1000
G1 X182.13 Y154.985
; end travel
G1 E0 F1800
;TYPE:Thin wall
;WIDTH:0.062817
G1 X182.115 Y154.985 E0.00003
;WIDTH:0.00698
G1 X182.13 Y154.985 E0.00003
;WIDTH:0.024171
G1 X182.255 Y154.983 E0.00024
;WIDTH:0.04
G1 X182.315 Y154.982 E0.00042
G1 X182.415 Y154.982 E0.00072
G1 X182.515 Y154.982 E0.00101
G1 X185.513 Y154.982 E0.00991
G1 X185.613 Y154.982 E0.01021
G1 X185.713 Y154.982 E0.01051
G1 X185.789 Y154.984 E0.01073
;WIDTH:0.01975
G1 X185.914 Y154.985 E0.01089
G1 X185.965 Y154.985 F9000
;TYPE:External perimeter
;WIDTH:0.5
G1 F1800
G1 X185.964 Y154.902 E0.01404
G1 X186.46 Y154.924 E0.0329
G1 X186.607 Y155.07 E0.04075
G1 X186.839 Y155.352 E0.05464
G1 X186.976 Y155.562 E0.06415
G1 X187.121 Y155.844 E0.07623
G1 X187.23 Y156.138 E0.08814
G1 X187.237 Y156.467 E0.10065
G1 X187.121 Y156.84 E0.11551
G1 X187.132 Y156.887 F9000
;TYPE:Thin wall
;WIDTH:0.138396
G1 F1800
G1 X187.149 Y157.006 E0.1165
;WIDTH:0.281751
G1 X187.152 Y157.026 E0.11691
G1 X187.177 Y157.19 E0.12028
G1 X187.187 Y157.255 E0.1216
;WIDTH:0.36
G1 X187.197 Y157.32 E0.12336
G1 X187.222 Y157.473 E0.12749
G1 X187.23 Y157.509 E0.12849
G1 X187.27 Y157.728 E0.13443
G1 X187.296 Y157.835 E0.13738
G1 X187.342 Y158.075 E0.14389
G1 X187.369 Y158.178 E0.14675
G1 X187.38 Y158.227 E0.14809
G1 X187.416 Y158.349 E0.15148
G1 X187.468 Y158.538 E0.15672
;WIDTH:0.218249
G1 X187.501 Y158.658 E0.15858
;WIDTH:0.062817
G1 X187.505 Y158.673 E0.15861
;WIDTH:0.00698
G1 X187.501 Y158.658 E0.15861
;WIDTH:0.02425
G1 X187.468 Y158.538 E0.15882
;WIDTH:0.04
G1 X187.416 Y158.349 E0.1594
G1 X187.38 Y158.227 E0.15978
G1 X187.369 Y158.178 E0.15993
G1 X187.342 Y158.075 E0.16025
G1 X187.296 Y157.835 E0.16097
G1 X187.27 Y157.728 E0.1613
G1 X187.23 Y157.509 E0.16196
G1 X187.222 Y157.473 E0.16207
G1 X187.197 Y157.32 E0.16253
G1 X187.187 Y157.255 E0.16272
;WIDTH:0.031306
G1 X187.177 Y157.19 E0.16287
G1 X187.152 Y157.026 E0.16324
G1 X187.149 Y157.006 E0.16329
;WIDTH:0.015377
G1 X187.132 Y156.887 E0.1634
G1 X187.121 Y156.84 F9000
;TYPE:External perimeter
;WIDTH:0.5
G1 F1800
G1 X186.908 Y156.479 E0.17933
G1 X186.487 Y155.887 E0.20695
G1 X186.22 Y155.664 E0.22017
G1 X186.072 Y155.476 E0.22925
G1 X185.968 Y155.283 E0.23761
G1 X185.965 Y154.985 E0.24892
G1 X185.914 Y154.985 F9000
;TYPE:Thin wall
;WIDTH:0.17775
G1 F1800
G1 X185.789 Y154.984 E0.25036
;WIDTH:0.36
G1 X185.713 Y154.982 E0.2524
G1 X185.613 Y154.982 E0.25507
G1 X185.513 Y154.982 E0.25774
G1 X182.515 Y154.982 E0.33784
G1 X182.415 Y154.982 E0.34052
G1 X182.315 Y154.982 E0.34319
G1 X182.255 Y154.983 E0.34481
;WIDTH:0.217541
G1 X182.13 Y154.985 E0.34666
G92 E0
G1 E-0.5 F3000
; acceleration to travel
M204 S3000
G1 X179.928 Y155.758 F9000
; decel to extrusion
M204 S1000
G1 X179.088 Y156.052
; end travel
G1 E0 F1800
;TYPE:Solid infill
;WIDTH:0.509006
G1 F3600
G1 X179.715 Y156.678 E0.03426
G1 X179.547 Y157.157 F9000
G1 F3600
G1 X178.442 Y156.052 E0.09472
G1 X177.796 Y156.052 F9000
G1 F3600
G1 X179.426 Y157.682 E0.18391
G1 X179.367 Y158.269 F9000
G1 F3600
G1 X177.15 Y156.053 E0.30521
G1 X176.504 Y156.053 F9000
G1 F3600
G1 X179.408 Y158.957 E0.46413
G1 X179.546 Y159.742 F9000
G1 F3600
G1 X175.857 Y156.053 E0.66596
G1 X175.211 Y156.053 F9000
G1 F3600
G1 X180.007 Y160.849 E0.92836
G1 X179.55 Y161.039 F9000
G1 F3600
G1 X174.565 Y156.053 E1.20114
G1 X174.358 Y156.493 F9000
G1 F3600
G1 X178.904 Y161.039 E1.4499
G1 X178.257 Y161.039 F9000
G1 F3600
G1 X174.466 Y157.248 E1.65734
G1 X174.433 Y157.86 F9000
G1 F3600
G1 X177.611 Y161.039 E1.83124
G1 X176.965 Y161.039 F9000
G1 F3600
G1 X174.313 Y158.387 E1.97631
G1 X174.134 Y158.855 F9000
G1 F3600
G1 X176.318 Y161.039 E2.09581
G1 X175.672 Y161.039 F9000
G1 F3600
G1 X173.908 Y159.275 E2.19233
G1 X173.629 Y159.642 F9000
G1 F3600
G1 X175.025 Y161.039 E2.26873
G1 X174.379 Y161.039 F9000
G1 F3600
G1 X173.316 Y159.976 E2.32686
G1 X172.988 Y160.294 F9000
G1 F3600
G1 X173.732 Y161.038 E2.36761
G1 X173.073 Y160.651 F9000
;TYPE:Gap fill
;WIDTH:0.678986
G1 F1800
G1 X172.98 Y160.679 E2.37275
;WIDTH:0.593503
G1 X172.887 Y160.708 E2.37721
;WIDTH:0.529391
G1 X172.84 Y160.722 E2.37917
;WIDTH:0.501791
G1 X172.75 Y160.749 E2.38278
;WIDTH:0.464597
G1 X172.713 Y160.759 E2.38412
G1 X172.625 Y160.778 E2.38728
;WIDTH:0.411464
G1 X172.537 Y160.796 E2.39004
;WIDTH:0.367924
G1 X172.449 Y160.815 E2.39247
;WIDTH:0.324384
G1 X172.36 Y160.834 E2.39458
;WIDTH:0.280844
G1 X172.272 Y160.852 E2.39636
;WIDTH:0.237304
G1 X172.184 Y160.871 E2.39782
;WIDTH:0.193764
G1 X172.096 Y160.89 E2.39895
G1 X172.082 Y160.892 E2.39912
G1 X171.975 Y160.904 E2.40047
