; HEADER_BLOCK_START
; generated by OrcaSlicer 1.6.4-beta3 on 2023-08-20 at 12:10:53
; total layer number: 122
; HEADER_BLOCK_END

; THUMBNAIL_BLOCK_START
; THUMBNAIL_BLOCK_END

; external perimeters extrusion width = 0.40mm
; perimeters extrusion width = 0.46mm
; infill extrusion width = 0.64mm
; solid infill extrusion width = 0.56mm
; top infill extrusion width = 0.40mm
; support material extrusion width = 0.46mm
; first layer extrusion width = 0.50mm

; external perimeters extrusion width = 0.40mm
; perimeters extrusion width = 0.46mm
; infill extrusion width = 0.64mm
; solid infill extrusion width = 0.56mm
; top infill extrusion width = 0.40mm
; support material extrusion width = 0.46mm
; first layer extrusion width = 0.50mm

; external perimeters extrusion width = 0.40mm
; perimeters extrusion width = 0.46mm
; infill extrusion width = 0.64mm
; solid infill extrusion width = 0.56mm
; top infill extrusion width = 0.40mm
; support material extrusion width = 0.46mm
; first layer extrusion width = 0.50mm

; external perimeters extrusion width = 0.40mm
; perimeters extrusion width = 0.46mm
; infill extrusion width = 0.64mm
; solid infill extrusion width = 0.56mm
; top infill extrusion width = 0.40mm
; support material extrusion width = 0.46mm
; first layer extrusion width = 0.50mm

; EXECUTABLE_BLOCK_START
EXCLUDE_OBJECT_DEFINE NAME=LargeChipClip.stl_id_0_copy_0 CENTER=200.737,213.994 POLYGON=[[135.146,170.641],[135.216,169.861],[135.428,169.073],[135.762,168.359],[136.228,167.695],[136.788,167.137],[137.45,166.673],[138.172,166.339],[138.948,166.129],[139.584,166.063],[139.746,166.061],[264.59,166.061],[264.656,166.065],[264.72,166.069],[264.782,166.077],[264.844,166.087],[264.902,166.099],[264.968,166.113],[265.088,166.149],[265.148,166.169],[265.202,166.191],[265.26,166.215],[265.316,166.241],[265.376,166.273],[265.432,166.303],[265.48,166.333],[265.534,166.367],[265.586,166.403],[265.636,166.441],[265.688,166.483],[265.732,166.523],[265.778,166.565],[265.822,166.609],[265.826,166.613],[265.866,166.655],[265.91,166.705],[265.946,166.751],[265.986,166.805],[266.054,166.905],[266.09,166.965],[266.118,167.015],[266.172,167.127],[266.196,167.185],[266.218,167.243],[266.242,167.307],[266.26,167.369],[266.276,167.429],[266.288,167.485],[266.3,167.549],[266.31,167.611],[266.318,167.673],[266.324,167.735],[266.326,167.797],[266.328,167.861],[266.328,179.061],[266.324,179.145],[266.32,179.175],[266.31,179.229],[266.304,179.255],[266.296,179.285],[266.288,179.309],[266.27,179.359],[266.258,179.387],[266.246,179.413],[228.184,257.685],[223.94,261.927],[161.324,199.311],[136.21,174.195],[135.476,172.377],[135.444,172.293],[135.414,172.211],[135.38,172.113],[135.362,172.059],[135.316,171.905],[135.3,171.845],[135.28,171.769],[135.244,171.617],[135.21,171.437],[135.194,171.327],[135.19,171.299],[135.17,171.141],[135.168,171.119],[135.154,170.959],[135.146,170.801],[135.146,170.641]]
EXCLUDE_OBJECT_DEFINE NAME=BagClip_125.stl_id_1_copy_0 CENTER=198.696,114.567 POLYGON=[[135.146,72.6728],[135.146,72.6527],[135.149,72.5122],[135.15,72.4926],[135.157,72.3519],[135.159,72.3328],[135.171,72.1919],[135.173,72.1733],[135.191,72.0326],[135.193,72.0145],[135.216,71.874],[135.219,71.8564],[135.246,71.7164],[135.25,71.6994],[135.283,71.5599],[135.287,71.5435],[135.324,71.4048],[135.329,71.389],[135.371,71.2513],[135.376,71.236],[135.423,71.0995],[135.429,71.0848],[135.481,70.9496],[135.487,70.9355],[135.544,70.8018],[135.55,70.7884],[135.612,70.6563],[135.618,70.6435],[135.684,70.5132],[135.691,70.501],[135.762,70.3728],[135.769,70.3612],[135.845,70.2351],[135.852,70.2242],[135.932,70.1005],[135.939,70.0901],[136.024,69.9689],[136.032,69.9592],[136.121,69.8407],[136.128,69.8316],[136.222,69.7159],[136.229,69.7074],[136.328,69.5948],[136.335,69.5868],[136.437,69.4773],[136.444,69.47],[136.551,69.3638],[136.558,69.357],[136.668,69.2543],[136.675,69.248],[136.789,69.149],[136.796,69.1432],[136.914,69.0479],[136.921,69.0427],[137.042,68.9513],[137.049,68.9466],[137.174,68.8592],[137.18,68.855],[137.308,68.7717],[137.314,68.768],[137.446,68.689],[137.452,68.6857],[137.586,68.6112],[137.592,68.6083],[137.729,68.5383],[137.735,68.5358],[137.875,68.4704],[137.88,68.4683],[138.023,68.4077],[138.027,68.4059],[138.173,68.3502],[138.177,68.3487],[138.324,68.2979],[138.328,68.2967],[138.478,68.251],[138.481,68.25],[138.633,68.2094],[138.636,68.2086],[138.79,68.1733],[138.792,68.1727],[138.947,68.1426],[138.949,68.1423],[139.106,68.1175],[139.108,68.1173],[139.265,68.098],[139.266,68.0978],[139.425,68.084],[139.426,68.0839],[139.585,68.0756],[139.586,68.0755],[139.746,68.0728],[260.446,68.0728],[260.509,68.0739],[260.572,68.0771],[260.634,68.0826],[260.696,68.0903],[260.759,68.1001],[260.82,68.1121],[260.881,68.1262],[260.942,68.1425],[261.002,68.1609],[261.062,68.1813],[261.12,68.2038],[261.178,68.2284],[261.235,68.2549],[261.291,68.2835],[261.346,68.3139],[261.4,68.3463],[261.453,68.3805],[261.504,68.4165],[261.554,68.4543],[261.603,68.4939],[261.65,68.5351],[261.696,68.5779],[261.741,68.6224],[261.784,68.6683],[261.825,68.7157],[261.864,68.7646],[261.902,68.8147],[261.938,68.8662],[261.972,68.9189],[262.005,68.9728],[262.035,69.0277],[262.064,69.0837],[262.09,69.1406],[262.115,69.1985],[262.137,69.2571],[262.158,69.3165],[262.176,69.3766],[262.193,69.4373],[262.207,69.4985],[262.219,69.5602],[262.228,69.6222],[262.236,69.6846],[262.242,69.7472],[262.245,69.8099],[262.246,69.8728],[262.246,81.0728],[262.245,81.1007],[262.244,81.1286],[262.242,81.1564],[262.238,81.1841],[262.234,81.2117],[262.228,81.2391],[262.222,81.2663],[262.215,81.2933],[262.207,81.32],[262.198,81.3464],[262.188,81.3724],[262.177,81.3982],[262.165,81.4235],[225.306,156.818],[221.063,161.061],[136.21,76.2083],[135.478,74.3892],[135.472,74.3728],[135.423,74.2461],[135.421,74.2398],[135.415,74.223],[135.371,74.0942],[135.369,74.0885],[135.364,74.0713],[135.324,73.9407],[135.323,73.9356],[135.318,73.918],[135.283,73.7856],[135.281,73.7811],[135.277,73.7631],[135.246,73.6292],[135.246,73.6252],[135.242,73.6069],[135.216,73.4715],[135.215,73.4683],[135.212,73.4496],[135.191,73.313],[135.19,73.3103],[135.188,73.2913],[135.171,73.1536],[135.171,73.1516],[135.169,73.1323],[135.157,72.9936],[135.157,72.9923],[135.156,72.9728],[135.149,72.8333],[135.149,72.8326],[135.148,72.8128],[135.146,72.6728]]
EXCLUDE_OBJECT_DEFINE NAME=BagClip_125_more_closed.stl_id_2_copy_0 CENTER=127.222,148.88 POLYGON=[[63.6721,141.386],[63.6721,141.366],[63.6749,141.226],[63.6756,141.206],[63.6833,141.065],[63.6846,141.046],[63.6973,140.905],[63.6993,140.887],[63.7168,140.746],[63.7194,140.728],[63.7419,140.587],[63.7451,140.57],[63.7726,140.43],[63.7762,140.413],[63.8087,140.273],[63.8128,140.257],[63.8503,140.118],[63.8548,140.102],[63.8972,139.965],[63.9022,139.949],[63.9495,139.813],[63.9548,139.798],[64.007,139.663],[64.0127,139.649],[64.0698,139.515],[64.0758,139.502],[64.1376,139.37],[64.1439,139.357],[64.2105,139.227],[64.217,139.214],[64.2883,139.086],[64.295,139.075],[64.371,138.949],[64.3779,138.938],[64.4585,138.814],[64.4655,138.804],[64.5506,138.682],[64.5577,138.673],[64.6472,138.554],[64.6544,138.545],[64.7483,138.429],[64.7554,138.421],[64.8536,138.308],[64.8608,138.3],[64.9631,138.191],[64.9702,138.183],[65.0766,138.077],[65.0837,138.07],[65.1941,137.968],[65.201,137.961],[65.3152,137.862],[65.3221,137.857],[65.44,137.761],[65.4467,137.756],[65.5683,137.665],[65.5747,137.66],[65.6998,137.573],[65.7061,137.568],[65.8344,137.485],[65.8405,137.481],[65.9721,137.402],[65.9779,137.399],[66.1125,137.325],[66.118,137.322],[66.2556,137.252],[66.2608,137.249],[66.4011,137.184],[66.406,137.182],[66.5489,137.121],[66.5534,137.119],[66.6988,137.064],[66.703,137.062],[66.8506,137.011],[66.8544,137.01],[67.0041,136.964],[67.0076,136.963],[67.1592,136.923],[67.1622,136.922],[67.3157,136.887],[67.3183,136.886],[67.4733,136.856],[67.4755,136.856],[67.6319,136.831],[67.6336,136.831],[67.7912,136.811],[67.7926,136.811],[67.9512,136.797],[67.9521,136.797],[68.1115,136.789],[68.112,136.789],[68.2721,136.786],[188.972,136.786],[189.035,136.787],[189.098,136.791],[189.16,136.796],[189.223,136.804],[189.285,136.814],[189.346,136.826],[189.408,136.84],[189.468,136.856],[189.528,136.874],[189.588,136.895],[189.646,136.917],[189.704,136.942],[189.761,136.968],[189.817,136.997],[189.872,137.027],[189.926,137.06],[189.979,137.094],[190.03,137.13],[190.08,137.168],[190.129,137.207],[190.176,137.249],[190.222,137.291],[190.267,137.336],[190.31,137.382],[190.351,137.429],[190.39,137.478],[190.428,137.528],[190.464,137.58],[190.499,137.632],[190.531,137.686],[190.561,137.741],[190.59,137.797],[190.616,137.854],[190.641,137.912],[190.664,137.971],[190.684,138.03],[190.702,138.09],[190.719,138.151],[190.733,138.212],[190.745,138.274],[190.755,138.336],[190.762,138.398],[190.768,138.461],[190.771,138.523],[190.772,138.586],[190.772,149.786],[190.772,149.814],[190.77,149.842],[190.768,149.87],[190.764,149.898],[190.76,149.925],[190.755,149.953],[190.748,149.98],[190.741,150.007],[190.733,150.033],[190.724,150.06],[186.768,160.973],[67.6627,146.349],[65.9721,145.37],[65.9548,145.36],[65.9432,145.353],[65.8344,145.287],[65.8181,145.277],[65.8066,145.27],[65.6998,145.2],[65.6843,145.189],[65.6729,145.181],[65.5683,145.108],[65.5537,145.097],[65.5424,145.089],[65.44,145.011],[65.4264,145],[65.4152,144.991],[65.3152,144.91],[65.3025,144.899],[65.2914,144.89],[65.1941,144.805],[65.1822,144.794],[65.1713,144.784],[65.0766,144.695],[65.0656,144.684],[65.0549,144.674],[64.9631,144.582],[64.9529,144.571],[64.9424,144.56],[64.8536,144.464],[64.8443,144.454],[64.834,144.442],[64.7483,144.343],[64.7397,144.333],[64.7297,144.321],[64.6472,144.218],[64.6394,144.208],[64.6297,144.196],[64.5506,144.09],[64.5436,144.08],[64.5342,144.067],[64.4585,143.958],[64.4522,143.949],[64.4431,143.936],[64.371,143.824],[64.3654,143.815],[64.3567,143.801],[64.2883,143.686],[64.2834,143.678],[64.2751,143.663],[64.2105,143.546],[64.2061,143.538],[64.1982,143.523],[64.1376,143.403],[64.1338,143.395],[64.1264,143.379],[64.0698,143.257],[64.0665,143.25],[64.0595,143.234],[64.007,143.109],[64.0043,143.103],[63.9977,143.086],[63.9495,142.959],[63.9472,142.953],[63.9412,142.936],[63.8972,142.808],[63.8954,142.802],[63.8898,142.785],[63.8503,142.654],[63.8488,142.649],[63.8438,142.631],[63.8087,142.499],[63.8076,142.495],[63.8032,142.477],[63.7726,142.343],[63.7718,142.339],[63.7679,142.32],[63.7419,142.185],[63.7414,142.182],[63.7381,142.163],[63.7168,142.026],[63.7165,142.024],[63.7138,142.005],[63.6973,141.867],[63.6971,141.865],[63.6951,141.846],[63.6833,141.707],[63.6832,141.706],[63.6819,141.686],[63.6749,141.547],[63.6748,141.546],[63.6742,141.526],[63.6721,141.386]]
EXCLUDE_OBJECT_DEFINE NAME=shorter_Little_sitting_man.stl_id_3_copy_0 CENTER=138.539,117.291 POLYGON=[[117.934,127.46],[118.579,107.187],[118.684,106.511],[118.858,105.913],[119.123,105.304],[119.293,104.962],[119.69,104.475],[120.108,104.054],[120.465,103.788],[120.903,103.55],[121.396,103.366],[121.677,103.287],[122.391,103.167],[138.283,102.797],[154.6,103.167],[154.994,103.215],[155.563,103.312],[156.226,103.579],[156.512,103.723],[156.865,103.968],[156.961,104.042],[157.051,104.126],[157.241,104.31],[157.501,104.578],[157.96,105.278],[158.127,105.627],[158.229,105.879],[158.3,106.143],[158.442,106.754],[158.519,107.704],[159.144,127.46],[159.109,127.914],[159.005,128.241],[158.834,128.772],[158.601,129.131],[158.31,129.535],[157.586,130.06],[157.169,130.263],[156.728,130.386],[156.273,130.44],[139.306,131.775],[138.027,131.786],[120.805,130.44],[120.35,130.386],[119.909,130.263],[119.492,130.06],[119.109,129.827],[118.768,129.535],[118.477,129.131],[118.244,128.772],[118.073,128.241],[117.969,127.903],[117.934,127.46]]
M73 P0 R110
;TYPE:Custom
START_PRINT T_BED=60 T_EXTRUDER=220
G90
G21
M83 ; use relative distances for extrusion
; filament start gcode

    PRESSURE_ADVANCE_SELECT FILAMENT=PLA
M106 S0
;LAYER_CHANGE
;Z:0.2
;HEIGHT:0.2
;BEFORE_LAYER_CHANGE
;0.2
G92 E0

SET_VELOCITY_LIMIT ACCEL=1000 ACCEL_TO_DECEL=500
G1 E-.8 F3000
G1 X98.975 Y100.696 F12000
G1 Z.2
G1 E.8 F1800
;TYPE:Skirt
;WIDTH:0.5
G1 F3000
G1 X130.519 Y69.691 E1.64742
G1 X131.006 Y69.305 E.02311
G1 X135.751 Y66.309 E.20904
G1 X136.736 Y65.788 E.04151
G1 X138.234 Y65.313 E.0585
G1 X139.746 Y65.159 E.05663
G1 X260.508 Y65.16 E4.49793
G1 X261.276 Y65.234 E.02873
G1 X262.116 Y65.465 E.03246
G1 X262.953 Y65.883 E.03484
G1 X263.646 Y66.412 E.03245
G1 X264.265 Y67.112 E.03481
G1 X264.687 Y67.818 E.03063
G1 X264.994 Y68.634 E.03249
G1 X265.14 Y69.442 E.03058
G1 X269.237 Y167.642 E3.66078
G1 X269.19 Y179.673 E.44809
G1 X268.85 Y180.72 E.04101
G1 X230.021 Y259.746 E3.27952
G1 X229.467 Y260.522 E.03552
G1 X226.001 Y263.988 E.18257
G1 X224.689 Y264.743 E.05638
G1 X223.175 Y264.739 E.05638
G1 X222.277 Y264.321 E.03689
G1 X62.343 Y153.232 E7.25297
G1 X61.366 Y152.075 E.05638
G1 X61.093 Y150.942 E.04342
G1 X60.78 Y140.811 E.3775
G1 X60.969 Y139.618 E.04501
G1 X61.325 Y138.524 E.04282
G1 X61.926 Y137.363 E.04869
G1 X62.654 Y136.397 E.04507
G1 X98.947 Y100.724 E1.89545
G1 X99.267 Y101.049 F12000
G1 F3000
G1 X130.84 Y70.017 E1.6489
G1 X131.25 Y69.692 E.01948
G1 X135.995 Y66.695 E.20904
G1 X136.915 Y66.209 E.03876
G1 X138.321 Y65.761 E.05494
G1 X139.746 Y65.616 E.05336
G1 X260.508 Y65.617 E4.49793
G1 X261.205 Y65.685 E.02606
G1 X261.96 Y65.895 E.0292
G1 X262.718 Y66.274 E.03157
G1 X263.34 Y66.752 E.0292
G1 X263.9 Y67.387 E.03154
G1 X264.28 Y68.025 E.02766
G1 X264.554 Y68.76 E.02923
G1 X264.697 Y69.645 E.03338
G1 X268.779 Y167.633 E3.65284
M73 P0 R109
G1 X268.74 Y179.59 E.44536
G1 X268.439 Y180.518 E.03635
G1 X229.611 Y259.545 E3.27952
G1 X229.143 Y260.199 E.02995
G1 X225.677 Y263.665 E.18257
G1 X224.459 Y264.329 E.05169
G1 X222.538 Y263.945 E.07295
G1 X62.603 Y152.856 E7.25297
G1 X61.733 Y151.775 E.05169
G1 X61.549 Y150.925 E.03238
G1 X61.236 Y140.851 E.37542
G1 X61.415 Y139.72 E.04263
G1 X61.745 Y138.703 E.03985
G1 X62.309 Y137.612 E.04573
G1 X62.999 Y136.697 E.0427
G1 X99.238 Y101.077 E1.89262
; printing object LargeChipClip.stl id:0 copy 0
G1 E-.8
EXCLUDE_OBJECT_START NAME=LargeChipClip.stl_id_0_copy_0
G1 X134.573 Y171.199 F12000
G1 E.8 F1800
;TYPE:Support
G1 F3000
G1 X134.599 Y171.401 E.00759
G2 X144.917 Y171.197 I5.147 J-.742 E.56069
G1 X147.271 Y171.197 E.08766
G1 X147.271 Y177.481 E.23407
G1 X144.164 Y174.375 E.16361
G1 X143.668 Y174.375 E.01851
G1 X139.852 Y178.188 E.20092
G1 X139.852 Y178.686 E.01852
G1 X142.114 Y180.948 E.11915
G1 X134.603 Y180.948 E.27976
G1 X134.603 Y178.031 E.10865
G1 X131.686 Y178.031 E.10865
G1 X131.686 Y171.197 E.25454
G1 X134.507 Y171.197 E.10507
G1 E-.8
G1 X141.121 Y180.536 F12000
G1 E.8 F1800
G1 F3000
G1 X135.014 Y180.536 E.22745
G1 X135.014 Y177.619 E.10865
G1 X132.097 Y177.619 E.10865
G1 X132.097 Y171.608 E.2239
G1 X134.217 Y171.608 E.07895
G2 X141.455 Y176.004 I5.525 J-.939 E.3576
G1 X139.441 Y178.018 E.1061
G1 X139.441 Y178.856 E.03121
G1 X141.121 Y180.536 E.08851
G1 X139.895 Y180.028 F12000
G1 F3000
G1 X135.522 Y180.028 E.16287
G1 X135.522 Y177.111 E.10865
G1 X132.605 Y177.111 E.10865
G1 X132.605 Y172.116 E.18606
G1 X133.8 Y172.116 E.0445
G2 X139.952 Y176.789 I5.973 J-1.477 E.31109
G1 X138.933 Y177.807 E.05365
G1 X138.933 Y179.066 E.04689
G1 X139.895 Y180.028 E.05068
G1 X138.425 Y179.521 F12000
G1 F3000
G1 X136.03 Y179.521 E.0892
G1 X136.03 Y176.603 E.10865
G1 X133.113 Y176.603 E.10865
G1 X133.113 Y172.911 E.13754
G1 X133.491 Y172.844 E.01429
G2 X138.794 Y177.229 I6.276 J-2.191 E.26937
G1 X138.425 Y177.597 E.01941
G1 X138.425 Y179.521 E.07164
G1 X137.917 Y179.013 F12000
G1 F3000
G1 X136.538 Y179.013 E.05137
G1 X136.538 Y177.047 E.07322
G2 X137.917 Y177.56 I3.712 J-7.86 E.05489
G1 X137.917 Y179.013 E.05409
G1 X135.092 Y176.096 F12000
G1 F3000
G1 X133.621 Y176.096 E.05481
G1 X133.621 Y174.903 E.04443
G1 X133.937 Y174.8 E.01238
G2 X135.092 Y176.096 I6.618 J-4.74 E.06477
G1 E-.8
G1 X143.368 Y176.372 F12000
G1 X144.502 Y176.409
G1 X146.86 Y176.488
G1 E.8 F1800
G1 F3000
