; HEADER_BLOCK_START
; generated by OrcaSlicer 1.6.4-beta2 on 2023-08-07 at 20:24:12
; total layer number: 75
; HEADER_BLOCK_END

; THUMBNAIL_BLOCK_START
; THUMBNAIL_BLOCK_END

; external perimeters extrusion width = 0.40mm
; perimeters extrusion width = 0.42mm
; infill extrusion width = 0.64mm
; solid infill extrusion width = 0.56mm
; top infill extrusion width = 0.42mm
; first layer extrusion width = 0.50mm

; external perimeters extrusion width = 0.40mm
; perimeters extrusion width = 0.42mm
; infill extrusion width = 0.64mm
; solid infill extrusion width = 0.56mm
; top infill extrusion width = 0.42mm
; first layer extrusion width = 0.50mm

; EXECUTABLE_BLOCK_START
EXCLUDE_OBJECT_DEFINE NAME=Left_motor_mount_Top.stl_id_0_copy_0 CENTER=165,196.15 POLYGON=[[133.85,193.414],[133.862,193.258],[133.899,193.105],[133.959,192.96],[134.041,192.826],[134.143,192.707],[154.643,172.207],[159.057,167.793],[159.176,167.691],[159.31,167.609],[159.455,167.549],[159.608,167.512],[159.764,167.5],[190.736,167.5],[190.892,167.512],[191.045,167.549],[191.19,167.609],[191.324,167.691],[191.443,167.793],[195.857,172.207],[195.959,172.326],[196.041,172.46],[196.101,172.605],[196.138,172.758],[196.15,172.914],[196.15,219.386],[196.138,219.542],[196.101,219.695],[196.041,219.84],[195.959,219.974],[195.857,220.093],[191.443,224.507],[191.324,224.609],[191.19,224.691],[191.045,224.751],[190.892,224.788],[190.736,224.8],[139.264,224.8],[139.108,224.788],[138.955,224.751],[138.81,224.691],[138.676,224.609],[138.557,224.507],[134.143,220.093],[134.041,219.974],[133.959,219.84],[133.899,219.695],[133.862,219.542],[133.85,219.386],[133.85,193.414]]
EXCLUDE_OBJECT_DEFINE NAME=Right_motor_mount_Top.stl_id_1_copy_0 CENTER=165,133.85 POLYGON=[[133.85,110.614],[133.862,110.458],[133.899,110.305],[133.959,110.16],[134.041,110.026],[134.143,109.907],[138.557,105.493],[138.676,105.391],[138.81,105.309],[138.955,105.249],[139.108,105.212],[139.264,105.2],[190.736,105.2],[190.892,105.212],[191.045,105.249],[191.19,105.309],[191.324,105.391],[191.443,105.493],[195.857,109.907],[195.959,110.026],[196.041,110.16],[196.101,110.305],[196.138,110.458],[196.15,110.614],[196.15,157.086],[196.138,157.242],[196.101,157.395],[196.041,157.54],[195.959,157.674],[195.857,157.793],[191.443,162.207],[191.324,162.309],[191.19,162.391],[191.045,162.451],[190.892,162.488],[190.736,162.5],[159.764,162.5],[159.608,162.488],[159.455,162.451],[159.31,162.391],[159.176,162.309],[159.057,162.207],[154.643,157.793],[134.143,137.293],[134.041,137.174],[133.959,137.04],[133.899,136.895],[133.862,136.742],[133.85,136.586],[133.85,110.614]]
M73 P0 R60
;TYPE:Custom
START_PRINT T_BED=110 T_EXTRUDER=260
G90
G21
M83 ; use relative distances for extrusion
; Filament gcode
M106 S0
;LAYER_CHANGE
;Z:0.2
;HEIGHT:0.2
;BEFORE_LAYER_CHANGE
;0.2
G92 E0

SET_VELOCITY_LIMIT ACCEL=1000 ACCEL_TO_DECEL=500
G1 E-.5 F3000
G1 X132.403 Y108.856 F12000
G1 Z.2
G1 E.5 F1800
;TYPE:Skirt
;WIDTH:0.5
G1 F3000
G1 X132.719 Y108.483 E.01726
G1 X137.133 Y104.069 E.22065
G1 X137.506 Y103.753 E.01727
G1 X138.318 Y103.339 E.03222
G1 X139.248 Y103.187 E.03332
G1 X190.753 Y103.187 E1.82046
G1 X191.682 Y103.339 E.03327
G1 X192.519 Y103.772 E.03332
G1 X197.281 Y108.483 E.23677
G1 X197.597 Y108.856 E.01726
G1 X198.073 Y109.889 E.04019
G1 X198.164 Y110.614 E.02585
G1 X198.163 Y219.402 E3.84518
G1 X198.011 Y220.332 E.03332
G1 X197.597 Y221.144 E.03223
G1 X197.281 Y221.517 E.01726
G1 X192.867 Y225.931 E.22065
G1 X192.494 Y226.247 E.01726
G1 X191.461 Y226.723 E.04019
G1 X190.736 Y226.814 E.02585
G1 X139.248 Y226.813 E1.81986
G1 X138.318 Y226.661 E.03332
G1 X137.506 Y226.247 E.03222
G1 X137.133 Y225.931 E.01727
G1 X132.719 Y221.517 E.22065
G1 X132.403 Y221.144 E.01726
G1 X131.927 Y220.111 E.0402
G1 X131.836 Y219.386 E.02585
G1 X131.836 Y110.614 E3.84463
G1 X131.927 Y109.889 E.02585
G1 X132.387 Y108.892 E.03878
G1 X132.773 Y109.124 F12000
G1 F3000
G1 X133.042 Y108.806 E.01473
G1 X137.456 Y104.392 E.22065
G1 X137.775 Y104.123 E.01473
G1 X138.459 Y103.774 E.02717
G1 X139.249 Y103.644 E.02827
G1 X190.753 Y103.644 E1.82046
G1 X191.54 Y103.774 E.02822
G1 X192.251 Y104.141 E.02827
G1 X196.958 Y108.806 E.23424
G1 X197.227 Y109.125 E.01473
G1 X197.628 Y109.995 E.03389
G1 X197.707 Y110.614 E.02205
G1 X197.706 Y219.401 E3.84518
G1 X197.576 Y220.19 E.02826
G1 X197.227 Y220.875 E.02717
G1 X196.958 Y221.194 E.01473
G1 X192.544 Y225.608 E.22065
G1 X192.225 Y225.877 E.01473
G1 X191.355 Y226.278 E.03389
G1 X190.736 Y226.357 E.02205
G1 X139.249 Y226.356 E1.81986
G1 X138.459 Y226.226 E.02827
G1 X137.775 Y225.877 E.02717
G1 X137.456 Y225.608 E.01473
G1 X133.042 Y221.194 E.22065
G1 X132.773 Y220.876 E.01473
G1 X132.372 Y220.005 E.03389
G1 X132.293 Y219.386 E.02205
G1 X132.293 Y110.614 E3.84463
G1 X132.372 Y109.995 E.02205
G1 X132.756 Y109.161 E.03248
; printing object Left motor mount Top.stl id:0 copy 0
EXCLUDE_OBJECT_START NAME=Left_motor_mount_Top.stl_id_0_copy_0
G1 E-.5
G1 X155.6 Y189.25 F12000
G1 E.5 F1800
;TYPE:Outer wall
G1 F3000
G1 X155.601 Y173.018 E.57373
G1 X159.869 Y168.75 E.21333
G1 X162.263 Y168.75 E.08464
G1 X190.632 Y168.751 E1.00272
G1 X194.899 Y173.017 E.21328
G1 X194.899 Y186.982 E.49359
G1 X193.051 Y188.831 E.09241
G2 X192.4 Y190.403 I1.591 J1.579 E.06165
G1 X192.4 Y204.097 E.48405
G2 X193.051 Y205.669 I2.242 J-.008 E.06165
G1 X194.899 Y207.518 E.09241
G1 X194.899 Y219.282 E.4158
G1 X190.631 Y223.55 E.21333
G1 X188.226 Y223.55 E.08504
G1 X185.876 Y221.201 E.11745
G2 X184.304 Y220.55 I-1.579 J1.591 E.06165
G1 X166.403 Y220.55 E.63276
G2 X164.831 Y221.201 I.008 J2.242 E.06165
G1 X162.482 Y223.549 E.11741
G1 X139.368 Y223.549 E.81697
G1 X135.1 Y219.281 E.21333
G1 X135.1 Y193.519 E.91061
G1 X139.368 Y189.251 E.21333
G1 X155.56 Y189.25 E.57231
G1 X156.057 Y189.707 F12000
;TYPE:Inner wall
G1 F3000
G1 X156.058 Y173.207 E.58319
G1 X160.058 Y169.207 E.19995
G1 X162.263 Y169.207 E.07795
G1 X190.443 Y169.208 E.99603
G1 X194.442 Y173.207 E.1999
G1 X194.442 Y186.793 E.48021
G1 X192.717 Y188.519 E.08626
G2 X191.943 Y190.387 I1.913 J1.887 E.07329
G1 X191.943 Y204.113 E.48512
G2 X192.717 Y205.981 I2.687 J-.018 E.07329
G1 X194.442 Y207.707 E.08626
G1 X194.442 Y219.093 E.40242
G1 X190.442 Y223.093 E.19995
G1 X188.415 Y223.093 E.07165
G1 X186.188 Y220.867 E.11129
G2 X184.32 Y220.093 I-1.887 J1.913 E.07329
G1 X166.387 Y220.093 E.63383
G2 X164.519 Y220.867 I.018 J2.687 E.07329
G1 X162.293 Y223.092 E.11125
G1 X139.557 Y223.092 E.80359
G1 X135.557 Y219.092 E.19995
G1 X135.557 Y193.708 E.89723
G1 X139.557 Y189.708 E.19995
G1 X156.017 Y189.707 E.58178
G1 E-.5
G1 X174.517 Y202.526 F12000
G1 X174.689 Y202.619
G1 X174.874 Y202.682
G1 X191.112 Y206.948
G1 X191.041 Y207.276
G1 E.5 F1800
;TYPE:Outer wall
G1 F3000
G1 X191.049 Y207.279 E.00032
G3 X192.45 Y209.137 I-.552 J1.873 E.08812
G1 X192.45 Y219.162 E.35434
G3 X188.55 Y219.162 I-1.95 J-.012 E.21572
G1 X188.55 Y209.137 E.35434
G3 X190.222 Y207.219 I1.95 J.011 E.09801
G3 X190.777 Y207.22 I.275 J1.933 E.01967
G1 X191.002 Y207.268 E.00812
G1 X191.205 Y206.848 F12000
;TYPE:Inner wall
G1 F3000
G1 X191.5 Y206.96 E.01114
G3 X192.907 Y209.121 I-1.003 J2.191 E.09618
G1 X192.907 Y219.179 E.3555
G3 X188.093 Y219.179 I-2.407 J-.027 E.2654
G1 X188.093 Y209.121 E.3555
G3 X190.157 Y206.765 I2.407 J.026 E.12055
G3 X191.167 Y206.836 I.34 J2.386 E.03606
G1 E-.5
G1 X174.874 Y202.682 F12000
G1 X174.689 Y202.619
G1 X174.517 Y202.526
G1 X156.514 Y190.164
G1 E.5 F1800
G1 F3000
G1 X156.515 Y173.397 E.59265
G1 X160.247 Y169.664 E.18656
G1 X162.263 Y169.664 E.07125
G1 X190.253 Y169.665 E.98934
G1 X193.985 Y173.396 E.18652
G1 X193.985 Y186.603 E.46683
G1 X192.383 Y188.207 E.0801
G2 X191.486 Y190.372 I2.235 J2.194 E.08492
G1 X191.486 Y204.128 E.4862
G2 X192.383 Y206.293 I3.132 J-.029 E.08492
G1 X193.985 Y207.897 E.0801
G1 X193.985 Y218.903 E.38904
G1 X193.364 Y219.524 E.03102
G1 X193.364 Y209.105 E.36827
G2 X187.636 Y209.105 I-2.864 J.042 E.31509
G1 X187.636 Y219.195 E.35665
G2 X190.9 Y221.989 I2.862 J-.041 E.17173
G1 X190.253 Y222.636 E.03234
G1 X188.604 Y222.636 E.05827
G1 X186.501 Y220.533 E.10513
G2 X184.335 Y219.636 I-2.194 J2.235 E.08493
G1 X166.372 Y219.636 E.6349
G2 X164.207 Y220.533 I.029 J3.132 E.08492
G1 X162.103 Y222.635 E.1051
G1 X139.747 Y222.635 E.79022
G1 X136.014 Y218.903 E.18656
G1 X136.014 Y193.897 E.88384
G1 X139.747 Y190.165 E.18656
G1 X156.474 Y190.164 E.59124
G1 E-.5
G1 X189.674 Y179.954 F12000
G1 E.5 F1800
;TYPE:Outer wall
G1 F3000
G1 X189.379 Y179.874 E.01081
G3 X189.993 Y175.004 I.771 J-2.376 E.24414
G1 X190.307 Y175.004 E.0111
G3 X189.713 Y179.957 I-.157 J2.493 E.28739
G1 X189.621 Y180.409 F12000
;TYPE:Inner wall
G1 F3000
G1 X189.597 Y180.401 E.00091
G3 X189.964 Y174.547 I.553 J-2.904 E.30197
G1 X190.336 Y174.547 E.01313
G3 X189.965 Y180.447 I-.186 J2.95 E.3282
G1 X189.661 Y180.414 E.01081
G1 X189.561 Y180.863 F12000
G1 F3000
G1 X189.511 Y180.85 E.00183
G3 X189.935 Y174.09 I.639 J-3.353 E.34871
G1 X190.365 Y174.09 E.01517
G3 X189.936 Y180.903 I-.215 J3.407 E.379
G1 X189.601 Y180.867 E.01191
G1 E-.5
G1 X156.971 Y190.621 F12000
G1 E.5 F1800
G1 F3000
G1 X156.972 Y173.586 E.60212
M73 P1 R60
G1 X160.437 Y170.121 E.17318
G1 X162.263 Y170.121 E.06456
G1 X190.064 Y170.122 E.98265
G1 X193.528 Y173.585 E.17313
G1 X193.528 Y175.517 E.06827
G1 X192.975 Y174.848 E.0307
G2 X192.975 Y180.152 I-2.822 J2.652 E.65358
G1 X193.528 Y179.483 E.03069
G1 X193.528 Y186.414 E.24498
G1 X192.049 Y187.894 E.07395
G2 X191.029 Y190.357 I2.557 J2.502 E.09655
G1 X191.029 Y204.143 E.48727
G2 X191.552 Y205.984 I3.816 J-.089 E.06838
G2 X190.027 Y205.858 I-1.079 J3.769 E.05444
G2 X187.179 Y209.089 I.472 J3.287 E.16562
G1 X187.179 Y219.211 E.35781
G2 X187.489 Y220.569 I3.713 J-.134 E.04953
G1 X187.303 Y220.689 E.00781
G2 X186.495 Y219.921 I-6.209 J5.721 E.03943
G2 X184.35 Y219.179 I-2.237 J2.996 E.08152
G1 X166.357 Y219.179 E.63597
G2 X163.894 Y220.199 I.039 J3.577 E.09656
G1 X161.914 Y222.178 E.09894
G1 X161.304 Y222.178 E.02156
G1 X161.242 Y221.99 E.00699
G2 X162.821 Y219.211 I-1.813 J-2.869 E.11762
G1 X162.821 Y209.088 E.35781
G2 X156.179 Y209.089 I-3.321 J.058 E.36479
G1 X156.179 Y219.211 E.3578
G2 X157.758 Y221.99 I3.393 J-.091 E.11762
G1 X157.696 Y222.178 E.00699
G1 X139.936 Y222.178 E.62774
G1 X136.471 Y218.713 E.17318
G1 X136.471 Y194.087 E.87045
G1 X139.936 Y190.622 E.17318
G1 X156.931 Y190.621 E.6007
G1 E-.5
G1 X141.426 Y215.536 F12000
G1 E.5 F1800
;TYPE:Outer wall
G1 F3000
G1 X141.43 Y215.529 E.00028
G3 X143.693 Y213.654 I2.42 J.619 E.11104
G1 X144.007 Y213.654 E.0111
G3 X141.371 Y215.837 I-.157 J2.493 E.42157
G1 X141.419 Y215.575 E.0094
G1 X140.98 Y215.439 F12000
;TYPE:Inner wall
G1 F3000
G1 X140.986 Y215.415 E.0009
G3 X143.664 Y213.197 I2.864 J.732 E.13138
G1 X144.036 Y213.197 E.01313
G3 X140.917 Y215.78 I-.186 J2.95 E.49878
G1 X140.972 Y215.479 E.01081
G1 X140.531 Y215.351 F12000
G1 F3000
G1 X140.543 Y215.301 E.00182
G3 X143.635 Y212.74 I3.307 J.846 E.15172
G1 X144.065 Y212.74 E.01517
G3 X140.463 Y215.722 I-.215 J3.407 E.57598
G1 X140.524 Y215.39 E.01192
G1 X140.083 Y215.263 F12000
G1 F3000
G1 X140.1 Y215.187 E.00275
G3 X143.607 Y212.283 I3.75 J.959 E.17205
G1 X144.093 Y212.283 E.0172
G3 X140.009 Y215.665 I-.243 J3.863 E.65319
G1 X140.075 Y215.302 E.01303
G1 E-.5
G1 X163.179 Y179.204 F12000
G1 E.5 F1800
;TYPE:Outer wall
G1 F3000
G1 X163.17 Y179.209 E.00038
G3 X161.193 Y175.004 I-1.82 J-1.711 E.34392
G1 X161.507 Y175.004 E.0111
G3 X163.37 Y178.968 I-.157 J2.493 E.1887
G1 X163.205 Y179.173 E.00932
G1 X163.488 Y179.543 F12000
;TYPE:Inner wall
G1 F3000
G1 X163.233 Y179.776 E.01222
G3 X161.164 Y174.547 I-1.883 J-2.279 E.39378
G1 X161.536 Y174.547 E.01313
G3 X163.513 Y179.511 I-.186 J2.95 E.23587
G1 X163.874 Y179.799 F12000
G1 F3000
G1 X163.837 Y179.835 E.00182
G3 X161.135 Y174.09 I-2.487 J-2.338 E.46989
G1 X161.565 Y174.09 E.01517
G3 X164.11 Y179.505 I-.215 J3.407 E.25782
G1 X163.899 Y179.768 E.01191
G1 X164.224 Y180.092 F12000
G1 F3000
G1 X164.17 Y180.148 E.00275
G3 X161.107 Y173.633 I-2.82 J-2.652 E.53288
G1 X161.593 Y173.633 E.0172
G3 X164.48 Y179.774 I-.243 J3.863 E.29238
G1 X164.249 Y180.061 E.01302
G1 E-.5
G1 X164.558 Y193.419 F12000
G1 X171.311 Y199.607
G1 X173.351 Y201.021
G1 E.5 F1800
;TYPE:Outer wall
G1 F3000
G1 X182.236 Y192.88 E.42594
G1 X183.692 Y192.88 E.05145
G3 X184.262 Y194.347 I-.013 J.849 E.07111
G1 X175.728 Y202.166 E.40912
G3 X174.601 Y202.166 I-.564 J-.644 E.0435
G1 X173.381 Y201.048 E.05849
G1 X172.675 Y201.021 F12000
;TYPE:Inner wall
G1 F3000
G1 X182.058 Y192.423 E.44985
M73 P1 R59
G1 X183.711 Y192.423 E.05843
G3 X184.585 Y194.67 I-.031 J1.306 E.1086
G1 X176.023 Y202.516 E.41048
G3 X174.306 Y202.516 I-.859 J-.995 E.06614
G1 X172.704 Y201.048 E.07679
G1 E-.5
G1 X164.558 Y193.419 F12000
G1 X164.898 Y192.544
G1 X167.966 Y192.544
G1 X172.089 Y195.435
G1 E.5 F1800
;TYPE:Outer wall
G1 F3000
G3 X171.829 Y195.324 I.061 J-.504 E.01009
G1 X169.927 Y193.581 E.09122
G3 X169.817 Y193.32 I.281 J-.271 E.01022
G2 X169.824 Y193.019 I-.512 J-.161 E.01077
G1 X170.067 Y192.926 E.0092
G3 X171.636 Y192.88 I1.146 J12.27 E.05554
G1 X174.11 Y192.88 E.08745
G3 X174.395 Y193.652 I-.027 J.448 E.03675
G1 X173.44 Y194.527 E.04581
G3 X172.386 Y195.38 I-6.253 J-6.649 E.04796
G3 X172.128 Y195.438 I-.236 J-.449 E.00945
G1 E-.5
G1 X167.966 Y192.544 F12000
G1 X165.127 Y192.544
G1 X165.127 Y192.88
G1 E.5 F1800
G1 F3000
G1 X168.322 Y192.882 E.11293
G3 X169.069 Y193.142 I-.034 J1.3 E.02838
G3 X169.505 Y193.631 I-3.713 J3.751 E.02318
G1 X171.875 Y195.803 E.11362
G2 X172.838 Y195.731 I.441 J-.585 E.03725
G1 X175.568 Y193.226 E.13097
G3 X176.457 Y192.88 I.919 J1.046 E.03443
G1 X179.651 Y192.88 E.11289
G1 X179.825 Y193.326 E.01693
G1 X172.389 Y200.14 E.35646
G1 X164.954 Y193.326 E.35646
G1 X165.113 Y192.917 E.01552
G1 X164.792 Y192.481 F12000
;TYPE:Inner wall
G1 F3000
G1 X164.815 Y192.423 E.00222
G1 X168.341 Y192.425 E.12465
G3 X169.284 Y192.737 I-.021 J1.642 E.03564
G1 X169.947 Y192.483 E.02511
G3 X170.638 Y192.428 I.601 J3.238 E.02454
G3 X174.15 Y192.423 I2.255 J317.754 E.12413
G3 X174.793 Y192.759 I-.057 J.894 E.02642
G1 X175.01 Y193.118 E.01482
G1 X175.271 Y192.878 E.01255
G3 X176.44 Y192.423 I1.217 J1.399 E.04523
G1 X179.964 Y192.423 E.12454
G1 X180.364 Y193.452 E.03903
G1 X172.389 Y200.76 E.38232
G1 X164.415 Y193.452 E.38232
G1 X164.778 Y192.519 E.0354
G1 X164.457 Y192.083 F12000
G1 F3000
G1 X164.502 Y191.965 E.00445
G1 X168.36 Y191.968 E.13637
G3 X169.336 Y192.227 I-.102 J2.352 E.03597
G1 X169.827 Y192.039 E.01858
G3 X170.624 Y191.971 I.718 J3.731 E.02831
G3 X174.189 Y191.966 I2.288 J322.542 E.12602
G1 X174.545 Y192.028 E.01278
G1 X174.908 Y192.232 E.01472
G1 X175.106 Y192.426 E.00979
G3 X176.423 Y191.966 I1.38 J1.837 E.05009
G1 X180.277 Y191.966 E.1362
G1 X180.698 Y193.05 E.0411
G1 X181.881 Y191.966 E.05669
G1 X183.731 Y191.966 E.0654
G3 X184.909 Y194.994 I-.048 J1.762 E.14609
G1 X176.318 Y202.866 E.41184
G3 X174.011 Y202.866 I-1.153 J-1.346 E.08879
G1 X163.875 Y193.578 E.48593
G1 X164.442 Y192.12 E.05529
G1 X164.121 Y191.684 F12000
G1 F3000
G1 X164.19 Y191.508 E.00667
G1 X168.379 Y191.511 E.14809
G3 X169.348 Y191.733 I-.103 J2.677 E.03535
G1 X169.707 Y191.596 E.01358
G3 X170.609 Y191.514 I.834 J4.224 E.03208
G3 X174.228 Y191.509 I2.321 J327.331 E.12791
G1 X174.701 Y191.591 E.01697
G1 X175.158 Y191.849 E.01854
G3 X176.406 Y191.509 I1.265 J2.184 E.04625
G1 X180.589 Y191.509 E.14785
G1 X180.882 Y192.261 E.02853
G1 X181.703 Y191.509 E.03936
G1 X183.75 Y191.509 E.07238
G3 X185.232 Y195.318 I-.066 J2.218 E.18358
G1 X176.613 Y203.215 E.41319
G3 X173.716 Y203.215 I-1.448 J-1.697 E.11143
G1 X163.336 Y193.704 E.49764
G1 X164.107 Y191.721 E.07518
G1 E-.5
G1 X161.764 Y219.476 F12000
G1 X161.695 Y219.794
G1 X161.581 Y220.1
G1 X161.427 Y220.382
G1 X161.229 Y220.647
G1 X161.205 Y220.671
G1 X160.968 Y220.434
G1 E.5 F1800
;TYPE:Outer wall
G1 F3000
G1 X160.777 Y220.624 E.00952
G3 X157.55 Y219.162 I-1.277 J-1.474 E.15707
G1 X157.55 Y209.137 E.35434
G3 X159.222 Y207.219 I1.95 J.011 E.09801
G3 X161.45 Y209.137 I.275 J1.933 E.11766
G1 X161.45 Y219.162 E.35434
G3 X160.994 Y220.404 I-1.95 J-.012 E.04768
G1 X161.339 Y220.704 F12000
