; HEADER_BLOCK_START
; generated by OrcaSlicer 1.6.3 on 2023-07-18 at 06:11:16
; total layer number: 15
; HEADER_BLOCK_END

; THUMBNAIL_BLOCK_START
; THUMBNAIL_BLOCK_END

; external perimeters extrusion width = 0.40mm
; perimeters extrusion width = 0.45mm
; infill extrusion width = 0.45mm
; solid infill extrusion width = 0.40mm
; top infill extrusion width = 0.40mm
; first layer extrusion width = 0.50mm

; EXECUTABLE_BLOCK_START
EXCLUDE_OBJECT_DEFINE NAME=BoxwithSliding_lid.stl_2_id_0_copy_0 CENTER=165,165 POLYGON=[[113.95,98.95],[114.053,98.3011],[114.351,97.7157],[114.816,97.2511],[115.401,96.9528],[116.05,96.85],[213.95,96.85],[214.599,96.9528],[215.184,97.2511],[215.649,97.7157],[215.947,98.3011],[216.05,98.95],[216.05,231.05],[215.947,231.699],[215.649,232.284],[215.184,232.749],[214.599,233.047],[213.95,233.15],[116.05,233.15],[115.401,233.047],[114.816,232.749],[114.351,232.284],[114.053,231.699],[113.95,231.05],[113.95,98.95]]
M73 P0 R47
;TYPE:Custom
START_PRINT T_BED=60 T_EXTRUDER=220
G90
G21
M83 ; use relative distances for extrusion
; filament start gcode

    PRESSURE_ADVANCE_SELECT FILAMENT=PLA
M106 S0
;LAYER_CHANGE
;Z:0.2
;HEIGHT:0.2
;BEFORE_LAYER_CHANGE
;0.2
G92 E0

M204 S1000
G1 E-.8 F2400
G1 Z.2 F9000
G1 X112.317 Y95.675
G1 E.8 F3600
;TYPE:Skirt
;WIDTH:0.5
G1 F3000
G1 X112.775 Y95.217 E.02408
M73 P0 R46
G1 X113.512 Y94.681 E.03396
G1 X114.088 Y94.388 E.02408
G1 X114.955 Y94.106 E.03396
G1 X116.05 Y93.969 E.04109
G1 X214.406 Y94.005 E3.66338
G1 X215.033 Y94.104 E.02366
G1 X215.886 Y94.379 E.03338
G1 X216.474 Y94.674 E.02449
G1 X217.225 Y95.217 E.03454
G1 X217.683 Y95.675 E.02408
G1 X218.219 Y96.412 E.03396
G1 X218.512 Y96.988 E.02408
G1 X218.794 Y97.855 E.03396
G1 X218.931 Y98.95 E.04109
G1 X218.931 Y231.05 E4.92022
G1 X218.794 Y232.145 E.04109
G1 X218.512 Y233.012 E.03396
G1 X218.219 Y233.588 E.02408
G1 X217.683 Y234.325 E.03396
G1 X217.225 Y234.783 E.02408
G1 X216.488 Y235.319 E.03396
G1 X215.912 Y235.612 E.02408
G1 X215.045 Y235.894 E.03396
G1 X213.95 Y236.031 E.04109
G1 X116.05 Y236.031 E3.6464
G1 X114.955 Y235.894 E.04109
G1 X114.088 Y235.612 E.03396
G1 X113.512 Y235.319 E.02408
G1 X112.775 Y234.783 E.03396
G1 X112.317 Y234.325 E.02408
G1 X111.782 Y233.588 E.03396
G1 X111.488 Y233.012 E.02408
G1 X111.206 Y232.145 E.03396
G1 X111.069 Y231.05 E.04109
G1 X111.069 Y98.95 E4.92022
G1 X111.206 Y97.855 E.04109
G1 X111.488 Y96.988 E.03396
G1 X111.782 Y96.412 E.02408
G1 X112.282 Y95.723 E.03172
G1 X112.641 Y95.998 F9000
G1 F3000
G1 X113.098 Y95.541 E.02408
G1 X113.72 Y95.089 E.02863
G1 X114.296 Y94.795 E.02408
G1 X115.027 Y94.558 E.02863
G1 X116.05 Y94.426 E.03842
G1 X214.334 Y94.456 E3.66072
G1 X214.962 Y94.556 E.02366
G1 X215.681 Y94.787 E.02814
G1 X216.268 Y95.083 E.02449
G1 X216.902 Y95.541 E.02912
G1 X217.359 Y95.998 E.02408
G1 X217.811 Y96.62 E.02863
G1 X218.105 Y97.196 E.02408
G1 X218.342 Y97.927 E.02863
G1 X218.474 Y98.95 E.03842
G1 X218.474 Y231.05 E4.92022
G1 X218.342 Y232.073 E.03842
G1 X218.105 Y232.804 E.02863
G1 X217.811 Y233.38 E.02408
G1 X217.359 Y234.002 E.02863
G1 X216.902 Y234.459 E.02408
G1 X216.28 Y234.911 E.02863
G1 X215.704 Y235.205 E.02408
G1 X214.973 Y235.442 E.02863
G1 X213.95 Y235.574 E.03842
G1 X116.05 Y235.574 E3.6464
G1 X115.027 Y235.442 E.03842
G1 X114.296 Y235.205 E.02863
G1 X113.72 Y234.911 E.02408
G1 X113.098 Y234.459 E.02863
G1 X112.641 Y234.002 E.02408
G1 X112.189 Y233.38 E.02863
G1 X111.895 Y232.804 E.02408
G1 X111.658 Y232.073 E.02863
G1 X111.526 Y231.05 E.03842
G1 X111.526 Y98.95 E4.92022
G1 X111.658 Y97.927 E.03842
G1 X111.895 Y97.196 E.02863
G1 X112.189 Y96.62 E.02408
G1 X112.605 Y96.046 E.02639
; printing object BoxwithSliding_lid.stl_2 id:0 copy 0
EXCLUDE_OBJECT_START NAME=BoxwithSliding_lid.stl_2_id_0_copy_0
G1 E-.8 F2400
G1 Z.4 F9000
G1 X115.044 Y232.435
G1 Z.2
G1 E.8 F3600
;TYPE:Outer wall
;WIDTH:0.499999
G1 F3000
G1 X114.665 Y232.056 E.01995
G1 X114.421 Y231.579 E.01995
G1 X114.333 Y231.022 E.02099
G1 X114.333 Y98.978 E4.91816
G1 X114.421 Y98.421 E.02099
G1 X114.665 Y97.944 E.01995
G1 X115.044 Y97.565 E.01995
G1 X115.521 Y97.321 E.01995
G1 X116.078 Y97.233 E.02099
G1 X213.922 Y97.233 E3.64435
G1 X214.479 Y97.321 E.02099
G1 X214.956 Y97.565 E.01995
G1 X215.335 Y97.944 E.01995
G1 X215.579 Y98.421 E.01995
G1 X215.667 Y99.127 E.02649
G1 X215.667 Y231.022 E4.91261
M73 P1 R46
G1 X215.579 Y231.579 E.02099
G1 X215.335 Y232.056 E.01995
G1 X214.956 Y232.435 E.01995
G1 X214.479 Y232.679 E.01995
G1 X213.922 Y232.767 E.02099
G1 X116.078 Y232.767 E3.64435
G1 X115.521 Y232.679 E.02099
G1 X115.097 Y232.463 E.01772
G1 X115.052 Y232.356
G1 X115.316 Y232.061 F9000
;TYPE:Inner wall
G1 F3000
G1 X115.039 Y231.784 E.01456
G1 X114.862 Y231.436 E.01456
G1 X114.79 Y230.986 E.01696
G1 X114.79 Y99.127 E4.91127
G1 X114.862 Y98.564 E.02112
G1 X115.039 Y98.216 E.01456
G1 X115.316 Y97.939 E.01456
G1 X115.664 Y97.762 E.01456
G1 X116.114 Y97.69 E.01696
G1 X213.773 Y97.69 E3.63746
G1 X214.336 Y97.762 E.02112
G1 X214.684 Y97.939 E.01456
G1 X214.961 Y98.216 E.01456
G1 X215.138 Y98.564 E.01456
G1 X215.21 Y99.127 E.02112
G1 X215.21 Y230.873 E4.90706
G1 X215.138 Y231.436 E.02112
G1 X214.961 Y231.784 E.01456
G1 X214.684 Y232.061 E.01456
G1 X214.336 Y232.238 E.01456
G1 X213.886 Y232.31 E.01696
G1 X116.227 Y232.31 E3.63746
G1 X115.664 Y232.238 E.02112
G1 X115.369 Y232.088 E.01233
G1 X115.593 Y231.68 F9000
G1 F3000
G3 X115.302 Y231.293 I.528 J-.7 E.01826
G1 X115.247 Y230.951 E.01292
G1 X115.247 Y99.127 E4.90993
G1 X115.302 Y98.707 E.01576
G3 X115.807 Y98.202 I.819 J.314 E.0274
G1 X116.149 Y98.147 E.01292
G1 X213.773 Y98.147 E3.63612
G1 X214.193 Y98.202 E.01576
G3 X214.698 Y98.707 I-.314 J.819 E.0274
G1 X214.753 Y99.127 E.01576
G1 X214.753 Y230.873 E4.90706
G1 X214.698 Y231.293 E.01576
G3 X214.193 Y231.798 I-.819 J-.314 E.0274
G1 X213.851 Y231.853 E.01292
G1 X116.227 Y231.853 E3.63612
G1 X115.807 Y231.798 E.01576
G3 X115.642 Y231.714 I.314 J-.819 E.00692
G1 X115.869 Y231.299 F9000
G1 F3000
G1 X115.788 Y231.24 E.00373
G1 X115.705 Y230.915 E.01253
G1 X115.705 Y99.127 E4.90859
G1 X115.742 Y98.85 E.0104
G1 X115.86 Y98.688 E.00746
G1 X116.185 Y98.605 E.01253
G1 X213.773 Y98.605 E3.63478
G1 X214.095 Y98.665 E.0122
G1 X214.235 Y98.805 E.00737
G1 X214.295 Y99.127 E.0122
G1 X214.295 Y230.873 E4.90706
M73 P2 R46
G1 X214.258 Y231.15 E.0104
G1 X214.14 Y231.312 E.00746
G1 X213.815 Y231.395 E.01253
G1 X116.227 Y231.395 E3.63478
G1 X115.95 Y231.358 E.0104
G1 X115.917 Y231.335 E.00149
G1 E-.8 F2400
G1 Z.4 F9000
G1 X213.121 Y98.745
M73 P2 R45
G1 Z.2
G1 E.8 F3600
;TYPE:Bottom surface
;WIDTH:0.50114
G1 F6300
G1 X213.953 Y99.577 E.04392
G1 X213.953 Y100.225 E.0242
G1 X212.679 Y98.951 E.06728
G1 X212.031 Y98.951 E.0242
G1 X213.953 Y100.873 E.1015
G1 X213.953 Y101.521 E.0242
G1 X211.382 Y98.951 E.13572
G1 X210.734 Y98.951 E.0242
G1 X213.953 Y102.169 E.16994
G1 X213.953 Y102.817 E.0242
G1 X210.086 Y98.951 E.20416
G1 X209.438 Y98.951 E.0242
G1 X213.953 Y103.465 E.23838
G1 X213.953 Y104.113 E.0242
G1 X208.79 Y98.951 E.2726
G1 X208.142 Y98.951 E.0242
G1 X213.953 Y104.761 E.30682
G1 X213.953 Y105.409 E.0242
G1 X207.494 Y98.951 E.34104
G1 X206.846 Y98.951 E.0242
G1 X213.953 Y106.057 E.37526
G1 X213.953 Y106.705 E.0242
G1 X206.198 Y98.951 E.40948
G1 X205.55 Y98.951 E.0242
G1 X213.953 Y107.353 E.4437
G1 X213.953 Y108.001 E.0242
G1 X204.902 Y98.951 E.47792
G1 X204.254 Y98.951 E.0242
G1 X213.953 Y108.649 E.51214
G1 X213.953 Y109.297 E.0242
G1 X203.606 Y98.951 E.54636
G1 X202.958 Y98.951 E.0242
G1 X213.953 Y109.945 E.58058
G1 X213.953 Y110.593 E.0242
G1 X202.31 Y98.951 E.6148
G1 X201.662 Y98.951 E.0242
G1 X213.953 Y111.241 E.64902
G1 X213.953 Y111.889 E.0242
G1 X201.014 Y98.95 E.68324
G1 X200.366 Y98.95 E.0242
G1 X213.953 Y112.537 E.71746
G1 X213.953 Y113.185 E.0242
G1 X199.718 Y98.95 E.75168
G1 X199.07 Y98.95 E.0242
G1 X213.953 Y113.833 E.7859
G1 X213.953 Y114.481 E.0242
G1 X198.422 Y98.95 E.82012
G1 X197.774 Y98.95 E.0242
G1 X213.953 Y115.129 E.85435
G1 X213.953 Y115.777 E.0242
G1 X197.125 Y98.95 E.88857
G1 X196.477 Y98.95 E.0242
G1 X213.953 Y116.426 E.92279
G1 X213.953 Y117.074 E.0242
G1 X195.829 Y98.95 E.95701
G1 X195.181 Y98.95 E.0242
G1 X213.953 Y117.722 E.99123
G1 X213.953 Y118.37 E.0242
G1 X194.533 Y98.95 E1.02545
G1 X193.885 Y98.95 E.0242
G1 X213.953 Y119.018 E1.05967
G1 X213.953 Y119.666 E.0242
G1 X193.237 Y98.95 E1.09389
G1 X192.589 Y98.95 E.0242
G1 X213.953 Y120.314 E1.12811
G1 X213.953 Y120.962 E.0242
G1 X191.941 Y98.95 E1.16233
G1 X191.293 Y98.95 E.0242
G1 X213.953 Y121.61 E1.19655
G1 X213.953 Y122.258 E.0242
G1 X190.645 Y98.95 E1.23077
G1 X189.997 Y98.95 E.0242
G1 X213.953 Y122.906 E1.26499
G1 X213.953 Y123.554 E.0242
G1 X189.349 Y98.95 E1.29921
G1 X188.701 Y98.95 E.0242
G1 X213.953 Y124.202 E1.33343
G1 X213.953 Y124.85 E.0242
G1 X188.053 Y98.95 E1.36765
G1 X187.405 Y98.95 E.0242
G1 X213.953 Y125.498 E1.40187
G1 X213.953 Y126.146 E.0242
G1 X186.757 Y98.95 E1.43609
G1 X186.109 Y98.95 E.0242
G1 X213.953 Y126.794 E1.47031
G1 X213.953 Y127.442 E.0242
G1 X185.461 Y98.95 E1.50453
G1 X184.813 Y98.95 E.0242
G1 X213.953 Y128.09 E1.53875
G1 X213.953 Y128.738 E.0242
G1 X184.165 Y98.95 E1.57297
G1 X183.517 Y98.95 E.0242
G1 X213.953 Y129.386 E1.60719
G1 X213.953 Y130.034 E.0242
G1 X182.869 Y98.95 E1.64141
G1 X182.22 Y98.95 E.0242
G1 X213.953 Y130.682 E1.67563
G1 X213.953 Y131.33 E.0242
G1 X181.572 Y98.95 E1.70985
G1 X180.924 Y98.95 E.0242
G1 X213.953 Y131.978 E1.74407
G1 X213.953 Y132.626 E.0242
G1 X180.276 Y98.95 E1.77829
G1 X179.628 Y98.95 E.0242
G1 X213.953 Y133.274 E1.81251
G1 X213.953 Y133.922 E.0242
G1 X178.98 Y98.95 E1.84673
G1 X178.332 Y98.95 E.0242
G1 X213.953 Y134.57 E1.88096
G1 X213.953 Y135.218 E.0242
G1 X177.684 Y98.95 E1.91518
G1 X177.036 Y98.95 E.0242
G1 X213.953 Y135.866 E1.9494
G1 X213.953 Y136.514 E.0242
G1 X176.388 Y98.95 E1.98362
G1 X175.74 Y98.95 E.0242
G1 X213.953 Y137.162 E2.01784
G1 X213.953 Y137.81 E.0242
G1 X175.092 Y98.95 E2.05206
G1 X174.444 Y98.95 E.0242
G1 X213.953 Y138.458 E2.08628
M73 P3 R45
G1 X213.953 Y139.106 E.0242
G1 X173.796 Y98.949 E2.1205
G1 X173.148 Y98.949 E.0242
G1 X213.953 Y139.754 E2.15472
G1 X213.953 Y140.402 E.0242
G1 X172.5 Y98.949 E2.18894
G1 X171.852 Y98.949 E.0242
G1 X213.953 Y141.05 E2.22316
G1 X213.953 Y141.698 E.0242
G1 X171.204 Y98.949 E2.25738
G1 X170.556 Y98.949 E.0242
G1 X213.953 Y142.346 E2.2916
G1 X213.953 Y142.994 E.0242
G1 X169.908 Y98.949 E2.32582
G1 X169.26 Y98.949 E.0242
G1 X213.953 Y143.642 E2.36004
G1 X213.953 Y144.29 E.0242
G1 X168.612 Y98.949 E2.39426
G1 X167.963 Y98.949 E.0242
G1 X213.953 Y144.938 E2.42848
G1 X213.953 Y145.586 E.0242
G1 X167.315 Y98.949 E2.4627
G1 X166.667 Y98.949 E.0242
G1 X213.953 Y146.234 E2.49692
G1 X213.953 Y146.883 E.0242
G1 X166.019 Y98.949 E2.53114
G1 X165.371 Y98.949 E.0242
G1 X213.953 Y147.531 E2.56536
G1 X213.953 Y148.179 E.0242
G1 X164.723 Y98.949 E2.59958
G1 X164.075 Y98.949 E.0242
G1 X213.953 Y148.827 E2.6338
G1 X213.953 Y149.475 E.0242
G1 X163.427 Y98.949 E2.66802
G1 X162.779 Y98.949 E.0242
G1 X213.953 Y150.123 E2.70224
G1 X213.953 Y150.771 E.0242
G1 X162.131 Y98.949 E2.73646
G1 X161.483 Y98.949 E.0242
G1 X213.953 Y151.419 E2.77068
G1 X213.953 Y152.067 E.0242
G1 X160.835 Y98.949 E2.8049
G1 X160.187 Y98.949 E.0242
G1 X213.953 Y152.715 E2.83912
G1 X213.953 Y153.363 E.0242
G1 X159.539 Y98.949 E2.87334
G1 X158.891 Y98.949 E.0242
G1 X213.953 Y154.011 E2.90757
G1 X213.953 Y154.659 E.0242
G1 X158.243 Y98.949 E2.94179
G1 X157.595 Y98.949 E.0242
G1 X213.953 Y155.307 E2.97601
G1 X213.953 Y155.955 E.0242
G1 X156.947 Y98.949 E3.01023
G1 X156.299 Y98.949 E.0242
G1 X213.953 Y156.603 E3.04445
G1 X213.953 Y157.251 E.0242
G1 X155.651 Y98.949 E3.07867
G1 X155.003 Y98.949 E.0242
G1 X213.953 Y157.899 E3.11289
G1 X213.953 Y158.547 E.0242
G1 X154.355 Y98.949 E3.14711
G1 X153.706 Y98.949 E.0242
G1 X213.953 Y159.195 E3.18133
G1 X213.953 Y159.843 E.0242
G1 X153.058 Y98.949 E3.21555
G1 X152.41 Y98.949 E.0242
G1 X213.953 Y160.491 E3.24977
G1 X213.953 Y161.139 E.0242
G1 X151.762 Y98.949 E3.28399
M73 P4 R45
G1 X151.114 Y98.949 E.0242
G1 X213.953 Y161.787 E3.31821
G1 X213.953 Y162.435 E.0242
G1 X150.466 Y98.949 E3.35243
G1 X149.818 Y98.949 E.0242
G1 X213.953 Y163.083 E3.38665
G1 X213.953 Y163.731 E.0242
G1 X149.17 Y98.949 E3.42087
G1 X148.522 Y98.949 E.0242
G1 X213.953 Y164.379 E3.45509
G1 X213.953 Y165.027 E.0242
G1 X147.874 Y98.949 E3.48931
G1 X147.226 Y98.949 E.0242
G1 X213.953 Y165.675 E3.52353
G1 X213.953 Y166.323 E.0242
G1 X146.578 Y98.948 E3.55775
M73 P4 R44
G1 X145.93 Y98.948 E.0242
G1 X213.953 Y166.971 E3.59197
G1 X213.953 Y167.619 E.0242
G1 X145.282 Y98.948 E3.62619
G1 X144.634 Y98.948 E.0242
G1 X213.953 Y168.267 E3.66041
G1 X213.953 Y168.915 E.0242
G1 X143.986 Y98.948 E3.69463
G1 X143.338 Y98.948 E.0242
G1 X213.953 Y169.563 E3.72885
G1 X213.953 Y170.211 E.0242
G1 X142.69 Y98.948 E3.76307
G1 X142.042 Y98.948 E.0242
G1 X213.953 Y170.859 E3.79729
G1 X213.953 Y171.507 E.0242
G1 X141.394 Y98.948 E3.83151
G1 X140.746 Y98.948 E.0242
G1 X213.953 Y172.155 E3.86573
G1 X213.953 Y172.803 E.0242
G1 X140.098 Y98.948 E3.89995
G1 X139.449 Y98.948 E.0242
G1 X213.953 Y173.451 E3.93418
G1 X213.953 Y174.099 E.0242
G1 X138.801 Y98.948 E3.9684
G1 X138.153 Y98.948 E.0242
G1 X213.953 Y174.747 E4.00262
G1 X213.953 Y175.395 E.0242
G1 X137.505 Y98.948 E4.03684
G1 X136.857 Y98.948 E.0242
G1 X213.953 Y176.043 E4.07106
G1 X213.953 Y176.691 E.0242
G1 X136.209 Y98.948 E4.10528
G1 X135.561 Y98.948 E.0242
G1 X213.953 Y177.339 E4.1395
G1 X213.953 Y177.988 E.0242
G1 X134.913 Y98.948 E4.17372
M73 P5 R44
G1 X134.265 Y98.948 E.0242
G1 X213.953 Y178.636 E4.20794
G1 X213.953 Y179.284 E.0242
G1 X133.617 Y98.948 E4.24216
G1 X132.969 Y98.948 E.0242
G1 X213.953 Y179.932 E4.27638
G1 X213.953 Y180.58 E.0242
G1 X132.321 Y98.948 E4.3106
G1 X131.673 Y98.948 E.0242
G1 X213.953 Y181.228 E4.34482
G1 X213.953 Y181.876 E.0242
G1 X131.025 Y98.948 E4.37904
G1 X130.377 Y98.948 E.0242
G1 X213.953 Y182.524 E4.41326
G1 X213.953 Y183.172 E.0242
G1 X129.729 Y98.948 E4.44748
G1 X129.081 Y98.948 E.0242
G1 X213.953 Y183.82 E4.4817
G1 X213.953 Y184.468 E.0242
G1 X128.433 Y98.948 E4.51592
G1 X127.785 Y98.948 E.0242
G1 X213.953 Y185.116 E4.55014
G1 X213.953 Y185.764 E.0242
G1 X127.137 Y98.948 E4.58436
G1 X126.489 Y98.948 E.0242
G1 X213.953 Y186.412 E4.61858
G1 X213.953 Y187.06 E.0242
G1 X125.841 Y98.948 E4.6528
G1 X125.193 Y98.948 E.0242
G1 X213.953 Y187.708 E4.68702
G1 X213.953 Y188.356 E.0242
G1 X124.544 Y98.948 E4.72124
G1 X123.896 Y98.948 E.0242
G1 X213.953 Y189.004 E4.75546
G1 X213.953 Y189.652 E.0242
G1 X123.248 Y98.948 E4.78968
G1 X122.6 Y98.948 E.0242
G1 X213.953 Y190.3 E4.8239
G1 X213.953 Y190.948 E.0242
G1 X121.952 Y98.948 E4.85812
G1 X121.304 Y98.948 E.0242
G1 X213.953 Y191.596 E4.89234
G1 X213.953 Y192.244 E.0242
G1 X120.656 Y98.948 E4.92656
M73 P6 R44
G1 X120.008 Y98.948 E.0242
G1 X213.953 Y192.892 E4.96078
G1 X213.953 Y193.54 E.0242
G1 X119.36 Y98.947 E4.99501
G1 X118.712 Y98.947 E.0242
G1 X213.953 Y194.188 E5.02923
G1 X213.953 Y194.836 E.0242
G1 X118.064 Y98.947 E5.06345
G1 X117.416 Y98.947 E.0242
G1 X213.953 Y195.484 E5.09767
G1 X213.953 Y196.132 E.0242
G1 X116.768 Y98.947 E5.13189
G1 X116.133 Y98.96 E.02373
G1 X213.953 Y196.78 E5.16544
G1 X213.953 Y197.428 E.0242
G1 X116.047 Y99.523 E5.16994
G1 X116.047 Y100.171 E.0242
G1 X213.953 Y198.076 E5.16994
M73 P6 R43
G1 X213.953 Y198.724 E.0242
G1 X116.047 Y100.819 E5.16994
G1 X116.047 Y101.467 E.0242
G1 X213.953 Y199.372 E5.16994
G1 X213.953 Y200.02 E.0242
G1 X116.047 Y102.115 E5.16994
G1 X116.047 Y102.763 E.0242
G1 X213.953 Y200.668 E5.16994
G1 X213.953 Y201.316 E.0242
G1 X116.047 Y103.411 E5.16994
G1 X116.047 Y104.059 E.0242
G1 X213.953 Y201.964 E5.16994
G1 X213.953 Y202.612 E.0242
G1 X116.047 Y104.707 E5.16994
G1 X116.047 Y105.355 E.0242
G1 X213.953 Y203.26 E5.16994
G1 X213.953 Y203.908 E.0242
G1 X116.047 Y106.003 E5.16994
G1 X116.047 Y106.651 E.0242
G1 X213.953 Y204.556 E5.16994
G1 X213.953 Y205.204 E.0242
G1 X116.047 Y107.299 E5.16994
M73 P7 R43
G1 X116.047 Y107.947 E.0242
G1 X213.953 Y205.852 E5.16994
G1 X213.953 Y206.5 E.0242
G1 X116.047 Y108.595 E5.16994
G1 X116.047 Y109.243 E.0242
G1 X213.953 Y207.148 E5.16994
