; HEADER_BLOCK_START
; generated by OrcaSlicer 1.6.4-beta3 on 2023-08-20 at 17:02:00
; total layer number: 136
; HEADER_BLOCK_END

; THUMBNAIL_BLOCK_START
; THUMBNAIL_BLOCK_END

; external perimeters extrusion width = 0.40mm
; perimeters extrusion width = 0.46mm
; infill extrusion width = 0.64mm
; solid infill extrusion width = 0.56mm
; top infill extrusion width = 0.40mm
; support material extrusion width = 0.46mm
; first layer extrusion width = 0.50mm

; EXECUTABLE_BLOCK_START
EXCLUDE_OBJECT_DEFINE NAME=Little_sitting_man.stl_id_0_copy_0 CENTER=160,150 POLYGON=[[139.395,160.168],[140.04,139.895],[140.145,139.219],[140.319,138.621],[140.584,138.012],[140.754,137.67],[141.151,137.183],[141.569,136.762],[141.926,136.496],[142.364,136.258],[142.857,136.074],[143.138,135.995],[143.852,135.875],[159.744,135.506],[176.061,135.875],[176.455,135.923],[177.024,136.02],[177.687,136.287],[177.973,136.431],[178.326,136.676],[178.422,136.75],[178.512,136.834],[178.702,137.018],[178.962,137.286],[179.421,137.986],[179.588,138.335],[179.69,138.587],[179.761,138.852],[179.903,139.462],[179.98,140.412],[180.605,160.168],[180.57,160.622],[180.466,160.949],[180.295,161.48],[180.062,161.839],[179.771,162.243],[179.047,162.768],[178.63,162.971],[178.189,163.094],[177.734,163.148],[160.767,164.483],[159.488,164.494],[142.266,163.148],[141.811,163.094],[141.37,162.971],[140.953,162.768],[140.57,162.535],[140.229,162.243],[139.938,161.839],[139.705,161.48],[139.534,160.949],[139.43,160.611],[139.395,160.168]]
M73 P0 R24
;TYPE:Custom
START_PRINT T_BED=60 T_EXTRUDER=220
G90
G21
M83 ; use relative distances for extrusion
; filament start gcode

    PRESSURE_ADVANCE_SELECT FILAMENT=PLA
M106 S0
;LAYER_CHANGE
;Z:0.2
;HEIGHT:0.2
;BEFORE_LAYER_CHANGE
;0.2
G92 E0

SET_VELOCITY_LIMIT ACCEL=1000 ACCEL_TO_DECEL=500
G1 E-.8 F3000
G1 X144.203 Y135.718 F12000
G1 Z.2
G1 E.8 F1800
;TYPE:Skirt
;WIDTH:0.5
G1 F3000
G1 X144.761 Y135.223 E.02776
G1 X145.809 Y134.694 E.04373
G1 X146.149 Y134.616 E.013
G1 X157.546 Y132.773 E.43001
G1 X161.046 Y132.647 E.13045
G1 X162.947 Y132.841 E.07116
G1 X174.14 Y134.67 E.42244
G1 X174.752 Y134.933 E.02481
G1 X175.443 Y135.378 E.03063
G1 X176.322 Y136.404 E.05031
G1 X180.061 Y142.88 E.27851
G1 X180.362 Y143.62 E.02977
G1 X180.515 Y144.239 E.02374
G1 X183.278 Y158.185 E.52952
G1 X183.334 Y158.751 E.0212
G1 X183.087 Y164.718 E.22243
G1 X182.628 Y166.16 E.05638
G1 X181.507 Y167.178 E.05638
G1 X180.176 Y167.5 E.05101
G1 X139.58 Y167.5 E1.51202
G1 X138.119 Y167.106 E.05638
G1 X137.051 Y166.033 E.05638
G1 X136.666 Y164.585 E.0558
G1 X136.913 Y158.619 E.22243
G1 X139.519 Y144.005 E.55291
G1 X139.941 Y142.876 E.04487
G1 X143.676 Y136.407 E.27824
G1 X144.179 Y135.749 E.03081
G1 X144.525 Y136.044 F12000
G1 F3000
G1 X144.548 Y136.018 E.00128
G1 X145.212 Y135.469 E.0321
G1 X146.225 Y135.067 E.04059
G1 X157.619 Y133.224 E.42991
G1 X161.001 Y133.102 E.12605
G1 X162.874 Y133.293 E.07014
G1 X173.633 Y135.017 E.40583
G1 X174.525 Y135.33 E.03521
G1 X175.151 Y135.73 E.02768
G1 X175.926 Y136.633 E.0443
G1 X179.665 Y143.108 E.27851
G1 X180.066 Y144.328 E.04782
G1 X182.877 Y158.751 E.54731
G1 X182.63 Y164.697 E.22166
G1 X182.178 Y166.009 E.05169
G1 X181.087 Y166.867 E.05169
G1 X180.176 Y167.042 E.03458
G1 X139.58 Y167.042 E1.51202
G1 X138.249 Y166.651 E.05169
G1 X137.343 Y165.6 E.05169
G1 X137.123 Y164.585 E.03866
G1 X137.37 Y158.639 E.22166
G1 X139.969 Y144.086 E.55065
G1 X140.337 Y143.105 E.03902
G1 X144.261 Y136.355 E.2908
G1 X144.499 Y136.075 E.0137
; printing object Little sitting man.stl id:0 copy 0
G1 E-.8
EXCLUDE_OBJECT_START NAME=Little_sitting_man.stl_id_0_copy_0
G1 X145.42 Y153.929 F12000
G1 E.8 F1800
;TYPE:Support
G1 F3000
G1 X145.434 Y153.979 E.00197
G2 X146.571 Y156.908 I24.003 J-7.631 E.11708
G1 X146.598 Y156.957 E.00209
G2 X150.29 Y161.548 I13.66 J-7.206 E.22079
G1 X150.29 Y163.627 E.07741
G1 X143.873 Y163.627 E.239
G1 X143.873 Y162.127 E.05586
G1 X145.873 Y162.127 E.07449
G1 X145.873 Y155.376 E.25147
G1 X143.873 Y155.376 E.07449
G1 X143.873 Y153.876 E.05586
G1 X145.395 Y153.876 E.05667
G1 E-.8
G1 X149.879 Y161.742 F12000
G1 E.8 F1800
G1 F3000
G1 X149.879 Y163.215 E.05489
G1 X144.285 Y163.215 E.20836
G1 X144.285 Y162.538 E.02522
G1 X146.285 Y162.538 E.07449
G1 X146.285 Y157.236 E.19748
G2 X147.08 Y158.568 I10.565 J-5.405 E.05782
G2 X148.744 Y160.675 I14.829 J-9.999 E.10008
G1 X149.879 Y161.742 E.05801
G1 X149.371 Y161.961 F12000
G1 F3000
G1 X149.371 Y162.708 E.02779
G1 X146.792 Y162.708 E.09604
G1 X146.792 Y159.522 E.11864
G1 X147.1 Y159.416 E.01212
G2 X149.371 Y161.961 I9.842 J-6.493 E.12751
G1 X148.883 Y162.2 F12000
G1 F3000
G1 X147.3 Y162.2 E.05894
G1 X147.3 Y160.99 E.04506
G1 X147.608 Y160.883 E.01212
G2 X148.883 Y162.2 I5.451 J-4.004 E.06846
G1 X145.375 Y154.964 F12000
G1 F3000
G1 X144.285 Y154.964 E.0406
G1 X144.285 Y154.287 E.02522
G1 X145.112 Y154.287 E.03083
G1 X145.375 Y154.964 E.02704
G1 X145.327 Y155.834 F12000
;TYPE:Support interface
G1 F3000
G1 X145.327 Y161.668 E.2173
G1 X144.41 Y161.668 E.03416
G1 X144.41 Y160.475 E.04445
G2 X144.41 Y159.697 I-1.139 J-.389 E.02951
G1 X144.41 Y155.834 E.14387
G1 X143.493 Y155.834 E.03416
G1 X143.493 Y158.468 E.09809
G1 X143.33 Y158.387 E.00676
G2 X142.575 Y158.172 I-1.003 J2.097 E.02936
G1 X142.575 Y155.834 E.08709
G1 E-.8
G1 X143.955 Y159.765 F12000
G1 E.8 F1800
;TYPE:Support
G1 F3000
G3 X143.873 Y160.664 I-1.159 J.347 E.03445
G1 X143.873 Y159.555 E.04131
G1 X143.93 Y159.701 E.00585
G1 X144.349 Y160.674 F12000
;TYPE:Support interface
G1 F3000
G3 X143.773 Y161.668 I-1.981 J-.484 E.04337
G1 X144.201 Y161.668 E.01593
G1 E-.8
G1 X141.867 Y164.585 F12000
G1 E.8 F1800
G1 F3000
G1 X142.498 Y164.585 E.02349
G1 X142.498 Y162.157 E.09046
G3 X141.658 Y161.985 I-.245 J-.938 E.03305
G1 X141.658 Y164.585 E.09687
G1 X140.741 Y164.585 E.03416
G1 X140.741 Y161.377 E.11951
G3 X140.534 Y159.287 I2.109 J-1.265 E.08081
G2 X140.741 Y158.751 I-.485 J-.496 E.02207
G1 X139.824 Y158.751 E.03416
G1 X139.824 Y164.585 E.2173
G1 X139.58 Y164.585 E.00908
G1 X139.58 Y164.104 E.01793
G1 E-.8
G1 X151.855 Y161.212 F12000
G1 X172.348 Y156.382
G1 X174.673 Y155.834
G1 E.8 F1800
G1 F3000
G1 X174.673 Y161.668 E.2173
G1 X175.59 Y161.668 E.03416
G1 X175.59 Y160.46 E.045
G3 X175.59 Y159.698 I1.903 J-.381 E.02856
G1 X175.59 Y155.834 E.14393
G1 X176.507 Y155.834 E.03416
G1 X176.507 Y158.452 E.09752
G3 X177.425 Y158.167 I1.677 J3.776 E.03585
G1 X177.425 Y155.834 E.0869
G1 X176.127 Y155.376 F12000
;TYPE:Support
G1 F3000
G1 X174.127 Y155.376 E.07449
G1 X174.127 Y162.127 E.25147
G1 X176.127 Y162.127 E.07449
G1 X176.127 Y163.627 E.05586
G1 X169.71 Y163.627 E.239
G1 X169.71 Y161.536 E.07788
G2 X173.447 Y156.869 I-10.705 J-12.402 E.22394
G1 X174.566 Y153.977 E.1155
G2 X174.591 Y153.876 I-.605 J-.204 E.0039
G1 X176.127 Y153.876 E.05719
G1 X176.127 Y155.307 E.05331
G1 E-.8
G1 X170.121 Y161.732 F12000
G1 E.8 F1800
G1 F3000
G2 X173.715 Y157.235 I-9.276 J-11.099 E.21585
G1 X173.715 Y162.538 E.19752
M73 P1 R24
G1 X175.715 Y162.538 E.07449
G1 X175.715 Y163.215 E.02522
G1 X170.121 Y163.215 E.20836
G1 X170.121 Y161.732 E.05526
G1 X170.629 Y161.973 F12000
G1 F3000
G2 X173.208 Y159.105 I-11.439 J-12.877 E.14394
G1 X173.208 Y162.708 E.13416
G1 X170.629 Y162.708 E.09604
G1 X170.629 Y161.973 E.02735
G1 X171.154 Y162.2 F12000
G1 F3000
G2 X172.7 Y160.523 I-7.456 J-8.425 E.08507
G1 X172.7 Y162.2 E.06243
G1 X171.154 Y162.2 E.05756
G1 X174.625 Y154.964 F12000
G1 F3000
G1 X174.887 Y154.287 E.02704
G1 X175.715 Y154.287 E.03085
G1 X175.715 Y154.964 E.02522
G1 X174.625 Y154.964 E.04061
G1 E-.8
G1 X175.649 Y160.66 F12000
G1 E.8 F1800
;TYPE:Support interface
G1 F3000
G2 X176.227 Y161.668 I1.968 J-.458 E.04389
G1 X175.799 Y161.668 E.01593
G1 X176.127 Y160.658 F12000
;TYPE:Support
G1 F3000
G3 X176.127 Y159.626 I1.174 J-.516 E.03956
G1 X176.127 Y160.59 E.03588
G1 E-.8
G1 X178.168 Y162.1 F12000
G1 E.8 F1800
;TYPE:Support interface
G1 F3000
G3 X177.502 Y162.157 I-.417 J-.954 E.02532
G1 X177.502 Y164.585 E.09046
G1 X178.342 Y164.585 E.03125
G1 X178.342 Y161.985 E.09687
G2 X179.119 Y161.532 I-.297 J-1.405 E.0341
G1 E-.8
G1 X180.42 Y159.233 F12000
G1 E.8 F1800
G1 F3000
G1 X180.42 Y158.751 E.01793
G1 X180.176 Y158.751 E.00908
G1 X180.176 Y164.585 E.2173
G1 X179.259 Y164.585 E.03416
G1 X179.26 Y161.375 E.11957
G2 X179.596 Y160.041 I-1.693 J-1.136 E.05227
G2 X179.259 Y159.071 I-1.314 J-.087 E.03931
G1 X179.259 Y158.751 E.01189
G1 X179.046 Y158.751 E.00791
G1 X179.154 Y158.891 E.00656
G1 E-.8
G1 X177.895 Y159.525 F12000
G1 X170.422 Y159.157
G1 X150.141 Y159.777
G1 X143.024 Y160.084
G1 X142.788 Y160.002
G1 E.8 F1800
;TYPE:Outer wall
G1 F3000
G3 X142.714 Y160.076 I-.109 J-.035 E.00406
G1 X142.693 Y160.292 E.00806
G1 X142.705 Y160.347 E.00211
G2 X142.595 Y160.577 I.391 J.329 E.00959
G1 X142.464 Y160.61 E.00503
G1 X142.009 Y160.441 E.01807
G1 X141.944 Y160.253 E.00741
G1 X141.981 Y159.946 E.01149
G1 X142.012 Y159.923 E.00144
G1 X142.575 Y159.797 E.0215
G1 X142.759 Y159.974 E.00952
G1 E-.8
G1 X142.932 Y159.794 F12000
G1 X147.698 Y156.46
G1 X170.388 Y140.69
G1 X170.555 Y140.495
G1 X170.365 Y140.332
G1 E.8 F1800
G1 F3000
G1 X171.366 Y139.161 E.05739
G2 X172.379 Y138.067 I-34.455 J-32.944 E.05553
G1 X172.862 Y137.786 E.02081
G1 X173.176 Y137.792 E.0117
G3 X173.513 Y138.067 I-.238 J.636 E.01649
G1 X177.21 Y144.47 E.27539
G1 X177.295 Y144.805 E.01289
G1 X177.21 Y145.132 E.01258
G1 X177.133 Y145.251 E.00526
G1 X176.846 Y145.49 E.01393
G3 X174.084 Y146.328 I-8.869 J-24.266 E.10755
G1 X173.718 Y146.45 E.01437
G1 X174.03 Y148.251 E.06807
G1 X174.137 Y150.233 E.07393
G1 X173.964 Y152.226 E.07451
G1 X173.661 Y153.684 E.05548
G1 X172.575 Y156.49 E.11204
G1 X171.536 Y158.195 E.07437
G1 X170.269 Y159.737 E.07437
G1 X169.56 Y160.434 E.037
G1 X168.391 Y161.384 E.0561
G1 X166.712 Y162.449 E.07407
G1 X165.364 Y163.096 E.05571
G1 X162.962 Y163.83 E.09352
G1 X161 Y164.109 E.07382
G1 X159.501 Y164.144 E.05586
G1 X157.507 Y163.931 E.07469
G1 X156.546 Y163.725 E.03657
G1 X155.107 Y163.27 E.05621
G1 X153.728 Y162.686 E.0558
G1 X152.43 Y161.947 E.05565
G1 X150.823 Y160.761 E.07437
G1 X149.723 Y159.727 E.05623
G1 X148.185 Y157.771 E.09268
G1 X147.425 Y156.488 E.05553
G1 X146.341 Y153.69 E.11177
G1 X145.958 Y151.728 E.07446
G1 X145.855 Y149.741 E.0741
G1 X146.032 Y147.749 E.07449
G1 X146.29 Y146.442 E.04961
G1 X143.384 Y145.583 E.11288
G3 X142.726 Y144.962 I.238 J-.911 E.03516
G1 X142.736 Y144.592 E.01378
G1 X142.779 Y144.49 E.00412
G1 X146.483 Y138.073 E.27596
G3 X146.724 Y137.835 I1.113 J.884 E.01265
G2 X147.036 Y137.78 I-.092 J-1.448 E.01182
G3 X147.482 Y137.946 I-.462 J1.932 E.01777
G3 X147.661 Y138.108 I-1.014 J1.293 E.00898
G1 X149.402 Y140.071 E.09776
G1 X149.62 Y140.359 E.01343
G1 X150.622 Y139.408 E.05146
G1 X151.367 Y138.793 E.03594
G1 X152.58 Y137.965 E.05473
G1 X153.877 Y137.248 E.05521
G1 X156.588 Y136.273 E.10731
G1 X158.049 Y135.999 E.05536
G1 X160.747 Y135.898 E.10056
G1 X162.019 Y136.024 E.04761
G1 X162.426 Y136.065 E.01524
G1 X164.315 Y136.528 E.07246
G1 X166.129 Y137.251 E.0727
G1 X167.84 Y138.226 E.07336
G1 X169.007 Y139.102 E.05435
G1 X170.335 Y140.305 E.06675
G1 X170.407 Y140.987 F12000
;TYPE:Inner wall
G1 F3000
G1 X171.705 Y139.467 E.07446
G2 X172.663 Y138.431 I-29.245 J-27.974 E.05256
G1 X173.031 Y138.212 E.01595
G1 X173.14 Y138.335 E.00612
G1 X176.782 Y144.644 E.27131
G3 X176.787 Y144.944 I-.272 J.155 E.01168
G1 X176.615 Y145.088 E.00835
G3 X173.954 Y145.89 I-8.468 J-23.287 E.10358
G1 X173.201 Y146.141 E.02955
G1 X173.576 Y148.302 E.0817
G1 X173.679 Y150.225 E.07173
G1 X173.511 Y152.159 E.0723
G1 X173.221 Y153.554 E.05307
G1 X172.163 Y156.288 E.10917
G1 X171.163 Y157.93 E.0716
G1 X169.931 Y159.428 E.07226
G1 X169.255 Y160.092 E.03529
G1 X168.123 Y161.012 E.05431
G1 X166.49 Y162.049 E.07206
G1 X165.197 Y162.669 E.05342
G1 X162.863 Y163.382 E.09091
G1 X160.962 Y163.652 E.07149
G1 X159.52 Y163.686 E.05375
G1 X157.579 Y163.479 E.07269
G1 X156.664 Y163.283 E.03487
G1 X155.266 Y162.841 E.0546
G1 X153.931 Y162.276 E.054
G1 X152.679 Y161.563 E.05364
G1 X151.116 Y160.409 E.07235
G1 X150.061 Y159.418 E.05394
G1 X148.563 Y157.512 E.09028
G1 X147.837 Y156.288 E.053
G1 X146.782 Y153.563 E.10885
G1 X146.412 Y151.672 E.07175
G1 X146.313 Y149.75 E.0717
G1 X146.485 Y147.814 E.07239
G1 X146.819 Y146.122 E.06422
G1 X143.524 Y145.148 E.12801
G3 X143.256 Y144.996 I.276 J-.8 E.01151
G3 X143.19 Y144.691 I.248 J-.213 E.01211
G1 X146.851 Y138.35 E.27273
G3 X147.005 Y138.254 I.138 J.049 E.00729
G1 X147.229 Y138.332 E.00882
G3 X147.326 Y138.419 I-.544 J.702 E.00486
G1 X149.049 Y140.362 E.09672
G1 X149.565 Y141.042 E.03179
G1 X150.925 Y139.75 E.06988
G1 X151.642 Y139.159 E.03458
G1 X152.821 Y138.355 E.05316
G1 X154.056 Y137.669 E.05263
G1 X156.726 Y136.709 E.1057
G1 X158.1 Y136.454 E.05202
G1 X160.733 Y136.356 E.09815
G1 X161.974 Y136.479 E.04644
G1 X162.349 Y136.516 E.01403
G1 X164.176 Y136.965 E.07007
G1 X165.93 Y137.663 E.07034
G1 X167.589 Y138.608 E.0711
G1 X168.715 Y139.455 E.05249
G1 X170.377 Y140.96 E.0835
G1 X170.448 Y141.642 F12000
G1 F3000
G1 X172.045 Y139.774 E.09152
G2 X172.905 Y138.842 I-26.269 J-25.133 E.04723
G1 X176.295 Y144.713 E.2525
G3 X173.823 Y145.451 I-7.148 J-19.434 E.09615
G1 X172.683 Y145.832 E.04474
G1 X173.121 Y148.354 E.09533
G1 X173.221 Y150.218 E.06953
G1 X173.058 Y152.093 E.07009
G1 X172.781 Y153.424 E.05067
G1 X171.751 Y156.085 E.10625
G1 X170.789 Y157.664 E.06888
G1 X169.593 Y159.119 E.07015
G1 X168.95 Y159.751 E.03359
G1 X167.856 Y160.64 E.05251
G1 X166.268 Y161.648 E.07006
G1 X165.03 Y162.242 E.05112
G1 X162.763 Y162.934 E.0883
G1 X160.925 Y163.196 E.06916
G1 X159.538 Y163.229 E.05164
G1 X157.651 Y163.027 E.07069
G1 X156.781 Y162.84 E.03317
G1 X155.424 Y162.411 E.05299
G1 X154.133 Y161.865 E.05219
G1 X152.929 Y161.179 E.05163
G1 X151.41 Y160.058 E.07034
G1 X150.399 Y159.108 E.05165
G1 X148.941 Y157.253 E.08788
G1 X148.25 Y156.088 E.05047
G1 X147.223 Y153.435 E.10594
G1 X146.867 Y151.616 E.06904
G1 X146.771 Y149.758 E.06929
G1 X146.938 Y147.879 E.07028
G1 X147.349 Y145.802 E.07883
G1 X143.7 Y144.723 E.14173
G1 X147.093 Y138.845 E.25278
G1 X148.695 Y140.652 E.08993
G1 X149.509 Y141.725 E.05015
G1 X151.229 Y140.093 E.0883
G1 X151.916 Y139.525 E.03321
G1 X153.061 Y138.744 E.0516
G1 X154.246 Y138.087 E.05047
G1 X156.846 Y137.151 E.10294
G1 X158.15 Y136.91 E.04939
G1 X160.719 Y136.814 E.09574
G1 X161.929 Y136.934 E.04528
G1 X162.271 Y136.968 E.01282
G1 X164.036 Y137.401 E.06768
G1 X165.732 Y138.076 E.06797
G1 X167.337 Y138.991 E.06883
G1 X168.424 Y139.808 E.05064
G1 X170.419 Y141.615 E.10024
G1 X170.49 Y142.296 F12000
G1 F3000
G1 X172.384 Y140.08 E.10858
G2 X172.82 Y139.61 I-13.264 J-12.738 E.02389
G1 X175.618 Y144.456 E.20844
G3 X173.692 Y145.013 I-5.427 J-15.154 E.07474
G1 X172.166 Y145.523 E.05992
G1 X172.666 Y148.405 E.10896
G1 X172.763 Y150.21 E.06732
G1 X172.605 Y152.026 E.06789
G1 X172.341 Y153.295 E.04826
G1 X171.34 Y155.882 E.10333
G1 X170.416 Y157.399 E.06616
G1 X169.256 Y158.81 E.06805
G1 X168.645 Y159.41 E.03188
G1 X167.588 Y160.269 E.05071
G1 X166.046 Y161.248 E.06806
G1 X164.864 Y161.815 E.04883
G1 X162.664 Y162.487 E.08569
G1 X160.887 Y162.74 E.06684
G1 X159.557 Y162.771 E.04953
G1 X157.724 Y162.575 E.06868
G1 X156.898 Y162.398 E.03147
G1 X155.582 Y161.982 E.05138
G1 X154.336 Y161.455 E.05039
G1 X153.179 Y160.795 E.04963
G1 X151.703 Y159.706 E.06833
G1 X150.737 Y158.799 E.04936
G1 X149.319 Y156.994 E.08547
G1 X148.662 Y155.887 E.04794
G1 X147.664 Y153.308 E.10302
G1 X147.322 Y151.56 E.06633
G1 X147.229 Y149.767 E.06689
G1 X147.392 Y147.943 E.06818
G1 X147.878 Y145.482 E.09344
G1 X144.386 Y144.449 E.13564
G1 X147.172 Y139.623 E.20756
G1 X148.342 Y140.942 E.06566
G1 X149.453 Y142.408 E.06852
G1 X151.532 Y140.435 E.10673
G1 X152.191 Y139.891 E.03184
G1 X153.301 Y139.134 E.05004
G1 X154.435 Y138.504 E.04831
G1 X156.966 Y137.594 E.10018
G1 X158.201 Y137.365 E.04677
G1 X160.705 Y137.271 E.09333
G1 X161.883 Y137.389 E.04412
G1 X162.194 Y137.419 E.01161
G1 X163.896 Y137.837 E.0653
G1 X165.533 Y138.489 E.06561
G1 X167.086 Y139.374 E.06657
G1 X168.133 Y140.161 E.04878
G1 X170.461 Y142.269 E.11698
G1 E-.8
G1 X172.352 Y140.328 F12000
G1 E.8 F1800
