; HEADER_BLOCK_START
; generated by OrcaSlicer 1.6.4-beta2 on 2023-08-07 at 21:32:11
; total layer number: 275
; HEADER_BLOCK_END

; THUMBNAIL_BLOCK_START
; THUMBNAIL_BLOCK_END

; external perimeters extrusion width = 0.40mm
; perimeters extrusion width = 0.42mm
; infill extrusion width = 0.64mm
; solid infill extrusion width = 0.56mm
; top infill extrusion width = 0.42mm
; first layer extrusion width = 0.50mm

; external perimeters extrusion width = 0.40mm
; perimeters extrusion width = 0.42mm
; infill extrusion width = 0.64mm
; solid infill extrusion width = 0.56mm
; top infill extrusion width = 0.42mm
; first layer extrusion width = 0.50mm

; EXECUTABLE_BLOCK_START
EXCLUDE_OBJECT_DEFINE NAME=lmu10luu_Mount.stl_id_0_copy_0 CENTER=184.935,165 POLYGON=[[167.5,130],[171.5,130],[197.976,154.952],[198.434,155.395],[198.498,155.46],[198.936,155.932],[198.992,155.995],[199.408,156.494],[199.456,156.555],[199.849,157.081],[199.89,157.14],[200.258,157.691],[200.293,157.746],[200.634,158.322],[200.663,158.374],[200.975,158.972],[200.998,159.02],[201.281,159.64],[201.299,159.683],[201.55,160.323],[201.564,160.361],[201.783,161.019],[201.793,161.052],[201.978,161.727],[201.984,161.755],[202.134,162.445],[202.138,162.466],[202.252,163.17],[202.254,163.185],[202.331,163.9],[202.332,163.909],[202.37,164.633],[202.37,164.634],[202.37,164.636],[202.37,165.364],[202.37,165.366],[202.37,165.367],[202.332,166.091],[202.331,166.1],[202.254,166.815],[202.252,166.83],[202.138,167.534],[202.134,167.555],[201.984,168.245],[201.978,168.273],[201.793,168.948],[201.783,168.981],[201.564,169.639],[201.55,169.677],[201.299,170.317],[201.281,170.36],[200.998,170.98],[200.975,171.028],[200.663,171.626],[200.634,171.678],[200.293,172.254],[200.258,172.309],[199.89,172.86],[199.849,172.919],[199.456,173.445],[199.408,173.506],[198.992,174.005],[198.936,174.068],[198.498,174.54],[198.434,174.605],[197.976,175.048],[171.5,200],[167.5,200],[167.5,130]]
EXCLUDE_OBJECT_DEFINE NAME=lmu10luu_Mount.stl_id_1_copy_0 CENTER=145.065,165 POLYGON=[[127.63,130],[131.63,130],[158.106,154.952],[158.564,155.395],[158.627,155.46],[159.066,155.932],[159.121,155.995],[159.538,156.494],[159.586,156.555],[159.979,157.081],[160.02,157.14],[160.388,157.691],[160.423,157.746],[160.763,158.322],[160.792,158.374],[161.105,158.972],[161.128,159.02],[161.411,159.64],[161.429,159.683],[161.68,160.323],[161.694,160.361],[161.913,161.019],[161.923,161.052],[162.107,161.727],[162.114,161.755],[162.264,162.445],[162.268,162.466],[162.382,163.17],[162.384,163.185],[162.461,163.9],[162.461,163.909],[162.5,164.633],[162.5,164.634],[162.5,164.636],[162.5,165.364],[162.5,165.366],[162.5,165.367],[162.461,166.091],[162.461,166.1],[162.384,166.815],[162.382,166.83],[162.268,167.534],[162.264,167.555],[162.114,168.245],[162.107,168.273],[161.923,168.948],[161.913,168.981],[161.694,169.639],[161.68,169.677],[161.429,170.317],[161.411,170.36],[161.128,170.98],[161.105,171.028],[160.792,171.626],[160.763,171.678],[160.423,172.254],[160.388,172.309],[160.02,172.86],[159.979,172.919],[159.586,173.445],[159.538,173.506],[159.121,174.005],[159.066,174.068],[158.627,174.54],[158.564,174.605],[158.106,175.048],[131.63,200],[127.63,200],[127.63,130]]
M73 P0 R95
;TYPE:Custom
START_PRINT T_BED=110 T_EXTRUDER=260
G90
G21
M83 ; use relative distances for extrusion
; Filament gcode
M106 S0
;LAYER_CHANGE
;Z:0.2
;HEIGHT:0.2
;BEFORE_LAYER_CHANGE
;0.2
G92 E0

SET_VELOCITY_LIMIT ACCEL=1000 ACCEL_TO_DECEL=500
G1 E-.5 F3000
G1 X126.182 Y131.688 F12000
G1 Z.2
G1 E.5 F1800
;TYPE:Skirt
;WIDTH:0.5
G1 F3000
G1 X127.63 Y131.303 E.05295
G1 X171.5 Y131.303 E1.55063
G1 X173.423 Y132.028 E.07266
G1 X198.587 Y154.137 E1.18397
G1 X199.772 Y155.349 E.05992
G1 X200.865 Y156.769 E.06334
G1 X202.018 Y158.805 E.08267
G1 X202.7 Y160.557 E.06648
G1 X203.228 Y162.836 E.08267
G1 X203.342 Y163.83 E.03537
G1 X203.385 Y165.327 E.05293
G1 X203.228 Y167.164 E.06518
G1 X202.93 Y168.639 E.05319
G1 X202.649 Y169.601 E.03539
G1 X201.721 Y171.796 E.08425
G1 X200.772 Y173.368 E.0649
G1 X199.744 Y174.684 E.05905
G1 X198.587 Y175.863 E.05837
G1 X173.423 Y197.972 E1.18397
G1 X171.5 Y198.697 E.07266
G1 X127.63 Y198.697 E1.55063
G1 X126.168 Y198.304 E.0535
G1 X125.101 Y197.231 E.0535
G1 X124.716 Y195.783 E.05295
G1 X124.716 Y134.217 E2.17611
G1 X125.109 Y132.755 E.0535
G1 X126.154 Y131.716 E.05209
G1 X126.481 Y132.095 F12000
G1 F3000
G1 X126.615 Y131.979 E.00627
G1 X127.63 Y131.76 E.03669
G1 X171.5 Y131.76 E1.55063
G1 X173.122 Y132.371 E.06126
G1 X198.285 Y154.48 E1.18397
G1 X199.434 Y155.658 E.05815
G1 X200.481 Y157.017 E.06063
G1 X201.608 Y159.007 E.08083
G1 X202.261 Y160.685 E.06368
G1 X202.778 Y162.913 E.08083
G1 X202.927 Y165.328 E.08552
G1 X202.778 Y167.087 E.06238
G1 X202.218 Y169.448 E.08575
G1 X201.311 Y171.594 E.08236
G1 X200.402 Y173.099 E.06215
G1 X199.407 Y174.375 E.05721
G1 X198.285 Y175.52 E.05664
G1 X173.122 Y197.629 E1.18397
G1 X171.5 Y198.24 E.06126
G1 X127.63 Y198.24 E1.55063
G1 X126.299 Y197.848 E.04905
G1 X125.392 Y196.798 E.04905
G1 X125.173 Y195.783 E.03669
G1 X125.173 Y134.217 E2.17611
G1 X125.565 Y132.886 E.04905
G1 X126.45 Y132.121 E.04136
; printing object lmu10luu_Mount.stl id:0 copy 0
EXCLUDE_OBJECT_START NAME=lmu10luu_Mount.stl_id_0_copy_0
G1 E-.5
G1 X171.236 Y134.624 F12000
G1 E.5 F1800
;TYPE:Outer wall
G1 F3000
G1 X171.25 Y134.84 E.00766
G2 X171.329 Y137.789 I29.533 J.68 E.1043
G2 X187.867 Y153.555 I17.375 J-1.668 E.88046
G1 X189.35 Y153.594 E.05244
G3 X189.35 Y176.406 I-.656 J11.406 E1.22228
G2 X186.21 Y176.604 I-.112 J23.326 E.11131
G2 X171.25 Y193.871 I2.493 J17.273 E.88035
G1 X171.25 Y195.16 E.04557
G3 X171.225 Y195.433 I-1.076 J.038 E.00971
G1 X167.85 Y195.433 E.11928
G1 X167.85 Y134.567 E2.15137
G1 X171.225 Y134.567 E.11928
G1 X171.228 Y134.584 E.00062
G1 X170.793 Y135.024 F12000
;TYPE:Inner wall
G1 F3000
G1 X170.793 Y136.135 E.03926
G2 X187.845 Y154.012 I17.911 J-.013 E.96359
G1 X189.325 Y154.05 E.05233
G3 X189.325 Y175.95 I-.63 J10.95 E1.17332
G2 X186.144 Y176.151 I-.097 J23.696 E.11272
G2 X170.793 Y193.865 I2.558 J17.726 E.90322
G1 X170.793 Y194.976 E.03926
G1 X168.307 Y194.976 E.08786
G1 X168.307 Y135.024 E2.11905
G1 X170.753 Y135.024 E.08645
G1 X170.336 Y135.481 F12000
G1 F3000
G1 X170.336 Y136.14 E.02329
G2 X185.93 Y154.276 I18.36 J-.014 E.92072
G1 X185.94 Y154.498 E.00783
G2 X185.939 Y175.502 I2.753 J10.502 E1.00884
G1 X185.929 Y175.724 E.00783
G2 X170.336 Y193.86 I2.767 J18.151 E.9207
G1 X170.336 Y194.519 E.02329
G1 X168.764 Y194.519 E.05555
G1 X168.764 Y135.481 E2.08674
G1 X170.296 Y135.481 E.05414
G1 X169.879 Y135.938 F12000
G1 F3000
G1 X169.879 Y136.146 E.00733
G2 X184.218 Y154.404 I18.82 J-.02 E.88429
G1 X184.23 Y154.601 E.00697
G2 X184.23 Y175.399 I4.465 J10.399 E.93218
G1 X184.218 Y175.596 E.00697
G2 X169.879 Y194.062 I4.501 J18.295 E.89146
G1 X169.221 Y194.062 E.02324
G1 X169.221 Y135.938 E2.05443
G1 X169.839 Y135.938 E.02183
G1 E-.5
G1 X171.898 Y141.958 F12000
G1 X172.195 Y142.753
G1 X172.514 Y143.497
G1 X172.884 Y144.261
G1 X173.29 Y145.006
G1 X173.732 Y145.732
G1 X174.207 Y146.435
G1 X174.716 Y147.115
G1 X175.256 Y147.77
G1 X175.827 Y148.398
G1 X176.427 Y148.998
G1 X177.055 Y149.569
G1 X177.71 Y150.109
G1 X178.39 Y150.618
G1 X179.061 Y151.072
G1 X179.818 Y151.534
G1 X180.564 Y151.941
G1 X186.476 Y155.07
G1 X186.49 Y155.299
G1 E.5 F1800
;TYPE:Outer wall
G1 F3000
G1 X187.112 Y155.177 E.0224
G3 X188.381 Y155.055 I1.588 J9.82 E.0451
G1 X189.019 Y155.055 E.02254
G3 X186.451 Y155.307 I-.319 J9.943 E2.11775
G1 X186.398 Y154.851 F12000
;TYPE:Inner wall
G1 F3000
G1 X187.039 Y154.726 E.0231
G3 X188.367 Y154.598 I1.661 J10.271 E.04717
G1 X189.034 Y154.598 E.02358
G3 X186.359 Y154.859 I-.334 J10.399 E2.21548
G1 X186.36 Y154.364 F12000
;TYPE:Gap infill
;WIDTH:0.540604
G1 F3000
G1 X186.163 Y154.371 E.00759
G1 X186.36 Y154.364 F12000
;WIDTH:0.498662
G1 F3000
G1 X186.557 Y154.356 E.00695
;WIDTH:0.456719
G1 X186.754 Y154.349 E.00631
;WIDTH:0.408779
G1 X186.982 Y154.341 E.00645
;WIDTH:0.364933
G1 X187.21 Y154.334 E.00569
;WIDTH:0.319359
G1 X187.439 Y154.328 E.00488
;WIDTH:0.272628
G1 X187.673 Y154.321 E.00416
;WIDTH:0.226718
G1 X187.831 Y154.322 E.00225
;WIDTH:0.205472
G1 X188.359 Y154.312 E.00664
;WIDTH:0.146482
G1 X189.044 Y154.321 E.00549
G3 X188.356 Y175.688 I-.354 J10.684 E.26878
;WIDTH:0.158951
G1 X187.828 Y175.678 E.00474
;WIDTH:0.206978
G1 X187.673 Y175.679 E.00196
;WIDTH:0.2274
G1 X187.443 Y175.672 E.00329
;WIDTH:0.273211
G1 X187.213 Y175.666 E.0041
;WIDTH:0.321022
G1 X186.972 Y175.659 E.00518
;WIDTH:0.368534
G1 X186.952 Y175.658 E.00051
;WIDTH:0.372785
G1 X186.754 Y175.651 E.00504
;WIDTH:0.41476
G1 X186.557 Y175.644 E.00568
;WIDTH:0.456735
G1 X186.36 Y175.636 E.00632
;WIDTH:0.49871
G1 X186.162 Y175.629 E.00696
G1 X185.294 Y175.574 F12000
;WIDTH:0.15229
G1 F3000
G1 X184.451 Y175.52 E.00714
G1 X184.451 Y175.522 F12000
;WIDTH:0.331806
G1 F3000
G1 X185.294 Y175.58 E.01887
G1 E-.5
G1 X180.564 Y178.059 F12000
G1 X179.819 Y178.465
G1 X179.094 Y178.907
G1 X178.39 Y179.382
G1 X177.71 Y179.891
G1 X177.026 Y180.457
G1 X176.427 Y181.002
G1 X175.827 Y181.602
G1 X175.282 Y182.201
G1 X174.716 Y182.885
G1 X174.207 Y183.565
G1 X169.776 Y189.735
G1 E.5 F1800
;WIDTH:0.631586
G1 F3000
G1 X169.725 Y190.214 E.02191
;WIDTH:0.592948
G1 X169.706 Y190.441 E.0097
;WIDTH:0.554874
G1 X169.687 Y190.668 E.00903
;WIDTH:0.5168
G1 X169.668 Y190.896 E.00836
;WIDTH:0.477204
G1 X169.648 Y191.132 E.00798
;WIDTH:0.439293
G1 X169.63 Y191.436 E.00931
;WIDTH:0.403064
G1 X169.612 Y191.739 E.00846
;WIDTH:0.366034
G1 X169.593 Y192.049 E.00776
;WIDTH:0.329952
G1 X169.577 Y192.503 E.0101
;WIDTH:0.297006
G1 X169.561 Y192.963 E.00904
;WIDTH:0.264556
G1 X169.55 Y193.833 E.01491
G1 E-.5
G1 X178.75 Y162.391 F12000
G1 X178.938 Y161.759
G1 X179.166 Y161.14
G1 X182.221 Y153.938
G1 E.5 F1800
;TYPE:Bottom surface
;WIDTH:0.50345
G1 F6300
G1 X183.072 Y154.789 E.04285
G1 X182.656 Y155.023 E.01703
G1 X181.527 Y153.894 E.05685
G3 X180.35 Y153.368 I4.916 J-12.582 E.04594
G1 X182.261 Y155.28 E.09627
G2 X181.875 Y155.545 I1.874 J3.136 E.01669
G1 X178.308 Y151.978 E.17965
G1 E-.5 F3000
G1 X170.56 Y141.625 F12000
G1 E.5 F1800
G1 F6300
G1 X169.564 Y140.632 E.05006
G1 X169.564 Y141.28 E.02307
G1 X170.549 Y142.265 E.04961
G2 X170.929 Y143.296 I34.389 J-12.079 E.03913
G1 X169.564 Y141.932 E.06873
G1 X169.564 Y142.583 E.02319
G1 X171.457 Y144.475 E.09531
G2 X172.207 Y145.877 I18.255 J-8.869 E.05662
G1 X169.564 Y143.234 E.13309
G1 X169.564 Y143.886 E.02319
G1 X181.502 Y155.824 E.60126
G2 X181.146 Y156.119 I2.121 J2.921 E.01648
G1 X169.564 Y144.537 E.58332
G1 X169.564 Y145.188 E.02319
G1 X180.798 Y156.422 E.56579
G1 X180.467 Y156.743 E.0164
G1 X169.564 Y145.839 E.54914
G1 X169.564 Y146.491 E.02319
G1 X180.148 Y157.075 E.53305
G1 X179.838 Y157.416 E.01642
G1 X169.564 Y147.142 E.51744
G1 X169.564 Y147.793 E.02319
G1 X179.548 Y157.777 E.50282
G2 X179.266 Y158.146 I2.734 J2.381 E.01656
G1 X169.564 Y148.445 E.48861
G1 X169.564 Y149.096 E.02319
G1 X178.998 Y158.53 E.47513
G2 X178.746 Y158.929 I2.985 J2.161 E.01683
G1 X169.564 Y149.747 E.46245
G1 X169.564 Y150.398 E.02319
G1 X178.504 Y159.338 E.45023
G1 X178.281 Y159.766 E.01719
G1 X169.564 Y151.05 E.439
G1 X169.564 Y151.701 E.02319
G1 X178.071 Y160.208 E.42845
G2 X177.873 Y160.661 I3.435 J1.768 E.01763
G1 X169.564 Y152.352 E.41848
G1 X169.564 Y153.004 E.02319
G1 X177.698 Y161.138 E.40966
G2 X177.539 Y161.63 I3.751 J1.487 E.01843
G1 X169.564 Y153.655 E.40164
G1 X169.564 Y154.306 E.02319
G1 X177.395 Y162.137 E.39438
G1 X177.274 Y162.667 E.01937
G1 X169.564 Y154.957 E.38829
G1 X169.564 Y155.609 E.02319
G1 X177.177 Y163.222 E.38342
M73 P0 R94
G2 X177.103 Y163.799 I4.419 J.862 E.02073
G1 X169.564 Y156.26 E.37969
G1 X169.564 Y156.911 E.02319
G1 X177.054 Y164.401 E.37724
G2 X177.036 Y165.035 I4.927 J.457 E.02258
G1 X169.564 Y157.563 E.37633
G1 X169.564 Y158.214 E.02319
G1 X177.058 Y165.708 E.37741
G2 X177.124 Y166.426 I5.623 J-.16 E.0257
G1 X169.564 Y158.865 E.38077
G1 X169.564 Y159.516 E.02319
G1 X177.245 Y167.197 E.38684
G2 X177.442 Y168.046 I24.015 J-5.142 E.03104
G1 X169.564 Y160.168 E.39679
G1 X169.564 Y160.819 E.02319
G1 X177.751 Y169.006 E.41231
G2 X178.229 Y170.135 I12.884 J-4.787 E.04368
G1 X169.564 Y161.47 E.43638
G1 X169.564 Y162.122 E.02319
G1 X183.019 Y175.577 E.67765
G1 X182.526 Y175.735 E.01844
G1 X169.564 Y162.773 E.65282
G1 X169.564 Y163.424 E.02319
G1 X182.048 Y175.908 E.62873
G1 X181.574 Y176.085 E.01802
G1 X169.564 Y164.075 E.60486
G1 X169.564 Y164.727 E.02319
G1 X181.117 Y176.28 E.58186
G2 X180.665 Y176.479 I1.907 J4.952 E.01761
G1 X169.564 Y165.378 E.55908
G1 X169.564 Y166.029 E.02319
G1 X180.226 Y176.691 E.53698
G2 X179.793 Y176.91 I2.068 J4.641 E.01728
G1 X169.564 Y166.681 E.51517
G1 X169.564 Y167.332 E.02319
G1 X179.371 Y177.139 E.49394
G2 X178.957 Y177.376 I2.272 J4.456 E.01701
G1 X169.564 Y167.983 E.47307
G1 X169.564 Y168.634 E.02319
G1 X178.552 Y177.623 E.45268
G2 X178.155 Y177.877 I2.465 J4.279 E.01679
G1 X169.564 Y169.286 E.43269
G1 X169.564 Y169.937 E.02319
G1 X177.767 Y178.14 E.41312
G2 X177.387 Y178.411 I2.65 J4.109 E.01663
G1 X169.564 Y170.588 E.39399
G1 X169.564 Y171.24 E.02319
G1 X177.014 Y178.69 E.37523
G2 X176.651 Y178.978 I2.713 J3.791 E.01652
G1 X169.564 Y171.891 E.35694
G1 X169.564 Y172.542 E.02319
G1 X176.295 Y179.273 E.339
G2 X175.947 Y179.576 I3.124 J3.945 E.01645
G1 X169.564 Y173.193 E.32145
G1 X169.564 Y173.845 E.02319
G1 X175.605 Y179.886 E.30427
G2 X175.274 Y180.206 I3.191 J3.64 E.01641
G1 X169.564 Y174.496 E.28757
G1 X169.564 Y175.147 E.02319
G1 X174.948 Y180.532 E.27117
G2 X174.632 Y180.867 I3.364 J3.483 E.01641
G1 X169.564 Y175.799 E.25527
G1 X169.564 Y176.45 E.02319
G1 X174.322 Y181.208 E.23965
G2 X174.023 Y181.56 I3.687 J3.433 E.01646
G1 X169.564 Y177.101 E.22459
G1 X169.564 Y177.753 E.02319
G1 X173.728 Y181.917 E.20972
G2 X173.444 Y182.284 I3.544 J3.034 E.01654
G1 X169.564 Y178.404 E.19542
G1 X169.564 Y179.055 E.02319
G1 X173.165 Y182.657 E.18138
G2 X172.898 Y183.04 I3.884 J2.99 E.01667
G1 X169.564 Y179.706 E.16792
G1 X169.564 Y180.358 E.02319
G1 X172.635 Y183.429 E.15469
G2 X172.385 Y183.83 I4.071 J2.821 E.01684
G1 X169.564 Y181.009 E.14208
G1 X169.564 Y181.66 E.02319
G1 X172.139 Y184.235 E.12967
G2 X171.906 Y184.654 I4.264 J2.643 E.01706
G1 X169.564 Y182.312 E.11795
G1 X169.564 Y182.963 E.02319
G1 X171.676 Y185.075 E.10638
G2 X171.462 Y185.512 I4.469 J2.457 E.01735
G1 X169.564 Y183.614 E.09561
G1 X169.564 Y184.265 E.02319
G1 X171.251 Y185.952 E.08494
G1 X171.055 Y186.408 E.01767
G1 X169.564 Y184.917 E.07511
G1 X169.564 Y185.568 E.02319
G1 X170.865 Y186.869 E.06553
G1 X170.688 Y187.343 E.01802
G1 X169.564 Y186.219 E.0566
G1 X169.564 Y186.871 E.02319
G1 X170.52 Y187.826 E.04814
G1 X170.362 Y188.32 E.01846
G1 X169.564 Y187.522 E.04021
G1 X169.564 Y188.173 E.02319
G1 X170.217 Y188.827 E.03291
G1 X170.08 Y189.34 E.01894
G1 X169.358 Y188.619 E.03634
G1 E-.5 F3000
G1 X178.938 Y161.759 F12000
G1 X179.166 Y161.14
G1 X179.43 Y160.542
G1 X179.738 Y159.953
G1 X180.079 Y159.389
G1 X180.457 Y158.848
G1 X180.868 Y158.332
G1 X181.307 Y157.848
G1 X184.451 Y154.48
G1 E.5 F1800
;TYPE:Gap infill
;WIDTH:0.132037
G1 F3000
G1 X185.293 Y154.425 E.00582
G1 X185.293 Y154.419 F12000
;WIDTH:0.332767
G1 F3000
G1 X184.451 Y154.478 E.01891
G1 E-.5
G1 X179.061 Y151.072 F12000
G1 X178.39 Y150.618
G1 X177.71 Y150.109
G1 X177.055 Y149.569
G1 X176.427 Y148.998
G1 X175.827 Y148.398
G1 X175.256 Y147.77
G1 X174.716 Y147.115
G1 X174.207 Y146.435
G1 X169.776 Y140.265
G1 E.5 F1800
;WIDTH:0.631578
G1 F3000
G1 X169.725 Y139.786 E.02191
;WIDTH:0.592944
G1 X169.706 Y139.559 E.0097
;WIDTH:0.55487
G1 X169.687 Y139.332 E.00903
;WIDTH:0.516795
G1 X169.668 Y139.104 E.00836
;WIDTH:0.477199
G1 X169.648 Y138.867 E.00798
;WIDTH:0.439286
G1 X169.63 Y138.564 E.00931
;WIDTH:0.40306
G1 X169.612 Y138.261 E.00846
;WIDTH:0.366032
G1 X169.593 Y137.951 E.00776
;WIDTH:0.329952
G1 X169.577 Y137.497 E.0101
;WIDTH:0.297006
G1 X169.561 Y137.037 E.00904
;WIDTH:0.264556
G1 X169.55 Y136.167 E.01491
; stop printing object lmu10luu_Mount.stl id:0 copy 0
EXCLUDE_OBJECT_END NAME=lmu10luu_Mount.stl_id_0_copy_0
