; HEADER_BLOCK_START
; generated by OrcaSlicer 1.6.4-beta2 on 2023-08-13 at 14:35:34
; total layer number: 275
; HEADER_BLOCK_END

; THUMBNAIL_BLOCK_START
; THUMBNAIL_BLOCK_END

; external perimeters extrusion width = 0.40mm
; perimeters extrusion width = 0.40mm
; infill extrusion width = 0.64mm
; solid infill extrusion width = 0.56mm
; top infill extrusion width = 0.40mm
; support material extrusion width = 0.46mm
; first layer extrusion width = 0.50mm

; EXECUTABLE_BLOCK_START
EXCLUDE_OBJECT_DEFINE NAME=lmu10luu_Mount.stl_id_0_copy_0 CENTER=165,165 POLYGON=[[147.565,164.636],[147.565,164.634],[147.565,164.633],[147.604,163.909],[147.604,163.9],[147.681,163.185],[147.683,163.17],[147.797,162.466],[147.801,162.445],[147.951,161.755],[147.957,161.727],[148.142,161.052],[148.152,161.019],[148.371,160.361],[148.385,160.323],[148.636,159.683],[148.654,159.64],[148.937,159.02],[148.96,158.972],[149.273,158.374],[149.301,158.322],[149.642,157.746],[149.677,157.691],[150.045,157.14],[150.086,157.081],[150.479,156.555],[150.527,156.494],[150.944,155.995],[150.999,155.932],[151.437,155.46],[151.501,155.395],[151.959,154.952],[178.435,130],[182.435,130],[182.435,200],[178.435,200],[151.959,175.048],[151.501,174.605],[151.437,174.54],[150.999,174.068],[150.944,174.005],[150.527,173.506],[150.479,173.445],[150.086,172.919],[150.045,172.86],[149.677,172.309],[149.642,172.254],[149.301,171.678],[149.273,171.626],[148.96,171.028],[148.937,170.98],[148.654,170.36],[148.636,170.317],[148.385,169.677],[148.371,169.639],[148.152,168.981],[148.142,168.948],[147.957,168.273],[147.951,168.245],[147.801,167.555],[147.797,167.534],[147.683,166.83],[147.681,166.815],[147.604,166.1],[147.604,166.091],[147.565,165.367],[147.565,165.366],[147.565,165.364],[147.565,164.636]]
M73 P0 R46
;TYPE:Custom
START_PRINT T_BED=110 T_EXTRUDER=260
G90
G21
M83 ; use relative distances for extrusion
; Filament gcode
M106 S0
;LAYER_CHANGE
;Z:0.2
;HEIGHT:0.2
;BEFORE_LAYER_CHANGE
;0.2
G92 E0

SET_VELOCITY_LIMIT ACCEL=1000 ACCEL_TO_DECEL=500
G1 E-.5 F3000
G1 X150.639 Y154.828 F12000
G1 Z.2
G1 E.5 F1800
;TYPE:Skirt
;WIDTH:0.5
G1 F3000
G1 X176.512 Y132.028 E1.2189
G1 X178.435 Y131.303 E.07266
G1 X182.435 Y131.303 E.14138
G1 X183.897 Y131.696 E.0535
G1 X184.964 Y132.769 E.0535
G1 X185.349 Y134.217 E.05295
G1 X185.349 Y195.783 E2.17611
G1 X184.956 Y197.245 E.0535
G1 X183.883 Y198.312 E.0535
G1 X182.435 Y198.697 E.05295
G1 X178.435 Y198.697 E.14138
G1 X176.512 Y197.972 E.07266
G1 X151.348 Y175.863 E1.18397
G1 X150.192 Y174.684 E.05837
G1 X149.163 Y173.368 E.05905
G1 X148.621 Y172.526 E.03539
G1 X147.847 Y171.041 E.0592
G1 X147.286 Y169.601 E.05463
G1 X147.005 Y168.639 E.03539
G1 X146.684 Y167 E.05905
G1 X146.555 Y165.501 E.05319
G1 X146.593 Y163.83 E.05907
G1 X146.707 Y162.836 E.03537
G1 X147.005 Y161.361 E.05319
G1 X147.286 Y160.399 E.03539
G1 X147.847 Y158.959 E.05463
G1 X148.291 Y158.057 E.03554
G1 X149.07 Y156.769 E.0532
G1 X149.658 Y155.96 E.03535
G1 X150.613 Y154.858 E.05155
G1 X150.969 Y155.146 F12000
G1 F3000
G1 X150.977 Y155.136 E.00045
G1 X176.813 Y132.371 E1.21713
G1 X178.435 Y131.76 E.06126
G1 X182.435 Y131.76 E.14138
G1 X183.766 Y132.152 E.04905
G1 X184.673 Y133.202 E.04905
G1 X184.892 Y134.217 E.03669
G1 X184.892 Y195.783 E2.17611
G1 X184.5 Y197.114 E.04905
G1 X183.45 Y198.021 E.04905
G1 X182.435 Y198.24 E.03669
G1 X178.435 Y198.24 E.14138
G1 X176.813 Y197.629 E.06126
G1 X151.65 Y175.52 E1.18397
G1 X150.528 Y174.375 E.05664
G1 X149.533 Y173.099 E.05721
G1 X149.019 Y172.301 E.03356
G1 X148.268 Y170.863 E.05734
G1 X147.717 Y169.448 E.05368
G1 X147.45 Y168.536 E.03356
G1 X147.138 Y166.948 E.05721
G1 X147.012 Y165.475 E.05228
G1 X147.05 Y163.856 E.05723
G1 X147.45 Y161.464 E.08574
G1 X147.717 Y160.552 E.03356
G1 X148.268 Y159.137 E.05368
G1 X149.454 Y157.017 E.08588
G1 X150.944 Y155.177 E.08366
; printing object lmu10luu_Mount.stl id:0 copy 0
EXCLUDE_OBJECT_START NAME=lmu10luu_Mount.stl_id_0_copy_0
G1 E-.5
G1 X178.685 Y195.16 F12000
G1 E.5 F1800
;TYPE:Outer wall
G1 F3000
G2 X178.606 Y192.211 I-29.533 J-.68 E.1043
G2 X162.068 Y176.445 I-17.373 J1.666 E.88048
G1 X160.585 Y176.406 E.05244
G3 X160.585 Y153.594 I.656 J-11.406 E1.22228
G2 X163.725 Y153.396 I.112 J-23.325 E.11131
G2 X178.685 Y136.129 I-2.504 J-17.283 E.88023
G1 X178.685 Y134.84 E.04557
G3 X178.71 Y134.567 I1.076 J-.038 E.00971
G1 X182.085 Y134.567 E.11928
G1 X182.085 Y195.433 E2.15137
G1 X178.71 Y195.433 E.11928
G3 X178.684 Y195.2 I1.051 J-.235 E.00831
G1 X179.142 Y194.976 F12000
;TYPE:Inner wall
G1 F3000
G2 X179.061 Y192.168 I-28.532 J-.579 E.09933
G2 X162.09 Y175.988 I-17.828 J1.71 E.90353
G1 X160.61 Y175.95 E.05233
G3 X160.61 Y154.05 I.63 J-10.95 E1.17332
G2 X163.791 Y153.849 I.097 J-23.696 E.11272
G2 X179.142 Y136.135 I-2.569 J-17.735 E.90311
G1 X179.142 Y135.024 E.03926
G1 X181.628 Y135.024 E.08786
G1 X181.628 Y194.976 E2.11905
G1 X179.182 Y194.976 E.08645
G1 X179.599 Y194.519 F12000
G1 F3000
G2 X174.527 Y181.203 I-18.563 J-.553 E.51691
G2 X164.005 Y175.724 I-13.294 J12.687 E.42695
G1 X163.995 Y175.502 E.00783
G2 X163.996 Y154.498 I-2.76 J-10.502 E1.00851
G1 X164.006 Y154.276 E.00783
G2 X179.599 Y136.14 I-2.766 J-18.15 E.9207
G1 X179.599 Y135.481 E.02329
G1 X181.171 Y135.481 E.05555
G1 X181.171 Y194.519 E2.08674
G1 X179.639 Y194.519 E.05414
G1 X180.056 Y194.062 F12000
G1 F3000
G2 X165.717 Y175.596 I-18.84 J-.171 E.89146
G1 X165.705 Y175.399 E.00697
G2 X165.705 Y154.601 I-4.475 J-10.399 E.93187
G1 X165.717 Y154.404 E.00697
G2 X180.056 Y135.938 I-4.501 J-18.295 E.89146
G1 X180.714 Y135.938 E.02324
G1 X180.714 Y194.062 E2.05443
G1 X180.096 Y194.062 E.02183
G1 E-.5
G1 X178.037 Y188.042 F12000
G1 X177.74 Y187.247
G1 X177.421 Y186.503
G1 X177.051 Y185.739
G1 X176.645 Y184.994
G1 X176.203 Y184.268
G1 X175.728 Y183.565
G1 X175.219 Y182.885
G1 X174.653 Y182.201
G1 X174.108 Y181.602
G1 X173.508 Y181.002
G1 X165.993 Y174.12
G1 X165.399 Y174.406
G1 X164.787 Y174.653
G1 X164.167 Y174.859
G1 X163.501 Y174.927
G1 X162.846 Y174.967
G1 X162.199 Y174.989
G1 X161.556 Y175.002
G1 X160.915 Y174.994
G1 X160.28 Y174.954
G1 X159.639 Y174.872
G1 X159.01 Y174.75
G1 X158.389 Y174.588
G1 X157.781 Y174.385
G1 X157.187 Y174.144
G1 X156.61 Y173.866
G1 X156.051 Y173.551
G1 X155.514 Y173.202
G1 X155 Y172.819
G1 X154.511 Y172.404
G1 X154.05 Y171.958
G1 X153.624 Y171.487
G1 X153.221 Y170.981
G1 X152.854 Y170.455
G1 X152.522 Y169.907
G1 X152.225 Y169.339
G1 X151.966 Y168.753
G1 X151.744 Y168.151
G1 X151.561 Y167.537
G1 X151.419 Y166.912
G1 X151.317 Y166.279
G1 X151.256 Y165.641
G1 X151.236 Y165.006
G1 X151.256 Y164.359
G1 X151.317 Y163.721
G1 X151.419 Y163.088
G1 X151.561 Y162.463
G1 X151.742 Y161.854
G1 X151.966 Y161.247
G1 X152.225 Y160.661
G1 X152.522 Y160.093
G1 X152.854 Y159.545
G1 X153.221 Y159.019
G1 X153.62 Y158.517
G1 X154.051 Y158.042
G1 X154.511 Y157.596
G1 X154.993 Y157.188
G1 X155.025 Y157.226
G1 E.5 F1800
;TYPE:Outer wall
G1 F3000
G1 X155.031 Y157.221 E.00029
G3 X160.916 Y155.055 I6.204 J7.779 E.22548
G1 X161.554 Y155.055 E.02255
G3 X154.546 Y157.634 I-.319 J9.944 E1.93906
G1 X154.995 Y157.252 E.02084
G1 X154.757 Y156.855 F12000
;TYPE:Inner wall
G1 F3000
G1 X155.281 Y156.464 E.02309
G3 X160.901 Y154.598 I5.954 J8.534 E.21226
G1 X161.569 Y154.598 E.02359
G3 X154.726 Y156.88 I-.334 J10.4 E2.0506
G1 E-.5
G1 X161.576 Y154.312 F12000
G1 E.5 F1800
;TYPE:Gap infill
;WIDTH:0.20546
G1 F3000
G1 X162.104 Y154.322 E.00663
;WIDTH:0.225926
G1 X162.256 Y154.321 E.00216
;WIDTH:0.272073
G1 X162.492 Y154.328 E.00418
;WIDTH:0.319021
G1 X162.723 Y154.334 E.00492
;WIDTH:0.364832
G1 X162.953 Y154.34 E.00573
;WIDTH:0.408738
G1 X163.181 Y154.349 E.00646
;WIDTH:0.456772
G1 X163.378 Y154.356 E.00632
;WIDTH:0.498766
G1 X163.576 Y154.364 E.00696
;WIDTH:0.540759
G1 X163.773 Y154.371 E.0076
G1 X164.642 Y154.425 F12000
;WIDTH:0.133077
G1 F3000
G1 X165.484 Y154.48 E.00588
G1 X165.484 Y154.478 F12000
;WIDTH:0.338204
G1 F3000
G1 X164.642 Y154.419 E.01927
G1 E-.5
G1 X161.576 Y154.312 F12000
G1 E.5 F1800
;WIDTH:0.146489
G1 F3000
G1 X160.891 Y154.321 E.00549
G2 X161.58 Y175.688 I.354 J10.684 E.2688
;WIDTH:0.158951
G1 X162.107 Y175.678 E.00474
;WIDTH:0.207001
G1 X162.268 Y175.679 E.00204
;WIDTH:0.22821
G1 X162.496 Y175.672 E.00327
;WIDTH:0.273784
G1 X162.725 Y175.666 E.00408
;WIDTH:0.321349
G1 X162.964 Y175.659 E.00514
;WIDTH:0.368612
G1 X162.984 Y175.658 E.00051
;WIDTH:0.372835
G1 X163.181 Y175.651 E.00503
;WIDTH:0.414759
G1 X163.378 Y175.644 E.00567
;WIDTH:0.456682
G1 X163.575 Y175.636 E.00631
;WIDTH:0.498606
G1 X163.772 Y175.629 E.00695
G1 X164.641 Y175.574 F12000
;WIDTH:0.153713
G1 F3000
G1 X165.484 Y175.52 E.00724
G1 X165.484 Y175.522 F12000
;WIDTH:0.337268
G1 F3000
G1 X164.641 Y175.58 E.01922
G1 E-.5
G1 X169.371 Y178.059 F12000
G1 X170.116 Y178.465
G1 X170.842 Y178.907
G1 X171.545 Y179.382
G1 X172.225 Y179.891
G1 X172.909 Y180.457
G1 X173.508 Y181.002
G1 X174.108 Y181.602
G1 X174.653 Y182.201
G1 X175.219 Y182.885
G1 X175.728 Y183.565
G1 X180.159 Y189.735
G1 E.5 F1800
;WIDTH:0.595466
G1 F3000
G1 X180.209 Y190.201 E.02
;WIDTH:0.556956
G1 X180.229 Y190.441 E.00959
;WIDTH:0.516795
G1 X180.248 Y190.668 E.00836
;WIDTH:0.47872
G1 X180.267 Y190.896 E.00769
;WIDTH:0.440646
G1 X180.287 Y191.123 E.00702
;WIDTH:0.404159
G1 X180.305 Y191.436 E.00875
;WIDTH:0.366834
G1 X180.323 Y191.739 E.00761
;WIDTH:0.330608
G1 X180.342 Y192.042 E.00676
;WIDTH:0.297865
G1 X180.358 Y192.503 E.00911
;WIDTH:0.264809
G1 X180.374 Y192.958 E.00781
;WIDTH:0.246317
G1 X180.385 Y193.833 E.01377
G1 E-.5
G1 X180.577 Y141.381 F12000
G1 E.5 F1800
;TYPE:Bottom surface
;WIDTH:0.50345
G1 F6300
G1 X179.855 Y140.66 E.03634
G1 X179.717 Y141.173 E.01893
G1 X180.371 Y141.827 E.03293
G1 X180.371 Y142.478 E.02319
M73 P1 R46
G1 X179.574 Y141.681 E.04017
G1 X179.415 Y142.174 E.01844
G1 X180.371 Y143.13 E.04813
G1 X180.371 Y143.781 E.02319
G1 X179.247 Y142.657 E.0566
G1 X179.07 Y143.131 E.01802
G1 X180.371 Y144.432 E.06553
G1 X180.371 Y145.083 E.02319
G1 X178.88 Y143.592 E.07511
G1 X178.684 Y144.048 E.01767
G1 X180.371 Y145.735 E.08495
G1 X180.371 Y146.386 E.02319
G1 X178.473 Y144.488 E.09561
G3 X178.259 Y144.925 I-4.682 J-2.019 E.01735
G1 X180.371 Y147.037 E.10638
G1 X180.371 Y147.689 E.02319
G1 X178.029 Y145.347 E.11795
G3 X177.796 Y145.765 I-4.495 J-2.224 E.01706
G1 X180.371 Y148.34 E.12967
G1 X180.371 Y148.991 E.02319
G1 X177.55 Y146.17 E.14208
G3 X177.3 Y146.571 I-4.321 J-2.42 E.01684
G1 X180.371 Y149.642 E.15469
G1 X180.371 Y150.294 E.02319
G1 X177.037 Y146.96 E.16792
G3 X176.77 Y147.344 I-4.152 J-2.607 E.01667
G1 X180.371 Y150.945 E.18139
G1 X180.371 Y151.596 E.02319
G1 X176.491 Y147.716 E.19542
G3 X176.207 Y148.084 I-3.986 J-2.786 E.01654
G1 X180.371 Y152.248 E.20972
G1 X180.371 Y152.899 E.02319
G1 X175.913 Y148.44 E.22455
G3 X175.613 Y148.792 I-3.826 J-2.963 E.01646
G1 X180.371 Y153.55 E.23965
G1 X180.371 Y154.201 E.02319
G1 X175.303 Y149.133 E.25527
G3 X174.987 Y149.468 I-3.669 J-3.137 E.01641
G1 X180.371 Y154.853 E.27117
G1 X180.371 Y155.504 E.02319
G1 X174.661 Y149.794 E.28757
G3 X174.33 Y150.114 I-3.512 J-3.31 E.01641
G1 X180.371 Y156.155 E.30427
G1 X180.371 Y156.807 E.02319
G1 X173.988 Y150.424 E.32146
G3 X173.641 Y150.728 I-3.353 J-3.483 E.01644
G1 X180.371 Y157.458 E.33895
G1 X180.371 Y158.109 E.02319
G1 X173.284 Y151.022 E.35692
G3 X172.921 Y151.31 I-3.195 J-3.66 E.01652
G1 X180.371 Y158.76 E.37523
G1 X180.371 Y159.412 E.02319
G1 X172.548 Y151.589 E.39399
G3 X172.168 Y151.86 I-3.065 J-3.886 E.01663
G1 X180.371 Y160.063 E.41312
G1 X180.371 Y160.714 E.02319
G1 X171.78 Y152.123 E.43268
G3 X171.382 Y152.377 I-2.911 J-4.129 E.0168
G1 X180.371 Y161.366 E.45272
G1 X180.371 Y162.017 E.02319
G1 X170.978 Y152.624 E.47308
G3 X170.564 Y152.861 I-2.606 J-4.074 E.017
G1 X180.371 Y162.668 E.49395
G1 X180.371 Y163.319 E.02319
G1 X170.142 Y153.09 E.51518
G3 X169.709 Y153.309 I-2.501 J-4.423 E.01728
G1 X180.371 Y163.971 E.53699
G1 X180.371 Y164.622 E.02319
G1 X169.27 Y153.521 E.55908
G3 X168.818 Y153.72 I-2.305 J-4.639 E.01761
G1 X180.371 Y165.273 E.58188
G1 X180.371 Y165.925 E.02319
G1 X168.361 Y153.915 E.60487
G3 X167.888 Y154.092 I-2.148 J-5.001 E.01802
G1 X180.371 Y166.576 E.62872
G1 X180.371 Y167.227 E.02319
G1 X167.409 Y154.265 E.65282
G1 X166.916 Y154.423 E.01844
G1 X180.371 Y167.878 E.67766
G1 X180.371 Y168.53 E.02319
G1 X171.707 Y159.865 E.43638
G3 X172.184 Y160.994 I-12.407 J5.916 E.04368
G1 X180.371 Y169.181 E.41231
G1 X180.371 Y169.832 E.02319
G1 X172.493 Y161.954 E.39679
G3 X172.69 Y162.803 I-23.825 J5.992 E.03104
G1 X180.371 Y170.484 E.38684
G1 X180.371 Y171.135 E.02319
G1 X172.811 Y163.575 E.38077
G3 X172.877 Y164.293 I-5.555 J.878 E.0257
G1 X180.371 Y171.786 E.37741
G1 X180.371 Y172.438 E.02319
G1 X172.899 Y164.965 E.37632
G3 X172.881 Y165.599 I-4.944 J.176 E.02258
G1 X180.371 Y173.089 E.37724
G1 X180.371 Y173.74 E.02319
G1 X172.832 Y166.201 E.37968
G3 X172.758 Y166.778 I-4.532 J-.291 E.02073
G1 X180.371 Y174.391 E.38343
G1 X180.371 Y175.043 E.02319
G1 X172.661 Y167.333 E.38829
G1 X172.54 Y167.863 E.01937
G1 X180.371 Y175.694 E.39438
G1 X180.371 Y176.345 E.02319
G1 X172.396 Y168.371 E.40164
G3 X172.237 Y168.863 I-3.911 J-.995 E.01843
G1 X180.371 Y176.997 E.40966
G1 X180.371 Y177.648 E.02319
G1 X172.062 Y169.339 E.41848
G3 X171.864 Y169.792 I-3.631 J-1.314 E.01763
G1 X180.371 Y178.299 E.42845
G1 X180.371 Y178.95 E.02319
G1 X171.655 Y170.234 E.439
G1 X171.431 Y170.662 E.01719
G1 X180.371 Y179.602 E.45023
G1 X180.371 Y180.253 E.02319
G1 X171.189 Y171.071 E.46245
G3 X170.937 Y171.47 I-3.237 J-1.762 E.01683
G1 X180.371 Y180.904 E.47513
G1 X180.371 Y181.556 E.02319
G1 X170.669 Y171.854 E.48861
G3 X170.387 Y172.223 I-3.015 J-2.012 E.01656
G1 X180.371 Y182.207 E.50282
G1 X180.371 Y182.858 E.02319
G1 X170.097 Y172.584 E.51744
G1 X169.787 Y172.925 E.01642
G1 X180.371 Y183.509 E.53305
G1 X180.371 Y184.161 E.02319
G1 X169.468 Y173.257 E.54914
G1 X169.137 Y173.578 E.0164
G1 X180.371 Y184.812 E.5658
G1 X180.371 Y185.463 E.02319
G1 X168.789 Y173.881 E.58333
G3 X168.433 Y174.176 I-2.477 J-2.625 E.01648
G1 X180.371 Y186.115 E.60126
G1 X180.371 Y186.766 E.02319
G1 X177.729 Y184.123 E.13309
G3 X178.479 Y185.525 I-17.508 J10.272 E.05662
G1 X180.371 Y187.417 E.09531
G1 X180.371 Y188.068 E.02319
G1 X179.006 Y186.704 E.06873
G3 X179.386 Y187.734 I-33.496 J12.916 E.03912
G1 X180.371 Y188.72 E.04962
G1 X180.371 Y189.368 E.02307
G1 X179.374 Y188.374 E.05013
G1 E-.5 F3000
G1 X171.628 Y178.023 F12000
G1 E.5 F1800
G1 F6300
G1 X168.06 Y174.455 E.17971
G3 X167.674 Y174.72 I-2.26 J-2.871 E.01669
G1 X169.585 Y176.631 E.09626
G2 X168.406 Y176.104 I-6.25 J12.383 E.04602
G1 X167.279 Y174.977 E.05676
G1 X166.863 Y175.211 E.01703
G1 X167.714 Y176.063 E.04287
G1 E-.5 F3000
G1 X180.159 Y140.265 F12000
G1 E.5 F1800
;TYPE:Gap infill
;WIDTH:0.631586
G1 F3000
G1 X180.21 Y139.786 E.02191
;WIDTH:0.592948
G1 X180.229 Y139.559 E.0097
;WIDTH:0.554874
G1 X180.248 Y139.332 E.00903
;WIDTH:0.5168
G1 X180.267 Y139.104 E.00836
;WIDTH:0.477204
G1 X180.287 Y138.868 E.00798
;WIDTH:0.439293
G1 X180.305 Y138.564 E.00931
;WIDTH:0.403064
G1 X180.323 Y138.261 E.00846
;WIDTH:0.366034
G1 X180.342 Y137.951 E.00776
;WIDTH:0.329952
G1 X180.358 Y137.497 E.0101
;WIDTH:0.297006
G1 X180.375 Y137.037 E.00904
;WIDTH:0.264556
G1 X180.385 Y136.167 E.01491
; stop printing object lmu10luu_Mount.stl id:0 copy 0
EXCLUDE_OBJECT_END NAME=lmu10luu_Mount.stl_id_0_copy_0
;LAYER_CHANGE
;Z:0.4
;HEIGHT:0.2
;BEFORE_LAYER_CHANGE
;0.4
G92 E0

SET_VELOCITY_LIMIT ACCEL=6000 ACCEL_TO_DECEL=3000
M140 S110 ; set bed temperature
; printing object lmu10luu_Mount.stl id:0 copy 0
EXCLUDE_OBJECT_START NAME=lmu10luu_Mount.stl_id_0_copy_0
G1 E-.5 F3000
G1 X178.388 Y195.577 Z.4 F12000
G1 E.5 F1800
SET_VELOCITY_LIMIT ACCEL=1000 ACCEL_TO_DECEL=500
;TYPE:Outer wall
;WIDTH:0.4
G1 F9000
G3 X178.335 Y195.165 I1.659 J-.422 E.01151
G2 X178.256 Y192.235 I-29.139 J-.682 E.08096
G2 X162.056 Y176.795 I-17.026 J1.644 E.67364
G1 X160.57 Y176.756 E.04104
G3 X160.57 Y153.244 I.67 J-11.756 E.98448
G2 X163.689 Y153.048 I.124 J-22.944 E.08636
G2 X178.335 Y136.127 I-2.458 J-16.926 E.6736
G1 X178.335 Y134.835 E.03569
G3 X178.471 Y134.177 I1.712 J.009 E.01867
;TYPE:Overhang wall
