; HEADER_BLOCK_START
; generated by OrcaSlicer 1.6.4-beta3 on 2023-08-18 at 14:28:27
; total layer number: 275
; HEADER_BLOCK_END

; THUMBNAIL_BLOCK_START
; THUMBNAIL_BLOCK_END

; external perimeters extrusion width = 0.40mm
; perimeters extrusion width = 0.46mm
; infill extrusion width = 0.64mm
; solid infill extrusion width = 0.56mm
; top infill extrusion width = 0.40mm
; first layer extrusion width = 0.50mm

; external perimeters extrusion width = 0.40mm
; perimeters extrusion width = 0.46mm
; infill extrusion width = 0.64mm
; solid infill extrusion width = 0.56mm
; top infill extrusion width = 0.40mm
; first layer extrusion width = 0.50mm

; EXECUTABLE_BLOCK_START
EXCLUDE_OBJECT_DEFINE NAME=lmu10luu_Mount.stl_id_0_copy_0 CENTER=184.935,165 POLYGON=[[167.5,164.636],[167.5,164.634],[167.5,164.633],[167.539,163.909],[167.539,163.9],[167.616,163.185],[167.618,163.17],[167.732,162.466],[167.736,162.445],[167.886,161.755],[167.893,161.727],[168.077,161.052],[168.087,161.019],[168.306,160.361],[168.32,160.323],[168.571,159.683],[168.589,159.64],[168.872,159.02],[168.895,158.972],[169.208,158.374],[169.237,158.322],[169.577,157.746],[169.612,157.691],[169.98,157.14],[170.021,157.081],[170.414,156.555],[170.462,156.494],[170.879,155.995],[170.934,155.932],[171.373,155.46],[171.436,155.395],[171.894,154.952],[198.37,130],[202.37,130],[202.37,200],[198.37,200],[171.894,175.048],[171.436,174.605],[171.373,174.54],[170.934,174.068],[170.879,174.005],[170.462,173.506],[170.414,173.445],[170.021,172.919],[169.98,172.86],[169.612,172.309],[169.577,172.254],[169.237,171.678],[169.208,171.626],[168.895,171.028],[168.872,170.98],[168.589,170.36],[168.571,170.317],[168.32,169.677],[168.306,169.639],[168.087,168.981],[168.077,168.948],[167.893,168.273],[167.886,168.245],[167.736,167.555],[167.732,167.534],[167.618,166.83],[167.616,166.815],[167.539,166.1],[167.539,166.091],[167.5,165.367],[167.5,165.366],[167.5,165.364],[167.5,164.636]]
EXCLUDE_OBJECT_DEFINE NAME=lmu10luu_Mount.stl_id_1_copy_0 CENTER=145.065,165 POLYGON=[[127.63,164.636],[127.63,164.634],[127.63,164.633],[127.668,163.909],[127.669,163.9],[127.746,163.185],[127.748,163.17],[127.862,162.466],[127.866,162.445],[128.016,161.755],[128.022,161.727],[128.207,161.052],[128.217,161.019],[128.436,160.361],[128.45,160.323],[128.701,159.683],[128.719,159.64],[129.002,159.02],[129.025,158.972],[129.337,158.374],[129.366,158.322],[129.707,157.746],[129.742,157.691],[130.11,157.14],[130.151,157.081],[130.544,156.555],[130.592,156.494],[131.008,155.995],[131.064,155.932],[131.502,155.46],[131.566,155.395],[132.024,154.952],[158.5,130],[162.5,130],[162.5,200],[158.5,200],[132.024,175.048],[131.566,174.605],[131.502,174.54],[131.064,174.068],[131.008,174.005],[130.592,173.506],[130.544,173.445],[130.151,172.919],[130.11,172.86],[129.742,172.309],[129.707,172.254],[129.366,171.678],[129.337,171.626],[129.025,171.028],[129.002,170.98],[128.719,170.36],[128.701,170.317],[128.45,169.677],[128.436,169.639],[128.217,168.981],[128.207,168.948],[128.022,168.273],[128.016,168.245],[127.866,167.555],[127.862,167.534],[127.748,166.83],[127.746,166.815],[127.669,166.1],[127.668,166.091],[127.63,165.367],[127.63,165.366],[127.63,165.364],[127.63,164.636]]
M73 P0 R92
;TYPE:Custom
START_PRINT T_BED=110 T_EXTRUDER=260
G90
G21
M83 ; use relative distances for extrusion
; Filament gcode
M106 S0
;LAYER_CHANGE
;Z:0.2
;HEIGHT:0.2
;BEFORE_LAYER_CHANGE
;0.2
G92 E0

SET_VELOCITY_LIMIT ACCEL=1000 ACCEL_TO_DECEL=500
G1 E-.5 F3000
G1 X133.679 Y152.146 F12000
G1 Z.2
G1 E.5 F1800
;TYPE:Skirt
;WIDTH:0.5
G1 F3000
G1 X156.577 Y132.028 E1.07735
G1 X158.5 Y131.303 E.07266
G1 X202.37 Y131.303 E1.55063
G1 X203.832 Y131.696 E.0535
G1 X204.899 Y132.769 E.0535
G1 X205.284 Y134.217 E.05295
G1 X205.284 Y195.783 E2.17611
G1 X204.891 Y197.245 E.0535
G1 X203.818 Y198.312 E.0535
G1 X202.37 Y198.697 E.05295
G1 X158.5 Y198.697 E1.55063
G1 X156.577 Y197.972 E.07266
G1 X131.413 Y175.863 E1.18397
G1 X130.709 Y175.178 E.03471
G1 X129.724 Y174.041 E.0532
G1 X129.135 Y173.231 E.03539
G1 X128.356 Y171.943 E.0532
G1 X127.637 Y170.39 E.06048
G1 X127.07 Y168.639 E.06505
G1 X126.672 Y166.335 E.08267
G1 X126.622 Y164.462 E.06621
G1 X126.886 Y162.176 E.08136
G1 X127.351 Y160.399 E.0649
G1 X128.279 Y158.204 E.08425
G1 X129.228 Y156.632 E.0649
G1 X130.228 Y155.349 E.05749
G1 X131.413 Y154.137 E.05992
G1 X133.649 Y152.172 E.1052
G1 X133.951 Y152.516 F12000
G1 F3000
G1 X156.878 Y132.371 E1.07876
G1 X158.5 Y131.76 E.06126
G1 X202.37 Y131.76 E1.55063
G1 X203.701 Y132.152 E.04905
G1 X204.608 Y133.202 E.04905
G1 X204.827 Y134.217 E.03669
G1 X204.827 Y195.783 E2.17611
G1 X204.435 Y197.114 E.04905
G1 X203.385 Y198.021 E.04905
G1 X202.37 Y198.24 E.03669
G1 X158.5 Y198.24 E1.55063
G1 X156.878 Y197.629 E.06126
G1 X131.715 Y175.52 E1.18397
G1 X130.593 Y174.375 E.05664
G1 X129.992 Y173.64 E.03355
G1 X128.689 Y171.594 E.08576
G1 X128.006 Y170.079 E.05874
G1 X127.364 Y167.884 E.08083
G1 X127.115 Y166.143 E.06214
G1 X127.115 Y163.856 E.08085
G1 X127.364 Y162.116 E.06212
G1 X128.006 Y159.921 E.08083
G1 X128.689 Y158.406 E.05874
G1 X129.598 Y156.901 E.06215
G1 X130.566 Y155.658 E.05569
G1 X131.715 Y154.48 E.05815
G1 X133.921 Y152.542 E.10379
; printing object lmu10luu_Mount.stl id:0 copy 0
G1 E-.5
EXCLUDE_OBJECT_START NAME=lmu10luu_Mount.stl_id_0_copy_0
G1 X202.02 Y134.567 F12000
G1 E.5 F1800
;TYPE:Outer wall
G1 F3000
G1 X202.02 Y195.433 E2.15137
G1 X198.646 Y195.433 E.11928
G3 X198.62 Y195.16 I1.051 J-.235 E.00971
G2 X198.541 Y192.211 I-29.533 J-.68 E.1043
G2 X182.003 Y176.445 I-17.373 J1.666 E.88048
G1 X180.52 Y176.406 E.05244
G3 X180.52 Y153.594 I.656 J-11.406 E1.22228
G2 X183.661 Y153.396 I.112 J-23.325 E.11131
G2 X198.62 Y136.129 I-2.504 J-17.283 E.88023
G1 X198.62 Y134.84 E.04557
G3 X198.646 Y134.567 I1.076 J-.038 E.00971
G1 X201.98 Y134.567 E.11787
G1 X201.563 Y135.024 F12000
;TYPE:Inner wall
G1 F3000
G1 X201.563 Y194.976 E2.11905
G1 X199.077 Y194.976 E.08786
G2 X198.996 Y192.168 I-28.532 J-.579 E.09933
G2 X182.026 Y175.988 I-17.828 J1.71 E.90353
G1 X180.545 Y175.95 E.05233
G3 X180.545 Y154.05 I.63 J-10.95 E1.17332
G2 X183.726 Y153.849 I.097 J-23.696 E.11272
G2 X199.077 Y136.135 I-2.569 J-17.735 E.90311
G1 X199.077 Y135.024 E.03926
G1 X201.523 Y135.024 E.08645
G1 X201.106 Y135.481 F12000
G1 F3000
G1 X201.106 Y194.519 E2.08674
G1 X199.534 Y194.519 E.05555
G2 X194.462 Y181.203 I-18.563 J-.553 E.51691
G2 X184.12 Y175.754 I-13.287 J12.679 E.4205
G1 X184.11 Y175.533 E.00783
G2 X184.111 Y154.467 I-2.942 J-10.533 E1.00376
G1 X184.121 Y154.246 E.00783
G2 X199.534 Y136.14 I-2.944 J-18.119 E.91422
G1 X199.534 Y135.481 E.02329
G1 X201.066 Y135.481 E.05414
G1 X200.649 Y135.938 F12000
G1 F3000
G1 X200.649 Y194.062 E2.05443
G1 X199.992 Y194.062 E.02324
G2 X185.505 Y175.556 I-18.848 J-.168 E.8969
G2 X189.361 Y172.924 I-4.817 J-11.201 E.16605
G2 X186.442 Y154.895 I-8.205 J-7.922 E.74854
G1 X185.505 Y154.444 E.03676
G2 X199.992 Y135.938 I-4.362 J-18.338 E.8969
G1 X200.609 Y135.938 E.02183
G1 E-.5
G1 X197.356 Y143.497 F12000
G1 X196.986 Y144.261
G1 X196.58 Y145.006
G1 X196.139 Y145.732
G1 X195.663 Y146.435
G1 X195.155 Y147.115
G1 X194.614 Y147.77
G1 X194.043 Y148.398
G1 X193.443 Y148.998
G1 X192.815 Y149.569
G1 X192.16 Y150.109
G1 X191.48 Y150.618
G1 X190.809 Y151.072
G1 X190.052 Y151.534
G1 X189.306 Y151.941
G1 X188.542 Y152.311
G1 X187.762 Y152.644
G1 X187.003 Y152.927
G1 X186.195 Y153.186
G1 X185.375 Y153.407
G1 X184.507 Y153.595
G1 X184.149 Y153.627
G1 X179.368 Y153.737
G1 X176.532 Y156.099
G1 X176.537 Y156.11
G1 E.5 F1800
;TYPE:Outer wall
G1 F3000
G1 X177.112 Y155.832 E.02257
G3 X180.849 Y154.98 I4.057 J9.166 E.13631
G3 X181.809 Y155 I.321 J7.492 E.03398
G1 X182.127 Y155.021 E.01125
G3 X176.501 Y156.128 I-.958 J9.978 E2.02051
M73 P0 R91
G1 X176.31 Y155.713 F12000
;TYPE:Inner wall
G1 F3000
G1 X176.321 Y155.706 E.00049
G3 X180.834 Y154.523 I4.847 J9.292 E.16628
G3 X181.839 Y154.544 I.336 J7.835 E.03554
G1 X182.171 Y154.566 E.01177
G3 X175.736 Y156.036 I-1.002 J10.433 E2.09024
G1 X176.275 Y155.733 E.02185
G1 E-.5
G1 X181.7 Y154.278 F12000
G1 E.5 F1800
;TYPE:Gap infill
;WIDTH:0.137402
G1 F3000
G1 X182.196 Y154.283 E.00363
;WIDTH:0.198121
G1 X182.432 Y154.29 E.00282
;WIDTH:0.244935
G1 X182.663 Y154.296 E.00362
;WIDTH:0.291066
G1 X182.895 Y154.303 E.00445
;WIDTH:0.333061
G1 X183.051 Y154.309 E.0035
;WIDTH:0.380933
G1 X183.188 Y154.314 E.00358
;WIDTH:0.423432
G1 X183.324 Y154.319 E.00403
;WIDTH:0.465931
G1 X183.461 Y154.324 E.00448
;WIDTH:0.508431
G1 X183.598 Y154.329 E.00493
;WIDTH:0.525521
G1 X183.888 Y154.349 E.01084
G1 X184.726 Y154.395 F12000
;WIDTH:0.108155
G1 F3000
G3 X184.962 Y154.467 I.013 J.379 E.00126
G1 E-.5
G1 X190.052 Y151.534 F12000
G1 X190.809 Y151.072
G1 X191.48 Y150.618
G1 X192.16 Y150.109
G1 X192.815 Y149.569
G1 X193.443 Y148.998
G1 X194.043 Y148.398
G1 X200.512 Y141.381
G1 E.5 F1800
;TYPE:Internal solid infill
;WIDTH:0.50345
G1 F3000
G1 X199.79 Y140.66 E.03634
G1 X199.652 Y141.173 E.01893
G1 X200.306 Y141.827 E.03293
G1 X200.306 Y142.478 E.02319
G1 X199.509 Y141.681 E.04017
G1 X199.351 Y142.174 E.01844
G1 X200.306 Y143.13 E.04813
G1 X200.306 Y143.781 E.02319
G1 X199.182 Y142.657 E.0566
G1 X199.005 Y143.131 E.01802
G1 X200.306 Y144.432 E.06553
G1 X200.306 Y145.083 E.02319
G1 X198.815 Y143.592 E.07511
G1 X198.62 Y144.048 E.01767
G1 X200.306 Y145.735 E.08495
G1 X200.306 Y146.386 E.02319
G1 X198.408 Y144.488 E.09561
G3 X198.194 Y144.925 I-4.682 J-2.019 E.01735
G1 X200.306 Y147.037 E.10638
G1 X200.306 Y147.689 E.02319
G1 X197.964 Y145.347 E.11795
G3 X197.732 Y145.765 I-4.495 J-2.224 E.01706
G1 X200.306 Y148.34 E.12967
G1 X200.306 Y148.991 E.02319
G1 X197.485 Y146.17 E.14208
G3 X197.235 Y146.571 I-4.321 J-2.42 E.01684
G1 X200.306 Y149.642 E.15469
G1 X200.306 Y150.294 E.02319
G1 X196.972 Y146.96 E.16792
G3 X196.705 Y147.344 I-4.152 J-2.607 E.01667
G1 X200.306 Y150.945 E.18139
G1 X200.306 Y151.596 E.02319
G1 X196.426 Y147.716 E.19542
G3 X196.142 Y148.084 I-3.986 J-2.786 E.01654
G1 X200.306 Y152.248 E.20972
G1 X200.306 Y152.899 E.02319
G1 X195.848 Y148.44 E.22455
G3 X195.548 Y148.792 I-3.826 J-2.963 E.01646
G1 X200.306 Y153.55 E.23965
G1 X200.306 Y154.201 E.02319
G1 X195.238 Y149.133 E.25527
G3 X194.922 Y149.468 I-3.669 J-3.137 E.01641
G1 X200.306 Y154.853 E.27117
G1 X200.306 Y155.504 E.02319
G1 X194.596 Y149.794 E.28757
G3 X194.265 Y150.114 I-3.512 J-3.31 E.01641
G1 X200.306 Y156.155 E.30427
G1 X200.306 Y156.807 E.02319
G1 X193.924 Y150.424 E.32146
G3 X193.576 Y150.728 I-3.353 J-3.483 E.01644
G1 X200.306 Y157.458 E.33895
G1 X200.306 Y158.109 E.02319
G1 X193.219 Y151.022 E.35692
G3 X192.856 Y151.31 I-3.195 J-3.66 E.01652
G1 X200.306 Y158.76 E.37523
G1 X200.306 Y159.412 E.02319
G1 X192.483 Y151.589 E.39399
G3 X192.104 Y151.86 I-3.065 J-3.886 E.01663
G1 X200.306 Y160.063 E.41312
G1 X200.306 Y160.714 E.02319
G1 X191.715 Y152.123 E.43268
G3 X191.317 Y152.377 I-2.911 J-4.129 E.0168
G1 X200.306 Y161.366 E.45272
G1 X200.306 Y162.017 E.02319
G1 X190.913 Y152.624 E.47308
G3 X190.499 Y152.861 I-2.606 J-4.074 E.017
G1 X200.306 Y162.668 E.49395
G1 X200.306 Y163.319 E.02319
G1 X190.077 Y153.09 E.51518
G3 X189.644 Y153.309 I-2.501 J-4.423 E.01728
G1 X200.306 Y163.971 E.53699
G1 X200.306 Y164.622 E.02319
G1 X189.205 Y153.521 E.55908
G3 X188.753 Y153.72 I-2.305 J-4.639 E.01761
G1 X200.306 Y165.273 E.58188
G1 X200.306 Y165.925 E.02319
G1 X188.296 Y153.915 E.60487
G3 X187.823 Y154.092 I-2.148 J-5.001 E.01802
G1 X200.306 Y166.576 E.62872
G1 X200.306 Y167.227 E.02319
G1 X187.344 Y154.265 E.65282
G1 X186.851 Y154.423 E.01844
G1 X187.635 Y155.207 E.03946
G3 X190.978 Y158.55 I-6.532 J9.875 E.16952
G1 X200.306 Y167.878 E.46981
G1 X200.306 Y168.53 E.02319
G1 X191.799 Y160.023 E.42844
G3 X192.246 Y161.121 I-8.329 J4.029 E.04225
G1 X200.306 Y169.181 E.40594
G1 X200.306 Y169.832 E.02319
G1 X192.535 Y162.061 E.39138
G3 X192.716 Y162.893 I-6.386 J1.823 E.03034
G1 X200.306 Y170.484 E.38227
G1 X200.306 Y171.135 E.02319
G1 X192.829 Y163.658 E.37657
G3 X192.89 Y164.37 I-5.513 J.83 E.02547
G1 X200.306 Y171.786 E.37351
G1 X200.306 Y172.438 E.02319
G1 X192.909 Y165.04 E.37255
G1 X192.889 Y165.671 E.02249
G1 X200.306 Y173.089 E.37357
G1 X200.306 Y173.74 E.02319
G1 X192.836 Y166.27 E.37622
G3 X192.759 Y166.844 I-4.509 J-.318 E.02063
G1 X200.306 Y174.391 E.38013
G1 X200.306 Y175.043 E.02319
G1 X192.659 Y167.396 E.38513
G1 X192.538 Y167.926 E.01937
G1 X200.306 Y175.694 E.39123
G1 X200.306 Y176.345 E.02319
G1 X192.392 Y168.431 E.3986
G3 X192.231 Y168.921 I-3.896 J-1.01 E.01839
G1 X200.306 Y176.997 E.40672
G1 X200.306 Y177.648 E.02319
G1 X192.055 Y169.397 E.41554
G3 X191.856 Y169.849 I-3.622 J-1.328 E.0176
G1 X200.306 Y178.299 E.42558
G1 X200.306 Y178.95 E.02319
G1 X191.645 Y170.289 E.4362
G1 X191.422 Y170.718 E.01719
G1 X200.306 Y179.602 E.44743
G1 X200.306 Y180.253 E.02319
G1 X191.179 Y171.125 E.4597
G3 X190.926 Y171.524 I-3.232 J-1.768 E.01682
G1 X200.306 Y180.904 E.47242
G1 X200.306 Y181.556 E.02319
G1 X190.658 Y171.908 E.4859
G3 X190.376 Y172.276 I-3.012 J-2.016 E.01655
G1 X200.306 Y182.207 E.50013
G1 X200.306 Y182.858 E.02319
G1 X190.085 Y172.637 E.51477
G1 X189.775 Y172.978 E.01642
G1 X200.306 Y183.509 E.53038
G1 X200.306 Y184.161 E.02319
G1 X189.456 Y173.31 E.54647
G1 X189.125 Y173.631 E.0164
G1 X200.306 Y184.812 E.56313
G1 X200.306 Y185.463 E.02319
G1 X188.777 Y173.934 E.58065
G3 X188.422 Y174.23 I-2.48 J-2.622 E.01648
G1 X200.306 Y186.115 E.59856
G1 X200.306 Y186.766 E.02319
G1 X197.664 Y184.123 E.13309
G3 X198.414 Y185.525 I-17.508 J10.272 E.05662
G1 X200.306 Y187.417 E.09531
G1 X200.306 Y188.068 E.02319
G1 X198.942 Y186.704 E.06873
G3 X199.321 Y187.734 I-33.496 J12.916 E.03912
G1 X200.306 Y188.72 E.04962
G1 X200.306 Y189.368 E.02307
G1 X199.309 Y188.374 E.05013
G1 E-.5
G1 X191.563 Y178.023 F12000
G1 E.5 F1800
G1 F3000
G1 X188.049 Y174.508 E.17702
G3 X187.663 Y174.774 I-2.265 J-2.866 E.01668
G1 X189.521 Y176.631 E.09353
G2 X188.342 Y176.104 I-6.25 J12.383 E.04602
G1 X187.269 Y175.031 E.05402
G3 X186.853 Y175.267 I-2.043 J-3.124 E.01703
G1 X187.649 Y176.063 E.04009
G1 E-.5
G1 X184.962 Y175.533 F12000
G1 E.5 F1800
;TYPE:Gap infill
;WIDTH:0.108094
G1 F3000
G3 X184.729 Y175.604 I-.22 J-.303 E.00125
G1 X183.887 Y175.651 F12000
;WIDTH:0.525129
G1 F3000
G1 X183.598 Y175.671 E.01077
;WIDTH:0.508536
G1 X183.462 Y175.676 E.00493
;WIDTH:0.466026
G1 X183.325 Y175.681 E.00448
;WIDTH:0.423515
G1 X183.188 Y175.686 E.00403
;WIDTH:0.381005
G1 X183.051 Y175.691 E.00358
;WIDTH:0.33318
G1 X182.896 Y175.697 E.00349
;WIDTH:0.291171
G1 X182.666 Y175.704 E.00442
;WIDTH:0.245274
G1 X182.436 Y175.71 E.0036
;WIDTH:0.19868
G1 X182.202 Y175.717 E.00281
;WIDTH:0.137833
G1 X181.7 Y175.722 E.00369
G1 E-.5
G1 X185.375 Y176.593 F12000
G1 X186.195 Y176.814
G1 X187.003 Y177.073
G1 X187.798 Y177.37
G1 X188.542 Y177.689
G1 X189.306 Y178.059
G1 X190.052 Y178.465
G1 X190.777 Y178.907
G1 X191.48 Y179.382
G1 X192.161 Y179.891
G1 X192.844 Y180.457
G1 X193.443 Y181.002
G1 X194.043 Y181.602
G1 X194.588 Y182.201
G1 X195.154 Y182.885
G1 X195.663 Y183.565
G1 X200.094 Y189.735
G1 E.5 F1800
;WIDTH:0.595466
G1 F3000
G1 X200.144 Y190.201 E.02
;WIDTH:0.556956
G1 X200.165 Y190.441 E.00959
;WIDTH:0.516795
G1 X200.184 Y190.668 E.00836
;WIDTH:0.47872
G1 X200.203 Y190.896 E.00769
;WIDTH:0.440646
G1 X200.222 Y191.123 E.00702
;WIDTH:0.404159
G1 X200.24 Y191.436 E.00875
;WIDTH:0.366834
G1 X200.259 Y191.739 E.00761
;WIDTH:0.330608
G1 X200.277 Y192.042 E.00676
;WIDTH:0.297865
G1 X200.293 Y192.503 E.00911
;WIDTH:0.264809
G1 X200.31 Y192.958 E.00781
;WIDTH:0.246317
G1 X200.32 Y193.833 E.01377
G1 E-.5
G1 X200.094 Y140.265 F12000
G1 E.5 F1800
;WIDTH:0.631586
G1 F3000
G1 X200.145 Y139.786 E.02191
;WIDTH:0.592948
G1 X200.165 Y139.559 E.0097
;WIDTH:0.554874
G1 X200.184 Y139.332 E.00903
;WIDTH:0.5168
G1 X200.203 Y139.104 E.00836
;WIDTH:0.477204
G1 X200.222 Y138.868 E.00798
;WIDTH:0.439293
G1 X200.24 Y138.564 E.00931
;WIDTH:0.403064
G1 X200.259 Y138.261 E.00846
;WIDTH:0.366034
G1 X200.277 Y137.951 E.00776
;WIDTH:0.329952
G1 X200.293 Y137.497 E.0101
;WIDTH:0.297006
G1 X200.31 Y137.037 E.00904
;WIDTH:0.264556
G1 X200.32 Y136.167 E.01491
