; generated by SuperSlicer 2.5.59 on 2023-01-22 at 04:22:37 UTC


;
;

;
;
; 

; external perimeters extrusion width = 0.40mm
; perimeters extrusion width = 0.46mm
; infill extrusion width = 0.64mm
; solid infill extrusion width = 0.56mm
; top infill extrusion width = 0.40mm
; first layer extrusion width = 0.50mm

; external perimeters extrusion width = 0.40mm
; perimeters extrusion width = 0.46mm
; infill extrusion width = 0.64mm
; solid infill extrusion width = 0.56mm
; top infill extrusion width = 0.40mm
; first layer extrusion width = 0.50mm

; external perimeters extrusion width = 0.40mm
; perimeters extrusion width = 0.46mm
; infill extrusion width = 0.64mm
; solid infill extrusion width = 0.56mm
; top infill extrusion width = 0.40mm
; first layer extrusion width = 0.50mm

; external perimeters extrusion width = 0.40mm
; perimeters extrusion width = 0.46mm
; infill extrusion width = 0.64mm
; solid infill extrusion width = 0.56mm
; top infill extrusion width = 0.40mm
; first layer extrusion width = 0.50mm

; external perimeters extrusion width = 0.40mm
; perimeters extrusion width = 0.46mm
; infill extrusion width = 0.64mm
; solid infill extrusion width = 0.56mm
; top infill extrusion width = 0.40mm
; first layer extrusion width = 0.50mm

; external perimeters extrusion width = 0.40mm
; perimeters extrusion width = 0.46mm
; infill extrusion width = 0.64mm
; solid infill extrusion width = 0.56mm
; top infill extrusion width = 0.40mm
; first layer extrusion width = 0.50mm

; object:{"name":"LogoBase-80p","id":"LogoBase-80p.STL id:0 copy 0","object_center":[183.137952,164.999575,0.000000],"boundingbox_center":[183.137952,164.999575,1.407800],"boundingbox_size":[30.275903,20.018280,2.815599]}
; object:{"name":"LogoBase-80p","id":"LogoBase-80p.STL id:1 copy 0","object_center":[183.137952,138.980445,0.000000],"boundingbox_center":[183.137952,138.980445,1.407800],"boundingbox_size":[30.275903,20.018280,2.815599]}
; object:{"name":"LogoBase-80p","id":"LogoBase-80p.STL id:2 copy 0","object_center":[146.862048,164.999575,0.000000],"boundingbox_center":[146.862048,164.999575,1.407800],"boundingbox_size":[30.275903,20.018280,2.815599]}
; object:{"name":"LogoBase-80p","id":"LogoBase-80p.STL id:3 copy 0","object_center":[146.862048,138.980445,0.000000],"boundingbox_center":[146.862048,138.980445,1.407800],"boundingbox_size":[30.275903,20.018280,2.815599]}
; object:{"name":"LogoBase-80p","id":"LogoBase-80p.STL id:4 copy 0","object_center":[183.137952,191.018705,0.000000],"boundingbox_center":[183.137952,191.018705,1.407800],"boundingbox_size":[30.275903,20.018280,2.815599]}
; object:{"name":"LogoBase-80p","id":"LogoBase-80p.STL id:5 copy 0","object_center":[146.862048,191.018705,0.000000],"boundingbox_center":[146.862048,191.018705,1.407800],"boundingbox_size":[30.275903,20.018280,2.815599]}
; plater:{"center":[165.000000,164.999575,0.000000],"boundingbox_center":[165.000000,164.999575,1.407800],"boundingbox_size":[66.551807,72.056540,2.815599]}

M73 P0 R26


; Pre-Processed for Cancel-Object support by preprocess_cancellation v0.2.0
; 6 known objects
EXCLUDE_OBJECT_DEFINE NAME=LogoBase_80p_STL_id_0_copy_0 CENTER=183.092,164.998 POLYGON=[[168.2,155.19],[168.2,174.809],[198.076,174.809],[198.076,155.19]]
EXCLUDE_OBJECT_DEFINE NAME=LogoBase_80p_STL_id_1_copy_0 CENTER=183.055,138.986 POLYGON=[[168.2,129.171],[168.2,148.789],[198.076,148.789],[198.076,129.171]]
EXCLUDE_OBJECT_DEFINE NAME=LogoBase_80p_STL_id_3_copy_0 CENTER=146.798,138.973 POLYGON=[[131.924,129.171],[131.924,148.789],[161.8,148.789],[161.8,129.171]]
EXCLUDE_OBJECT_DEFINE NAME=LogoBase_80p_STL_id_2_copy_0 CENTER=146.779,164.980 POLYGON=[[131.924,155.19],[131.924,174.809],[161.8,174.809],[161.8,155.19]]
EXCLUDE_OBJECT_DEFINE NAME=LogoBase_80p_STL_id_5_copy_0 CENTER=146.779,190.999 POLYGON=[[131.924,181.21],[131.924,200.828],[161.8,200.828],[161.8,181.21]]
EXCLUDE_OBJECT_DEFINE NAME=LogoBase_80p_STL_id_4_copy_0 CENTER=183.074,191.012 POLYGON=[[168.2,181.21],[168.2,200.828],[198.076,200.828],[198.076,181.21]]
;TYPE:Custom
; custom gcode: start_gcode
START_PRINT T_BED=60 T_EXTRUDER=200
; custom gcode end: start_gcode
M107
G21 ; set units to millimeters
G90 ; use absolute coordinates
M82 ; use absolute distances for extrusion
G92 E0
; custom gcode: start_filament_gcode
; Filament gcode

    PRESSURE_ADVANCE_SELECT FILAMENT=PLA
; custom gcode end: start_filament_gcode
;_TOOLCHANGE 0
M104 S200 ; set temperature
M109 S200 ; set temperature and wait for it to be reached
M190 S60 ; set bed temperature and wait for it to be reached
;LAYER_CHANGE
;Z:0.2
;HEIGHT:0.2
G1 Z0.2 F9000
M73 P0 R26
G1 E-0.8 F3000
M204 S1000
G1 X129.603 Y126.093 F9000
G1 E0 F1800
;TYPE:Skirt
;WIDTH:0.52
G1 X128.503 Y127.405 E0.06521
G1 X128.108 Y129.071 E0.13043
G1 X128.108 Y200.928 E2.86691
G1 X128.845 Y203.149 E2.95602
G1 X130.158 Y204.249 E3.02124
G1 X131.824 Y204.643 E3.08645
G1 X198.178 Y204.623 E5.61339
G1 X200.397 Y203.886 E5.70242
G1 X201.497 Y202.574 E5.76763
G1 X201.892 Y200.907 E5.83284
G1 X201.892 Y129.071 E8.56854
G1 X201.155 Y126.85 E8.65765
G1 X199.842 Y125.75 E8.72287
G1 X198.176 Y125.356 E8.78808
G1 X131.824 Y125.356 E11.31493
M73 P1 R26
G1 X129.603 Y126.093 E11.40404
G1 X129.981 Y126.443 F9000
G1 F1800
G1 X128.979 Y127.523 E11.46016
G1 X128.586 Y129.071 E11.52098
G1 X128.586 Y200.928 E14.25746
G1 X129.105 Y202.687 E14.3273
G1 X130.276 Y203.772 E14.38813
G1 X131.824 Y204.166 E14.44895
G1 X198.178 Y204.146 E16.97588
G1 X199.935 Y203.626 E17.04565
G1 X201.021 Y202.455 E17.10647
G1 X201.414 Y200.907 E17.16729
G1 X201.414 Y129.071 E19.90299
G1 X200.895 Y127.312 E19.97283
G1 X199.724 Y126.227 E20.03366
G1 X198.176 Y125.833 E20.09448
G1 X131.824 Y125.833 E22.62133
G1 X130.065 Y126.352 E22.69117
G1 X129.981 Y126.443 E22.69588
G92 E0
G1 E-0.8 F3000
; printing object LogoBase-80p.STL id:0 copy 0
EXCLUDE_OBJECT_START NAME=LogoBase_80p_STL_id_0_copy_0
; acceleration to travel
M204 S3000
G1 X159.443 Y148.802 F9000
; decel to extrusion
M204 S1000
G1 X169.264 Y156.255
; end travel
G1 E0 F1800
;TYPE:Internal perimeter
;WIDTH:0.5
G1 X197.012 Y156.255 E1.0124
G1 X197.012 Y173.725 E1.64982
G1 X169.264 Y173.744 E2.66222
G1 X169.264 Y156.255 E3.30033
G1 X168.807 Y155.798 F9000
G1 F1800
G1 X197.469 Y155.798 E4.34608
G1 X197.469 Y174.181 E5.01684
G1 X168.807 Y174.201 E6.06259
M73 P2 R26
G1 X168.807 Y155.798 E6.73407
G1 X168.35 Y155.34 F9000
;TYPE:External perimeter
G1 F1800
G1 X197.926 Y155.34 E7.81318
G1 X197.926 Y174.638 E8.51728
G1 X168.35 Y174.658 E9.59639
G1 X168.35 Y155.34 E10.30123
;WIPE_START
M204 S4000
G1 X168.696 Y155.54 F9000
;WIPE_END
G92 E0
G1 E-0.8 F3000
; acceleration to travel
M204 S3000
G1 X189.101 Y156.826 F9000
; decel to extrusion
M204 S1000
G1 X196.875 Y157.316
; end travel
G1 E0 F1800
;TYPE:Solid infill
;WIDTH:0.501588
G1 F3600
G1 X195.951 Y156.392 E0.04783
G1 X195.304 Y156.392 F9000
G1 F3600
G1 X196.875 Y157.962 E0.12912
G1 X196.875 Y158.608 F9000
G1 F3600
G1 X194.658 Y156.392 E0.24386
G1 X194.011 Y156.392 F9000
G1 F3600
G1 X196.875 Y159.255 E0.39207
G1 X196.875 Y159.901 F9000
G1 F3600
G1 X193.365 Y156.392 E0.57374
G1 X192.719 Y156.392 F9000
G1 F3600
G1 X196.875 Y160.548 E0.78886
G1 X196.875 Y161.194 F9000
G1 F3600
G1 X192.072 Y156.392 E1.03745
G1 X191.426 Y156.392 F9000
G1 F3600
G1 X196.875 Y161.841 E1.3195
G1 X196.875 Y162.487 F9000
G1 F3600
G1 X190.779 Y156.392 E1.63501
G1 X190.133 Y156.392 F9000
G1 F3600
G1 X196.875 Y163.133 E1.98397
G1 X196.875 Y163.78 F9000
G1 F3600
G1 X189.487 Y156.392 E2.3664
G1 X188.84 Y156.392 F9000
G1 F3600
G1 X196.875 Y164.426 E2.78229
G1 X196.875 Y165.073 F9000
G1 F3600
G1 X188.194 Y156.392 E3.23163
G1 X187.547 Y156.392 F9000
G1 F3600
G1 X196.875 Y165.719 E3.71444
G1 X196.875 Y166.365 F9000
G1 F3600
G1 X186.901 Y156.392 E4.23071
G1 X186.255 Y156.392 F9000
G1 F3600
G1 X196.875 Y167.012 E4.78044
G1 X196.875 Y167.658 F9000
G1 F3600
G1 X185.608 Y156.392 E5.36362
G1 X184.962 Y156.392 F9000
G1 F3600
G1 X196.875 Y168.305 E5.98027
G1 X196.875 Y168.951 F9000
G1 F3600
G1 X184.315 Y156.392 E6.63038
G1 X183.669 Y156.392 F9000
G1 F3600
G1 X196.875 Y169.597 E7.31394
G1 X196.875 Y170.244 F9000
G1 F3600
G1 X183.023 Y156.392 E8.03097
G1 X182.376 Y156.392 F9000
G1 F3600
G1 X196.875 Y170.89 E8.78146
G1 X196.875 Y171.537 F9000
G1 F3600
G1 X181.73 Y156.392 E9.5654
G1 X181.083 Y156.392 F9000
G1 F3600
G1 X196.875 Y172.183 E10.38281
G1 X196.875 Y172.829 F9000
G1 F3600
G1 X180.437 Y156.392 E11.23368
G1 X179.79 Y156.392 F9000
G1 F3600
G1 X196.875 Y173.476 E12.118
G1 X196.34 Y173.588 F9000
G1 F3600
G1 X179.144 Y156.392 E13.00814
G1 X178.498 Y156.392 F9000
G1 F3600
G1 X195.694 Y173.589 E13.89829
M73 P3 R26
G1 X195.049 Y173.589 F9000
G1 F3600
G1 X177.851 Y156.392 E14.78847
G1 X177.205 Y156.392 F9000
G1 F3600
G1 X194.403 Y173.589 E15.67868
G1 X193.757 Y173.59 F9000
G1 F3600
G1 X176.558 Y156.392 E16.5689
G1 X175.912 Y156.392 F9000
G1 F3600
G1 X193.111 Y173.59 E17.45915
G1 X192.465 Y173.591 F9000
G1 F3600
G1 X175.266 Y156.392 E18.34942
M73 P3 R26
G1 X174.619 Y156.392 F9000
G1 F3600
G1 X191.819 Y173.591 E19.23972
G1 X191.173 Y173.592 F9000
G1 F3600
G1 X173.973 Y156.392 E20.13004
G1 X173.326 Y156.392 F9000
G1 F3600
G1 X190.527 Y173.592 E21.02038
G1 X189.881 Y173.592 F9000
G1 F3600
G1 X172.68 Y156.392 E21.91074
G1 X172.034 Y156.392 F9000
G1 F3600
G1 X189.235 Y173.593 E22.80113
G1 X188.589 Y173.593 F9000
G1 F3600
G1 X171.387 Y156.392 E23.69154
G1 X170.741 Y156.392 F9000
G1 F3600
G1 X187.943 Y173.594 E24.58197
G1 X187.297 Y173.594 F9000
G1 F3600
G1 X170.094 Y156.392 E25.47242
G1 X169.448 Y156.392 F9000
G1 F3600
G1 X186.651 Y173.595 E26.3629
G1 X186.005 Y173.595 F9000
G1 F3600
G1 X169.401 Y156.991 E27.22236
G1 X169.401 Y157.638 F9000
G1 F3600
G1 X185.359 Y173.596 E28.04838
G1 X184.713 Y173.596 F9000
G1 F3600
G1 X169.401 Y158.284 E28.84097
G1 X169.401 Y158.931 F9000
G1 F3600
G1 X184.067 Y173.596 E29.60011
G1 X183.421 Y173.597 F9000
G1 F3600
G1 X169.401 Y159.577 E30.32582
G1 X169.401 Y160.223 F9000
G1 F3600
G1 X182.775 Y173.597 E31.0181
G1 X182.129 Y173.598 F9000
G1 F3600
G1 X169.401 Y160.87 E31.67693
G1 X169.401 Y161.516 F9000
G1 F3600
G1 X181.483 Y173.598 E32.30233
G1 X180.837 Y173.599 F9000
G1 F3600
G1 X169.401 Y162.163 E32.89429
G1 X169.401 Y162.809 F9000
G1 F3600
G1 X180.191 Y173.599 E33.45282
G1 X179.545 Y173.6 F9000
G1 F3600
G1 X169.401 Y163.455 E33.97791
G1 X169.401 Y164.102 F9000
G1 F3600
G1 X178.899 Y173.6 E34.46956
G1 X178.253 Y173.6 F9000
G1 F3600
G1 X169.401 Y164.748 E34.92777
G1 X169.401 Y165.395 F9000
G1 F3600
G1 X177.607 Y173.601 E35.35255
G1 X176.961 Y173.601 F9000
G1 F3600
G1 X169.401 Y166.041 E35.74389
G1 X169.401 Y166.688 F9000
G1 F3600
G1 X176.316 Y173.602 E36.10179
G1 X175.67 Y173.602 F9000
G1 F3600
G1 X169.401 Y167.334 E36.42625
G1 X169.401 Y167.98 F9000
G1 F3600
G1 X175.024 Y173.603 E36.71728
G1 X174.378 Y173.603 F9000
G1 F3600
G1 X169.401 Y168.627 E36.97487
G1 X169.401 Y169.273 F9000
G1 F3600
G1 X173.732 Y173.604 E37.19903
G1 X173.086 Y173.604 F9000
G1 F3600
G1 X169.401 Y169.92 E37.38975
G1 X169.401 Y170.566 F9000
G1 F3600
G1 X172.44 Y173.604 E37.54703
G1 X171.794 Y173.605 F9000
G1 F3600
G1 X169.401 Y171.212 E37.67087
G1 X169.401 Y171.859 F9000
G1 F3600
G1 X171.148 Y173.605 E37.76127
G1 X170.502 Y173.606 F9000
G1 F3600
G1 X169.401 Y172.505 E37.81824
G1 X169.401 Y173.152 F9000
G1 F3600
G1 X169.856 Y173.606 E37.84178
G92 E0
G1 E-0.8 F3000
; stop printing object LogoBase-80p.STL id:0 copy 0
EXCLUDE_OBJECT_END NAME=LogoBase_80p_STL_id_0_copy_0
; printing object LogoBase-80p.STL id:1 copy 0
EXCLUDE_OBJECT_START NAME=LogoBase_80p_STL_id_1_copy_0
; acceleration to travel
M204 S3000
G1 X169.398 Y153.569 F9000
; decel to extrusion
M204 S1000
G1 X169.264 Y147.725
; end travel
G1 E0 F1800
;TYPE:Internal perimeter
;WIDTH:0.5
G1 X169.264 Y130.235 E0.63811
G1 X197.012 Y130.235 E1.65051
G1 X197.012 Y147.706 E2.28793
G1 X169.264 Y147.725 E3.30033
G1 X168.807 Y148.182 F9000
G1 F1800
G1 X168.807 Y129.778 E3.9718
M73 P4 R25
G1 X197.469 Y129.778 E5.01755
G1 X197.469 Y148.162 E5.68831
G1 X168.807 Y148.182 E6.73407
G1 X168.35 Y148.639 F9000
;TYPE:External perimeter
G1 F1800
G1 X168.35 Y129.321 E7.43891
G1 X197.926 Y129.321 E8.51802
G1 X197.926 Y148.619 E9.22212
G1 X168.35 Y148.639 E10.30123
;WIPE_START
M204 S4000
G1 X168.55 Y148.293 F9000
;WIPE_END
G92 E0
G1 E-0.8 F3000
; acceleration to travel
M204 S3000
G1 X189.061 Y135.985 F9000
; decel to extrusion
M204 S1000
G1 X196.875 Y131.297
; end travel
G1 E0 F1800
;TYPE:Solid infill
;WIDTH:0.501588
G1 F3600
G1 X195.951 Y130.373 E0.04783
G1 X195.304 Y130.373 F9000
G1 F3600
G1 X196.875 Y131.943 E0.12912
G1 X196.875 Y132.589 F9000
G1 F3600
G1 X194.658 Y130.373 E0.24386
G1 X194.011 Y130.373 F9000
G1 F3600
G1 X196.875 Y133.236 E0.39207
G1 X196.875 Y133.882 F9000
G1 F3600
G1 X193.365 Y130.373 E0.57374
G1 X192.719 Y130.373 F9000
G1 F3600
G1 X196.875 Y134.529 E0.78886
G1 X196.875 Y135.175 F9000
G1 F3600
G1 X192.072 Y130.373 E1.03745
G1 X191.426 Y130.373 F9000
G1 F3600
G1 X196.875 Y135.821 E1.3195
G1 X196.875 Y136.468 F9000
G1 F3600
G1 X190.779 Y130.373 E1.63501
G1 X190.133 Y130.373 F9000
G1 F3600
G1 X196.875 Y137.114 E1.98397
G1 X196.875 Y137.761 F9000
G1 F3600
G1 X189.487 Y130.373 E2.3664
G1 X188.84 Y130.373 F9000
G1 F3600
G1 X196.875 Y138.407 E2.78229
G1 X196.875 Y139.053 F9000
G1 F3600
G1 X188.194 Y130.373 E3.23163
G1 X187.547 Y130.373 F9000
G1 F3600
G1 X196.875 Y139.7 E3.71444
G1 X196.875 Y140.346 F9000
G1 F3600
G1 X186.901 Y130.373 E4.23071
G1 X186.255 Y130.373 F9000
G1 F3600
G1 X196.875 Y140.993 E4.78044
G1 X196.875 Y141.639 F9000
G1 F3600
G1 X185.608 Y130.373 E5.36362
G1 X184.962 Y130.373 F9000
G1 F3600
G1 X196.875 Y142.285 E5.98027
G1 X196.875 Y142.932 F9000
G1 F3600
G1 X184.315 Y130.373 E6.63038
G1 X183.669 Y130.373 F9000
G1 F3600
G1 X196.875 Y143.578 E7.31394
G1 X196.875 Y144.225 F9000
G1 F3600
G1 X183.023 Y130.373 E8.03097
G1 X182.376 Y130.373 F9000
G1 F3600
G1 X196.875 Y144.871 E8.78146
G1 X196.875 Y145.518 F9000
G1 F3600
G1 X181.73 Y130.373 E9.5654
G1 X181.083 Y130.373 F9000
G1 F3600
G1 X196.875 Y146.164 E10.38281
G1 X196.875 Y146.81 F9000
G1 F3600
G1 X180.437 Y130.373 E11.23368
G1 X179.79 Y130.373 F9000
G1 F3600
G1 X196.875 Y147.457 E12.118
G1 X196.34 Y147.569 F9000
G1 F3600
G1 X179.144 Y130.373 E13.00814
G1 X178.498 Y130.373 F9000
G1 F3600
G1 X195.694 Y147.569 E13.89829
G1 X195.049 Y147.57 F9000
G1 F3600
G1 X177.851 Y130.373 E14.78847
G1 X177.205 Y130.373 F9000
G1 F3600
G1 X194.403 Y147.57 E15.67868
M73 P5 R25
G1 X193.757 Y147.571 F9000
G1 F3600
G1 X176.558 Y130.373 E16.5689
G1 X175.912 Y130.373 F9000
G1 F3600
G1 X193.111 Y147.571 E17.45915
G1 X192.465 Y147.572 F9000
G1 F3600
G1 X175.266 Y130.373 E18.34942
G1 X174.619 Y130.373 F9000
G1 F3600
G1 X191.819 Y147.572 E19.23972
G1 X191.173 Y147.572 F9000
G1 F3600
G1 X173.973 Y130.373 E20.13004
G1 X173.326 Y130.373 F9000
G1 F3600
G1 X190.527 Y147.573 E21.02038
G1 X189.881 Y147.573 F9000
G1 F3600
G1 X172.68 Y130.373 E21.91074
G1 X172.034 Y130.373 F9000
G1 F3600
G1 X189.235 Y147.574 E22.80113
G1 X188.589 Y147.574 F9000
G1 F3600
G1 X171.387 Y130.373 E23.69154
G1 X170.741 Y130.373 F9000
G1 F3600
G1 X187.943 Y147.575 E24.58197
G1 X187.297 Y147.575 F9000
G1 F3600
G1 X170.094 Y130.373 E25.47242
G1 X169.448 Y130.373 F9000
G1 F3600
G1 X186.651 Y147.576 E26.3629
G1 X186.005 Y147.576 F9000
G1 F3600
G1 X169.401 Y130.972 E27.22236
G1 X169.401 Y131.619 F9000
G1 F3600
G1 X185.359 Y147.576 E28.04838
G1 X184.713 Y147.577 F9000
G1 F3600
G1 X169.401 Y132.265 E28.84097
G1 X169.401 Y132.911 F9000
G1 F3600
G1 X184.067 Y147.577 E29.60011
G1 X183.421 Y147.578 F9000
G1 F3600
G1 X169.401 Y133.558 E30.32582
G1 X169.401 Y134.204 F9000
G1 F3600
G1 X182.775 Y147.578 E31.0181
G1 X182.129 Y147.579 F9000
G1 F3600
G1 X169.401 Y134.851 E31.67693
G1 X169.401 Y135.497 F9000
G1 F3600
G1 X181.483 Y147.579 E32.30233
G1 X180.837 Y147.58 F9000
G1 F3600
G1 X169.401 Y136.144 E32.89429
G1 X169.401 Y136.79 F9000
G1 F3600
G1 X180.191 Y147.58 E33.45282
G1 X179.545 Y147.58 F9000
G1 F3600
G1 X169.401 Y137.436 E33.97791
G1 X169.401 Y138.083 F9000
G1 F3600
G1 X178.899 Y147.581 E34.46956
G1 X178.253 Y147.581 F9000
G1 F3600
