; generated by SuperSlicer 2.5.59 on 2023-07-17 at 19:46:00 UTC


;
;

;
;
; 

; external perimeters extrusion width = 0.40mm
; perimeters extrusion width = 0.46mm
; infill extrusion width = 0.64mm
; solid infill extrusion width = 0.56mm
; top infill extrusion width = 0.40mm
; support material extrusion width = 0.46mm
; first layer extrusion width = 0.50mm

; object:{"name":"LongboardHangerV1","id":"LongboardHangerV1.stl id:0 copy 0","object_center":[165.000000,164.999900,0.000000],"boundingbox_center":[165.000000,164.999900,22.000000],"boundingbox_size":[140.000000,162.999573,44.000000]}
EXCLUDE_OBJECT_DEFINE NAME=LongboardHangerV1_stl_id_0_copy_0 CENTER=165.000000,164.999900 POLYGON=[[95.000000,83.500104],[235.000000,83.500104],[235.000000,128.000104],[234.956720,129.542056],[234.827088,131.079136],[234.611456,132.606536],[234.310512,134.119432],[233.925232,135.613088],[233.456784,137.082784],[232.906672,138.523888],[232.276640,139.931920],[188.266304,232.105248],[187.554192,233.434880],[186.766192,234.720960],[185.904944,235.959200],[184.973328,237.145408],[183.974512,238.275584],[182.911840,239.345968],[181.788880,240.352912],[180.609424,241.293040],[179.377424,242.163216],[178.097040,242.960448],[176.772592,243.682128],[175.408528,244.325776],[174.009424,244.889248],[172.580016,245.370640],[171.125088,245.768336],[169.649536,246.080992],[168.158352,246.307552],[166.656544,246.447280],[165.149136,246.499680],[163.641248,246.464576],[162.137920,246.342096],[160.644240,246.132656],[159.165200,245.836944],[157.705808,245.455968],[156.270960,244.990992],[154.865488,244.443616],[153.494144,243.815664],[152.161488,243.109232],[150.872048,242.326720],[149.630160,241.470768],[148.439984,240.544224],[147.305552,239.550224],[146.230672,238.492112],[145.218944,237.373440],[144.273792,236.198016],[143.398400,234.969744],[142.595696,233.692784],[141.868384,232.371408],[97.723360,139.931920],[97.093312,138.523888],[96.543208,137.082784],[96.074776,135.613088],[95.689480,134.119432],[95.388552,132.606536],[95.172912,131.079136],[95.043264,129.542056],[95.000000,128.000104],[95.000000,83.500104]]
; plater:{"center":[165.000000,164.999900,0.000000],"boundingbox_center":[165.000000,164.999900,22.000000],"boundingbox_size":[140.000000,162.999573,44.000000]}

M73 P0 R111
M204 P4000 T4000 ; sets acceleration (P, T), mm/sec^2
;TYPE:Custom
; custom gcode: start_gcode
START_PRINT T_BED=60 T_EXTRUDER=220
; custom gcode end: start_gcode
M107
G21 ; set units to millimeters
G90 ; use absolute coordinates
M82 ; use absolute distances for extrusion
G92 E0
; custom gcode: start_filament_gcode
; Filament gcode

    PRESSURE_ADVANCE_SELECT FILAMENT=PLA
; custom gcode end: start_filament_gcode
;_TOOLCHANGE 0
M104 S220 ; set temperature
M109 S220 ; set temperature and wait for it to be reached
M190 S60 ; set bed temperature and wait for it to be reached
;LAYER_CHANGE
;Z:0.2
;HEIGHT:0.2
G1 Z0.2 F9000
G1 E-0.8 F2400
M204 S1000
G1 X90.258 Y84.803 F9000
G1 E0 F1800
;TYPE:Skirt
;WIDTH:0.52
G1 X89.158 Y86.115 E0.06793
G1 X88.763 Y87.781 E0.13586
G1 X88.78 Y102.279 E0.71097
G1 X91.593 Y131.587 E1.87896
G1 X92.189 Y135.025 E2.01738
G1 X93.097 Y138.178 E2.14754
G1 X93.714 Y139.811 E2.21677
G1 X138.702 Y234.117 E6.36172
G1 X139.536 Y235.619 E6.42987
G1 X141.328 Y238.294 E6.55758
G1 X142.399 Y239.637 E6.62573
G1 X143.696 Y241.071 E6.70243
G1 X146.055 Y243.262 E6.83014
G1 X147.407 Y244.322 E6.89829
G1 X148.999 Y245.419 E6.97498
G1 X150.471 Y246.305 E7.04313
G1 X153.358 Y247.73 E7.17084
G1 X155.159 Y248.431 E7.24754
G1 X158.459 Y249.383 E7.38378
G1 X161.633 Y249.922 E7.51149
G1 X165.062 Y250.114 E7.64773
G1 X166.994 Y250.047 E7.72443
G1 X170.19 Y249.656 E7.85214
G1 X173.531 Y248.859 E7.98838
G1 X175.363 Y248.242 E8.06508
G1 X178.505 Y246.856 E8.20132
G1 X181.286 Y245.234 E8.32903
G1 X182.865 Y244.119 E8.40573
G1 X185.323 Y242.04 E8.53343
G1 X187.681 Y239.542 E8.66968
G1 X189.304 Y237.405 E8.77614
G1 X190.743 Y235.139 E8.8826
G1 X191.53 Y233.662 E8.94902
G1 X235.54 Y141.489 E13.00084
G1 X236.903 Y138.178 E13.14289
G1 X237.811 Y135.025 E13.27305
G1 X238.407 Y131.587 E13.41146
G1 X241.237 Y101.924 E14.59352
G1 X241.237 Y87.781 E15.15456
G1 X240.5 Y85.56 E15.24739
G1 X239.188 Y84.46 E15.31532
G1 X237.521 Y84.066 E15.38325
G1 X92.479 Y84.066 E21.13701
G1 X90.258 Y84.803 E21.22984
G1 X90.635 Y85.153 F9000
G1 F1800
G1 X89.634 Y86.234 E21.28829
G1 X89.24 Y87.781 E21.35165
G1 X89.255 Y102.233 E21.92495
G1 X92.066 Y131.521 E23.09209
G1 X92.651 Y134.906 E23.22839
G1 X93.552 Y138.033 E23.35748
G1 X94.16 Y139.641 E23.42566
G1 X139.12 Y233.887 E27.56799
G1 X139.94 Y235.366 E27.63504
G1 X141.716 Y238.017 E27.76165
G1 X142.893 Y239.481 E27.83616
G1 X144.031 Y240.731 E27.90321
G1 X146.369 Y242.903 E28.02982
G1 X147.7 Y243.946 E28.09687
G1 X149.089 Y244.909 E28.16392
G1 X150.694 Y245.884 E28.23843
G1 X153.729 Y247.369 E28.37248
G1 X156.736 Y248.441 E28.49909
G1 X160.026 Y249.21 E28.63313
G1 X161.886 Y249.471 E28.70764
G1 X165.073 Y249.637 E28.83425
M73 P0 R110
G1 X168.446 Y249.433 E28.9683
G1 X170.303 Y249.151 E29.0428
G1 X173.405 Y248.399 E29.16941
G1 X175.185 Y247.799 E29.24391
G1 X178.277 Y246.437 E29.37796
G1 X181.034 Y244.829 E29.50457
G1 X183.155 Y243.277 E29.60884
G1 X185.141 Y241.555 E29.71311
G1 X187.323 Y239.226 E29.83971
G1 X188.912 Y237.132 E29.94398
G1 X190.322 Y234.914 E30.04825
G1 X191.099 Y233.456 E30.11379
G1 X235.109 Y141.284 E34.16561
G1 X236.448 Y138.033 E34.30507
G1 X237.349 Y134.906 E34.43417
G1 X237.934 Y131.521 E34.57046
G1 X240.745 Y102.233 E35.73761
G1 X240.76 Y87.781 E36.31091
G1 X240.241 Y86.022 E36.38367
G1 X239.069 Y84.937 E36.44703
G1 X237.521 Y84.543 E36.51038
G1 X92.479 Y84.543 E42.26414
G1 X90.72 Y85.062 E42.3369
G1 X90.635 Y85.153 E42.3418
G92 E0
G1 E-0.8 F2400
; printing object LongboardHangerV1.stl id:0 copy 0
EXCLUDE_OBJECT_START NAME=LongboardHangerV1_stl_id_0_copy_0
; acceleration to travel
M204 S3000
G1 X191.58 Y96.012 F9000
; decel to extrusion
M204 S1000
G1 X225.228 Y99.631
; end travel
G1 E0 F1800
;TYPE:Support material interface
;WIDTH:0.5
G1 X234.772 Y99.631 E0.3627
G1 X234.772 Y101.256 E0.42443
G1 X234.678 Y101.482 E0.43375
G1 X225.322 Y101.482 E0.78932
G1 X225.228 Y101.256 E0.79863
G1 X225.228 Y99.631 E0.86036
G92 E0
G1 E-0.8 F2400
; acceleration to travel
M204 S3000
G1 X232.3 Y99.903 F9000
; decel to extrusion
M204 S1000
G1 X234.657 Y99.993
; end travel
G1 E0 F1800
G1 X225.539 Y99.993 E0.34654
G1 X225.539 Y100.501 E0.36585
G1 X234.461 Y100.501 E0.70492
G1 X234.461 Y101.009 E0.72422
G1 X225.343 Y101.009 E1.07077
G92 E0
G1 E-0.8 F2400
; acceleration to travel
M204 S3000
G1 X134.914 Y101.009 F9000
; decel to extrusion
M204 S1000
G1 X104.772 Y101.009
; end travel
G1 E0 F1800
G1 X104.772 Y101.256 E0.00938
G1 X104.678 Y101.482 E0.0187
G1 X95.322 Y101.482 E0.37427
G1 X95.228 Y101.256 E0.38358
G1 X95.228 Y99.631 E0.44531
G1 X104.772 Y99.631 E0.80801
G1 X104.772 Y101.009 E0.86036
G1 X104.657 Y99.993 F9000
G1 F1800
G1 X95.539 Y99.993 E1.20691
G1 X95.539 Y100.501 E1.22621
G1 X104.461 Y100.501 E1.56528
G1 X104.461 Y101.009 E1.58458
G1 X95.343 Y101.009 E1.93113
G1 X94.521 Y101.009 F9000
;TYPE:Support material
G1 F1800
G1 X94.521 Y101.396 E1.94586
G1 X94.555 Y101.477 E1.94917
G1 X94.555 Y101.924 E1.96618
G1 X92.479 Y101.924 E2.04508
M73 P1 R110
G1 X92.479 Y87.781 E2.5826
G1 X107.521 Y87.781 E3.15433
G1 X107.521 Y101.924 E3.69185
G1 X105.445 Y101.924 E3.77075
G1 X105.445 Y101.477 E3.78776
G1 X105.479 Y101.396 E3.79107
G1 X105.479 Y98.924 E3.88502
G1 X94.521 Y98.924 E4.30148
G1 X94.521 Y101.009 E4.3807
G92 E0
G1 E-0.8 F2400
; acceleration to travel
M204 S3000
G1 X103.958 Y101.61 F9000
; decel to extrusion
M204 S1000
G1 X107.103 Y101.81
; end travel
G1 E0 F1800
G1 X107.103 Y88.092 E0.52137
G1 X106.595 Y88.092 E0.54067
G1 X106.595 Y101.613 E1.05456
G1 X106.088 Y101.613 E1.07387
G1 X106.088 Y88.092 E1.58776
G1 X105.58 Y88.092 E1.60706
G1 X105.58 Y98.613 E2.00694
G1 X105.072 Y98.613 E2.02624
G1 X105.072 Y88.092 E2.42612
G1 X104.564 Y88.092 E2.44542
G1 X104.564 Y98.613 E2.8453
G1 X104.056 Y98.613 E2.8646
G1 X104.056 Y88.092 E3.26448
G1 X103.548 Y88.092 E3.28378
G1 X103.548 Y98.613 E3.68366
G1 X103.04 Y98.613 E3.70296
G1 X103.04 Y88.092 E4.10284
G1 X102.532 Y88.092 E4.12214
G1 X102.532 Y98.613 E4.52201
G1 X102.025 Y98.613 E4.54132
G1 X102.025 Y88.092 E4.94119
G1 X101.517 Y88.092 E4.9605
G1 X101.517 Y98.613 E5.36037
G1 X101.009 Y98.613 E5.37967
G1 X101.009 Y88.092 E5.77955
G1 X100.501 Y88.092 E5.79885
G1 X100.501 Y98.613 E6.19873
G1 X99.993 Y98.613 E6.21803
G1 X99.993 Y88.092 E6.61791
G1 X99.485 Y88.092 E6.63721
G1 X99.485 Y98.613 E7.03709
G1 X98.977 Y98.613 E7.05639
G1 X98.977 Y88.092 E7.45627
G1 X98.47 Y88.092 E7.47557
G1 X98.47 Y98.613 E7.87545
G1 X97.962 Y98.613 E7.89475
G1 X97.962 Y88.092 E8.29463
G1 X97.454 Y88.092 E8.31393
G1 X97.454 Y98.613 E8.7138
G1 X96.946 Y98.613 E8.73311
G1 X96.946 Y88.092 E9.13298
G1 X96.438 Y88.092 E9.15229
G1 X96.438 Y98.613 E9.55216
G1 X95.93 Y98.613 E9.57146
G1 X95.93 Y88.092 E9.97134
G1 X95.422 Y88.092 E9.99064
G1 X95.422 Y98.613 E10.39052
G1 X94.914 Y98.613 E10.40982
G1 X94.914 Y88.092 E10.8097
G1 X94.407 Y88.092 E10.829
G1 X94.407 Y98.613 E11.22888
G1 X94.21 Y98.613 E11.23633
G1 X94.21 Y101.458 E11.34445
G1 X94.244 Y101.539 E11.34776
G1 X94.244 Y101.613 E11.35061
G1 X93.899 Y101.613 E11.36372
G1 X93.899 Y88.092 E11.87761
G1 X93.391 Y88.092 E11.89692
G1 X93.391 Y101.613 E12.41081
G1 X92.883 Y101.613 E12.43011
G1 X92.883 Y87.896 E12.95148
G92 E0
G1 E-0.8 F2400
; acceleration to travel
M204 S3000
G1 X190.08 Y87.896 F9000
; decel to extrusion
M204 S1000
G1 X222.479 Y87.896
; end travel
G1 E0 F1800
G1 X222.479 Y87.781 E0.00434
G1 X237.521 Y87.781 E0.57607
G1 X237.521 Y101.924 E1.11359
G1 X235.445 Y101.924 E1.19249
G1 X235.445 Y101.477 E1.2095
G1 X235.479 Y101.396 E1.21281
G1 X235.479 Y98.924 E1.30676
G1 X224.521 Y98.924 E1.72322
G1 X224.521 Y101.396 E1.81717
G1 X224.555 Y101.477 E1.82048
G1 X224.555 Y101.924 E1.83749
G1 X222.479 Y101.924 E1.91639
G1 X222.479 Y87.896 E2.44957
G92 E0
G1 E-0.8 F2400
; acceleration to travel
M204 S3000
G1 X233.457 Y98.331 F9000
; decel to extrusion
M204 S1000
G1 X237.117 Y101.81
; end travel
G1 E0 F1800
G1 X237.117 Y88.092 E0.52137
G1 X236.609 Y88.092 E0.54067
G1 X236.609 Y101.613 E1.05456
G1 X236.101 Y101.613 E1.07387
G1 X236.101 Y88.092 E1.58776
G1 X235.593 Y88.092 E1.60706
G1 X235.593 Y98.613 E2.00694
G1 X235.086 Y98.613 E2.02624
G1 X235.086 Y88.092 E2.42612
G1 X234.578 Y88.092 E2.44542
G1 X234.578 Y98.613 E2.8453
G1 X234.07 Y98.613 E2.8646
G1 X234.07 Y88.092 E3.26448
G1 X233.562 Y88.092 E3.28378
G1 X233.562 Y98.613 E3.68366
G1 X233.054 Y98.613 E3.70296
G1 X233.054 Y88.092 E4.10284
G1 X232.546 Y88.092 E4.12214
G1 X232.546 Y98.613 E4.52201
G1 X232.038 Y98.613 E4.54132
G1 X232.038 Y88.092 E4.94119
G1 X231.53 Y88.092 E4.9605
G1 X231.53 Y98.613 E5.36037
G1 X231.023 Y98.613 E5.37967
G1 X231.023 Y88.092 E5.77955
G1 X230.515 Y88.092 E5.79885
G1 X230.515 Y98.613 E6.19873
G1 X230.007 Y98.613 E6.21803
G1 X230.007 Y88.092 E6.61791
G1 X229.499 Y88.092 E6.63721
G1 X229.499 Y98.613 E7.03709
G1 X228.991 Y98.613 E7.05639
G1 X228.991 Y88.092 E7.45627
G1 X228.483 Y88.092 E7.47557
G1 X228.483 Y98.613 E7.87545
G1 X227.975 Y98.613 E7.89475
G1 X227.975 Y88.092 E8.29463
G1 X227.468 Y88.092 E8.31393
G1 X227.468 Y98.613 E8.7138
G1 X226.96 Y98.613 E8.73311
G1 X226.96 Y88.092 E9.13298
G1 X226.452 Y88.092 E9.15229
G1 X226.452 Y98.613 E9.55216
G1 X225.944 Y98.613 E9.57146
G1 X225.944 Y88.092 E9.97134
G1 X225.436 Y88.092 E9.99064
G1 X225.436 Y98.613 E10.39052
G1 X224.928 Y98.613 E10.40982
G1 X224.928 Y88.092 E10.8097
G1 X224.42 Y88.092 E10.829
G1 X224.42 Y98.613 E11.22888
G1 X224.21 Y98.613 E11.23685
G1 X224.21 Y101.458 E11.34497
G1 X224.244 Y101.539 E11.34828
G1 X224.244 Y101.613 E11.35113
G1 X223.912 Y101.613 E11.36372
G1 X223.912 Y88.092 E11.87761
G1 X223.405 Y88.092 E11.89692
G1 X223.405 Y101.613 E12.41081
G1 X222.897 Y101.613 E12.43011
G1 X222.897 Y87.896 E12.95148
G92 E0
G1 E-0.8 F2400
; acceleration to travel
M204 S3000
G1 X183.667 Y147.154 F9000
; decel to extrusion
M204 S1000
G1 X170.591 Y166.907
; end travel
G1 E0 F1800
;TYPE:Internal perimeter
G1 X172.65 Y164.695 E0.11488
G1 X174.07 Y163.271 E0.19131
G1 X175.538 Y161.896 E0.26775
G1 X177.052 Y160.572 E0.34418
G1 X178.61 Y159.301 E0.42061
G1 X180.211 Y158.084 E0.49705
G1 X182.808 Y156.246 E0.61795
G1 X182.023 Y153.779 E0.71635
G1 X168.279 Y153.779 E1.23872
G1 X168.279 Y166.188 E1.71035
G1 X170.461 Y167.047 E1.79947
G1 X170.591 Y166.907 E1.80671
G1 X170.22 Y166.461 F9000
G1 F1800
G1 X170.338 Y166.507 E1.81153
G1 X172.321 Y164.378 E1.92211
G1 X173.752 Y162.943 E1.99913
G1 X175.231 Y161.557 E2.07616
G1 X176.757 Y160.223 E2.15319
G1 X178.327 Y158.942 E2.23022
G1 X179.941 Y157.715 E2.30725
G1 X182.271 Y156.066 E2.41574
G1 X181.689 Y154.236 E2.48874
G1 X168.736 Y154.236 E2.98103
G1 X168.736 Y165.877 E3.42345
G1 X170.22 Y166.461 E3.48408
G1 X170.157 Y165.945 F9000
G1 F1800
G1 X170.216 Y165.968 E3.4865
G1 X171.992 Y164.061 E3.58554
G1 X173.434 Y162.614 E3.66316
G1 X174.925 Y161.218 E3.74078
G1 X176.462 Y159.874 E3.8184
G1 X178.045 Y158.583 E3.89603
G1 X179.67 Y157.347 E3.97365
G1 X181.734 Y155.886 E4.06974
G1 X181.355 Y154.693 E4.11732
G1 X169.193 Y154.693 E4.57954
G1 X169.193 Y165.565 E4.99276
G1 X170.157 Y165.945 E5.03213
G1 X170.094 Y165.429 F9000
;TYPE:External perimeter
G1 F1800
G1 X171.663 Y163.743 E5.11964
G1 X173.116 Y162.286 E5.19786
G1 X174.618 Y160.879 E5.27607
G1 X176.167 Y159.525 E5.35429
G1 X177.762 Y158.224 E5.43251
G1 X179.4 Y156.978 E5.51072
G1 X181.197 Y155.706 E5.5944
G1 X181.02 Y155.15 E5.61658
G1 X169.65 Y155.15 E6.04873
G1 X169.65 Y165.254 E6.43274
G1 X170.094 Y165.429 E6.45086
;WIPE_START
M204 S4000
G1 X170.418 Y165.662 F9000
;WIPE_END
G92 E0
G1 E-0.8 F2400
; acceleration to travel
M204 S3000
G1 X163.895 Y156.75 F9000
; decel to extrusion
M204 S1000
G1 X161.721 Y153.779
; end travel
G1 E0 F1800
;TYPE:Internal perimeter
G1 X147.977 Y153.779 E0.52237
G1 X147.192 Y156.246 E0.62078
G1 X149.789 Y158.084 E0.74167
G1 X151.39 Y159.301 E0.81811
G1 X152.948 Y160.572 E0.89455
G1 X154.462 Y161.896 E0.97098
G1 X155.93 Y163.271 E1.04741
G1 X157.35 Y164.695 E1.12385
G1 X159.539 Y167.047 E1.24596
G1 X161.721 Y166.188 E1.33508
G1 X161.721 Y153.779 E1.80671
G1 X161.264 Y154.236 F9000
G1 F1800
G1 X148.311 Y154.236 E2.299
G1 X147.729 Y156.066 E2.372
G1 X150.059 Y157.715 E2.48049
G1 X151.673 Y158.942 E2.55752
G1 X153.243 Y160.223 E2.63455
G1 X154.769 Y161.557 E2.71158
G1 X156.248 Y162.943 E2.7886
G1 X157.679 Y164.378 E2.86563
G1 X159.662 Y166.507 E2.97621
G1 X161.264 Y165.877 E3.04166
G1 X161.264 Y154.236 E3.48408
G1 X160.807 Y154.693 F9000
G1 F1800
G1 X148.645 Y154.693 E3.9463
G1 X148.266 Y155.886 E3.99389
G1 X150.33 Y157.347 E4.08997
G1 X151.955 Y158.583 E4.1676
G1 X153.538 Y159.874 E4.24522
G1 X155.075 Y161.218 E4.32284
G1 X156.566 Y162.614 E4.40047
G1 X158.008 Y164.061 E4.47809
G1 X159.784 Y165.968 E4.57713
G1 X160.807 Y165.565 E4.61892
G1 X160.807 Y154.693 E5.03213
G1 X160.35 Y155.15 F9000
;TYPE:External perimeter
G1 F1800
G1 X148.98 Y155.15 E5.46428
G1 X148.803 Y155.706 E5.48646
M73 P1 R109
G1 X150.6 Y156.978 E5.57013
G1 X152.238 Y158.224 E5.64835
G1 X153.833 Y159.525 E5.72657
G1 X155.382 Y160.879 E5.80479
G1 X156.884 Y162.286 E5.883
G1 X158.337 Y163.743 E5.96122
G1 X159.906 Y165.429 E6.04873
G1 X160.35 Y165.254 E6.06685
G1 X160.35 Y155.15 E6.45086
;WIPE_START
M204 S4000
G1 X160.35 Y154.75 F9000
;WIPE_END
G92 E0
G1 E-0.8 F2400
; acceleration to travel
M204 S3000
G1 X117.547 Y117.619 F9000
; decel to extrusion
M204 S1000
G1 X103.279 Y105.241
; end travel
G1 E0 F1800
;TYPE:Internal perimeter
G1 X103.279 Y127.53 E0.84709
G1 X103.324 Y128.846 E0.89716
G1 X103.461 Y130.186 E0.94834
G1 X103.69 Y131.513 E0.99952
G1 X104.009 Y132.821 E1.0507
G1 X104.417 Y134.105 E1.10189
G1 X104.911 Y135.357 E1.15307
G1 X105.489 Y136.574 E1.20425
G1 X106.149 Y137.747 E1.25543
G1 X106.888 Y138.874 E1.30662
G1 X107.701 Y139.947 E1.3578
G1 X108.586 Y140.962 E1.40898
G1 X109.539 Y141.914 E1.46016
G1 X110.554 Y142.799 E1.51134
G1 X111.627 Y143.613 E1.56253
