; HEADER_BLOCK_START
; generated by OrcaSlicer 1.6.3 on 2023-07-20 at 08:03:15
; total layer number: 220
; HEADER_BLOCK_END

; THUMBNAIL_BLOCK_START
; THUMBNAIL_BLOCK_END

; external perimeters extrusion width = 0.40mm
; perimeters extrusion width = 0.45mm
; infill extrusion width = 0.45mm
; solid infill extrusion width = 0.40mm
; top infill extrusion width = 0.40mm
; first layer extrusion width = 0.50mm

; EXECUTABLE_BLOCK_START
EXCLUDE_OBJECT_DEFINE NAME=LongboardHangerV1.stl_id_0_copy_0 CENTER=165,165 POLYGON=[[95,83.5001],[235,83.5001],[235,128],[234.957,129.542],[234.827,131.079],[234.611,132.607],[234.311,134.119],[233.925,135.613],[233.457,137.083],[232.907,138.524],[232.277,139.932],[188.266,232.105],[187.554,233.435],[186.766,234.721],[185.905,235.959],[184.973,237.145],[183.975,238.276],[182.912,239.346],[181.789,240.353],[180.609,241.293],[179.377,242.163],[178.097,242.96],[176.773,243.682],[175.409,244.326],[174.009,244.889],[172.58,245.371],[171.125,245.768],[169.65,246.081],[168.158,246.308],[166.657,246.447],[165.149,246.5],[163.641,246.465],[162.138,246.342],[160.644,246.133],[159.165,245.837],[157.706,245.456],[156.271,244.991],[154.865,244.444],[153.494,243.816],[152.161,243.109],[150.872,242.327],[149.63,241.471],[148.44,240.544],[147.306,239.55],[146.231,238.492],[145.219,237.373],[144.274,236.198],[143.398,234.97],[142.596,233.693],[141.868,232.371],[97.7234,139.932],[97.0933,138.524],[96.5432,137.083],[96.0748,135.613],[95.6895,134.119],[95.3885,132.607],[95.1729,131.079],[95.0433,129.542],[95,128],[95,83.5001]]
M73 P0 R72
;TYPE:Custom
START_PRINT T_BED=60 T_EXTRUDER=220
G90
G21
M83 ; use relative distances for extrusion
; filament start gcode

    PRESSURE_ADVANCE_SELECT FILAMENT=PLA
M106 S0
;LAYER_CHANGE
;Z:0.2
;HEIGHT:0.2
;BEFORE_LAYER_CHANGE
;0.2
G92 E0

M204 S1000
G1 E-.8 F3000
G1 X93.552 Y100.991 F9000
G1 Z.2
G1 E.8 F1800
;TYPE:Skirt
;WIDTH:0.5
G1 F3000
G1 X95 Y100.606 E.0558
G1 X235 Y100.606 E5.21447
G1 X236.462 Y100.999 E.05638
G1 X237.529 Y102.072 E.05638
G1 X237.914 Y103.52 E.0558
G1 X237.914 Y128 E.91179
G1 X237.861 Y129.787 E.06658
G1 X237.497 Y133.014 E.12095
G1 X237.132 Y134.847 E.06963
G1 X236.233 Y137.968 E.12095
G1 X234.906 Y141.188 E.12971
G1 X190.896 Y233.361 E3.80437
G1 X190.039 Y234.957 E.06749
G1 X188.297 Y237.623 E.11861
G1 X186.158 Y240.205 E.12489
G1 X184.857 Y241.516 E.06877
G1 X182.426 Y243.572 E.11861
G1 X179.637 Y245.434 E.12489
G1 X178.016 Y246.318 E.06877
G1 X174.94 Y247.651 E.12489
G1 X171.893 Y248.579 E.11861
G1 X170.087 Y248.962 E.06877
G1 X166.758 Y249.36 E.12489
G1 X163.573 Y249.378 E.11861
G1 X160.241 Y249.019 E.12483
G1 X158.429 Y248.657 E.06883
G1 X155.373 Y247.763 E.11861
G1 X152.281 Y246.465 E.12489
G1 X150.65 Y245.601 E.06877
G1 X149.218 Y244.726 E.06247
G1 X146.65 Y242.844 E.11861
G1 X145.261 Y241.627 E.06877
G1 X144.069 Y240.447 E.06247
G1 X141.901 Y237.889 E.12489
G1 X140.128 Y235.244 E.11861
G1 X139.315 Y233.777 E.06247
G1 X94.371 Y139.563 E3.88794
G1 X93.298 Y136.498 E.12095
G1 X92.831 Y134.688 E.06963
G1 X92.286 Y131.47 E.12158
G1 X92.13 Y129.624 E.06899
G1 X92.086 Y103.52 E.97227
G1 X92.479 Y102.058 E.05638
G1 X93.51 Y101.033 E.05415
G1 X93.836 Y101.411 F9000
G1 F3000
G1 X93.985 Y101.282 E.00735
G1 X95 Y101.063 E.03866
G1 X235 Y101.063 E5.21447
G1 X236.331 Y101.455 E.05169
G1 X237.238 Y102.505 E.05169
G1 X237.457 Y103.52 E.03866
G1 X237.456 Y128.069 E.91435
G1 X237.275 Y131.286 E.12
G1 X237.021 Y133.086 E.06772
G1 X236.304 Y136.227 E.12
G1 X235.752 Y137.959 E.06772
G1 X234.494 Y140.991 E.12226
G1 X190.484 Y233.164 E3.80437
G1 X189.649 Y234.719 E.06571
G1 X187.922 Y237.362 E.11762
G1 X185.816 Y239.903 E.12292
G1 X184.552 Y241.175 E.06679
G1 X182.027 Y243.3 E.12292
G1 X179.396 Y245.046 E.11762
G1 X177.821 Y245.904 E.06679
G1 X174.794 Y247.218 E.12292
G1 X171.773 Y248.138 E.11762
G1 X170.019 Y248.51 E.06679
G1 X166.742 Y248.903 E.12292
G1 X163.584 Y248.921 E.11762
G1 X160.304 Y248.566 E.12287
G1 X158.545 Y248.214 E.06684
G1 X155.514 Y247.328 E.11762
G1 X152.471 Y246.05 E.12292
G1 X150.887 Y245.21 E.06679
G1 X148.236 Y243.494 E.11762
G1 X146.931 Y242.483 E.06149
G1 X145.686 Y241.398 E.06149
G1 X144.408 Y240.14 E.06679
G1 X142.273 Y237.624 E.12292
G1 X140.515 Y235 E.11762
G1 X139.716 Y233.556 E.06149
G1 X94.798 Y139.4 E3.88558
G1 X93.734 Y136.359 E.12
G1 X93.28 Y134.599 E.06772
G1 X92.738 Y131.406 E.12062
G1 X92.587 Y129.611 E.06709
G1 X92.543 Y103.52 E.97179
G1 X92.935 Y102.189 E.05169
G1 X93.791 Y101.45 E.0421
; printing object LongboardHangerV1.stl id:0 copy 0
EXCLUDE_OBJECT_START NAME=LongboardHangerV1.stl_id_0_copy_0
G1 E-.8
G1 X169.683 Y182.301 F9000
G1 E.8 F1800
;TYPE:Outer wall
;WIDTH:0.499999
G1 F3000
G1 X169.677 Y182.312 E.00048
G1 X169.65 Y182.421 E.00416
G1 X169.65 Y190.454 E.29919
G1 X169.691 Y191.166 E.02656
G1 X169.809 Y191.859 E.02622
G1 X170.014 Y192.565 E.02737
G1 X170.34 Y193.316 E.03049
G1 X170.608 Y193.804 E.02075
G1 X171.029 Y194.399 E.02712
G1 X171.621 Y195.038 E.03246
G1 X171.999 Y195.381 E.01902
G1 X172.57 Y195.794 E.02621
G1 X173.252 Y196.17 E.02902
G1 X175.199 Y196.965 E.07834
G1 X176.547 Y197.596 E.05542
G1 X177.855 Y198.304 E.05542
G1 X179.121 Y199.087 E.05542
G1 X180.326 Y199.933 E.05486
G1 X181.505 Y200.866 E.05598
G1 X182.616 Y201.856 E.05542
G1 X183.667 Y202.909 E.05542
G1 X184.656 Y204.021 E.05542
G1 X185.578 Y205.189 E.05542
G1 X186.432 Y206.407 E.05542
G1 X187.22 Y207.687 E.05598
G1 X187.919 Y208.984 E.05487
G1 X188.548 Y210.332 E.05542
G1 X189.098 Y211.715 E.05542
G1 X189.567 Y213.127 E.05542
G1 X189.953 Y214.564 E.05542
G1 X190.256 Y216.021 E.05542
G1 X190.473 Y217.493 E.05542
G1 X190.604 Y218.975 E.05542
G1 X190.65 Y220.462 E.05542
G1 X190.609 Y221.95 E.05542
G1 X190.483 Y223.417 E.05486
G1 X190.269 Y224.905 E.05598
G1 X189.971 Y226.363 E.05542
G1 X189.589 Y227.801 E.05542
G1 X189.124 Y229.215 E.05542
G1 X188.578 Y230.599 E.05542
G1 X187.953 Y231.949 E.05542
G1 X187.25 Y233.261 E.05542
G1 X186.473 Y234.529 E.05542
G1 X185.623 Y235.751 E.05542
G1 X184.704 Y236.921 E.05542
G1 X183.719 Y238.036 E.05542
G1 X182.671 Y239.092 E.05542
G1 X181.563 Y240.086 E.05542
G1 X180.399 Y241.013 E.05542
G1 X179.184 Y241.871 E.05542
G1 X177.921 Y242.658 E.05542
G1 X176.614 Y243.37 E.05542
G1 X175.268 Y244.005 E.05542
G1 X173.888 Y244.561 E.05542
G1 X172.478 Y245.036 E.05542
G1 X171.043 Y245.428 E.05542
G1 X169.587 Y245.737 E.05542
G1 X168.116 Y245.96 E.05542
G1 X166.634 Y246.098 E.05542
G1 X165.147 Y246.15 E.05542
G1 X163.66 Y246.115 E.05542
G1 X162.191 Y245.995 E.05486
G1 X160.703 Y245.787 E.05598
G1 X159.244 Y245.496 E.05542
G1 X157.804 Y245.12 E.05542
G1 X156.389 Y244.661 E.05542
G1 X155.002 Y244.121 E.05542
G1 X153.649 Y243.502 E.05542
G1 X152.334 Y242.805 E.05542
G1 X151.062 Y242.033 E.05542
G1 X149.837 Y241.188 E.05542
G1 X148.663 Y240.274 E.05542
G1 X147.544 Y239.294 E.05542
G1 X146.483 Y238.25 E.05542
G1 X145.485 Y237.146 E.05542
G1 X144.553 Y235.987 E.05542
G1 X143.689 Y234.775 E.05542
G1 X142.897 Y233.515 E.05542
G1 X142.18 Y232.212 E.05542
G1 X141.539 Y230.869 E.05542
G1 X140.977 Y229.491 E.05542
G1 X140.552 Y228.246 E.049
G1 X140.42 Y227.731 E.01981
G1 X140.424 Y227.192 E.02005
G1 X140.548 Y226.668 E.02005
G1 X140.811 Y226.198 E.02006
G1 X141.171 Y225.799 E.02004
G1 X141.627 Y225.515 E.02001
G1 X142.152 Y225.334 E.02065
G1 X144.098 Y224.953 E.07387
G1 X144.63 Y224.921 E.01985
G1 X145.142 Y225.002 E.01932
G1 X145.615 Y225.216 E.01932
G1 X146.03 Y225.526 E.01932
G1 X146.348 Y225.936 E.01932
G1 X146.579 Y226.423 E.02007
G1 X147.02 Y227.65 E.04856
G1 X147.316 Y228.329 E.02761
G1 X147.547 Y228.856 E.02141
G1 X148.155 Y230.023 E.04902
G1 X148.842 Y231.146 E.04902
G1 X149.593 Y232.207 E.04844
G1 X150.435 Y233.239 E.04959
G1 X151.334 Y234.199 E.04901
G1 X152.276 Y235.077 E.04795
G1 X153.318 Y235.926 E.05007
G1 X154.394 Y236.685 E.04902
G1 X155.505 Y237.36 E.04844
G1 X156.687 Y237.973 E.04959
G1 X157.894 Y238.498 E.04902
G1 X158.507 Y238.717 E.02426
G1 X159.544 Y239.055 E.04061
G1 X160.401 Y239.295 E.03314
G1 X161.687 Y239.564 E.04895
G1 X162.977 Y239.744 E.0485
G1 X164.048 Y239.82 E.04
G1 X164.305 Y239.838 E.00959
G1 X165.621 Y239.84 E.04902
G1 X167.312 Y239.702 E.06319
G1 X168.238 Y239.577 E.03482
G1 X169.512 Y239.317 E.04844
G1 X170.793 Y238.963 E.04948
G1 X172.037 Y238.525 E.04913
G1 X173.246 Y238.005 E.04902
G1 X174.705 Y237.231 E.06152
G1 X175.544 Y236.725 E.03649
G1 X176.61 Y235.98 E.04844
G1 X177.647 Y235.145 E.04959
G1 X178.604 Y234.26 E.04853
G1 X179.516 Y233.294 E.0495
G1 X180.353 Y232.278 E.04902
G1 X181.118 Y231.207 E.04902
G1 X181.8 Y230.1 E.04844
G1 X182.421 Y228.922 E.04959
G1 X182.953 Y227.719 E.04902
G1 X183.191 Y227.064 E.02593
G1 X183.533 Y226.029 E.04061
G1 X183.763 Y225.23 E.03097
G1 X184.043 Y223.931 E.0495
G1 X184.232 Y222.63 E.04894
G1 X184.333 Y221.316 E.04909
G1 X184.343 Y220 E.04902
G1 X184.305 Y219.35 E.02426
G1 X184.211 Y218.264 E.04061
G1 X184.099 Y217.394 E.03265
G1 X183.841 Y216.092 E.04944
G1 X183.498 Y214.823 E.04898
G1 X183.069 Y213.576 E.04911
G1 X182.556 Y212.364 E.04902
G1 X181.775 Y210.874 E.06267
G1 X181.291 Y210.058 E.03534
G1 X180.552 Y208.987 E.04844
G1 X179.774 Y208.007 E.04663
G1 X178.836 Y206.973 E.05198
G1 X177.885 Y206.064 E.04902
G1 X176.59 Y205.016 E.06204
G1 X175.808 Y204.45 E.03597
G1 X174.693 Y203.753 E.04897
G1 X173.531 Y203.132 E.04906
G1 X172.331 Y202.593 E.04902
G1 X171.455 Y202.268 E.03479
G1 X170.66 Y202.007 E.03118
G1 X169.835 Y201.764 E.03201
G1 X168.55 Y201.479 E.04905
G1 X167.249 Y201.281 E.04902
G1 X165.267 Y201.098 E.07412
G1 X164.603 Y200.943 E.0254
G1 X163.963 Y200.709 E.0254
G1 X163.356 Y200.399 E.0254
G1 X162.79 Y200.018 E.0254
G1 X162.274 Y199.572 E.0254
G1 X161.816 Y199.067 E.0254
G1 X161.422 Y198.511 E.0254
G1 X161.101 Y197.917 E.02513
G1 X160.848 Y197.276 E.02566
G1 X160.674 Y196.606 E.02578
G1 X160.35 Y194.951 E.0628
G1 X160.35 Y182.421 E.46672
G1 X160.323 Y182.312 E.00416
G1 X159.318 Y180.447 E.07889
G1 X158.243 Y178.633 E.07855
G1 X157.098 Y176.873 E.07819
G1 X156.328 Y175.789 E.04954
G1 X155.882 Y175.162 E.02866
G1 X154.597 Y173.502 E.07819
G1 X153.244 Y171.897 E.0782
G1 X151.832 Y170.356 E.07784
G1 X150.37 Y168.885 E.07724
G1 X148.807 Y167.436 E.07939
G1 X147.206 Y166.073 E.0783
G1 X145.553 Y164.778 E.0782
G1 X143.848 Y163.553 E.07819
G1 X142.094 Y162.4 E.0782
G1 X140.294 Y161.319 E.07819
G1 X138.451 Y160.314 E.0782
G1 X136.568 Y159.385 E.07819
G1 X134.649 Y158.535 E.0782
G1 X132.705 Y157.769 E.07784
G1 X130.713 Y157.076 E.07855
G1 X128.703 Y156.47 E.0782
G1 X126.679 Y155.948 E.07784
G1 X124.626 Y155.509 E.0782
G1 X122.551 Y155.154 E.07842
G1 X120.978 Y155.107 E.05861
G1 X119.46 Y154.979 E.05672
G1 X117.952 Y154.766 E.05672
G1 X116.459 Y154.469 E.05672
G1 X114.984 Y154.089 E.05672
G1 X113.533 Y153.626 E.05672
G1 X112.11 Y153.083 E.05672
G1 X110.72 Y152.461 E.05672
G1 X109.367 Y151.762 E.05672
G1 X108.055 Y150.989 E.05672
G1 X106.789 Y150.142 E.05672
G1 X105.572 Y149.227 E.05672
G1 X104.409 Y148.244 E.05672
G1 X103.302 Y147.198 E.05672
G1 X102.256 Y146.091 E.05672
G1 X101.273 Y144.928 E.05672
G1 X100.358 Y143.711 E.05672
G1 X99.512 Y142.445 E.05672
G1 X98.731 Y141.119 E.05729
G1 X98.039 Y139.78 E.05615
G1 X97.417 Y138.39 E.05672
G1 X96.874 Y136.967 E.05672
G1 X96.411 Y135.516 E.05672
G1 X96.031 Y134.042 E.05672
G1 X95.734 Y132.548 E.05672
G1 X95.52 Y131.025 E.05729
G1 X95.393 Y129.522 E.05615
G1 X95.35 Y127.995 E.05691
G1 X95.35 Y103.87 E.89857
G1 X104.65 Y103.87 E.34639
G1 X104.65 Y127.502 E.88021
G1 X104.693 Y128.76 E.04688
G1 X104.822 Y130.006 E.04667
G1 X105.035 Y131.241 E.04667
G1 X105.436 Y132.784 E.05939
G1 X105.712 Y133.652 E.03393
G1 X106.172 Y134.818 E.04667
G1 X106.711 Y135.949 E.04667
G1 X107.505 Y137.314 E.05882
G1 X108.006 Y138.078 E.03403
G1 X108.771 Y139.087 E.04713
G1 X109.595 Y140.031 E.04667
G1 X110.705 Y141.112 E.05772
G1 X111.425 Y141.739 E.03555
G1 X112.424 Y142.496 E.04671
G1 X113.472 Y143.183 E.04667
G1 X114.811 Y143.913 E.0568
G1 X115.695 Y144.333 E.03644
G1 X116.862 Y144.793 E.04675
G1 X118.054 Y145.171 E.04655
G1 X118.62 Y145.309 E.02171
G1 X119.536 Y145.513 E.03496
G1 X120.507 Y145.68 E.03669
G1 X121.743 Y145.807 E.04628
G1 X122.998 Y145.85 E.04676
G1 X207.01 Y145.85 E3.12912
G1 X208.244 Y145.808 E.04601
G1 X209.491 Y145.68 E.04667
G1 X210.729 Y145.467 E.04679
G1 X212.284 Y145.064 E.05985
G1 X213.152 Y144.788 E.03393
G1 X214.318 Y144.328 E.04667
G1 X215.449 Y143.789 E.04667
G1 X216.813 Y142.996 E.05877
G1 X217.578 Y142.494 E.03408
G1 X218.586 Y141.729 E.04713
G1 X219.531 Y140.906 E.04667
G1 X220.612 Y139.795 E.05772
G1 X221.239 Y139.075 E.03555
G1 X221.984 Y138.092 E.04595
G1 X222.683 Y137.028 E.04743
G1 X222.973 Y136.512 E.02204
G1 X223.413 Y135.689 E.03476
G1 X223.833 Y134.806 E.03644
G1 X224.293 Y133.638 E.04675
G1 X224.671 Y132.446 E.04655
G1 X225.013 Y130.964 E.05666
G1 X225.18 Y129.993 E.03669
G1 X225.308 Y128.745 E.04675
G1 X225.35 Y127.502 E.0463
G1 X225.35 Y103.87 E.88021
G1 X234.65 Y103.87 E.34639
G1 X234.65 Y108.52 E.17319
G1 X234.65 Y127.995 E.72537
G1 X234.607 Y129.522 E.05691
G1 X234.479 Y131.04 E.05672
G1 X234.266 Y132.548 E.05672
G1 X233.969 Y134.042 E.05672
G1 X233.589 Y135.516 E.05672
G1 X233.126 Y136.967 E.05672
G1 X232.583 Y138.39 E.05672
G1 X231.961 Y139.78 E.05672
G1 X231.262 Y141.133 E.05672
G1 X230.488 Y142.445 E.05672
G1 X229.642 Y143.711 E.05672
G1 X228.727 Y144.928 E.05672
G1 X227.744 Y146.091 E.05672
G1 X226.698 Y147.198 E.05672
G1 X225.591 Y148.244 E.05672
G1 X224.428 Y149.227 E.05672
G1 X223.198 Y150.151 E.05729
G1 X221.945 Y150.989 E.05615
G1 X220.633 Y151.762 E.05672
G1 X219.28 Y152.461 E.05672
G1 X217.89 Y153.083 E.05672
G1 X216.467 Y153.626 E.05672
G1 X215.016 Y154.089 E.05672
G1 X213.541 Y154.469 E.05672
G1 X212.048 Y154.766 E.05672
G1 X210.525 Y154.981 E.05729
G1 X209.022 Y155.107 E.05615
G1 X207.449 Y155.154 E.05861
G1 X205.383 Y155.507 E.07807
G1 X203.342 Y155.944 E.07776
M73 P0 R71
G1 X201.297 Y156.47 E.07862
G1 X199.287 Y157.076 E.0782
G1 X197.295 Y157.769 E.07855
G1 X195.351 Y158.535 E.07784
G1 X193.423 Y159.389 E.07855
G1 X191.54 Y160.318 E.07819
G1 X190.317 Y160.986 E.0519
G1 X189.697 Y161.324 E.0263
G1 X187.898 Y162.405 E.07819
G1 X186.163 Y163.546 E.07736
G1 X184.442 Y164.782 E.07891
G1 X182.786 Y166.079 E.07832
G1 X181.195 Y167.434 E.07784
G1 X179.655 Y168.86 E.0782
G1 X178.169 Y170.354 E.07847
G1 X177.018 Y171.611 E.06346
G1 X176.75 Y171.904 E.01481
G1 X175.397 Y173.51 E.0782
G1 X174.112 Y175.17 E.07819
G1 X172.896 Y176.881 E.0782
G1 X171.757 Y178.633 E.07784
G1 X170.686 Y180.439 E.0782
G1 X169.712 Y182.248 E.07653
G1 X169.681 Y182.301
G1 X169.273 Y182.108 F9000
;TYPE:Inner wall
G1 F3000
G1 X169.243 Y182.164 E.00235
G1 X169.193 Y182.421 E.00974
G1 X169.193 Y190.454 E.29919
G1 X169.24 Y191.241 E.02939
G1 X169.369 Y191.984 E.0281
G1 X169.591 Y192.738 E.02926
G1 X169.967 Y193.586 E.03454
G1 X170.234 Y194.066 E.02046
G1 X170.685 Y194.7 E.02901
G1 X171.313 Y195.376 E.03435
G1 X171.731 Y195.751 E.0209
G1 X172.344 Y196.191 E.0281
G1 X173.071 Y196.59 E.03091
G1 X175.017 Y197.385 E.07829
G1 X176.341 Y198.004 E.05443
G1 X177.626 Y198.7 E.05443
G1 X178.869 Y199.469 E.05443
G1 X180.053 Y200.3 E.05388
G1 X181.211 Y201.216 E.05499
G1 X182.302 Y202.188 E.05443
G1 X183.334 Y203.223 E.05443
G1 X184.305 Y204.315 E.05444
G1 X185.212 Y205.461 E.05443
G1 X186.049 Y206.659 E.05442
G1 X186.824 Y207.916 E.05499
G1 X187.511 Y209.189 E.05388
G1 X188.129 Y210.513 E.05443
G1 X188.669 Y211.871 E.05443
G1 X189.129 Y213.258 E.05443
G1 X189.509 Y214.67 E.05444
G1 X189.805 Y216.101 E.05443
G1 X190.019 Y217.546 E.05443
G1 X190.148 Y219.002 E.05443
G1 X190.193 Y220.463 E.05443
G1 X190.152 Y221.924 E.05443
G1 X190.029 Y223.365 E.05388
G1 X189.818 Y224.827 E.05499
G1 X189.526 Y226.258 E.05443
G1 X189.151 Y227.671 E.05443
G1 X188.694 Y229.059 E.05444
G1 X188.158 Y230.419 E.05443
G1 X187.544 Y231.745 E.05443
G1 X186.854 Y233.033 E.05443
G1 X186.09 Y234.279 E.05444
G1 X185.256 Y235.479 E.05443
G1 X184.353 Y236.629 E.05443
G1 X183.385 Y237.724 E.05443
G1 X182.356 Y238.761 E.05443
G1 X181.268 Y239.736 E.05443
G1 X180.125 Y240.647 E.05444
G1 X178.931 Y241.49 E.05443
G1 X177.69 Y242.263 E.05443
