; generated by SuperSlicer 2.5.59 on 2023-07-20 at 15:22:14 UTC


;
;

;
;
; 

; external perimeters extrusion width = 0.40mm
; perimeters extrusion width = 0.46mm
; infill extrusion width = 0.64mm
; solid infill extrusion width = 0.56mm
; top infill extrusion width = 0.40mm
; support material extrusion width = 0.46mm
; first layer extrusion width = 0.50mm

; object:{"name":"LongboardHangerV1","id":"LongboardHangerV1.stl id:0 copy 0","object_center":[165.000000,165.000100,0.000000],"boundingbox_center":[165.000000,165.000100,22.000000],"boundingbox_size":[140.000000,162.999573,44.000000]}
EXCLUDE_OBJECT_DEFINE NAME=LongboardHangerV1_stl_id_0_copy_0 CENTER=165.000000,165.000100 POLYGON=[[95.000000,201.999888],[95.043264,200.457952],[95.172912,198.920864],[95.388552,197.393456],[95.689480,195.880576],[96.074776,194.386912],[96.543208,192.917216],[97.093312,191.476112],[97.723360,190.068080],[141.733696,97.894744],[142.445808,96.565128],[143.233808,95.279040],[144.095056,94.040800],[145.026672,92.854600],[146.025488,91.724408],[147.088160,90.654040],[148.211120,89.647096],[149.390576,88.706952],[150.622576,87.836800],[151.902960,87.039544],[153.227408,86.317880],[154.591472,85.674224],[155.990576,85.110760],[157.419984,84.629368],[158.874912,84.231664],[160.350464,83.919008],[161.841648,83.692440],[163.343456,83.552720],[164.850864,83.500320],[166.358752,83.535424],[167.862080,83.657896],[169.355760,83.867344],[170.834800,84.163056],[172.294192,84.544040],[173.729040,85.008992],[175.134512,85.556384],[176.505856,86.184344],[177.838512,86.890760],[179.127952,87.673280],[180.369840,88.529240],[181.560016,89.455784],[182.694448,90.449784],[183.769328,91.507888],[184.781056,92.626552],[185.726208,93.801984],[186.601616,95.030256],[187.404320,96.307224],[188.131616,97.628584],[232.276640,190.068080],[232.906672,191.476112],[233.456784,192.917216],[233.925232,194.386912],[234.310512,195.880576],[234.611456,197.393456],[234.827088,198.920864],[234.956720,200.457952],[235.000000,201.999888],[235.000000,246.499888],[95.000000,246.499888],[95.000000,201.999888]]
; plater:{"center":[165.000000,165.000100,0.000000],"boundingbox_center":[165.000000,165.000100,22.000000],"boundingbox_size":[140.000000,162.999573,44.000000]}

M73 P0 R74
;TYPE:Custom
; custom gcode: start_gcode
START_PRINT T_BED=60 T_EXTRUDER=210
; custom gcode end: start_gcode
M107
G21 ; set units to millimeters
G90 ; use absolute coordinates
M82 ; use absolute distances for extrusion
G92 E0
; custom gcode: start_filament_gcode
; Filament gcode

    PRESSURE_ADVANCE_SELECT FILAMENT=PLA
; custom gcode end: start_filament_gcode
;_TOOLCHANGE 0
M109 S210 ; set temperature and wait for it to be reached
M190 S60 ; set bed temperature and wait for it to be reached
;LAYER_CHANGE
;Z:0.2
;HEIGHT:0.2
G1 Z0.2 F9000
G1 E-0.8 F2400
M204 S1000
G1 X140.149 Y93.393 F9000
G1 E0 F1800
;TYPE:Skirt
;WIDTH:0.52
G1 X138.47 Y96.338 E0.13451
G1 X94.422 Y188.594 E4.18997
G1 X93.714 Y190.189 E4.25921
G1 X92.631 Y193.286 E4.38937
G1 X92.189 Y194.975 E4.4586
G1 X91.808 Y196.891 E4.5361
G1 X91.573 Y198.586 E4.60397
G1 X88.779 Y228.418 E5.79257
G1 X88.763 Y242.219 E6.34005
G1 X89.5 Y244.44 E6.43288
G1 X90.812 Y245.54 E6.50081
G1 X92.479 Y245.934 E6.56874
G1 X237.521 Y245.934 E12.32249
G1 X239.742 Y245.197 E12.41532
G1 X240.842 Y243.885 E12.48325
G1 X241.237 Y242.219 E12.55118
G1 X241.221 Y228.418 E13.09866
G1 X238.427 Y198.586 E14.28726
G1 X238.157 Y196.685 E14.3634
G1 X237.427 Y193.487 E14.49356
G1 X236.834 Y191.625 E14.57105
G1 X235.578 Y188.594 E14.70121
G1 X191.396 Y96.073 E18.76847
G1 X189.664 Y93.109 E18.90466
G1 X187.601 Y90.363 E19.0409
G1 X185.233 Y87.875 E19.17715
G1 X182.593 Y85.678 E19.31339
G1 X181.001 Y84.581 E19.39009
G1 X179.529 Y83.695 E19.45824
G1 X176.444 Y82.186 E19.59448
G1 X173.205 Y81.045 E19.73073
G1 X169.855 Y80.286 E19.86697
G1 X168.153 Y80.054 E19.93512
G1 X165.312 Y79.894 E20.04799
G1 X163.221 Y79.939 E20.13097
G1 X161.51 Y80.092 E20.19912
G1 X158.128 Y80.694 E20.33536
G1 X154.839 Y81.683 E20.4716
G1 X153.243 Y82.319 E20.53975
G1 X151.495 Y83.144 E20.61645
G1 X149.989 Y83.972 E20.6846
G1 X147.307 Y85.752 E20.81231
G1 X144.677 Y87.96 E20.94855
G1 X143.462 Y89.175 E21.0167
G1 X142.181 Y90.624 E21.0934
G1 X140.149 Y93.393 E21.22965
G1 X140.556 Y93.642 F9000
G1 F1800
G1 X138.901 Y96.544 E21.36218
G1 X94.857 Y188.789 E25.41718
M73 P1 R73
G1 X94.16 Y190.359 E25.48535
G1 X93.085 Y193.431 E25.61445
G1 X92.651 Y195.094 E25.68262
G1 X92.28 Y196.958 E25.758
G1 X92.048 Y198.63 E25.82499
G1 X89.254 Y228.462 E27.01358
G1 X89.24 Y242.219 E27.5593
G1 X89.759 Y243.978 E27.63205
G1 X90.931 Y245.063 E27.69541
G1 X92.479 Y245.457 E27.75877
G1 X237.521 Y245.457 E33.51252
G1 X239.28 Y244.938 E33.58528
G1 X240.366 Y243.767 E33.64864
G1 X240.76 Y242.219 E33.712
G1 X240.746 Y228.462 E34.25771
G1 X237.952 Y198.63 E35.4463
G1 X237.689 Y196.778 E35.5205
G1 X236.965 Y193.606 E35.64959
G1 X236.388 Y191.795 E35.72497
G1 X235.143 Y188.789 E35.85407
G1 X190.965 Y96.279 E39.92085
G1 X189.26 Y93.362 E40.05485
G1 X187.229 Y90.662 E40.1889
G1 X184.898 Y88.215 E40.32295
G1 X182.3 Y86.054 E40.457
G1 X180.911 Y85.091 E40.52406
G1 X179.306 Y84.116 E40.59856
G1 X176.271 Y82.631 E40.73261
G1 X173.084 Y81.507 E40.86666
G1 X169.789 Y80.759 E41.00071
G1 X168.114 Y80.529 E41.06776
G1 X165.301 Y80.371 E41.17953
G1 X163.237 Y80.416 E41.26141
G1 X161.554 Y80.567 E41.32847
G1 X158.227 Y81.161 E41.46252
G1 X156.416 Y81.656 E41.53702
G1 X154.815 Y82.201 E41.60407
G1 X151.723 Y83.563 E41.73812
G1 X150.242 Y84.377 E41.80517
G1 X147.582 Y86.142 E41.93178
G1 X144.995 Y88.315 E42.06583
G1 X142.677 Y90.774 E42.19988
G1 X141.629 Y92.1 E42.26694
G1 X140.556 Y93.642 E42.34144
G92 E0
G1 E-0.8 F2400
; printing object LongboardHangerV1.stl id:0 copy 0
EXCLUDE_OBJECT_START NAME=LongboardHangerV1_stl_id_0_copy_0
; acceleration to travel
M204 S3000
G1 X204.06 Y195.607 F9000
; decel to extrusion
M204 S1000
G1 X225.228 Y229.595
; end travel
G1 E0 F1800
;TYPE:Support material interface
;WIDTH:0.5
G1 X234.772 Y229.595 E0.3627
G1 X234.772 Y231.057 E0.41825
G1 X225.228 Y231.057 E0.78095
G1 X225.228 Y229.595 E0.8365
G92 E0
G1 E-0.8 F2400
; acceleration to travel
M204 S3000
G1 X232.3 Y229.904 F9000
; decel to extrusion
M204 S1000
G1 X234.657 Y230.007
; end travel
G1 E0 F1800
G1 X225.539 Y230.007 E0.34654
G1 X225.539 Y230.515 E0.36585
G1 X234.657 Y230.515 E0.71239
G92 E0
G1 E-0.8 F2400
; acceleration to travel
M204 S3000
G1 X137.243 Y230.515 F9000
; decel to extrusion
M204 S1000
G1 X104.772 Y230.515
; end travel
G1 E0 F1800
G1 X104.772 Y231.057 E0.0206
G1 X95.228 Y231.057 E0.3833
G1 X95.228 Y229.595 E0.43885
G1 X104.772 Y229.595 E0.80155
G1 X104.772 Y230.515 E0.8365
G1 X104.657 Y230.007 F9000
G1 F1800
G1 X95.539 Y230.007 E1.18304
G1 X95.539 Y230.515 E1.20234
G1 X104.657 Y230.515 E1.54889
G1 X105.479 Y230.515 F9000
;TYPE:Support material
G1 F1800
G1 X105.479 Y228.764 E1.61543
G1 X107.521 Y228.764 E1.69307
G1 X107.521 Y242.219 E2.20443
G1 X92.479 Y242.219 E2.77615
G1 X92.479 Y239.489 E2.8799
G1 X92.479 Y228.764 E3.28751
G1 X94.521 Y228.764 E3.36515
G1 X94.521 Y231.764 E3.47917
G1 X105.479 Y231.764 E3.89563
G1 X105.479 Y230.515 E3.94311
; acceleration to travel
M204 S3000
G1 X106.697 Y239.207 F9000
; decel to extrusion
M204 S1000
G1 X107.103 Y242.104
; end travel
G1 F1800
G1 X107.103 Y229.075 E4.43831
G1 X106.595 Y229.075 E4.45761
G1 X106.595 Y241.908 E4.94535
G1 X106.088 Y241.908 E4.96465
G1 X106.088 Y229.075 E5.45238
G1 X105.789 Y229.075 E5.46371
G1 X105.79 Y232.075 E5.57773
G1 X105.58 Y232.075 E5.58571
G1 X105.58 Y241.908 E5.95942
G1 X105.072 Y241.908 E5.97873
G1 X105.072 Y232.075 E6.35244
G1 X104.564 Y232.075 E6.37174
G1 X104.564 Y241.908 E6.74546
G1 X104.056 Y241.908 E6.76476
G1 X104.056 Y232.075 E7.13848
G1 X103.548 Y232.075 E7.15778
G1 X103.548 Y241.908 E7.53149
G1 X103.04 Y241.908 E7.55079
G1 X103.04 Y232.075 E7.92451
G1 X102.532 Y232.075 E7.94381
G1 X102.532 Y241.908 E8.31753
G1 X102.025 Y241.908 E8.33683
G1 X102.025 Y232.075 E8.71054
G1 X101.517 Y232.075 E8.72985
G1 X101.517 Y241.908 E9.10356
G1 X101.009 Y241.908 E9.12286
G1 X101.009 Y232.075 E9.49658
G1 X100.501 Y232.075 E9.51588
G1 X100.501 Y241.908 E9.88959
G1 X99.993 Y241.908 E9.9089
G1 X99.993 Y232.075 E10.28261
G1 X99.485 Y232.075 E10.30191
G1 X99.485 Y241.908 E10.67563
G1 X98.977 Y241.908 E10.69493
G1 X98.977 Y232.075 E11.06865
G1 X98.47 Y232.075 E11.08795
G1 X98.47 Y241.908 E11.46166
G1 X97.962 Y241.908 E11.48097
G1 X97.962 Y232.075 E11.85468
G1 X97.454 Y232.075 E11.87398
G1 X97.454 Y241.908 E12.2477
G1 X96.946 Y241.908 E12.267
G1 X96.946 Y232.075 E12.64071
G1 X96.438 Y232.075 E12.66002
G1 X96.438 Y241.908 E13.03373
G1 X95.93 Y241.908 E13.05303
G1 X95.93 Y232.075 E13.42675
G1 X95.422 Y232.075 E13.44605
G1 X95.422 Y241.908 E13.81977
G1 X94.914 Y241.908 E13.83907
G1 X94.914 Y232.075 E14.21278
G1 X94.407 Y232.075 E14.23208
G1 X94.407 Y241.908 E14.6058
G1 X93.899 Y241.908 E14.6251
G1 X93.899 Y229.075 E15.11284
G1 X93.391 Y229.075 E15.13214
G1 X93.391 Y241.908 E15.61987
G1 X92.883 Y241.908 E15.63917
G1 X92.883 Y228.878 E16.13438
G92 E0
G1 E-0.8 F2400
; acceleration to travel
M204 S3000
G1 X190.08 Y228.878 F9000
; decel to extrusion
M204 S1000
G1 X222.479 Y228.878
; end travel
G1 E0 F1800
G1 X222.479 Y228.764 E0.00434
G1 X224.521 Y228.764 E0.08198
G1 X224.521 Y231.764 E0.196
G1 X235.479 Y231.764 E0.61246
G1 X235.479 Y228.764 E0.72648
G1 X237.521 Y228.764 E0.80412
G1 X237.521 Y242.219 E1.31548
G1 X222.479 Y242.219 E1.8872
G1 X222.479 Y239.489 E1.99095
G1 X222.479 Y228.878 E2.39422
G92 E0
G1 E-0.8 F2400
; acceleration to travel
M204 S3000
G1 X233.457 Y238.798 F9000
; decel to extrusion
M204 S1000
G1 X237.117 Y242.104
; end travel
G1 E0 F1800
G1 X237.117 Y229.075 E0.4952
G1 X236.609 Y229.075 E0.51451
G1 X236.609 Y241.908 E1.00224
G1 X236.101 Y241.908 E1.02154
G1 X236.101 Y229.075 E1.50927
G1 X235.789 Y229.075 E1.52112
G1 X235.79 Y232.075 E1.63514
G1 X235.593 Y232.075 E1.6426
G1 X235.593 Y241.908 E2.01631
G1 X235.086 Y241.908 E2.03562
G1 X235.086 Y232.075 E2.40933
G1 X234.578 Y232.075 E2.42863
G1 X234.578 Y241.908 E2.80235
G1 X234.07 Y241.908 E2.82165
G1 X234.07 Y232.075 E3.19536
G1 X233.562 Y232.075 E3.21466
G1 X233.562 Y241.908 E3.58838
G1 X233.054 Y241.908 E3.60768
G1 X233.054 Y232.075 E3.9814
M73 P1 R73
G1 X232.546 Y232.075 E4.0007
G1 X232.546 Y241.908 E4.37441
G1 X232.038 Y241.908 E4.39371
G1 X232.038 Y232.075 E4.76743
G1 X231.53 Y232.075 E4.78673
G1 X231.53 Y241.908 E5.16044
G1 X231.023 Y241.908 E5.17975
G1 X231.023 Y232.075 E5.55346
G1 X230.515 Y232.075 E5.57276
G1 X230.515 Y241.908 E5.94648
G1 X230.007 Y241.908 E5.96578
G1 X230.007 Y232.075 E6.33949
G1 X229.499 Y232.075 E6.3588
G1 X229.499 Y241.908 E6.73251
G1 X228.991 Y241.908 E6.75181
G1 X228.991 Y232.075 E7.12553
G1 X228.483 Y232.075 E7.14483
G1 X228.483 Y241.908 E7.51854
G1 X227.975 Y241.908 E7.53784
G1 X227.975 Y232.075 E7.91156
G1 X227.468 Y232.075 E7.93086
G1 X227.468 Y241.908 E8.30458
G1 X226.96 Y241.908 E8.32388
G1 X226.96 Y232.075 E8.69759
G1 X226.452 Y232.075 E8.71689
G1 X226.452 Y241.908 E9.09061
G1 X225.944 Y241.908 E9.10991
G1 X225.944 Y232.075 E9.48362
G1 X225.436 Y232.075 E9.50293
G1 X225.436 Y241.908 E9.87664
G1 X224.928 Y241.908 E9.89594
G1 X224.928 Y232.075 E10.26966
G1 X224.42 Y232.075 E10.28896
G1 X224.42 Y241.908 E10.66267
G1 X223.912 Y241.908 E10.68198
G1 X223.912 Y229.075 E11.16971
G1 X223.405 Y229.075 E11.18901
G1 X223.405 Y241.908 E11.67674
G1 X222.897 Y241.908 E11.69605
G1 X222.897 Y228.878 E12.19125
G92 E0
G1 E-0.8 F2400
; acceleration to travel
M204 S3000
G1 X224.737 Y226.817 F9000
; decel to extrusion
M204 S1000
G1 X225.35 Y226.13
; end travel
G1 E0 F1800
;TYPE:External perimeter
G1 X225.35 Y202.494 E0.89832
G1 X225.307 Y201.248 E0.94571
G1 X225.179 Y200.001 E0.99333
G1 X224.966 Y198.766 E1.04096
G1 X224.67 Y197.549 E1.08858
G1 X224.291 Y196.355 E1.1362
G1 X223.831 Y195.189 E1.18382
G1 X223.293 Y194.058 E1.23144
G1 X222.679 Y192.965 E1.27906
G1 X221.992 Y191.918 E1.32669
G1 X221.234 Y190.919 E1.37431
G1 X220.411 Y189.975 E1.42193
G1 X219.525 Y189.089 E1.46955
G1 X219.207 Y188.812 E1.48558
G1 X218.581 Y188.265 E1.51717
G1 X217.582 Y187.508 E1.56479
G1 X216.534 Y186.821 E1.61242
G1 X215.442 Y186.207 E1.66004
G1 X214.311 Y185.669 E1.70766
G1 X213.145 Y185.209 E1.75528
G1 X211.951 Y184.83 E1.8029
G1 X210.733 Y184.533 E1.85052
G1 X209.499 Y184.321 E1.89815
G1 X208.252 Y184.192 E1.94577
G1 X207.006 Y184.15 E1.99316
G1 X122.994 Y184.15 E5.18615
G1 X121.748 Y184.192 E5.23354
G1 X120.501 Y184.321 E5.28116
G1 X119.267 Y184.533 E5.32878
G1 X118.049 Y184.83 E5.37641
G1 X116.855 Y185.209 E5.42403
G1 X115.689 Y185.669 E5.47165
G1 X114.558 Y186.207 E5.51927
G1 X113.466 Y186.821 E5.56689
G1 X112.418 Y187.508 E5.61451
G1 X111.419 Y188.265 E5.66214
G1 X110.475 Y189.089 E5.70976
G1 X109.589 Y189.975 E5.75738
G1 X108.766 Y190.919 E5.805
G1 X108.008 Y191.918 E5.85262
G1 X107.321 Y192.965 E5.90024
G1 X106.707 Y194.058 E5.94787
G1 X106.169 Y195.189 E5.99549
G1 X105.709 Y196.355 E6.04311
G1 X105.33 Y197.549 E6.09073
G1 X105.034 Y198.766 E6.13835
G1 X104.821 Y200.001 E6.18597
G1 X104.693 Y201.248 E6.2336
G1 X104.65 Y202.494 E6.28099
G1 X104.65 Y226.13 E7.17931
G1 X95.35 Y226.13 E7.53277
G1 X95.35 Y202.005 E8.44967
G1 X95.393 Y200.478 E8.50774
G1 X95.521 Y198.96 E8.56562
G1 X95.734 Y197.452 E8.6235
G1 X96.031 Y195.958 E8.68138
G1 X96.411 Y194.484 E8.73926
G1 X96.874 Y193.033 E8.79714
G1 X97.417 Y191.61 E8.85502
G1 X98.039 Y190.22 E8.9129
G1 X98.738 Y188.867 E8.97078
G1 X99.512 Y187.555 E9.02866
G1 X100.358 Y186.289 E9.08654
G1 X101.273 Y185.072 E9.14442
G1 X102.256 Y183.909 E9.2023
G1 X103.302 Y182.802 E9.26018
G1 X104.409 Y181.756 E9.31806
G1 X105.572 Y180.773 E9.37594
G1 X106.489 Y180.083 E9.41954
G1 X106.789 Y179.858 E9.43382
G1 X108.055 Y179.011 E9.4917
G1 X109.367 Y178.238 E9.54958
G1 X110.72 Y177.539 E9.60746
G1 X112.11 Y176.917 E9.66534
G1 X113.533 Y176.374 E9.72322
G1 X114.984 Y175.911 E9.7811
G1 X116.459 Y175.531 E9.83898
G1 X117.952 Y175.234 E9.89686
G1 X119.46 Y175.021 E9.95474
G1 X120.978 Y174.893 E10.01262
G1 X122.535 Y174.849 E10.07182
G1 X124.621 Y174.492 E10.15228
G1 X126.674 Y174.053 E10.23207
G1 X128.707 Y173.529 E10.31186
G1 X130.717 Y172.922 E10.39165
G1 X132.7 Y172.233 E10.47144
G1 X134.653 Y171.463 E10.55123
G1 X136.573 Y170.613 E10.63102
G1 X138.456 Y169.684 E10.71081
G1 X140.299 Y168.679 E10.79061
G1 X142.099 Y167.598 E10.8704
G1 X143.852 Y166.444 E10.95019
G1 X145.557 Y165.219 E11.02998
G1 X147.21 Y163.924 E11.10977
G1 X148.168 Y163.108 E11.15759
G1 X148.808 Y162.563 E11.18956
G1 X150.349 Y161.136 E11.26935
G1 X151.829 Y159.648 E11.34914
G1 X153.247 Y158.1 E11.42894
G1 X154.6 Y156.494 E11.50873
G1 X154.859 Y156.159 E11.52485
G1 X155.885 Y154.834 E11.58852
G1 X157.101 Y153.123 E11.66831
G1 X158.245 Y151.363 E11.7481
G1 X159.316 Y149.557 E11.82789
G1 X160.35 Y147.637 E11.91076
G1 X160.35 Y139.54 E12.21849
G1 X160.312 Y138.847 E12.24488
G1 X160.195 Y138.153 E12.27163
G1 X160.002 Y137.476 E12.29838
G1 X159.736 Y136.824 E12.32514
G1 X159.399 Y136.206 E12.35189
G1 X158.996 Y135.629 E12.37864
M73 P2 R72
G1 X158.531 Y135.1 E12.4054
G1 X158.271 Y134.863 E12.41877
G1 X158.011 Y134.626 E12.43215
G1 X157.441 Y134.213 E12.4589
G1 X156.827 Y133.863 E12.48578
G1 X154.802 Y133.035 E12.5689
G1 X153.453 Y132.404 E12.62551
G1 X152.145 Y131.696 E12.68206
G1 X150.879 Y130.913 E12.73861
G1 X149.661 Y130.058 E12.79517
G1 X148.495 Y129.134 E12.85172
G1 X147.384 Y128.144 E12.90827
G1 X146.592 Y127.351 E12.95088
G1 X146.333 Y127.091 E12.96483
G1 X145.344 Y125.979 E13.02138
G1 X144.422 Y124.812 E13.07793
G1 X143.568 Y123.592 E13.13449
G1 X142.787 Y122.326 E13.19104
G1 X142.081 Y121.016 E13.24759
G1 X141.452 Y119.668 E13.30414
G1 X140.902 Y118.285 E13.3607
G1 X140.433 Y116.873 E13.41725
G1 X140.047 Y115.436 E13.4738
G1 X139.744 Y113.979 E13.53036
G1 X139.527 Y112.507 E13.58691
G1 X139.396 Y111.025 E13.64346
G1 X139.35 Y109.538 E13.70002
G1 X139.391 Y108.05 E13.75657
G1 X139.518 Y106.568 E13.81312
G1 X139.731 Y105.095 E13.86967
G1 X140.029 Y103.637 E13.92623
G1 X140.411 Y102.199 E13.98278
