; generated by SuperSlicer 2.5.59 on 2023-03-10 at 21:42:30 UTC


;
;

;
;
; 

; external perimeters extrusion width = 0.40mm
; perimeters extrusion width = 0.46mm
; infill extrusion width = 0.64mm
; solid infill extrusion width = 0.56mm
; top infill extrusion width = 0.40mm
; support material extrusion width = 0.46mm
; first layer extrusion width = 0.50mm

; object:{"name":"main_piece","id":"main_piece.stl id:0 copy 0","object_center":[165.000001,165.000000,0.000000],"boundingbox_center":[165.000001,165.000000,12.065001],"boundingbox_size":[114.934998,26.644600,24.130001]}
; plater:{"center":[165.000001,165.000000,0.000000],"boundingbox_center":[165.000001,165.000000,12.065001],"boundingbox_size":[114.934998,26.644600,24.130001]}

M73 P0 R53


; Pre-Processed for Cancel-Object support by preprocess_cancellation v0.2.0
; 1 known objects
EXCLUDE_OBJECT_DEFINE NAME=main_piece_stl_id_0_copy_0 CENTER=137.284,165.012 POLYGON=[[105.01,149.156],[105.01,180.844],[222.267,180.844],[222.267,149.156]]
;TYPE:Custom
; custom gcode: start_gcode
START_PRINT T_BED=70 T_EXTRUDER=235
; custom gcode end: start_gcode
M107
G21 ; set units to millimeters
G90 ; use absolute coordinates
M82 ; use absolute distances for extrusion
G92 E0
; custom gcode: start_filament_gcode
; Filament gcode
PRESSURE_ADVANCE_SELECT FILAMENT=PETG
; custom gcode end: start_filament_gcode
;_TOOLCHANGE 0
M109 S235 ; set temperature and wait for it to be reached
M190 S70 ; set bed temperature and wait for it to be reached
;LAYER_CHANGE
;Z:0.2
;HEIGHT:0.2
G1 Z0.2 F9000
G1 E-1 F3000
M204 S1000
G1 X109.22 Y149.272 F9000
G1 E0 F1800
;TYPE:Skirt
;WIDTH:0.52
G1 X108.207 Y150.074 E0.04819
G1 X106.784 Y151.41 E0.12095
G1 X105.403 Y153.003 E0.19958
G1 X104.646 Y154.05 E0.24777
G1 X103.561 Y155.86 E0.32646
G1 X102.665 Y157.809 E0.40645
G1 X101.996 Y159.812 E0.48517
G1 X101.574 Y161.711 E0.55771
G1 X101.33 Y163.842 E0.63771
G1 X101.319 Y165.955 E0.71649
G1 X101.425 Y167.244 E0.7647
G1 X101.78 Y169.328 E0.84354
G1 X102.303 Y171.197 E0.91593
G1 X103.079 Y173.16 E0.99462
G1 X103.655 Y174.316 E1.04281
G1 X104.781 Y176.147 E1.12296
G1 X106.075 Y177.816 E1.20169
G1 X107.566 Y179.357 E1.28165
G1 X109.029 Y180.585 E1.35289
G1 X110.809 Y181.79 E1.43303
G1 X111.939 Y182.416 E1.48122
G1 X113.68 Y183.204 E1.55246
G1 X115.713 Y183.881 E1.63238
G1 X116.938 Y184.173 E1.67933
G1 X118.858 Y184.468 E1.75177
G1 X120.196 Y184.559 E1.80177
G1 X131.193 Y184.559 E2.21182
G1 X210.209 Y181.907 E5.15994
M73 P0 R52
G1 X212.431 Y181.62 E5.24349
G1 X215.186 Y180.829 E5.35038
G1 X217.769 Y179.584 E5.45728
G1 X220.103 Y177.921 E5.56417
G1 X222.124 Y175.887 E5.67106
G1 X223.772 Y173.542 E5.77795
G1 X225 Y170.952 E5.88485
G1 X225.773 Y168.192 E5.99173
G1 X226.07 Y165.284 E6.10074
G1 X225.88 Y162.429 E6.20741
G1 X225.21 Y159.642 E6.3143
G1 X225 Y159.048 E6.33778
G1 X223.772 Y156.458 E6.44467
G1 X222.124 Y154.113 E6.55157
G1 X220.103 Y152.079 E6.65846
G1 X217.769 Y150.416 E6.76535
G1 X215.771 Y149.406 E6.84883
G1 X213.047 Y148.513 E6.95572
G1 X209.856 Y148.064 E7.07585
G1 X131.02 Y145.441 E10.01722
M73 P0 R52
G1 X120.196 Y145.441 E10.42084
G1 X119.06 Y145.512 E10.46328
G1 X116.739 Y145.868 E10.55084
G1 X115.711 Y146.12 E10.59032
G1 X113.866 Y146.723 E10.66271
G1 X111.939 Y147.584 E10.74139
G1 X110.809 Y148.211 E10.78959
G1 X109.22 Y149.272 E10.86083
G1 X109.496 Y149.661 F9000
G1 F1800
G1 X108.524 Y150.431 E10.90709
G1 X107.12 Y151.749 E10.97886
G1 X105.774 Y153.304 E11.05556
G1 X105.047 Y154.309 E11.10181
G1 X103.987 Y156.074 E11.17857
G1 X103.112 Y157.975 E11.25662
G1 X102.459 Y159.928 E11.33341
G1 X102.042 Y161.801 E11.40497
G1 X101.806 Y163.881 E11.48303
G1 X101.796 Y165.942 E11.55987
G1 X101.898 Y167.179 E11.60614
G1 X102.243 Y169.212 E11.68304
G1 X102.759 Y171.056 E11.75446
G1 X103.516 Y172.97 E11.83121
G1 X104.07 Y174.08 E11.87746
G1 X105.069 Y175.724 E11.94921
G1 X106.314 Y177.361 E12.02589
G1 X107.751 Y178.877 E12.10376
G1 X108.658 Y179.681 E12.14898
G1 X110.337 Y180.929 E12.227
G1 X111.997 Y181.908 E12.29884
G1 X113.865 Y182.765 E12.37547
G1 X115.033 Y183.181 E12.42172
G1 X117.023 Y183.704 E12.49846
G1 X118.918 Y183.995 E12.56994
G1 X120.196 Y184.082 E12.61771
G1 X131.193 Y184.082 E13.02776
G1 X210.148 Y181.434 E15.97359
G1 X212.37 Y181.147 E16.05714
G1 X215.046 Y180.373 E16.16103
G1 X217.553 Y179.158 E16.26491
G1 X219.819 Y177.538 E16.3688
G1 X221.779 Y175.557 E16.47268
G1 X223.376 Y173.275 E16.57656
G1 X224.565 Y170.755 E16.68045
G1 X225.312 Y168.071 E16.78433
G1 X225.595 Y165.244 E16.89029
G1 X225.404 Y162.47 E16.99398
G1 X224.748 Y159.762 E17.09787
G1 X223.376 Y156.725 E17.22213
G1 X221.779 Y154.443 E17.32602
G1 X219.819 Y152.462 E17.4299
G1 X218.021 Y151.13 E17.51338
G1 X215.555 Y149.832 E17.61726
G1 X212.906 Y148.969 E17.72115
G1 X209.841 Y148.541 E17.83658
G1 X131.02 Y145.918 E20.77735
G1 X120.196 Y145.918 E21.18098
G1 X119.094 Y145.988 E21.22216
G1 X116.85 Y146.332 E21.3068
G1 X114.027 Y147.173 E21.41666
G1 X112.148 Y148.013 E21.49341
G1 X111.063 Y148.614 E21.53967
G1 X109.496 Y149.661 E21.60994
G92 E0
G1 E-1 F3000
; printing object main_piece.stl id:0 copy 0
EXCLUDE_OBJECT_START NAME=main_piece_stl_id_0_copy_0
; acceleration to travel
M204 S3000
G1 X110.9 Y151.643 F9000
; decel to extrusion
M204 S1000
G1 X111.368 Y152.304
; end travel
G1 E0 F1800
;TYPE:Support material
;WIDTH:0.5
G1 X111.703 Y152.067 E0.01467
G1 X112.063 Y151.811 E0.03045
G1 X112.788 Y151.355 E0.06104
G1 X113.564 Y150.926 E0.09274
G1 X114.33 Y150.553 E0.12317
G1 X115.118 Y150.222 E0.15369
G1 X115.921 Y149.934 E0.18417
G1 X116.499 Y149.762 E0.20572
G1 X116.772 Y149.681 E0.21588
G1 X117.603 Y149.482 E0.24641
G1 X118.443 Y149.329 E0.27692
G1 X119.324 Y149.218 E0.30862
G1 X119.63 Y149.196 E0.31961
G1 X119.857 Y149.18 E0.32772
G1 X120.196 Y149.156 E0.33988
G1 X131.02 Y149.156 E0.72658
G1 X131.61 Y150.999 E0.79571
G1 X130.052 Y150.999 E0.8514
G1 X130.003 Y151.002 E0.85312
G1 X129.806 Y151.027 E0.86022
G1 X129.56 Y151.057 E0.86908
G1 X129.542 Y151.062 E0.86975
G1 X129.466 Y151.081 E0.87254
G1 X129.034 Y151.25 E0.88914
G1 X128.949 Y151.296 E0.89259
G1 X128.57 Y151.566 E0.90919
G1 X128.499 Y151.631 E0.91264
G1 X128.199 Y151.986 E0.92924
G1 X128.146 Y152.067 E0.93269
G1 X127.942 Y152.484 E0.94929
G1 X127.926 Y152.53 E0.95102
G1 X127.91 Y152.575 E0.95275
G1 X127.815 Y153.03 E0.96935
G1 X127.807 Y153.126 E0.9728
G1 X127.825 Y153.591 E0.9894
G1 X127.833 Y153.638 E0.99112
G1 X127.841 Y153.686 E0.99285
G1 X127.974 Y154.131 E1.00945
G1 X127.995 Y154.181 E1.01139
G1 X128.012 Y154.22 E1.0129
G1 X128.113 Y154.389 E1.01993
G1 X128.25 Y154.619 E1.0295
G1 X128.309 Y154.696 E1.03295
G1 X128.616 Y155.003 E1.04847
G1 X128.627 Y155.013 E1.04901
G1 X128.951 Y155.314 E1.06481
G1 X129.271 Y155.61 E1.08039
G1 X129.591 Y155.907 E1.09598
G1 X129.911 Y156.204 E1.11157
G1 X130.19 Y156.462 E1.12516
G1 X130.423 Y156.763 E1.13876
G1 X131.225 Y157.797 E1.18552
G1 X131.459 Y158.098 E1.19912
G1 X131.64 Y158.433 E1.21271
G1 X131.847 Y158.817 E1.2283
G1 X132.055 Y159.201 E1.24389
G1 X132.262 Y159.584 E1.25947
G1 X132.443 Y159.919 E1.27307
G1 X132.567 Y160.279 E1.28666
G1 X132.993 Y161.517 E1.33343
G1 X133.117 Y161.876 E1.34702
G1 X133.181 Y162.252 E1.36062
G1 X133.399 Y163.542 E1.40738
G1 X133.463 Y163.917 E1.42097
G1 X133.464 Y164.298 E1.43457
G1 X133.466 Y164.734 E1.45016
G1 X133.467 Y165.17 E1.46574
G1 X133.469 Y165.607 E1.48133
G1 X133.47 Y165.987 E1.49493
G1 X133.41 Y166.363 E1.50852
G1 X133.34 Y166.794 E1.52411
G1 X133.271 Y167.224 E1.5397
G1 X133.201 Y167.655 E1.55528
G1 X133.14 Y168.031 E1.56888
G1 X133.019 Y168.392 E1.58248
G1 X132.602 Y169.632 E1.62924
G1 X132.481 Y169.993 E1.64283
G1 X132.303 Y170.329 E1.65643
G1 X132.098 Y170.715 E1.67202
G1 X131.894 Y171.1 E1.6876
G1 X131.689 Y171.485 E1.70319
G1 X131.511 Y171.821 E1.71679
G1 X131.28 Y172.124 E1.73038
G1 X131.066 Y172.404 E1.74298
G1 X131.015 Y172.471 E1.74597
G1 X130.75 Y172.818 E1.76156
G1 X130.486 Y173.164 E1.77714
G1 X130.255 Y173.467 E1.79074
G1 X129.977 Y173.728 E1.80433
G1 X129.024 Y174.625 E1.85109
G1 X128.717 Y174.914 E1.86617
G1 X128.61 Y175.007 E1.87124
G1 X128.402 Y175.186 E1.88102
G1 X128.353 Y175.24 E1.88363
G1 X128.337 Y175.258 E1.88448
G1 X128.071 Y175.64 E1.90113
G1 X128.026 Y175.725 E1.90459
G1 X127.94 Y175.952 E1.91324
G1 X127.861 Y176.161 E1.92124
G1 X127.839 Y176.256 E1.9247
G1 X127.787 Y176.719 E1.94134
G1 X127.788 Y176.816 E1.94481
G1 X127.852 Y177.277 E1.96145
G1 X127.877 Y177.371 E1.96492
G1 X128.052 Y177.802 E1.98156
G1 X128.1 Y177.887 E1.98503
G1 X128.376 Y178.262 E2.00167
G1 X128.443 Y178.333 E2.00513
G1 X128.635 Y178.491 E2.01404
G1 X128.803 Y178.628 E2.02178
G1 X128.867 Y178.669 E2.02451
G1 X128.885 Y178.68 E2.02524
G1 X129.084 Y178.773 E2.0331
G1 X129.307 Y178.878 E2.04189
G1 X129.399 Y178.908 E2.04535
G1 X129.848 Y178.994 E2.06169
G1 X129.892 Y178.998 E2.06327
G1 X129.922 Y179.001 E2.06433
G1 X131.603 Y179.001 E2.12441
G1 X131.193 Y180.844 E2.19186
G1 X120.196 Y180.844 E2.58472
G1 X119.324 Y180.782 E2.61597
G1 X119.12 Y180.756 E2.6233
G1 X118.678 Y180.7 E2.63923
G1 X118.443 Y180.671 E2.64767
G1 X118.13 Y180.614 E2.65906
G1 X117.603 Y180.518 E2.67818
G1 X117.244 Y180.432 E2.69137
G1 X116.773 Y180.319 E2.70869
G1 X115.956 Y180.077 E2.73911
G1 X115.12 Y179.779 E2.77081
G1 X114.331 Y179.447 E2.80141
G1 X113.932 Y179.253 E2.81724
G1 X113.92 Y179.247 E2.81773
G1 X113.565 Y179.075 E2.83184
G1 X112.788 Y178.645 E2.86354
G1 X112.063 Y178.188 E2.89418
G1 X111.874 Y178.055 E2.90243
G1 X111.339 Y177.675 E2.92588
G1 X110.671 Y177.144 E2.95635
G1 X110.031 Y176.577 E2.98691
G1 X109.401 Y175.952 E3.01862
G1 X108.828 Y175.32 E3.04907
G1 X108.29 Y174.657 E3.07959
G1 X107.789 Y173.967 E3.11006
G1 X107.635 Y173.728 E3.12022
G1 X107.308 Y173.221 E3.14176
G1 X106.993 Y172.668 E3.1645
G1 X106.883 Y172.476 E3.1724
G1 X106.633 Y171.973 E3.19248
G1 X106.488 Y171.682 E3.2041
G1 X106.293 Y171.232 E3.22162
G1 X106.149 Y170.9 E3.23453
G1 X105.852 Y170.099 E3.26504
G1 X105.6 Y169.284 E3.29553
G1 X105.597 Y169.272 E3.29598
G1 X105.384 Y168.423 E3.32723
G1 X105.378 Y168.392 E3.32839
G1 X105.222 Y167.584 E3.35776
G1 X105.216 Y167.54 E3.35935
G1 X105.172 Y167.219 E3.37096
G1 X105.106 Y166.738 E3.38827
G1 X105.033 Y165.854 E3.41999
G1 X105.01 Y165 E3.45048
G1 X105.027 Y164.396 E3.47209
G1 X105.029 Y164.321 E3.47478
G1 X105.033 Y164.146 E3.481
G1 X105.083 Y163.542 E3.50266
G1 X105.106 Y163.262 E3.51271
G1 X105.143 Y162.994 E3.52236
G1 X105.222 Y162.416 E3.54322
G1 X105.262 Y162.21 E3.55071
G1 X105.326 Y161.876 E3.56285
G1 X105.384 Y161.577 E3.57374
G1 X105.517 Y161.046 E3.5933
G1 X105.6 Y160.716 E3.60545
G1 X105.852 Y159.901 E3.63593
G1 X106.149 Y159.099 E3.66648
G1 X106.503 Y158.285 E3.69818
G1 X106.693 Y157.903 E3.71343
G1 X106.884 Y157.522 E3.72867
G1 X107.307 Y156.78 E3.75918
G1 X107.769 Y156.064 E3.78962
G1 X108.096 Y155.61 E3.8096
G1 X108.289 Y155.345 E3.82132
G1 X108.368 Y155.246 E3.82585
G1 X108.491 Y155.095 E3.83281
G1 X108.828 Y154.68 E3.8519
G1 X109.158 Y154.316 E3.86944
G1 X109.4 Y154.048 E3.88236
G1 X110.031 Y153.423 E3.91406
G1 X110.672 Y152.855 E3.94469
G1 X111.368 Y152.304 E3.97639
; acceleration to travel
M204 S3000
G1 X118.141 Y161.316 F9000
; decel to extrusion
M204 S1000
G1 X120.399 Y164.321
; end travel
G1 F1800
G1 X120.25 Y164.453 E3.98351
G1 X120.137 Y164.616 E3.99061
G1 X120.066 Y164.802 E3.99773
G1 X120.042 Y165 E4.00483
G1 X120.066 Y165.197 E4.01194
G1 X120.137 Y165.384 E4.01905
G1 X120.25 Y165.547 E4.02616
G1 X120.399 Y165.679 E4.03327
G1 X120.575 Y165.772 E4.04038
G1 X120.768 Y165.819 E4.0475
G1 X120.967 Y165.82 E4.0546
G1 X121.16 Y165.772 E4.06171
G1 X121.336 Y165.679 E4.06882
G1 X121.485 Y165.547 E4.07593
G1 X121.598 Y165.384 E4.08304
G1 X121.669 Y165.198 E4.09015
G1 X121.682 Y165.09 E4.09402
G1 X121.693 Y165 E4.09726
G1 X121.669 Y164.802 E4.10437
G1 X121.598 Y164.616 E4.11148
G1 X121.485 Y164.453 E4.11859
G1 X121.337 Y164.321 E4.1257
G1 X121.16 Y164.228 E4.13281
G1 X120.967 Y164.181 E4.13992
G1 X120.768 Y164.181 E4.14703
G1 X120.575 Y164.228 E4.15414
G1 X120.399 Y164.321 E4.16125
; acceleration to travel
M204 S3000
G1 X129.853 Y167.137 F9000
; decel to extrusion
M204 S1000
G1 X133.004 Y168.076
; end travel
G1 F1800
G1 X133.004 Y163.074 E4.33997
G1 X132.874 Y162.303 E4.36788
G1 X132.815 Y161.953 E4.38056
G1 X132.699 Y161.618 E4.39325
G1 X132.497 Y161.029 E4.41548
G1 X132.497 Y168.971 E4.6992
G1 X132.308 Y169.533 E4.72039
G1 X132.195 Y169.87 E4.73308
G1 X132.028 Y170.183 E4.74576
G1 X131.989 Y170.258 E4.74877
G1 X131.989 Y159.732 E5.1248
G1 X131.574 Y158.965 E5.15598
G1 X131.481 Y158.793 E5.16295
G1 X131.481 Y171.215 E5.60673
G1 X131.414 Y171.34 E5.61178
G1 X131.248 Y171.653 E5.62447
G1 X131.033 Y171.935 E5.63715
G1 X130.973 Y172.013 E5.64066
G1 X130.973 Y157.979 E6.14206
G1 X130.465 Y157.324 E6.17167
G1 X130.465 Y172.679 E6.72023
G1 X130.238 Y172.976 E6.73358
G1 X130.023 Y173.258 E6.74626
G1 X129.957 Y173.32 E6.74949
G1 X129.957 Y156.67 E7.34432
G1 X129.7 Y156.432 E7.35686
G1 X129.449 Y156.199 E7.36906
G1 X129.449 Y173.798 E7.99778
G1 X128.942 Y174.276 E8.02269
G1 X128.942 Y155.729 E8.68529
G1 X128.74 Y155.542 E8.69511
G1 X128.434 Y155.258 E8.71003
G1 X128.434 Y174.748 E9.40631
G1 X128.406 Y174.771 E9.4076
G1 X128.185 Y174.963 E9.41807
G1 X128.123 Y175.032 E9.42138
G1 X128.094 Y175.064 E9.42292
G1 X127.926 Y175.305 E9.4334
G1 X127.926 Y154.682 E10.17015
G1 X127.846 Y154.548 E10.17575
G1 X127.735 Y154.362 E10.18346
G1 X127.711 Y154.306 E10.18566
G1 X127.681 Y154.238 E10.18829
G1 X127.538 Y153.756 E10.20627
G1 X127.527 Y153.689 E10.20868
G1 X127.516 Y153.622 E10.2111
G1 X127.495 Y153.12 E10.22908
G1 X127.506 Y152.985 E10.23391
G1 X127.61 Y152.492 E10.25189
G1 X127.632 Y152.429 E10.2543
G1 X127.654 Y152.365 E10.25672
G1 X127.875 Y151.913 E10.2747
G1 X127.926 Y151.835 E10.278
G1 X127.926 Y149.467 E10.3626
G1 X128.434 Y149.467 E10.38075
G1 X128.434 Y151.282 E10.44557
G1 X128.784 Y151.032 E10.46093
G1 X128.903 Y150.967 E10.46577
G1 X128.942 Y150.952 E10.46726
G1 X128.942 Y149.467 E10.52031
G1 X129.449 Y149.467 E10.53846
G1 X129.449 Y150.765 E10.58482
G1 X129.466 Y150.761 E10.58542
G1 X129.503 Y150.751 E10.58678
G1 X129.768 Y150.718 E10.59633
G1 X129.957 Y150.695 E10.60315
G1 X129.957 Y149.467 E10.64701
G1 X130.465 Y149.467 E10.66515
G1 X130.465 Y150.688 E10.70879
G1 X130.973 Y150.688 E10.72693
G1 X130.973 Y149.383 E10.77355
G92 E0
G1 E-1 F3000
; acceleration to travel
M204 S3000
G1 X130.973 Y172.893 F9000
; decel to extrusion
M204 S1000
G1 X130.973 Y180.729
; end travel
G1 E0 F1800
G1 X130.973 Y179.312 E0.05065
G1 X130.465 Y179.312 E0.0688
G1 X130.465 Y180.533 E0.11243
G1 X129.957 Y180.533 E0.13057
G1 X129.957 Y179.312 E0.1742
G1 X129.907 Y179.312 E0.17601
G1 X129.863 Y179.307 E0.17759
G1 X129.804 Y179.302 E0.1797
G1 X129.449 Y179.234 E0.1926
G1 X129.449 Y180.533 E0.23901
G1 X128.942 Y180.533 E0.25715
G1 X128.942 Y179.05 E0.31014
G1 X128.735 Y178.953 E0.31828
G1 X128.702 Y178.932 E0.31971
G1 X128.621 Y178.881 E0.32313
G1 X128.434 Y178.727 E0.33177
G1 X128.434 Y180.533 E0.39628
G1 X127.926 Y180.533 E0.41442
G1 X127.926 Y177.795 E0.51225
; acceleration to travel
M204 S3000
G1 X127.545 Y179.996 F9000
; decel to extrusion
M204 S1000
G1 X127.418 Y180.729
; end travel
G1 F1800
G1 X127.418 Y149.467 E1.62913
G1 X126.91 Y149.467 E1.64728
G1 X126.91 Y180.533 E2.75713
G1 X126.402 Y180.533 E2.77528
G1 X126.402 Y149.467 E3.88514
G1 X125.894 Y149.467 E3.90328
G1 X125.894 Y180.533 E5.01314
G1 X125.386 Y180.533 E5.03128
G1 X125.386 Y149.467 E6.14114
G1 X124.879 Y149.467 E6.15928
G1 X124.879 Y180.533 E7.26914
G1 X124.371 Y180.533 E7.28729
G1 X124.371 Y149.467 E8.39714
M73 P1 R52
G1 X123.863 Y149.467 E8.41529
G1 X123.863 Y180.533 E9.52515
G1 X123.355 Y180.533 E9.54329
G1 X123.355 Y149.467 E10.65315
G1 X122.847 Y149.467 E10.67129
G1 X122.847 Y180.533 E11.78115
G1 X122.339 Y180.533 E11.7993
G1 X122.339 Y149.467 E12.90915
G1 X121.831 Y149.467 E12.9273
G1 X121.831 Y180.533 E14.03716
G1 X121.324 Y180.533 E14.0553
G1 X121.324 Y166.037 E14.57317
G1 X121.271 Y166.065 E14.57529
G1 X121.005 Y166.13 E14.58509
G1 X120.816 Y166.13 E14.59185
G1 X120.816 Y180.533 E15.10639
