; generated by SuperSlicer 2.5.59 on 2023-03-21 at 14:49:09 UTC


;
;

;
;
; 

; external perimeters extrusion width = 0.40mm
; perimeters extrusion width = 0.46mm
; infill extrusion width = 0.64mm
; solid infill extrusion width = 0.56mm
; top infill extrusion width = 0.40mm
; support material extrusion width = 0.46mm
; first layer extrusion width = 0.50mm

; object:{"name":"Middle ash tray insert V2_ v2","id":"Middle ash tray insert V2_ v2.stl id:0 copy 0","object_center":[165.000000,165.000000,0.000000],"boundingbox_center":[165.000000,165.000000,13.567500],"boundingbox_size":[78.992998,30.652500,27.135000]}
EXCLUDE_OBJECT_DEFINE NAME=Middle_ash_tray_insert_V2__v2_stl_id_0_copy_0 CENTER=165.000000,165.000000 POLYGON=[[125.503504,149.673760],[204.496496,149.673760],[204.496496,172.286912],[204.457792,173.074944],[204.342032,173.855376],[204.150336,174.620688],[203.884560,175.363520],[203.547248,176.076720],[203.141632,176.753424],[202.671664,177.387104],[202.141840,177.971648],[201.557264,178.501472],[200.923568,178.971424],[200.246864,179.377008],[199.533648,179.714304],[198.790784,179.980080],[198.025456,180.171776],[197.245008,180.287536],[196.456960,180.326256],[133.543048,180.326256],[132.754992,180.287536],[131.974552,180.171776],[131.209216,179.980080],[130.466352,179.714304],[129.753144,179.377008],[129.076432,178.971424],[128.442736,178.501472],[127.858160,177.971648],[127.328336,177.387104],[126.858368,176.753424],[126.452768,176.076720],[126.115448,175.363520],[125.849672,174.620688],[125.657976,173.855376],[125.542208,173.074944],[125.503504,172.286912],[125.503504,149.673760]]
; plater:{"center":[165.000000,165.000000,0.000000],"boundingbox_center":[165.000000,165.000000,13.567500],"boundingbox_size":[78.992998,30.652500,27.135000]}

M73 P0 R83
;TYPE:Custom
; custom gcode: start_gcode
START_PRINT T_BED=110 T_EXTRUDER=240
; custom gcode end: start_gcode
M107
G21 ; set units to millimeters
G90 ; use absolute coordinates
M82 ; use absolute distances for extrusion
G92 E0
; custom gcode: start_filament_gcode
; Filament gcode

    PRESSURE_ADVANCE_SELECT FILAMENT=ABS
; custom gcode end: start_filament_gcode
;_TOOLCHANGE 0
M109 S240 ; set temperature and wait for it to be reached
M190 S110 ; set bed temperature and wait for it to be reached
;LAYER_CHANGE
;Z:0.2
;HEIGHT:0.2
G1 Z0.2 F9000
G1 E-0.5 F3000
M204 S1000
G1 X123.219 Y146.806 F9000
M73 P0 R83
G1 E0 F1800
;TYPE:Skirt
;WIDTH:0.52
G1 X122.108 Y148.248 E0.06788
G1 X121.712 Y150.025 E0.13577
G1 X121.717 Y172.238 E0.96408
G1 X121.91 Y174.199 E1.03756
G1 X122.18 Y175.359 E1.08194
G1 X122.562 Y176.486 E1.12633
G1 X123.246 Y177.933 E1.18603
G1 X124.34 Y179.569 E1.25941
G1 X125.124 Y180.465 E1.3038
G1 X126.31 Y181.54 E1.3635
G1 X127.946 Y182.633 E1.43688
G1 X129.394 Y183.318 E1.49658
G1 X131.277 Y183.889 E1.56997
G1 X132.71 Y184.114 E1.62405
G1 X154.079 Y185.924 E2.42374
G1 X175.904 Y185.914 E3.23759
G1 X197.288 Y184.114 E4.03778
G1 X198.723 Y183.889 E4.09194
G1 X200.606 Y183.318 E4.16532
G1 X202.51 Y182.414 E4.24391
G1 X203.436 Y181.853 E4.2843
G1 X204.656 Y180.827 E4.34373
G1 X205.476 Y179.951 E4.38848
G1 X205.997 Y179.239 E4.42137
G1 X207.281 Y176.866 E4.52198
G1 X207.82 Y175.359 E4.58168
G1 X208.204 Y173.429 E4.65506
G1 X208.288 Y172.033 E4.70721
G1 X208.288 Y150.025 E5.52785
G1 X208.149 Y148.956 E5.56804
G1 X207.314 Y147.339 E5.63592
G1 X205.872 Y146.228 E5.7038
G1 X204.095 Y145.832 E5.77169
G1 X125.905 Y145.832 E8.68733
G1 X124.836 Y145.971 E8.72751
G1 X123.219 Y146.806 E8.7954
G1 X123.61 Y147.134 F9000
G1 F1800
G1 X122.584 Y148.359 E8.85497
G1 X122.189 Y150.025 E8.91883
G1 X122.189 Y172.033 E9.73947
G1 X122.382 Y174.129 E9.81798
G1 X122.749 Y175.592 E9.8742
G1 X123.484 Y177.366 E9.94584
G1 X124.259 Y178.659 E10.00205
G1 X125.477 Y180.145 E10.07369
G1 X126.595 Y181.157 E10.1299
G1 X128.192 Y182.224 E10.20154
G1 X129.555 Y182.869 E10.25775
G1 X131.393 Y183.427 E10.32939
G1 X132.75 Y183.639 E10.38062
G1 X154.079 Y185.447 E11.17879
G1 X175.904 Y185.437 E11.99265
G1 X197.247 Y183.639 E12.79134
G1 X198.607 Y183.427 E12.84264
G1 X199.711 Y183.131 E12.88528
G1 X200.768 Y182.736 E12.92736
G1 X202.803 Y181.699 E13.01251
G1 X203.751 Y181.003 E13.05635
G1 X205.123 Y179.631 E13.12872
G1 X205.584 Y179 E13.15787
G1 X206.849 Y176.662 E13.25699
G1 X207.357 Y175.243 E13.3132
G1 X207.618 Y174.129 E13.35584
G1 X207.811 Y172.033 E13.43436
G1 X207.811 Y150.025 E14.255
G1 X207.074 Y147.804 E14.34226
G1 X205.761 Y146.704 E14.40611
G1 X204.095 Y146.309 E14.46997
G1 X125.905 Y146.309 E17.38561
G1 X123.684 Y147.046 E17.47287
G1 X123.61 Y147.134 E17.47714
G1 X123.984 Y147.481 F9000
G1 F1800
G1 X123.06 Y148.477 E17.52782
G1 X122.666 Y150.025 E17.58737
G1 X122.666 Y172.033 E18.40801
G1 X122.854 Y174.059 E18.48391
G1 X123.198 Y175.431 E18.53664
G1 X123.915 Y177.162 E18.60653
G1 X124.642 Y178.375 E18.65926
G1 X125.831 Y179.824 E18.72915
G1 X126.879 Y180.774 E18.78187
G1 X128.437 Y181.815 E18.85176
G1 X129.715 Y182.42 E18.90449
G1 X131.509 Y182.964 E18.97439
G1 X132.791 Y183.163 E19.02277
G1 X154.078 Y184.97 E19.81941
G1 X175.904 Y184.96 E20.63327
G1 X197.207 Y183.164 E21.43046
G1 X198.491 Y182.964 E21.47891
G1 X199.551 Y182.682 E21.5198
G1 X200.566 Y182.304 E21.56021
G1 X202.564 Y181.286 E21.6438
G1 X203.43 Y180.65 E21.6839
G1 X204.77 Y179.31 E21.75452
G1 X205.959 Y177.403 E21.83835
G1 X206.418 Y176.458 E21.87752
G1 X206.894 Y175.127 E21.93024
G1 X207.146 Y174.059 E21.97114
G1 X207.334 Y172.033 E22.04704
G1 X207.334 Y150.025 E22.86768
G1 X206.814 Y148.266 E22.93608
G1 X205.643 Y147.18 E22.99563
G1 X204.095 Y146.786 E23.05519
G1 X125.905 Y146.786 E25.97083
G1 X124.146 Y147.306 E26.03922
G1 X123.984 Y147.481 E26.0481
G92 E0
G1 E-0.5 F3000
; printing object Middle ash tray insert V2_ v2.stl id:0 copy 0
EXCLUDE_OBJECT_START NAME=Middle_ash_tray_insert_V2__v2_stl_id_0_copy_0
; acceleration to travel
M204 S3000
G1 X146.039 Y152.606 F9000
; decel to extrusion
M204 S1000
G1 X153.391 Y154.315
; end travel
G1 E0 F1800
;TYPE:Support material
;WIDTH:0.5
G1 X176.609 Y154.315 E0.82951
G1 X176.999 Y156.271 E0.90079
G1 X174.981 Y156.275 E0.97289
G1 X174.567 Y156.342 E0.98787
G1 X174.251 Y156.473 E1.00009
G1 X173.891 Y156.735 E1.01597
G1 X173.619 Y157.068 E1.03133
G1 X173.439 Y157.466 E1.04693
G1 X173.367 Y157.931 E1.06375
G1 X173.37 Y179.14 E1.82146
G1 X173.438 Y179.555 E1.83649
G1 X173.618 Y179.956 E1.85219
G1 X173.824 Y180.224 E1.86427
G1 X174.164 Y180.502 E1.87997
G1 X174.565 Y180.682 E1.89567
G1 X174.98 Y180.75 E1.91069
G1 X176.095 Y180.754 E1.95051
G1 X175.903 Y181.722 E1.98577
G1 X154.077 Y181.732 E2.76551
M73 P1 R83
G1 X153.882 Y180.754 E2.80114
G1 X155.02 Y180.75 E2.84178
G1 X155.435 Y180.682 E2.8568
G1 X155.836 Y180.502 E2.8725
G1 X156.104 Y180.296 E2.88458
G1 X156.382 Y179.956 E2.90028
G1 X156.562 Y179.555 E2.91598
G1 X156.63 Y179.14 E2.93101
G1 X156.634 Y157.936 E3.68853
G1 X156.563 Y157.472 E3.70531
G1 X156.381 Y157.068 E3.72114
G1 X156.104 Y156.729 E3.73676
G1 X155.749 Y156.473 E3.75241
G1 X155.433 Y156.342 E3.76461
G1 X155.019 Y156.275 E3.77958
G1 X153.001 Y156.271 E3.85168
G1 X153.391 Y154.315 E3.92296
; acceleration to travel
M204 S3000
G1 X170.477 Y154.4 F9000
; decel to extrusion
M204 S1000
G1 X176.173 Y154.429
; end travel
G1 F1800
G1 X176.173 Y155.961 E3.97768
G1 X175.665 Y155.961 E3.99583
G1 X175.665 Y154.625 E4.04353
G1 X175.157 Y154.625 E4.06167
G1 X175.157 Y155.961 E4.10938
G1 X174.95 Y155.965 E4.11678
G1 X174.649 Y156.005 E4.12761
G1 X174.649 Y154.625 E4.17689
G1 X174.142 Y154.625 E4.19503
G1 X174.142 Y156.182 E4.25065
G1 X173.987 Y156.267 E4.25695
G1 X173.634 Y156.553 E4.27318
G1 X173.634 Y154.625 E4.34203
G1 X173.126 Y154.625 E4.36018
G1 X173.126 Y181.412 E5.31715
G1 X173.634 Y181.412 E5.3353
G1 X173.634 Y180.473 E5.36884
G1 X173.991 Y180.761 E5.38524
G1 X174.142 Y180.843 E5.39136
G1 X174.142 Y181.412 E5.41167
G1 X174.649 Y181.411 E5.42981
G1 X174.649 Y181.02 E5.44379
G1 X174.95 Y181.06 E5.45461
G1 X175.157 Y181.064 E5.46203
G1 X175.157 Y181.411 E5.47442
G1 X175.647 Y181.411 E5.49193
G1 X175.665 Y181.321 E5.49519
G1 X175.665 Y180.868 E5.51139
; acceleration to travel
M204 S3000
G1 X173.38 Y181.424 F9000
; decel to extrusion
M204 S1000
G1 X172.618 Y181.609
; end travel
G1 F1800
G1 X172.618 Y154.625 E6.4754
G1 X172.11 Y154.625 E6.49354
G1 X172.11 Y181.413 E7.45054
G1 X171.602 Y181.413 E7.46868
G1 X171.602 Y154.625 E8.42568
G1 X171.094 Y154.625 E8.44383
G1 X171.094 Y181.413 E9.40084
G1 X170.587 Y181.413 E9.41898
G1 X170.587 Y154.625 E10.376
G1 X170.079 Y154.625 E10.39415
G1 X170.079 Y181.413 E11.35118
G1 X169.571 Y181.414 E11.36932
G1 X169.571 Y154.625 E12.32636
G1 X169.063 Y154.625 E12.3445
G1 X169.063 Y181.414 E13.30154
G1 X168.555 Y181.414 E13.31969
G1 X168.555 Y154.625 E14.27674
G1 X168.047 Y154.625 E14.29488
G1 X168.047 Y181.414 E15.25195
G1 X167.539 Y181.415 E15.27009
G1 X167.539 Y154.625 E16.22716
G1 X167.031 Y154.625 E16.2453
G1 X167.031 Y181.415 E17.20238
G1 X166.524 Y181.415 E17.22052
G1 X166.524 Y154.625 E18.17761
G1 X166.016 Y154.625 E18.19575
G1 X166.016 Y181.415 E19.15285
G1 X165.508 Y181.416 E19.17099
G1 X165.508 Y154.625 E20.12809
G1 X165 Y154.625 E20.14624
G1 X165 Y181.416 E21.10335
G1 X164.492 Y181.416 E21.12149
G1 X164.492 Y154.625 E22.07861
G1 X163.984 Y154.625 E22.09676
G1 X163.984 Y181.416 E23.05388
G1 X163.476 Y181.416 E23.07203
G1 X163.476 Y154.625 E24.02916
G1 X162.969 Y154.625 E24.04731
G1 X162.969 Y181.417 E25.00445
G1 X162.461 Y181.417 E25.02259
G1 X162.461 Y154.625 E25.97975
G1 X161.953 Y154.625 E25.99789
G1 X161.953 Y181.417 E26.95505
G1 X161.445 Y181.417 E26.97319
G1 X161.445 Y154.625 E27.93036
G1 X160.937 Y154.625 E27.94851
G1 X160.937 Y181.418 E28.90568
G1 X160.429 Y181.418 E28.92383
G1 X160.429 Y154.625 E29.88101
G1 X159.921 Y154.625 E29.89915
G1 X159.921 Y181.418 E30.85635
G1 X159.413 Y181.418 E30.87449
G1 X159.413 Y154.625 E31.83169
G1 X158.906 Y154.625 E31.84984
G1 X158.906 Y181.419 E32.80705
G1 X158.398 Y181.419 E32.82519
G1 X158.398 Y154.625 E33.78241
G1 X157.89 Y154.625 E33.80055
G1 X157.89 Y181.419 E34.75778
G1 X157.382 Y181.419 E34.77592
G1 X157.382 Y154.625 E35.73316
G1 X156.874 Y154.625 E35.7513
G1 X156.874 Y181.419 E36.70854
G1 X156.366 Y181.42 E36.72669
G1 X156.366 Y180.473 E36.76051
G1 X156.009 Y180.761 E36.77691
M73 P1 R82
G1 X155.858 Y180.843 E36.78303
G1 X155.858 Y181.42 E36.80364
G1 X155.351 Y181.42 E36.82178
G1 X155.351 Y181.02 E36.83607
G1 X155.05 Y181.06 E36.84689
G1 X154.843 Y181.064 E36.85431
G1 X154.843 Y181.42 E36.86703
G1 X154.335 Y181.421 E36.88517
G1 X154.335 Y180.868 E36.90492
G92 E0
G1 E-0.5 F3000
; acceleration to travel
M204 S3000
G1 X155.858 Y162.863 F9000
; decel to extrusion
M204 S1000
G1 X156.366 Y156.861
; end travel
G1 E0 F1800
G1 X156.366 Y154.625 E0.07989
G1 X155.858 Y154.625 E0.09803
G1 X155.858 Y156.182 E0.15365
G1 X155.533 Y156.047 E0.16622
G1 X155.351 Y156.005 E0.17292
G1 X155.351 Y154.625 E0.2222
G1 X154.843 Y154.625 E0.24034
G1 X154.843 Y155.961 E0.28804
G1 X154.335 Y155.961 E0.30619
G1 X154.335 Y154.625 E0.35389
G1 X153.827 Y154.625 E0.37203
G1 X153.827 Y156.157 E0.42676
G92 E0
G1 E-0.5 F3000
; acceleration to travel
M204 S3000
G1 X146.553 Y163.016 F9000
; decel to extrusion
M204 S1000
G1 X144.128 Y165.303
; end travel
G1 E0 F1800
;TYPE:Internal perimeter
G1 X143.669 Y165.253 E0.01651
G1 X136.958 Y165.253 E0.25627
G1 X136.41 Y165.315 E0.27595
G1 X135.823 Y165.521 E0.29819
G1 X135.296 Y165.852 E0.32043
G1 X134.856 Y166.292 E0.34266
G1 X134.525 Y166.819 E0.3649
G1 X134.319 Y167.407 E0.38714
G1 X134.257 Y167.954 E0.40682
G1 X134.257 Y168.84 E0.43847
G1 X134.319 Y169.387 E0.45815
G1 X134.525 Y169.975 E0.48039
G1 X134.856 Y170.502 E0.50262
G1 X135.296 Y170.942 E0.52486
G1 X135.823 Y171.273 E0.5471
G1 X136.41 Y171.479 E0.56934
G1 X136.958 Y171.54 E0.58902
G1 X143.673 Y171.54 E0.82891
G1 X144.22 Y171.479 E0.8486
G1 X144.808 Y171.273 E0.87083
G1 X145.335 Y170.942 E0.89307
G1 X145.775 Y170.502 E0.91531
G1 X146.106 Y169.975 E0.93755
G1 X146.312 Y169.387 E0.95978
G1 X146.373 Y168.84 E0.97947
G1 X146.373 Y167.958 E1.01098
G1 X146.315 Y167.412 E1.0306
G1 X146.111 Y166.82 E1.05295
G1 X145.779 Y166.29 E1.07529
G1 X145.337 Y165.848 E1.09764
G1 X144.806 Y165.516 E1.11999
G1 X144.215 Y165.312 E1.14233
G1 X144.128 Y165.303 E1.14545
G1 X144.156 Y165.775 F9000
G1 F1800
G1 X144.115 Y165.761 E1.147
G1 X143.645 Y165.71 E1.1639
G1 X136.984 Y165.71 E1.40187
G1 X136.513 Y165.764 E1.4188
G1 X136.022 Y165.935 E1.43736
G1 X135.583 Y166.211 E1.45591
G1 X135.215 Y166.579 E1.47447
G1 X134.939 Y167.019 E1.49303
G1 X134.767 Y167.509 E1.51159
G1 X134.714 Y167.98 E1.52852
G1 X134.714 Y168.814 E1.55832
G1 X134.767 Y169.285 E1.57525
G1 X134.939 Y169.775 E1.59381
G1 X135.215 Y170.215 E1.61237
G1 X135.583 Y170.582 E1.63093
G1 X136.022 Y170.859 E1.64948
G1 X136.513 Y171.03 E1.66804
G1 X136.984 Y171.083 E1.68497
G1 X143.647 Y171.083 E1.92302
G1 X144.118 Y171.03 E1.93995
G1 X144.608 Y170.859 E1.95851
G1 X145.048 Y170.582 E1.97707
G1 X145.415 Y170.215 E1.99562
G1 X145.692 Y169.775 E2.01418
G1 X145.863 Y169.285 E2.03274
G1 X145.916 Y168.814 E2.04967
G1 X145.916 Y167.982 E2.07939
G1 X145.866 Y167.512 E2.09629
G1 X145.696 Y167.019 E2.11492
G1 X145.419 Y166.577 E2.13356
G1 X145.05 Y166.208 E2.15219
G1 X144.608 Y165.931 E2.17083
G1 X144.156 Y165.775 E2.1879
G1 X144.015 Y166.21 F9000
;TYPE:External perimeter
G1 F1800
G1 X143.62 Y166.168 E2.20207
G1 X137.009 Y166.168 E2.43826
G1 X136.615 Y166.212 E2.45243
G1 X136.222 Y166.35 E2.46731
G1 X135.869 Y166.571 E2.48219
G1 X135.575 Y166.866 E2.49706
G1 X135.353 Y167.218 E2.51194
G1 X135.216 Y167.611 E2.52682
G1 X135.171 Y168.005 E2.54099
G1 X135.171 Y168.788 E2.56896
G1 X135.216 Y169.183 E2.58314
G1 X135.353 Y169.576 E2.59801
G1 X135.575 Y169.928 E2.61289
G1 X135.869 Y170.223 E2.62777
G1 X136.222 Y170.444 E2.64265
G1 X136.615 Y170.582 E2.65752
G1 X137.009 Y170.626 E2.6717
G1 X143.621 Y170.626 E2.90792
G1 X144.015 Y170.582 E2.92209
G1 X144.409 Y170.444 E2.93696
G1 X144.761 Y170.223 E2.95184
G1 X145.056 Y169.928 E2.96672
G1 X145.277 Y169.576 E2.9816
G1 X145.415 Y169.183 E2.99648
G1 X145.459 Y168.788 E3.01065
G1 X145.459 Y168.006 E3.03859
G1 X145.417 Y167.612 E3.05275
G1 X145.281 Y167.217 E3.06768
G1 X145.059 Y166.863 E3.0826
G1 X144.764 Y166.568 E3.09753
G1 X144.409 Y166.346 E3.11245
G1 X144.015 Y166.21 E3.12737
;WIPE_START
M204 S4000
G1 X143.881 Y165.833 F9000
;WIPE_END
G92 E0
G1 E-0.5 F3000
; acceleration to travel
M204 S3000
G1 X144.225 Y163.029 F9000
; decel to extrusion
M204 S1000
G1 X144.34 Y162.094
; end travel
G1 E0 F1800
;TYPE:Internal perimeter
G1 X144.846 Y161.917 E0.01914
G1 X145.373 Y161.586 E0.04138
G1 X145.813 Y161.146 E0.06362
G1 X146.144 Y160.619 E0.08586
G1 X146.35 Y160.031 E0.10809
G1 X146.412 Y159.484 E0.12778
G1 X146.412 Y158.602 E0.15929
G1 X146.353 Y158.056 E0.17891
G1 X146.149 Y157.464 E0.20126
G1 X145.817 Y156.934 E0.22361
G1 X145.375 Y156.492 E0.24595
G1 X144.845 Y156.16 E0.2683
G1 X144.254 Y155.956 E0.29064
G1 X143.707 Y155.897 E0.31026
G1 X136.996 Y155.897 E0.55002
G1 X136.449 Y155.959 E0.56971
G1 X135.861 Y156.165 E0.59195
G1 X135.334 Y156.496 E0.61418
G1 X134.894 Y156.936 E0.63642
G1 X134.563 Y157.463 E0.65866
G1 X134.357 Y158.05 E0.6809
G1 X134.296 Y158.598 E0.70058
G1 X134.296 Y159.484 E0.73222
G1 X134.357 Y160.031 E0.75191
G1 X134.563 Y160.619 E0.77415
G1 X134.894 Y161.146 E0.79638
G1 X135.334 Y161.586 E0.81862
G1 X135.861 Y161.917 E0.84086
G1 X136.449 Y162.123 E0.8631
G1 X136.996 Y162.184 E0.88278
G1 X143.711 Y162.184 E1.12267
G1 X144.259 Y162.123 E1.14235
G1 X144.34 Y162.094 E1.14545
G1 X144.197 Y161.66 F9000
G1 F1800
G1 X144.646 Y161.503 E1.16246
G1 X145.086 Y161.226 E1.18102
G1 X145.454 Y160.859 E1.19957
G1 X145.73 Y160.419 E1.21813
G1 X145.902 Y159.929 E1.23669
G1 X145.955 Y159.458 E1.25362
G1 X145.955 Y158.626 E1.28334
G1 X145.904 Y158.156 E1.30024
G1 X145.734 Y157.663 E1.31887
G1 X145.457 Y157.221 E1.33751
G1 X145.088 Y156.852 E1.35614
G1 X144.646 Y156.575 E1.37478
G1 X144.153 Y156.405 E1.39341
G1 X143.683 Y156.354 E1.41031
G1 X137.022 Y156.354 E1.64828
G1 X136.551 Y156.407 E1.66521
G1 X136.061 Y156.579 E1.68376
G1 X135.621 Y156.855 E1.70232
