; generated by SuperSlicer 2.5.59 on 2023-01-03 at 22:48:49 UTC


;
;

;
;
; 

; external perimeters extrusion width = 0.40mm
; perimeters extrusion width = 0.46mm
; infill extrusion width = 0.64mm
; solid infill extrusion width = 0.56mm
; top infill extrusion width = 0.40mm
; first layer extrusion width = 0.50mm

; object:{"name":"MiniAfterburnerADXLMount","id":"MiniAfterburnerADXLMount.stl id:0 copy 0","object_center":[165.000000,165.000000,0.000000],"boundingbox_center":[165.000000,165.000000,4.000000],"boundingbox_size":[34.000000,12.000000,8.000000]}
; plater:{"center":[165.000000,165.000000,0.000000],"boundingbox_center":[165.000000,165.000000,4.000000],"boundingbox_size":[34.000000,12.000000,8.000000]}

M73 P0 R13


; Pre-Processed for Cancel-Object support by preprocess_cancellation v0.2.0
; 1 known objects
EXCLUDE_OBJECT_DEFINE NAME=MiniAfterburnerADXLMount_stl_id_0_copy_0 CENTER=165.242,162.288 POLYGON=[[148.2,159.2],[148.2,170.8],[181.8,170.8],[181.8,159.2]]
;TYPE:Custom
; custom gcode: start_gcode
START_PRINT T_BED=110 T_EXTRUDER=240
; custom gcode end: start_gcode
M107
G21 ; set units to millimeters
G90 ; use absolute coordinates
M82 ; use absolute distances for extrusion
G92 E0
; custom gcode: start_filament_gcode
; Filament gcode

    PRESSURE_ADVANCE_SELECT FILAMENT=ABS
; custom gcode end: start_filament_gcode
;_TOOLCHANGE 0
M109 S240 ; set temperature and wait for it to be reached
M190 S110 ; set bed temperature and wait for it to be reached
;LAYER_CHANGE
;Z:0.2
;HEIGHT:0.2
G1 Z0.2 F9000
M73 P0 R13
G1 E-0.5 F3000
M204 S1000
G1 X145.906 Y156.444 F9000
G1 E0 F1800
;TYPE:Skirt
;WIDTH:0.52
G1 X144.773 Y158.226 E0.07707
G1 X144.376 Y160.3 E0.15413
G1 X144.376 Y163.9 E0.28552
G1 X144.516 Y165.146 E0.33127
G1 X145.362 Y167.08 E0.40833
G1 X150.162 Y174.08 E0.7181
M73 P0 R13
G1 X150.944 Y174.994 E0.76199
G1 X152.726 Y176.127 E0.83906
G1 X154.8 Y176.524 E0.91613
G1 X175.2 Y176.524 E1.66064
G1 X176.396 Y176.395 E1.70454
G1 X178.338 Y175.567 E1.78161
G1 X179.838 Y174.08 E1.85867
G1 X184.638 Y167.08 E2.16844
G1 X185.227 Y165.974 E2.21418
G1 X185.624 Y163.9 E2.29125
G1 X185.624 Y160.3 E2.42264
G1 X185.094 Y157.917 E2.51174
G1 X183.856 Y156.206 E2.58881
G1 X182.074 Y155.073 E2.66588
G1 X180 Y154.676 E2.74294
G1 X150 Y154.676 E3.83782
G1 X147.617 Y155.206 E3.92693
G1 X145.906 Y156.444 E4.004
G1 X146.323 Y156.725 F9000
G1 F1800
G1 X145.249 Y158.32 E4.07417
G1 X144.853 Y160.3 E4.14787
G1 X144.853 Y163.9 E4.27925
G1 X144.962 Y164.954 E4.31791
G1 X145.755 Y166.811 E4.39161
G1 X150.555 Y173.811 E4.70137
G1 X152.82 Y175.651 E4.80786
G1 X154.8 Y176.047 E4.88156
G1 X175.2 Y176.047 E5.62607
G1 X177.998 Y175.22 E5.73257
G1 X179.445 Y173.811 E5.80626
G1 X184.245 Y166.811 E6.11603
G1 X184.751 Y165.88 E6.15469
G1 X185.147 Y163.9 E6.22838
G1 X185.147 Y160.3 E6.35977
G1 X184.768 Y158.362 E6.43184
G1 X183.655 Y156.677 E6.50554
G1 X181.98 Y155.549 E6.57923
G1 X180 Y155.153 E6.65293
G1 X150 Y155.153 E7.7478
G1 X148.062 Y155.532 E7.81988
G1 X146.377 Y156.645 E7.89358
G1 X146.323 Y156.725 E7.8971
G1 X146.731 Y157.017 F9000
G1 F1800
G1 X145.726 Y158.419 E7.96003
G1 X145.33 Y160.3 E8.0302
G1 X145.33 Y163.9 E8.16158
G1 X146.149 Y166.541 E8.26248
G1 X150.949 Y173.541 E8.57225
M73 P1 R13
G1 X152.919 Y175.174 E8.66564
G1 X154.8 Y175.57 E8.7358
G1 X175.2 Y175.57 E9.48031
G1 X177.661 Y174.869 E9.5737
G1 X179.051 Y173.541 E9.64387
G1 X183.851 Y166.541 E9.95363
G1 X184.67 Y163.9 E10.05453
G1 X184.67 Y160.3 E10.18592
G1 X184.423 Y158.801 E10.24137
G1 X183.444 Y157.146 E10.31154
G1 X181.881 Y156.026 E10.3817
G1 X180 Y155.63 E10.45186
G1 X150 Y155.63 E11.54673
G1 X148.501 Y155.877 E11.60219
G1 X146.846 Y156.856 E11.67235
G1 X146.731 Y157.017 E11.67958
G1 X147.127 Y157.323 F9000
G1 F1800
G1 X146.203 Y158.523 E11.73487
G1 X145.807 Y160.3 E11.80131
G1 X145.807 Y163.9 E11.9327
G1 X146.542 Y166.271 E12.02329
G1 X151.342 Y173.271 E12.33306
G1 X153.023 Y174.697 E12.41351
G1 X154.8 Y175.093 E12.47995
G1 X175.2 Y175.093 E13.22446
G1 X177.327 Y174.513 E13.30492
G1 X178.658 Y173.271 E13.37136
G1 X183.458 Y166.271 E13.68112
G1 X184.193 Y163.9 E13.77172
G1 X184.193 Y160.3 E13.9031
G1 X184.054 Y159.231 E13.94243
G1 X183.219 Y157.614 E14.00887
G1 X181.777 Y156.503 E14.07531
G1 X180 Y156.107 E14.14175
G1 X150 Y156.107 E15.23662
G1 X148.931 Y156.246 E15.27595
G1 X147.314 Y157.081 E15.34239
G1 X147.127 Y157.323 E15.35353
G1 X147.509 Y157.643 F9000
G1 F1800
G1 X146.679 Y158.634 E15.40071
G1 X146.284 Y160.3 E15.46321
G1 X146.284 Y163.9 E15.59459
G1 X146.936 Y166.001 E15.67488
G1 X151.736 Y173.001 E15.98464
G1 X153.134 Y174.221 E16.05235
G1 X154.8 Y174.616 E16.11485
G1 X175.2 Y174.616 E16.85936
M73 P2 R13
G1 X176.997 Y174.152 E16.92707
G1 X178.264 Y173.001 E16.98957
G1 X183.064 Y166.001 E17.29933
G1 X183.716 Y163.9 E17.37962
G1 X183.716 Y160.3 E17.51101
G1 X182.979 Y158.079 E17.5964
G1 X181.666 Y156.979 E17.6589
G1 X180 Y156.584 E17.7214
G1 X150 Y156.584 E18.81627
G1 X147.779 Y157.321 E18.90167
G1 X147.509 Y157.643 E18.917
G1 X147.872 Y157.979 F9000
G1 F1800
G1 X147.155 Y158.752 E18.95547
G1 X146.761 Y160.3 E19.01376
G1 X146.761 Y163.9 E19.14514
G1 X147.329 Y165.731 E19.21512
G1 X152.129 Y172.731 E19.52488
G1 X153.252 Y173.745 E19.58009
G1 X154.8 Y174.139 E19.63838
G1 X175.2 Y174.139 E20.38289
G1 X176.671 Y173.785 E20.4381
G1 X177.871 Y172.731 E20.49638
G1 X182.671 Y165.731 E20.80615
G1 X183.239 Y163.9 E20.87613
G1 X183.239 Y160.3 E21.00751
G1 X182.719 Y158.541 E21.07445
G1 X181.548 Y157.455 E21.13273
G1 X180 Y157.061 E21.19102
G1 X150 Y157.061 E22.2859
G1 X148.241 Y157.581 E22.35283
G1 X147.872 Y157.979 E22.37265
G92 E0
G1 E-0.5 F3000
; printing object MiniAfterburnerADXLMount.stl id:0 copy 0
EXCLUDE_OBJECT_START NAME=MiniAfterburnerADXLMount_stl_id_0_copy_0
; acceleration to travel
M204 S3000
G1 X167.843 Y161.028 F9000
; decel to extrusion
M204 S1000
G1 X174.5 Y162.044
; end travel
G1 E0 F1800
;TYPE:Internal perimeter
;WIDTH:0.457079
G1 X174.799 Y161.967 E0.00979
G1 X175.197 Y161.678 E0.02538
G1 X175.279 Y161.464 E0.03263
G1 X178.836 Y161.464 E0.14531
G1 X178.836 Y162.736 E0.1856
G1 X175.179 Y162.736 E0.30147
G1 X174.787 Y162.805 E0.31408
G1 X174.501 Y162.97 E0.32453
G1 X174.531 Y162.844 E0.32862
G1 X174.556 Y162.384 E0.34323
G1 X174.5 Y162.044 E0.35413
G92 E0
G1 E-0.5 F3000
; acceleration to travel
M204 S3000
G1 X163.084 Y161.609 F9000
; decel to extrusion
M204 S1000
G1 X159.279 Y161.464
; end travel
G1 E0 F1800
G1 X167.347 Y161.464 E0.25562
G1 X167.475 Y161.757 E0.26573
G1 X167.725 Y161.934 E0.27546
G1 X167.913 Y162.012 E0.28189
G1 X168.256 Y162.064 E0.29289
G1 X170.497 Y162.061 E0.3639
G1 X170.449 Y162.346 E0.37305
G1 X170.469 Y162.844 E0.38884
G1 X170.614 Y163.331 E0.40494
G1 X170.824 Y163.695 E0.41826
G1 X171.218 Y164.114 E0.43648
G1 X171.642 Y164.374 E0.45223
G1 X172.115 Y164.525 E0.46798
G1 X172.611 Y164.558 E0.48372
G1 X173.101 Y164.472 E0.49946
G1 X173.555 Y164.271 E0.51521
G1 X174.036 Y163.88 E0.53484
G1 X174.036 Y169.736 E0.72036
M73 P3 R13
G1 X155.964 Y169.736 E1.29291
G1 X155.964 Y163.88 E1.47843
G1 X156.445 Y164.271 E1.49806
G1 X156.899 Y164.472 E1.51381
G1 X157.389 Y164.558 E1.52955
G1 X157.885 Y164.525 E1.54529
G1 X158.358 Y164.374 E1.56104
G1 X158.782 Y164.114 E1.57678
G1 X159.131 Y163.761 E1.59253
G1 X159.385 Y163.334 E1.60827
G1 X159.53 Y162.858 E1.62401
G1 X159.557 Y162.362 E1.63976
G1 X159.464 Y161.874 E1.6555
G1 X159.279 Y161.464 E1.66975
G92 E0
G1 E-0.5 F3000
; acceleration to travel
M204 S3000
G1 X153.193 Y161.464 F9000
; decel to extrusion
M204 S1000
G1 X151.164 Y161.464
; end travel
G1 E0 F1800
G1 X155.721 Y161.464 E0.14437
G1 X155.536 Y161.874 E0.15861
G1 X155.435 Y162.487 E0.17829
G1 X155.497 Y162.967 E0.19362
G1 X155.225 Y162.809 E0.20358
G1 X154.83 Y162.736 E0.2163
G1 X151.164 Y162.736 E0.33244
G1 X151.164 Y161.464 E0.37273
G92 E0
G1 E-0.5 F3000
; acceleration to travel
M204 S3000
G1 X166.209 Y161.55 F9000
; decel to extrusion
M204 S1000
G1 X171.224 Y161.578
; end travel
G1 E0 F1800
G1 X170.987 Y161.996 E0.01523
G1 X170.902 Y162.408 E0.02854
G1 X170.924 Y162.795 E0.04082
G1 X171.085 Y163.264 E0.05653
G1 X171.355 Y163.625 E0.07081
G1 X171.657 Y163.866 E0.08307
G1 X172.009 Y164.028 E0.09533
G1 X172.389 Y164.101 E0.10759
G1 X172.775 Y164.081 E0.11985
G1 X173.146 Y163.969 E0.13211
G1 X173.479 Y163.772 E0.14437
G1 X173.592 Y163.667 E0.14926
;WIDTH:0.496835
G1 X173.704 Y163.562 E0.15462
;WIDTH:0.536592
G1 X173.817 Y163.456 E0.16045
;WIDTH:0.594668
G1 X173.93 Y163.351 E0.16697
G1 X173.976 Y163.273 E0.17081
G1 X174.023 Y163.194 E0.17465
G1 X174.044 Y163.083 E0.17941
;WIDTH:0.517142
G1 X174.065 Y162.973 E0.18351
G1 X174.083 Y162.701 E0.19337
;WIDTH:0.457079
G1 X174.101 Y162.43 E0.20199
G1 X174.028 Y162.031 E0.21484
G1 X173.787 Y161.592 E0.23071
G1 X174.273 Y161.603 E0.24611
G1 X174.596 Y161.557 E0.25645
G1 X174.856 Y161.374 E0.2665
G1 X174.996 Y161.007 E0.27896
G1 X179.293 Y161.007 E0.4151
G1 X179.293 Y162.1 E0.44973
G1 X179.293 Y163.193 E0.48435
G1 X175.179 Y163.193 E0.61471
G1 X174.943 Y163.234 E0.62227
G1 X174.845 Y163.292 E0.62588
;WIDTH:0.502942
G1 X174.746 Y163.349 E0.62989
;WIDTH:0.548805
G1 X174.648 Y163.406 E0.6343
;WIDTH:0.592113
G1 X174.549 Y163.463 E0.63909
G1 X174.48 Y163.596 E0.64538
G1 X174.484 Y163.667 E0.64835
;WIDTH:0.547102
G1 X174.487 Y163.737 E0.65108
;WIDTH:0.50209
G1 X174.49 Y163.808 E0.65356
;WIDTH:0.457079
G1 X174.493 Y163.879 E0.6558
G1 X174.493 Y170.193 E0.85586
G1 X155.507 Y170.193 E1.45737
G1 X155.507 Y164.229 E1.64633
G1 X155.511 Y164.079 E1.65107
;WIDTH:0.496681
G1 X155.516 Y163.93 E1.65627
;WIDTH:0.536282
G1 X155.52 Y163.78 E1.66191
;WIDTH:0.594269
G1 X155.524 Y163.631 E1.66822
G1 X155.488 Y163.548 E1.67204
G1 X155.452 Y163.465 E1.67586
G1 X155.355 Y163.408 E1.6806
;WIDTH:0.548539
G1 X155.258 Y163.351 E1.68496
;WIDTH:0.502809
G1 X155.161 Y163.294 E1.68892
;WIDTH:0.457079
G1 X155.063 Y163.237 E1.69248
G1 X154.827 Y163.193 E1.70012
G1 X150.707 Y163.193 E1.83063
G1 X150.707 Y161.007 E1.89988
G1 X156.849 Y161.007 E2.09446
G1 X156.521 Y161.228 E2.10696
G1 X156.245 Y161.499 E2.11922
G1 X156.042 Y161.828 E2.13148
G1 X155.924 Y162.197 E2.14374
G1 X155.897 Y162.583 E2.156
G1 X155.917 Y162.736 E2.1609
;WIDTH:0.502809
G1 X155.938 Y162.889 E2.16634
;WIDTH:0.548539
G1 X155.958 Y163.043 E2.17233
;WIDTH:0.575884
G1 X155.978 Y163.196 E2.17863
G1 X156.024 Y163.274 E2.18232
G1 X156.07 Y163.352 E2.18601
G1 X156.183 Y163.457 E2.1923
;WIDTH:0.536282
G1 X156.296 Y163.562 E2.19812
;WIDTH:0.496681
G1 X156.409 Y163.667 E2.20347
;WIDTH:0.455143
G1 X156.521 Y163.772 E2.20833
G1 X156.854 Y163.969 E2.22053
G1 X157.225 Y164.081 E2.23273
G1 X157.611 Y164.101 E2.24494
G1 X157.991 Y164.028 E2.25714
G1 X158.343 Y163.866 E2.26934
G1 X158.645 Y163.625 E2.28154
G1 X158.881 Y163.318 E2.29374
G1 X159.037 Y162.964 E2.30595
G1 X159.103 Y162.583 E2.31815
G1 X159.076 Y162.197 E2.33035
G1 X158.958 Y161.828 E2.34255
G1 X158.755 Y161.499 E2.35476
G1 X158.479 Y161.228 E2.36696
G1 X158.312 Y161.13 E2.37306
G1 X158.145 Y161.031 E2.37916
G1 X157.955 Y160.997 E2.38526
;WIDTH:0.367372
G1 X157.765 Y160.962 E2.39006
G1 X158.069 Y160.985 E2.39764
;WIDTH:0.457079
G1 X158.374 Y161.007 E2.40732
G1 X167.606 Y161.007 E2.69982
G1 X167.787 Y161.423 E2.71417
G1 X167.937 Y161.529 E2.72001
G1 X168.255 Y161.607 E2.73039
G1 X170.421 Y161.605 E2.79902
G1 X171.224 Y161.578 E2.82447
G92 E0
G1 E-0.5 F3000
; acceleration to travel
M204 S3000
G1 X168.88 Y161.211 F9000
; decel to extrusion
M204 S1000
G1 X168.098 Y161.089
; end travel
G1 E0 F1800
;TYPE:External perimeter
G1 X168.255 Y161.15 E0.00532
G1 X170.199 Y161.148 E0.06692
G1 X170.828 Y161.146 E0.08685
G1 X171.874 Y161.077 E0.12007
G1 X172.237 Y161.057 E0.13157
;WIDTH:0.431455
G1 X172.599 Y161.037 E0.14236
G1 X172.864 Y161.064 E0.15028
;WIDTH:0.457079
G1 X173.129 Y161.091 E0.15871
G1 X173.73 Y161.133 E0.17781
G1 X174.284 Y161.147 E0.19534
G1 X174.462 Y161.114 E0.2011
G1 X174.571 Y160.92 E0.20815
G1 X174.573 Y160.55 E0.21988
G1 X179.75 Y160.55 E0.3839
G1 X179.75 Y162.1 E0.43301
G1 X179.75 Y163.65 E0.48212
G1 X175.179 Y163.65 E0.62695
G1 X175.018 Y163.716 E0.63245
G1 X174.95 Y163.879 E0.63804
G1 X174.95 Y170.65 E0.85257
G1 X155.05 Y170.65 E1.48305
G1 X155.05 Y163.879 E1.69759
G1 X155.016 Y163.797 E1.70037
G1 X154.982 Y163.716 E1.70316
G1 X154.823 Y163.65 E1.70862
G1 X150.25 Y163.65 E1.85351
G1 X150.25 Y160.55 E1.95173
M73 P4 R13
G1 X168.026 Y160.55 E2.51491
G1 X168.026 Y160.921 E2.52668
G1 X168.098 Y161.089 E2.53245
;WIPE_START
M204 S4000
G1 X168.053 Y161.486 F9000
;WIPE_END
G92 E0
G1 E-0.5 F3000
; acceleration to travel
M204 S3000
G1 X170.59 Y161.956 F9000
; decel to extrusion
M204 S1000
G1 X171.436 Y162.113
; end travel
G1 E0 F1800
G1 X171.355 Y162.469 E0.01158
G1 X171.391 Y162.801 E0.02216
G1 X171.577 Y163.177 E0.03544
G1 X171.87 Y163.461 E0.04838
G1 X172.234 Y163.613 E0.06087
G1 X172.611 Y163.644 E0.07287
G1 X172.882 Y163.584 E0.08165
G1 X173.13 Y163.461 E0.09043
G1 X173.342 Y163.283 E0.09921
G1 X173.423 Y163.17 E0.1036
G1 X173.505 Y163.058 E0.10799
G1 X173.609 Y162.801 E0.11678
G1 X173.646 Y162.476 E0.12713
;WIDTH:0.467103
G1 X173.597 Y162.185 E0.13671
G1 X173.386 Y161.822 E0.15036
G1 X173.253 Y161.708 E0.15601
G1 X173.121 Y161.595 E0.16167
G1 X172.903 Y161.537 E0.16898
;WIDTH:0.431455
G1 X172.686 Y161.478 E0.17568
G1 X172.543 Y161.473 E0.17992
G1 X172.401 Y161.469 E0.18415
G1 X172.177 Y161.517 E0.19095
;WIDTH:0.457079
G1 X171.954 Y161.566 E0.19819
G1 X171.656 Y161.768 E0.20959
G1 X171.436 Y162.113 E0.22256
;WIPE_START
M204 S4000
G1 X171.696 Y162.417 F9000
;WIPE_END
G92 E0
G1 E-0.5 F3000
; acceleration to travel
M204 S3000
G1 X161.911 Y162.5 F9000
; decel to extrusion
M204 S1000
G1 X158.649 Y162.528
; end travel
G1 E0 F1800
G1 X158.622 Y162.252 E0.00878
G1 X158.53 Y161.99 E0.01756
G1 X158.378 Y161.759 E0.02634
G1 X158.176 Y161.57 E0.03512
G1 X158.054 Y161.503 E0.03951
G1 X157.933 Y161.435 E0.0439
G1 X157.8 Y161.399 E0.04829
G1 X157.666 Y161.362 E0.05268
G1 X157.389 Y161.356 E0.06146
G1 X157.254 Y161.386 E0.06585
G1 X157.118 Y161.416 E0.07024
G1 X156.994 Y161.477 E0.07463
G1 X156.87 Y161.539 E0.07902
G1 X156.658 Y161.717 E0.0878
G1 X156.495 Y161.942 E0.09658
G1 X156.391 Y162.198 E0.10536
G1 X156.351 Y162.472 E0.11414
G1 X156.378 Y162.748 E0.12292
G1 X156.47 Y163.01 E0.1317
G1 X156.622 Y163.241 E0.14048
G1 X156.824 Y163.43 E0.14926
G1 X157.067 Y163.565 E0.15804
G1 X157.334 Y163.638 E0.16682
G1 X157.611 Y163.644 E0.1756
G1 X157.766 Y163.613 E0.18061
G1 X158.13 Y163.461 E0.1931
G1 X158.342 Y163.283 E0.20188
G1 X158.505 Y163.058 E0.21066
G1 X158.609 Y162.802 E0.21944
G1 X158.649 Y162.528 E0.22822
;WIPE_START
M204 S4000
G1 X158.3 Y162.333 F9000
;WIPE_END
; acceleration to travel
M204 S3000
G1 X157.534 Y161.302
; decel to extrusion
M204 S1000
G1 X157.279 Y160.958
; end travel
;TYPE:Internal perimeter
;WIDTH:0.358326
G1 F1800
G1 X157.522 Y160.96 E0.23408
G1 X157.765 Y160.962 E0.23994
G92 E0
G1 E-0.5 F3000
; acceleration to travel
M204 S3000
G1 X155.434 Y161.425 F9000
; decel to extrusion
M204 S1000
G1 X154.546 Y161.601
; end travel
G1 E0 F1800
;TYPE:Solid infill
;WIDTH:0.577292
G1 F3600
G1 X155.317 Y162.372 E0.04399
G1 X154.902 Y162.603 F9000
G1 F3600
G1 X153.9 Y161.601 E0.1012
G1 X153.253 Y161.601 F9000
G1 F3600
G1 X154.251 Y162.599 E0.15816
G1 X153.604 Y162.599 F9000
G1 F3600
G1 X152.607 Y161.601 E0.21511
G1 X151.96 Y161.601 F9000
G1 F3600
G1 X152.958 Y162.599 E0.27206
G1 X152.312 Y162.599 F9000
G1 F3600
G1 X151.314 Y161.601 E0.32901
G92 E0
G1 E-0.5 F3000
; acceleration to travel
M204 S3000
G1 X168.253 Y164.321 F9000
; decel to extrusion
M204 S1000
G1 X173.899 Y165.228
; end travel
G1 E0 F1800
;WIDTH:0.505614
G1 F3600
G1 X173.236 Y164.565 E0.03313
G1 X172.708 Y164.683 F9000
G1 F3600
G1 X173.899 Y165.874 E0.09269
G1 X173.899 Y166.521 F9000
G1 F3600
G1 X172.021 Y164.643 E0.18656
G92 E0
G1 E-0.5 F3000
; acceleration to travel
M204 S3000
G1 X170.778 Y163.4 F9000
; decel to extrusion
M204 S1000
G1 X170.364 Y162.986
; end travel
G1 E0 F1800
G1 F3600
G1 X169.575 Y162.197 E0.03946
G1 X168.926 Y162.194 F9000
G1 F3600
G1 X173.899 Y167.167 E0.28811
G1 X173.899 Y167.813 F9000
G1 F3600
G1 X168.277 Y162.192 E0.56921
