; HEADER_BLOCK_START
; generated by OrcaSlicer 1.6.6 on 2023-08-29 at 20:28:17
; total layer number: 300
; HEADER_BLOCK_END

; THUMBNAIL_BLOCK_START
; THUMBNAIL_BLOCK_END

; external perimeters extrusion width = 0.40mm
; perimeters extrusion width = 0.46mm
; infill extrusion width = 0.64mm
; solid infill extrusion width = 0.56mm
; top infill extrusion width = 0.40mm
; first layer extrusion width = 0.50mm

; external perimeters extrusion width = 0.40mm
; perimeters extrusion width = 0.46mm
; infill extrusion width = 0.64mm
; solid infill extrusion width = 0.56mm
; top infill extrusion width = 0.40mm
; first layer extrusion width = 0.50mm

; EXECUTABLE_BLOCK_START
EXCLUDE_OBJECT_DEFINE NAME=Mini_Easel_-_Rotated.stl_id_0_copy_0 CENTER=165,173.981 POLYGON=[[51.5,137.736],[73.5,136.481],[81.5,136.481],[278.5,169.981],[278.5,177.981],[81.5,211.481],[73.5,211.481],[51.5,210.226],[51.5,137.736]]
EXCLUDE_OBJECT_DEFINE NAME=boxe2.stl_id_1_copy_0 CENTER=168.394,129.519 POLYGON=[[135.894,118.519],[200.894,118.519],[200.894,140.519],[135.894,140.519],[135.894,118.519]]
M73 P0 R93
;TYPE:Custom
START_PRINT T_BED=60 T_EXTRUDER=220
G90
G21
M83 ; use relative distances for extrusion
; filament start gcode

    PRESSURE_ADVANCE_SELECT FILAMENT=PLA
M106 S0
;LAYER_CHANGE
;Z:0.2
;HEIGHT:0.2
;BEFORE_LAYER_CHANGE
;0.2
G92 E0

SET_VELOCITY_LIMIT ACCEL=5000 ACCEL_TO_DECEL=2500
G1 E-.8 F1800
G1 X50.853 Y134.895 F12000
G1 Z.2
G1 E.8 F1800
;TYPE:Skirt
;WIDTH:0.5
G1 F3000
G1 X135.247 Y115.677 E3.22381
G1 X135.894 Y115.605 E.02425
G1 X200.894 Y115.605 E2.421
G1 X202.504 Y116.09 E.06265
G1 X280.111 Y167.552 E3.46832
G1 X281.112 Y168.688 E.05638
G1 X281.414 Y169.981 E.04947
G1 X281.414 Y177.981 E.29797
G1 X281.021 Y179.443 E.05638
G1 X279.948 Y180.51 E.05638
G1 X278.91 Y180.866 E.04087
G1 X51.91 Y213.111 E8.53976
G1 X50.407 Y212.928 E.05638
G1 X49.2 Y212.015 E.05638
G1 X48.586 Y210.226 E.07045
G1 X48.586 Y137.736 E2.69998
G1 X48.979 Y136.274 E.05638
G1 X50.052 Y135.207 E.05638
G1 X50.816 Y134.909 E.03052
G1 X50.954 Y135.34 F12000
G1 F3000
G1 X135.348 Y116.123 E3.22381
G1 X135.894 Y116.062 E.02045
G1 X200.894 Y116.062 E2.421
G1 X202.252 Y116.471 E.05282
G1 X279.858 Y167.933 E3.46832
G1 X280.751 Y168.996 E.05169
G1 X280.957 Y169.981 E.0375
G1 X280.957 Y177.981 E.29797
G1 X280.565 Y179.312 E.05169
G1 X278.846 Y180.414 E.07606
G1 X51.846 Y212.659 E8.53976
M73 P0 R92
G1 X50.472 Y212.458 E.05169
G1 X49.427 Y211.546 E.05169
G1 X49.043 Y210.226 E.05118
G1 X49.043 Y137.736 E2.69998
G1 X49.435 Y136.405 E.05169
G1 X50.922 Y135.363 E.06762
; printing object Mini Easel - Rotated.stl id:0 copy 0
G1 E-.8 F1800
EXCLUDE_OBJECT_START NAME=Mini_Easel_-_Rotated.stl_id_0_copy_0
G1 X181.15 Y169.381 F12000
G1 E.8 F1800
;TYPE:Outer wall
G1 F3000
G1 X153.539 Y169.381 E1.02842
G1 X81.15 Y153.236 E2.76245
G1 X81.15 Y153.416 E.00671
G1 X73.85 Y151.808 E.27842
G1 X73.85 Y151.607 E.00746
G1 X51.85 Y146.701 E.83955
G1 X51.85 Y138.173 E.31763
G1 X181.15 Y167.012 E4.93427
G1 X181.15 Y169.341 E.08676
G1 X180.693 Y168.924 F12000
;TYPE:Inner wall
G1 F3000
G1 X153.589 Y168.924 E1.00952
G1 X80.693 Y152.665 E2.78181
G1 X80.693 Y152.847 E.00676
G1 X74.307 Y151.44 E.24356
G1 X74.307 Y151.241 E.00743
G1 X52.307 Y146.334 E.83954
G1 X52.307 Y138.743 E.28275
G1 X180.693 Y167.378 E4.89938
G1 X180.693 Y168.884 E.05609
G1 X180.236 Y168.467 F12000
G1 F3000
G1 X153.639 Y168.467 E.99062
G1 X80.236 Y152.095 E2.80118
G1 X80.236 Y152.278 E.00682
G1 X74.764 Y151.073 E.2087
G1 X74.764 Y150.875 E.00739
G1 X52.764 Y145.968 E.83953
G1 X52.764 Y139.313 E.24786
G1 X180.236 Y167.744 E4.8645
G1 X180.236 Y168.427 E.02542
G1 E-.8 F1800
G1 X178.205 Y168.01 F12000
G1 E.8 F1800
G1 F3000
G1 X153.69 Y168.01 E.91309
G1 X79.779 Y151.525 E2.82054
G1 X79.779 Y151.71 E.00688
G1 X75.221 Y150.706 E.17384
G1 X75.221 Y150.508 E.00735
G1 X53.221 Y145.602 E.83953
G1 X53.221 Y139.883 E.21298
G1 X178.232 Y167.766 E4.77057
G1 X178.209 Y167.97 E.00766
G1 X178.445 Y167.913 F12000
;TYPE:Gap infill
;WIDTH:0.581511
G1 F3000
G1 X178.758 Y167.947 E.01379
;WIDTH:0.533138
G1 X179.07 Y167.982 E.01255
;WIDTH:0.484766
G1 X179.383 Y168.016 E.01132
;WIDTH:0.436393
G1 X179.695 Y168.05 E.01008
;WIDTH:0.38802
G1 X180.007 Y168.085 E.00884
G1 E-.8 F1800
G1 X177.01 Y167.755 F12000
G1 E.8 F1800
;WIDTH:0.10292
G1 F3000
G1 X176.763 Y167.727 E.00121
;WIDTH:0.150826
G1 X176.516 Y167.7 E.00218
;WIDTH:0.198732
G1 X176.27 Y167.673 E.00315
;WIDTH:0.246637
G1 X176.023 Y167.646 E.00412
;WIDTH:0.294543
G1 X175.776 Y167.619 E.00509
;WIDTH:0.342449
G1 X175.53 Y167.592 E.00606
;WIDTH:0.390355
G1 X175.283 Y167.564 E.00703
;WIDTH:0.43826
G1 X175.036 Y167.537 E.00799
;WIDTH:0.486166
G1 X174.79 Y167.51 E.00896
;WIDTH:0.534072
G1 X174.543 Y167.483 E.00993
;WIDTH:0.581977
G1 X174.296 Y167.456 E.0109
G1 X174.115 Y167.848 F12000
;TYPE:Bottom surface
;WIDTH:0.502383
G1 F6300
G1 X173.279 Y167.012 E.04425
G1 X172.443 Y166.826 E.03208
G1 X173.284 Y167.667 E.04454
G1 X172.635 Y167.667 E.02433
G1 X171.607 Y166.639 E.05442
G1 X170.77 Y166.453 E.03208
G1 X171.985 Y167.667 E.0643
G1 X171.335 Y167.667 E.02433
G1 X169.934 Y166.266 E.07417
G1 X169.098 Y166.08 E.03208
G1 X170.685 Y167.667 E.08405
G1 X170.035 Y167.667 E.02433
G1 X168.262 Y165.893 E.09393
G1 X167.425 Y165.707 E.03208
G1 X169.386 Y167.667 E.1038
G1 X168.736 Y167.667 E.02433
G1 X166.589 Y165.52 E.11368
G1 X165.753 Y165.334 E.03208
G1 X168.086 Y167.667 E.12356
G1 X167.436 Y167.667 E.02433
G1 X164.916 Y165.147 E.13343
G1 X164.08 Y164.961 E.03208
G1 X166.787 Y167.667 E.14331
G1 X166.137 Y167.667 E.02433
G1 X163.244 Y164.774 E.15319
G1 X162.407 Y164.587 E.03208
G1 X165.487 Y167.667 E.16306
G1 X164.837 Y167.667 E.02433
G1 X161.571 Y164.401 E.17294
G1 X160.735 Y164.214 E.03208
G1 X164.187 Y167.667 E.18282
G1 X163.538 Y167.667 E.02433
G1 X159.898 Y164.028 E.19269
G1 X159.062 Y163.841 E.03208
G1 X162.888 Y167.667 E.20257
G1 X162.238 Y167.667 E.02433
G1 X158.226 Y163.655 E.21244
G1 X157.39 Y163.468 E.03208
G1 X161.588 Y167.667 E.22232
G1 X160.939 Y167.667 E.02433
G1 X156.553 Y163.282 E.2322
G1 X155.717 Y163.095 E.03208
G1 X160.289 Y167.667 E.24207
G1 X159.639 Y167.667 E.02433
G1 X154.881 Y162.909 E.25195
G1 X154.044 Y162.722 E.03208
G1 X158.989 Y167.667 E.26183
G1 X158.339 Y167.667 E.02433
G1 X153.208 Y162.536 E.2717
G1 X152.372 Y162.349 E.03208
G1 X157.69 Y167.667 E.28158
G1 X157.04 Y167.667 E.02433
G1 X151.535 Y162.163 E.29146
G1 X150.699 Y161.976 E.03208
G1 X156.39 Y167.667 E.30133
G1 X155.74 Y167.667 E.02433
G1 X149.863 Y161.79 E.31121
G1 X149.026 Y161.603 E.03208
G1 X155.091 Y167.667 E.32109
G1 X154.441 Y167.667 E.02433
G1 X148.19 Y161.416 E.33096
G1 X147.354 Y161.23 E.03208
G1 X153.791 Y167.667 E.34084
G1 X153.727 Y167.667 E.00238
G1 X152.973 Y167.499 E.02894
G1 X146.518 Y161.043 E.34181
G1 X145.681 Y160.857 E.03208
G1 X152.137 Y167.312 E.34181
G1 X151.3 Y167.126 E.03208
G1 X144.845 Y160.67 E.34181
G1 X144.009 Y160.484 E.03208
G1 X150.464 Y166.939 E.34181
G1 X149.628 Y166.753 E.03208
G1 X143.172 Y160.297 E.34181
G1 X142.336 Y160.111 E.03208
G1 X148.791 Y166.566 E.34181
G1 X147.955 Y166.38 E.03208
G1 X141.5 Y159.924 E.34181
G1 X140.663 Y159.738 E.03208
G1 X147.119 Y166.193 E.34181
G1 X146.283 Y166.007 E.03208
G1 X139.827 Y159.551 E.34181
G1 X138.991 Y159.365 E.03208
G1 X145.446 Y165.82 E.34181
G1 X144.61 Y165.634 E.03208
G1 X138.154 Y159.178 E.34181
G1 X137.318 Y158.992 E.03208
G1 X143.774 Y165.447 E.34181
G1 X142.937 Y165.26 E.03208
G1 X136.482 Y158.805 E.34181
G1 X135.646 Y158.619 E.03208
G1 X142.101 Y165.074 E.34181
G1 X141.265 Y164.887 E.03208
G1 X134.809 Y158.432 E.34181
G1 X133.973 Y158.245 E.03208
G1 X140.428 Y164.701 E.34181
G1 X139.592 Y164.514 E.03208
G1 X133.137 Y158.059 E.34181
G1 X132.3 Y157.872 E.03208
G1 X138.756 Y164.328 E.34181
G1 X137.919 Y164.141 E.03208
G1 X131.464 Y157.686 E.34181
G1 X130.628 Y157.499 E.03208
G1 X137.083 Y163.955 E.34181
G1 X136.247 Y163.768 E.03208
G1 X129.791 Y157.313 E.34181
G1 X128.955 Y157.126 E.03208
G1 X135.411 Y163.582 E.34181
G1 X134.574 Y163.395 E.03208
G1 X128.119 Y156.94 E.34181
G1 X127.282 Y156.753 E.03208
G1 X133.738 Y163.209 E.34181
G1 X132.902 Y163.022 E.03208
G1 X126.446 Y156.567 E.34181
G1 X125.61 Y156.38 E.03208
G1 X132.065 Y162.836 E.34181
G1 X131.229 Y162.649 E.03208
G1 X124.774 Y156.194 E.34181
G1 X123.937 Y156.007 E.03208
G1 X130.393 Y162.463 E.34181
G1 X129.556 Y162.276 E.03208
G1 X123.101 Y155.821 E.34181
G1 X122.265 Y155.634 E.03208
G1 X128.72 Y162.089 E.34181
G1 X127.884 Y161.903 E.03208
G1 X121.428 Y155.448 E.34181
G1 X120.592 Y155.261 E.03208
G1 X127.047 Y161.716 E.34181
G1 X126.211 Y161.53 E.03208
G1 X119.756 Y155.074 E.34181
G1 X118.919 Y154.888 E.03208
G1 X125.375 Y161.343 E.34181
G1 X124.538 Y161.157 E.03208
G1 X118.083 Y154.701 E.34181
G1 X117.247 Y154.515 E.03208
G1 X123.702 Y160.97 E.34181
G1 X122.866 Y160.784 E.03208
G1 X116.41 Y154.328 E.34181
G1 X115.574 Y154.142 E.03208
G1 X122.03 Y160.597 E.34181
G1 X121.193 Y160.411 E.03208
G1 X114.738 Y153.955 E.34181
G1 X113.902 Y153.769 E.03208
G1 X120.357 Y160.224 E.34181
G1 X119.521 Y160.038 E.03208
G1 X113.065 Y153.582 E.34181
G1 X112.229 Y153.396 E.03208
G1 X118.684 Y159.851 E.34181
G1 X117.848 Y159.665 E.03208
G1 X111.393 Y153.209 E.34181
G1 X110.556 Y153.023 E.03208
G1 X117.012 Y159.478 E.34181
G1 X116.175 Y159.292 E.03208
G1 X109.72 Y152.836 E.34181
G1 X108.884 Y152.65 E.03208
G1 X115.339 Y159.105 E.34181
G1 X114.503 Y158.918 E.03208
G1 X108.047 Y152.463 E.34181
G1 X107.211 Y152.277 E.03208
G1 X113.666 Y158.732 E.34181
G1 X112.83 Y158.545 E.03208
G1 X106.375 Y152.09 E.34181
G1 X105.538 Y151.903 E.03208
G1 X111.994 Y158.359 E.34181
G1 X111.158 Y158.172 E.03208
G1 X104.702 Y151.717 E.34181
G1 X103.866 Y151.53 E.03208
G1 X110.321 Y157.986 E.34181
M73 P1 R92
G1 X109.485 Y157.799 E.03208
G1 X103.03 Y151.344 E.34181
G1 X102.193 Y151.157 E.03208
G1 X108.649 Y157.613 E.34181
G1 X107.812 Y157.426 E.03208
G1 X101.357 Y150.971 E.34181
G1 X100.521 Y150.784 E.03208
G1 X106.976 Y157.24 E.34181
G1 X106.14 Y157.053 E.03208
G1 X99.684 Y150.598 E.34181
G1 X98.848 Y150.411 E.03208
G1 X105.303 Y156.867 E.34181
G1 X104.467 Y156.68 E.03208
G1 X98.012 Y150.225 E.34181
G1 X97.175 Y150.038 E.03208
G1 X103.631 Y156.494 E.34181
G1 X102.794 Y156.307 E.03208
G1 X96.339 Y149.852 E.34181
G1 X95.503 Y149.665 E.03208
G1 X101.958 Y156.121 E.34181
G1 X101.122 Y155.934 E.03208
G1 X94.666 Y149.479 E.34181
G1 X93.83 Y149.292 E.03208
G1 X100.286 Y155.747 E.34181
G1 X99.449 Y155.561 E.03208
G1 X92.994 Y149.106 E.34181
G1 X92.158 Y148.919 E.03208
G1 X98.613 Y155.374 E.34181
G1 X97.777 Y155.188 E.03208
G1 X91.321 Y148.732 E.34181
G1 X90.485 Y148.546 E.03208
G1 X96.94 Y155.001 E.34181
G1 X96.104 Y154.815 E.03208
G1 X89.649 Y148.359 E.34181
G1 X88.812 Y148.173 E.03208
G1 X95.268 Y154.628 E.34181
G1 X94.431 Y154.442 E.03208
G1 X87.976 Y147.986 E.34181
G1 X87.14 Y147.8 E.03208
G1 X93.595 Y154.255 E.34181
G1 X92.759 Y154.069 E.03208
G1 X86.303 Y147.613 E.34181
G1 X85.467 Y147.427 E.03208
G1 X91.922 Y153.882 E.34181
G1 X91.086 Y153.696 E.03208
G1 X84.631 Y147.24 E.34181
G1 X83.794 Y147.054 E.03208
G1 X90.25 Y153.509 E.34181
G1 X89.414 Y153.323 E.03208
G1 X82.958 Y146.867 E.34181
G1 X82.122 Y146.681 E.03208
G1 X88.577 Y153.136 E.34181
G1 X87.741 Y152.95 E.03208
G1 X81.286 Y146.494 E.34181
G1 X80.449 Y146.308 E.03208
G1 X86.905 Y152.763 E.34181
G1 X86.068 Y152.576 E.03208
G1 X79.613 Y146.121 E.34181
G1 X78.777 Y145.935 E.03208
G1 X85.232 Y152.39 E.34181
G1 X84.396 Y152.203 E.03208
G1 X77.94 Y145.748 E.34181
G1 X77.104 Y145.561 E.03208
G1 X83.559 Y152.017 E.34181
G1 X82.723 Y151.83 E.03208
G1 X76.268 Y145.375 E.34181
G1 X75.431 Y145.188 E.03208
G1 X81.887 Y151.644 E.34181
G1 X81.05 Y151.457 E.03208
G1 X74.595 Y145.002 E.34181
G1 X73.759 Y144.815 E.03208
G1 X80.214 Y151.271 E.34181
G1 X79.436 Y151.097 E.02985
G1 X79.436 Y151.142 E.00169
G1 X72.922 Y144.629 E.34488
G1 X72.086 Y144.442 E.03208
G1 X78.783 Y151.139 E.3546
G1 X77.95 Y150.956 E.03195
G1 X71.25 Y144.256 E.35475
G1 X70.413 Y144.069 E.03208
G1 X77.116 Y150.772 E.35491
G1 X76.283 Y150.589 E.03195
G1 X69.577 Y143.883 E.35507
G1 X68.741 Y143.696 E.03208
G1 X75.196 Y150.152 E.34181
G1 X74.36 Y149.965 E.03208
G1 X67.905 Y143.51 E.34181
G1 X67.068 Y143.323 E.03208
G1 X73.524 Y149.779 E.34181
G1 X72.687 Y149.592 E.03208
G1 X66.232 Y143.137 E.34181
G1 X65.396 Y142.95 E.03208
G1 X71.851 Y149.405 E.34181
G1 X71.015 Y149.219 E.03208
G1 X64.559 Y142.764 E.34181
G1 X63.723 Y142.577 E.03208
G1 X70.178 Y149.032 E.34181
G1 X69.342 Y148.846 E.03208
G1 X62.887 Y142.39 E.34181
G1 X62.05 Y142.204 E.03208
G1 X68.506 Y148.659 E.34181
G1 X67.67 Y148.473 E.03208
G1 X61.214 Y142.017 E.34181
G1 X60.378 Y141.831 E.03208
G1 X66.833 Y148.286 E.34181
G1 X65.997 Y148.1 E.03208
G1 X59.541 Y141.644 E.34181
G1 X58.705 Y141.458 E.03208
G1 X65.161 Y147.913 E.34181
G1 X64.324 Y147.727 E.03208
G1 X57.869 Y141.271 E.34181
G1 X57.033 Y141.085 E.03208
G1 X63.488 Y147.54 E.34181
G1 X62.652 Y147.354 E.03208
G1 X56.196 Y140.898 E.34181
G1 X55.36 Y140.712 E.03208
G1 X61.815 Y147.167 E.34181
G1 X60.979 Y146.981 E.03208
G1 X54.524 Y140.525 E.34181
G1 X53.687 Y140.339 E.03208
G1 X60.143 Y146.794 E.34181
G1 X59.306 Y146.608 E.03208
G1 X53.564 Y140.865 E.30405
G1 X53.564 Y141.515 E.02433
G1 X58.47 Y146.421 E.25977
G1 X57.634 Y146.234 E.03208
G1 X53.564 Y142.165 E.21549
G1 X53.564 Y142.814 E.02433
G1 X56.798 Y146.048 E.17121
G1 X55.961 Y145.861 E.03208
G1 X53.564 Y143.464 E.12693
G1 X53.564 Y144.114 E.02433
G1 X55.125 Y145.675 E.08265
G1 X54.289 Y145.488 E.03208
G1 X53.358 Y144.558 E.04926
G1 E-.8 F1800
G1 X102.782 Y157.716 F12000
G1 X169.058 Y175.362
G1 X176.321 Y177.295
G1 X180.814 Y178.917
G1 X181.15 Y178.581
G1 E.8 F1800
;TYPE:Outer wall
;WIDTH:0.5
G1 F3000
G1 X181.15 Y180.951 E.08825
G1 X51.85 Y209.79 E4.93427
G1 X51.85 Y201.262 E.31763
G1 X73.85 Y196.355 E.83955
G1 X73.85 Y196.154 E.00746
G1 X81.15 Y194.547 E.27842
G1 X81.15 Y194.727 E.00671
G1 X153.539 Y178.581 E2.76244
G1 X181.11 Y178.581 E1.02693
G1 X180.693 Y179.038 F12000
;TYPE:Inner wall
G1 F3000
G1 X180.693 Y180.584 E.05758
G1 X52.307 Y209.219 E4.89938
G1 X52.307 Y201.628 E.28275
G1 X74.307 Y196.721 E.83955
G1 X74.307 Y196.522 E.00743
G1 X80.693 Y195.115 E.24356
G1 X80.693 Y195.297 E.00676
G1 X153.589 Y179.038 E2.78179
G1 X180.653 Y179.038 E1.00803
G1 X180.236 Y179.495 F12000
G1 F3000
G1 X180.236 Y180.218 E.02691
G1 X52.764 Y208.649 E4.8645
G1 X52.764 Y201.994 E.24786
G1 X74.764 Y197.088 E.83955
G1 X74.764 Y196.889 E.00739
G1 X80.237 Y195.684 E.20871
G1 X80.237 Y195.867 E.00682
G1 X153.639 Y179.495 E2.80115
G1 X180.196 Y179.495 E.98913
M73 P1 R91
G1 E-.8 F1800
G1 X178.205 Y179.952 F12000
G1 E.8 F1800
G1 F3000
G1 X178.232 Y180.197 E.00915
G1 X53.221 Y208.079 E4.77057
G1 X53.221 Y202.361 E.21298
G1 X75.221 Y197.454 E.83955
G1 X75.221 Y197.256 E.00735
G1 X79.78 Y196.252 E.17386
G1 X79.78 Y196.437 E.00688
G1 X153.69 Y179.952 E2.8205
G1 X178.165 Y179.952 E.9116
G1 X178.445 Y180.049 F12000
;TYPE:Gap infill
;WIDTH:0.581512
G1 F3000
G1 X178.758 Y180.015 E.01379
;WIDTH:0.533139
G1 X179.07 Y179.981 E.01255
;WIDTH:0.484767
G1 X179.383 Y179.946 E.01132
;WIDTH:0.436394
G1 X179.695 Y179.912 E.01008
;WIDTH:0.388021
G1 X180.007 Y179.877 E.00884
G1 E-.8 F1800
G1 X177.01 Y180.208 F12000
G1 E.8 F1800
;WIDTH:0.102921
G1 F3000
G1 X176.763 Y180.235 E.00121
;WIDTH:0.150827
G1 X176.516 Y180.262 E.00218
;WIDTH:0.198732
G1 X176.27 Y180.289 E.00315
;WIDTH:0.246638
G1 X176.023 Y180.316 E.00412
;WIDTH:0.294544
G1 X175.776 Y180.343 E.00509
;WIDTH:0.34245
G1 X175.53 Y180.371 E.00606
;WIDTH:0.390356
G1 X175.283 Y180.398 E.00703
;WIDTH:0.438261
G1 X175.036 Y180.425 E.00799
;WIDTH:0.486167
G1 X174.79 Y180.452 E.00896
;WIDTH:0.534073
G1 X174.543 Y180.479 E.00993
;WIDTH:0.581979
G1 X174.296 Y180.507 E.0109
G1 X174.076 Y180.983 F12000
;TYPE:Bottom surface
;WIDTH:0.501974
G1 F6300
G1 X173.388 Y180.295 E.03639
G1 X172.738 Y180.295 E.02428
G1 X173.372 Y180.929 E.03354
G1 X172.842 Y181.048 E.02034
G1 X172.089 Y180.295 E.0398
G1 X171.44 Y180.295 E.02428
G1 X172.311 Y181.166 E.04607
G1 X171.78 Y181.284 E.02034
G1 X170.791 Y180.295 E.05233
G1 X170.142 Y180.295 E.02428
G1 X171.249 Y181.403 E.05859
