; generated by SuperSlicer 2.5.59 on 2022-12-30 at 18:16:36 UTC


;
;

;
;
; 

; external perimeters extrusion width = 0.40mm
; perimeters extrusion width = 0.46mm
; infill extrusion width = 0.64mm
; solid infill extrusion width = 0.56mm
; top infill extrusion width = 0.40mm
; support material extrusion width = 0.46mm
; first layer extrusion width = 0.50mm

; object:{"name":"motherboard_case_lid","id":"motherboard_case_lid.stl id:0 copy 0","object_center":[165.000000,165.000000,0.000000],"boundingbox_center":[165.000000,165.000000,2.500000],"boundingbox_size":[110.000000,190.000000,5.000000]}
; plater:{"center":[165.000000,165.000000,0.000000],"boundingbox_center":[165.000000,165.000000,2.500000],"boundingbox_size":[110.000000,190.000000,5.000000]}

M73 P0 R125


; Pre-Processed for Cancel-Object support by preprocess_cancellation v0.2.0
; 1 known objects
EXCLUDE_OBJECT_DEFINE NAME=motherboard_case_lid_stl_id_0_copy_0 CENTER=166.228,191.267 POLYGON=[[110.2,70.2],[110.2,259.8],[219.8,259.8],[219.8,70.2]]
;TYPE:Custom
; custom gcode: start_gcode
START_PRINT T_BED=110 T_EXTRUDER=240
; custom gcode end: start_gcode
M107
G21 ; set units to millimeters
G90 ; use absolute coordinates
M82 ; use absolute distances for extrusion
G92 E0
; custom gcode: start_filament_gcode
; Filament gcode
; custom gcode end: start_filament_gcode
;_TOOLCHANGE 0
M104 S240 ; set temperature
M109 S240 ; set temperature and wait for it to be reached
M190 S110 ; set bed temperature and wait for it to be reached
;LAYER_CHANGE
;Z:0.2
;HEIGHT:0.2
G1 Z0.2 F9000
G1 E-0.5 F3000
M204 S1000
G1 X106.979 Y68.634 F9000
G1 E0 F1800
;TYPE:Skirt
;WIDTH:0.52
G1 X106.584 Y70.3 E0.06386
G1 X106.584 Y259.7 E7.12643
G1 X107.321 Y261.921 E7.21368
G1 X108.634 Y263.021 E7.27754
G1 X110.3 Y263.416 E7.34139
G1 X219.7 Y263.416 E11.42083
M73 P0 R125
G1 X221.921 Y262.679 E11.50809
G1 X223.021 Y261.366 E11.57194
G1 X223.416 Y259.7 E11.6358
G1 X223.416 Y90.003 E17.96367
G1 X223.239 Y87.172 E18.06943
G1 X222.776 Y84.588 E18.16733
G1 X222.165 Y82.465 E18.24971
G1 X221.001 Y79.655 E18.36311
G1 X219.711 Y77.369 E18.461
G1 X218.172 Y75.241 E18.5589
G1 X216.406 Y73.3 E18.65679
G1 X214.759 Y71.828 E18.73917
G1 X212.278 Y70.068 E18.85257
G1 X210.345 Y68.999 E18.93495
G1 X207.928 Y67.973 E19.03285
G1 X205.006 Y67.131 E19.14625
G1 X202.414 Y66.714 E19.24414
G1 X200.206 Y66.59 E19.32663
G1 X110.3 Y66.584 E22.67913
G1 X108.079 Y67.321 E22.76639
G1 X106.979 Y68.634 E22.83024
G1 X107.455 Y68.755 F9000
G1 F1800
G1 X107.061 Y70.3 E22.8897
G1 X107.061 Y259.7 E29.95227
G1 X107.581 Y261.459 E30.02066
G1 X108.752 Y262.545 E30.08022
G1 X110.3 Y262.939 E30.13977
G1 X219.7 Y262.939 E34.21921
G1 X221.459 Y262.419 E34.2876
G1 X222.545 Y261.248 E34.34716
G1 X222.939 Y259.7 E34.40671
G1 X222.939 Y90.003 E40.73458
G1 X222.769 Y87.252 E40.83736
G1 X222.399 Y85.074 E40.91973
G1 X221.706 Y82.597 E41.01564
G1 X220.583 Y79.886 E41.12506
G1 X219.322 Y77.645 E41.22096
G1 X217.817 Y75.559 E41.31686
G1 X216.088 Y73.655 E41.41276
G1 X214.441 Y72.183 E41.49514
G1 X212.047 Y70.485 E41.60456
G1 X209.787 Y69.259 E41.70046
G1 X207.746 Y68.414 E41.78284
G1 X204.926 Y67.601 E41.89226
G1 X202.387 Y67.191 E41.98816
G1 X200.179 Y67.067 E42.07064
G1 X110.3 Y67.061 E45.42215
G1 X108.541 Y67.581 E45.49054
G1 X107.455 Y68.755 E45.55018
G92 E0
G1 E-0.5 F3000
; printing object motherboard_case_lid.stl id:0 copy 0
EXCLUDE_OBJECT_START NAME=motherboard_case_lid_stl_id_0_copy_0
; acceleration to travel
M204 S3000
G1 X160.952 Y189.77 F9000
; decel to extrusion
M204 S1000
G1 X178.785 Y230.109
; end travel
G1 E0 F1800
;TYPE:Support material interface
;WIDTH:0.5
G1 X179.201 Y229.96 E0.01578
G1 X179.609 Y229.815 E0.03126
G1 X179.91 Y229.784 E0.04209
G1 X180.267 Y229.748 E0.05491
G1 X180.541 Y229.719 E0.06475
G1 X180.577 Y229.716 E0.06602
G1 X180.887 Y229.749 E0.07718
G1 X181.246 Y229.786 E0.09006
G1 X181.562 Y229.82 E0.10143
G1 X181.762 Y229.879 E0.10887
G1 X181.972 Y229.941 E0.11671
G1 X182.357 Y230.113 E0.13175
G1 X182.705 Y230.334 E0.14648
G1 X183.01 Y230.594 E0.1608
G1 X183.187 Y230.821 E0.1711
G1 X183.29 Y230.953 E0.17709
G1 X183.393 Y231.086 E0.18308
G1 X183.528 Y231.259 E0.19094
G1 X183.567 Y231.309 E0.19318
G1 X183.703 Y231.602 E0.20472
G1 X183.861 Y231.943 E0.21814
G1 X183.932 Y232.095 E0.22415
G1 X184.002 Y232.248 E0.23016
G1 X184.105 Y232.627 E0.2442
G1 X184.218 Y233.045 E0.25965
G1 X184.323 Y233.433 E0.27404
G1 X184.387 Y233.898 E0.2908
G1 X184.454 Y234.392 E0.30861
G1 X184.519 Y234.864 E0.32563
G1 X184.535 Y235.27 E0.34013
G1 X184.552 Y235.698 E0.35543
G1 X184.569 Y236.125 E0.37073
G1 X184.585 Y236.54 E0.38555
G1 X184.577 Y236.982 E0.40133
G1 X184.569 Y237.427 E0.41725
G1 X184.544 Y237.842 E0.43208
G1 X184.519 Y238.254 E0.44685
G1 X184.477 Y238.636 E0.46056
G1 X184.436 Y239.016 E0.47422
G1 X184.378 Y239.364 E0.48684
G1 X184.32 Y239.711 E0.49939
G1 X184.247 Y240.026 E0.51096
G1 X184.174 Y240.339 E0.52244
G1 X184.128 Y240.485 E0.52791
G1 X184.085 Y240.621 E0.533
G1 X183.997 Y240.9 E0.54346
G1 X183.894 Y241.149 E0.55307
G1 X183.792 Y241.394 E0.56256
G1 X183.675 Y241.609 E0.57131
G1 X183.567 Y241.809 E0.57942
G1 X183.442 Y241.964 E0.58652
G1 X183.282 Y242.162 E0.59563
G1 X183.001 Y242.512 E0.61166
G1 X182.758 Y242.713 E0.62293
G1 X182.695 Y242.765 E0.62583
G1 X182.347 Y242.979 E0.64045
G1 X181.964 Y243.147 E0.65539
G1 X181.555 Y243.265 E0.67058
G1 X181.241 Y243.297 E0.68187
G1 X180.885 Y243.334 E0.69464
G1 X180.577 Y243.366 E0.70569
G1 X180.265 Y243.333 E0.71691
G1 X179.905 Y243.296 E0.72985
G1 X179.586 Y243.263 E0.74129
G1 X179.385 Y243.204 E0.74878
G1 X179.173 Y243.142 E0.75665
G1 X178.787 Y242.971 E0.77174
G1 X178.437 Y242.753 E0.78647
G1 X178.132 Y242.496 E0.80075
G1 X177.955 Y242.271 E0.81097
G1 X177.749 Y242.009 E0.82289
G1 X177.576 Y241.788 E0.8329
G1 X177.44 Y241.498 E0.84435
G1 X177.282 Y241.159 E0.85772
G1 X177.141 Y240.856 E0.86966
G1 X177.038 Y240.477 E0.88369
G1 X176.926 Y240.059 E0.89915
G1 X176.82 Y239.67 E0.91355
G1 X176.774 Y239.327 E0.92592
G1 X176.672 Y238.582 E0.95277
G1 X176.624 Y238.232 E0.9654
G1 X176.608 Y237.823 E0.98003
G1 X176.591 Y237.391 E0.99545
G1 X176.574 Y236.96 E1.01088
G1 X176.574 Y236.946 E1.01138
G1 X176.558 Y236.542 E1.02582
G1 X176.566 Y236.097 E1.0417
G1 X176.575 Y235.649 E1.05772
G1 X176.6 Y235.233 E1.07262
G1 X176.625 Y234.818 E1.08747
G1 X176.666 Y234.435 E1.10123
G1 X176.708 Y234.054 E1.11494
G1 X176.765 Y233.704 E1.1276
G1 X176.823 Y233.356 E1.14018
G1 X176.896 Y233.041 E1.15176
G1 X176.969 Y232.727 E1.16326
G1 X177.058 Y232.445 E1.17381
G1 X177.146 Y232.167 E1.18426
G1 X177.194 Y232.05 E1.18875
G1 X177.249 Y231.919 E1.19385
G1 X177.351 Y231.674 E1.20331
G1 X177.468 Y231.461 E1.21201
G1 X177.576 Y231.263 E1.22007
G1 X177.861 Y230.912 E1.2362
G1 X178.142 Y230.565 E1.25217
G1 X178.448 Y230.314 E1.26631
G1 X178.695 Y230.163 E1.27665
G1 X178.785 Y230.109 E1.28039
G1 X179.15 Y230.72 F9000
G1 F1800
G1 X179.038 Y230.787 E1.28506
G1 X179.019 Y230.801 E1.28589
G1 X179 Y230.814 E1.28671
G1 X178.799 Y230.989 E1.29623
G1 X178.736 Y231.043 E1.2992
G1 X178.707 Y231.073 E1.30069
G1 X178.471 Y231.354 E1.3138
G1 X178.44 Y231.399 E1.31574
G1 X178.257 Y231.739 E1.32956
G1 X178.073 Y232.08 E1.34338
G1 X178.053 Y232.13 E1.34534
G1 X178.018 Y232.248 E1.34971
G1 X177.928 Y232.554 E1.36112
G1 X177.805 Y232.972 E1.37667
G1 X177.797 Y233.008 E1.37799
G1 X177.696 Y233.685 E1.40245
G1 X177.665 Y233.898 E1.41015
G1 X177.646 Y234.025 E1.41472
G1 X177.644 Y234.046 E1.41549
G1 X177.592 Y234.828 E1.44346
G1 X177.575 Y235.09 E1.45285
G1 X177.566 Y235.219 E1.45747
G1 X177.566 Y235.231 E1.45791
G1 X177.557 Y235.67 E1.47358
G1 X177.549 Y236.104 E1.48908
G1 X177.54 Y236.551 E1.50506
G1 X177.555 Y237.456 E1.53742
G1 X177.563 Y237.912 E1.55369
G1 X177.563 Y237.923 E1.55411
G1 X177.586 Y238.297 E1.5675
G1 X177.632 Y239.046 E1.59428
G1 X177.635 Y239.069 E1.59512
G1 X177.64 Y239.106 E1.59646
G1 X177.707 Y239.544 E1.6123
G1 X177.757 Y239.874 E1.62421
G1 X177.78 Y240.024 E1.62964
G1 X177.788 Y240.06 E1.63093
G1 X177.914 Y240.485 E1.64679
G1 X178.041 Y240.916 E1.66282
G1 X178.059 Y240.962 E1.6646
G1 X178.233 Y241.299 E1.67816
G1 X178.407 Y241.639 E1.69179
G1 X178.437 Y241.684 E1.69372
G1 X178.668 Y241.97 E1.70685
G1 X178.696 Y241.999 E1.70829
G1 X178.875 Y242.162 E1.71695
G1 X178.958 Y242.238 E1.72095
G1 X178.995 Y242.266 E1.72262
G1 X179.297 Y242.456 E1.73539
G1 X179.319 Y242.468 E1.73628
G1 X179.341 Y242.479 E1.73715
G1 X179.543 Y242.558 E1.74491
G1 X179.685 Y242.614 E1.75034
G1 X179.702 Y242.619 E1.75097
G1 X179.727 Y242.627 E1.75193
G1 X179.807 Y242.643 E1.75484
G1 X180.108 Y242.706 E1.76581
G1 X180.145 Y242.711 E1.76717
G1 X180.561 Y242.738 E1.78204
G1 X180.594 Y242.738 E1.78322
G1 X180.989 Y242.713 E1.79737
G1 X181.026 Y242.708 E1.7987
G1 X181.241 Y242.664 E1.80653
G1 X181.391 Y242.633 E1.81201
G1 X181.432 Y242.621 E1.81353
G1 X181.765 Y242.494 E1.82628
G1 X181.807 Y242.473 E1.82795
G1 X182.106 Y242.294 E1.84039
G1 X182.144 Y242.267 E1.84205
G1 X182.264 Y242.162 E1.84776
G1 X182.407 Y242.038 E1.85454
G1 X182.437 Y242.007 E1.85606
G1 X182.672 Y241.726 E1.86915
G1 X182.702 Y241.679 E1.87114
G1 X182.724 Y241.639 E1.87279
G1 X182.882 Y241.338 E1.8849
G1 X182.939 Y241.229 E1.88933
G1 X183.06 Y240.999 E1.89861
G1 X183.075 Y240.962 E1.90004
G1 X183.08 Y240.951 E1.90046
G1 X183.321 Y240.134 E1.93089
G1 X183.329 Y240.1 E1.93214
G1 X183.335 Y240.06 E1.9336
G1 X183.408 Y239.601 E1.95019
G1 X183.456 Y239.29 E1.96143
G1 X183.485 Y239.106 E1.96808
G1 X183.488 Y239.084 E1.96886
G1 X183.517 Y238.69 E1.983
G1 X183.574 Y237.911 E2.01089
G1 X183.575 Y237.897 E2.01138
G1 X183.584 Y237.443 E2.02762
G1 X183.594 Y236.994 E2.04366
G1 X183.603 Y236.541 E2.05986
G1 X183.603 Y236.53 E2.06026
G1 X183.594 Y236.077 E2.07644
G1 X183.585 Y235.67 E2.09099
G1 X183.575 Y235.174 E2.10868
G1 X183.574 Y235.161 E2.10918
G1 X183.545 Y234.77 E2.12316
G1 X183.521 Y234.435 E2.13518
G1 X183.488 Y233.991 E2.15107
G1 X183.485 Y233.969 E2.15187
G1 X183.326 Y232.973 E2.18789
G1 X183.318 Y232.939 E2.18916
G1 X183.067 Y232.106 E2.22022
G1 X183.047 Y232.057 E2.2221
G1 X182.87 Y231.726 E2.23553
G1 X182.693 Y231.394 E2.24898
G1 X182.685 Y231.383 E2.24945
G1 X182.663 Y231.35 E2.25089
G1 X182.433 Y231.073 E2.26374
G1 X182.404 Y231.044 E2.26519
G1 X182.146 Y230.817 E2.27748
G1 X182.124 Y230.8 E2.27848
G1 X182.109 Y230.789 E2.27914
G1 X181.991 Y230.717 E2.28408
G1 X181.814 Y230.609 E2.29148
G1 X181.771 Y230.588 E2.29319
G1 X181.438 Y230.461 E2.30593
G1 X181.396 Y230.449 E2.30747
G1 X181.03 Y230.374 E2.32084
G1 X180.993 Y230.369 E2.32217
G1 X180.594 Y230.344 E2.33646
G1 X180.561 Y230.344 E2.33762
G1 X180.476 Y230.349 E2.34066
G1 X180.161 Y230.369 E2.35194
G1 X180.125 Y230.374 E2.35326
G1 X179.756 Y230.449 E2.36669
G1 X179.715 Y230.46 E2.3682
G1 X179.38 Y230.587 E2.38103
G1 X179.337 Y230.608 E2.3827
G1 X179.15 Y230.72 E2.39051
G92 E0
G1 E-0.5 F3000
; acceleration to travel
M204 S3000
G1 X181.844 Y230.566 F9000
; decel to extrusion
M204 S1000
G1 X182.742 Y230.515
; end travel
G1 E0 F1800
G1 X182.256 Y230.515 E0.01736
G1 X182.282 Y230.531 E0.01846
G1 X182.308 Y230.55 E0.01962
G1 X182.341 Y230.574 E0.0211
G1 X182.619 Y230.819 E0.03431
G1 X182.664 Y230.865 E0.03662
G1 X182.795 Y231.023 E0.04392
G1 X182.95 Y231.023 E0.04949
G1 X183.045 Y231.144 E0.055
G1 X183.148 Y231.277 E0.06099
G1 X183.283 Y231.45 E0.06885
G1 X183.3 Y231.472 E0.06982
G1 X183.327 Y231.53 E0.07213
G1 X183.118 Y231.53 E0.07961
G1 X183.144 Y231.579 E0.08159
G1 X183.329 Y231.924 E0.09558
G1 X183.361 Y232.002 E0.09856
G1 X183.372 Y232.038 E0.09993
G1 X183.563 Y232.038 E0.10675
G1 X183.579 Y232.073 E0.10813
G1 X183.65 Y232.226 E0.11414
G1 X183.709 Y232.354 E0.1192
G1 X183.761 Y232.546 E0.1263
G1 X183.524 Y232.546 E0.13475
G1 X183.619 Y232.859 E0.14643
G1 X183.631 Y232.914 E0.14843
G1 X183.654 Y233.054 E0.1535
G1 X183.898 Y233.054 E0.16225
G1 X183.918 Y233.126 E0.1649
G1 X184.018 Y233.495 E0.17858
G1 X184.027 Y233.562 E0.18098
G1 X183.735 Y233.562 E0.19141
G1 X183.793 Y233.926 E0.20459
G1 X183.797 Y233.962 E0.20587
G1 X183.805 Y234.07 E0.20974
G1 X184.096 Y234.07 E0.22014
G1 X184.146 Y234.434 E0.23328
G1 X184.166 Y234.578 E0.23845
G1 X183.843 Y234.578 E0.25
G1 X183.855 Y234.747 E0.25608
G1 X183.88 Y235.086 E0.26819
G1 X184.217 Y235.086 E0.28022
G1 X184.224 Y235.282 E0.28724
G1 X184.237 Y235.593 E0.29838
G1 X183.894 Y235.593 E0.31061
G1 X183.896 Y235.663 E0.3131
G1 X183.904 Y236.07 E0.32765
G1 X183.905 Y236.101 E0.32876
G1 X184.257 Y236.101 E0.34133
G1 X184.258 Y236.138 E0.34264
G1 X184.274 Y236.543 E0.35713
G1 X184.273 Y236.609 E0.35949
G1 X183.913 Y236.609 E0.37237
G1 X183.904 Y237.001 E0.38635
G1 X183.902 Y237.117 E0.39051
G1 X184.264 Y237.117 E0.40343
G1 X184.258 Y237.415 E0.41408
G1 X184.245 Y237.625 E0.42159
G1 X183.891 Y237.625 E0.43424
G1 X183.885 Y237.908 E0.44436
G1 X183.884 Y237.93 E0.44514
G1 X183.869 Y238.133 E0.45241
G1 X184.215 Y238.133 E0.46474
G1 X184.209 Y238.228 E0.46815
G1 X184.168 Y238.602 E0.4816
G1 X184.164 Y238.641 E0.48298
G1 X183.832 Y238.641 E0.49483
G1 X183.827 Y238.712 E0.4974
G1 X183.797 Y239.114 E0.51177
G1 X183.793 Y239.148 E0.51303
G1 X184.099 Y239.148 E0.52393
G1 X184.071 Y239.314 E0.52991
G1 X184.015 Y239.65 E0.5421
G1 X184.014 Y239.656 E0.54232
G1 X183.713 Y239.656 E0.55306
G1 X183.642 Y240.108 E0.56939
G1 X183.633 Y240.164 E0.57143
G1 X183.896 Y240.164 E0.58081
G1 X183.874 Y240.257 E0.58422
G1 X183.831 Y240.392 E0.58926
G1 X183.789 Y240.528 E0.59436
G1 X183.743 Y240.672 E0.59976
G1 X183.486 Y240.672 E0.60894
G1 X183.373 Y241.053 E0.62315
G1 X183.363 Y241.079 E0.62412
G1 X183.342 Y241.13 E0.62609
G1 X183.316 Y241.18 E0.62812
G1 X183.544 Y241.18 E0.63628
G1 X183.511 Y241.26 E0.63938
G1 X183.402 Y241.461 E0.64755
G1 X183.307 Y241.636 E0.65466
G1 X183.265 Y241.688 E0.65704
G1 X183.049 Y241.688 E0.66475
G1 X182.999 Y241.783 E0.6686
G1 X182.97 Y241.838 E0.67083
G1 X182.921 Y241.912 E0.67399
G1 X182.685 Y242.196 E0.68718
G1 X182.856 Y242.196 E0.6933
G1 X182.778 Y242.292 E0.69773
G1 X182.559 Y242.473 E0.70788
G1 X182.514 Y242.511 E0.71
G1 X182.202 Y242.703 E0.72306
G1 X181.536 Y242.703 E0.74687
G92 E0
G1 E-0.5 F3000
; acceleration to travel
M204 S3000
G1 X179.837 Y233.562 F9000
; decel to extrusion
M204 S1000
G1 X179.271 Y230.515
; end travel
G1 E0 F1800
G1 X178.716 Y230.515 E0.01982
G1 X178.628 Y230.568 E0.02347
G1 X178.364 Y230.785 E0.03571
G1 X178.171 Y231.023 E0.04663
G1 X178.343 Y231.023 E0.05278
G1 X178.223 Y231.166 E0.05947
G1 X178.174 Y231.237 E0.06255
G1 X178.016 Y231.53 E0.07445
G1 X177.784 Y231.53 E0.08275
G1 X177.741 Y231.61 E0.08597
G1 X177.632 Y231.809 E0.09409
G1 X177.536 Y232.038 E0.10296
G1 X177.756 Y232.038 E0.1108
G1 X177.72 Y232.16 E0.11533
G1 X177.63 Y232.466 E0.12674
G1 X177.606 Y232.546 E0.12971
G1 X177.352 Y232.546 E0.13878
G1 X177.269 Y232.809 E0.14863
G1 X177.212 Y233.054 E0.15761
G1 X177.476 Y233.054 E0.16701
G1 X177.4 Y233.562 E0.18535
G1 X177.104 Y233.562 E0.19594
G1 X177.072 Y233.755 E0.20292
G1 X177.02 Y234.07 E0.21433
G1 X177.331 Y234.07 E0.22543
G1 X177.297 Y234.578 E0.24361
G1 X176.963 Y234.578 E0.25554
G1 X176.935 Y234.844 E0.26511
G1 X176.92 Y235.086 E0.27375
G1 X177.264 Y235.086 E0.28603
G1 X177.256 Y235.202 E0.29019
G1 X177.255 Y235.221 E0.29089
G1 X177.248 Y235.593 E0.30418
G1 X176.889 Y235.593 E0.31699
G1 X176.885 Y235.661 E0.31942
G1 X176.877 Y236.101 E0.33514
G1 X177.238 Y236.101 E0.34803
G1 X177.229 Y236.538 E0.36363
G1 X177.229 Y236.553 E0.36417
G1 X177.23 Y236.609 E0.36617
G1 X176.872 Y236.609 E0.37898
G1 X176.884 Y236.933 E0.39058
G1 X176.885 Y236.948 E0.39109
G1 X176.892 Y237.117 E0.39714
G1 X177.239 Y237.117 E0.40954
G1 X177.245 Y237.461 E0.42185
G1 X177.247 Y237.625 E0.42769
G1 X176.912 Y237.625 E0.43968
G1 X176.919 Y237.81 E0.44632
G1 X176.931 Y238.133 E0.45784
G1 X177.265 Y238.133 E0.46975
G1 X177.276 Y238.316 E0.47633
G1 X177.296 Y238.641 E0.48793
G1 X176.994 Y238.641 E0.49873
G1 X177.063 Y239.148 E0.51704
G1 X177.332 Y239.148 E0.52666
G1 X177.4 Y239.591 E0.54266
G1 X177.41 Y239.656 E0.54501
G1 X177.139 Y239.656 E0.55469
G1 X177.226 Y239.978 E0.56658
G1 X177.276 Y240.164 E0.57349
G1 X177.495 Y240.164 E0.5813
