; HEADER_BLOCK_START
; generated by OrcaSlicer 1.6.6 on 2023-08-28 at 19:52:17
; total layer number: 70
; HEADER_BLOCK_END

; THUMBNAIL_BLOCK_START
; THUMBNAIL_BLOCK_END

; external perimeters extrusion width = 0.40mm
; perimeters extrusion width = 0.46mm
; infill extrusion width = 0.64mm
; solid infill extrusion width = 0.56mm
; top infill extrusion width = 0.40mm
; support material extrusion width = 0.46mm
; first layer extrusion width = 0.50mm

; EXECUTABLE_BLOCK_START
EXCLUDE_OBJECT_DEFINE NAME=Mountable_Filament_Sensor_with_Bowden_PC4-M6.stl_id_0_copy_0 CENTER=165,180 POLYGON=[[138.25,178.95],[156.05,166.05],[166.05,166.05],[191.75,178.95],[191.75,188.95],[177.35,193.95],[152.35,193.95],[138.25,188.95],[138.25,178.95]]
M73 P0 R16
M73 C4
;TYPE:Custom
START_PRINT T_BED=110 T_EXTRUDER=260
G90
G21
M83 ; use relative distances for extrusion
; Filament gcode
PRESSURE_ADVANCE_SELECT FILAMENT=ASA
M106 S0
;LAYER_CHANGE
;Z:0.2
;HEIGHT:0.2
;BEFORE_LAYER_CHANGE
;0.2
G92 E0

SET_VELOCITY_LIMIT ACCEL=5000 ACCEL_TO_DECEL=2500
G1 E-.5 F2400
G1 X136.694 Y176.486 F12000
M73 C3
G1 Z.2
G1 E.5 F1800
;TYPE:Skirt
;WIDTH:0.5
G1 F3000
G1 X157.12 Y163.586 E.85391
G1 X158.676 Y163.136 E.05726
G1 X163.424 Y163.136 E.1678
G1 X164.631 Y163.398 E.04368
G1 X192.958 Y176.298 E1.10016
G1 X194.125 Y177.262 E.0535
G1 X194.664 Y178.95 E.06265
G1 X194.664 Y188.95 E.35346
G1 X194.271 Y190.412 E.0535
G1 X192.518 Y191.761 E.07819
G1 X174.218 Y196.761 E.67054
G1 X173.45 Y196.864 E.02739
G1 X152.35 Y196.864 E.7458
G1 X151.376 Y196.697 E.03493
G1 X137.276 Y191.697 E.52878
G1 X136.03 Y190.838 E.0535
G1 X135.336 Y188.95 E.07108
G1 X135.336 Y178.95 E.35346
G1 X135.729 Y177.488 E.0535
G1 X136.666 Y176.515 E.04776
G1 X136.938 Y176.873 F12000
G1 F3000
G1 X157.364 Y163.973 E.85391
G1 X158.676 Y163.593 E.04828
G1 X163.424 Y163.593 E.1678
G1 X164.442 Y163.814 E.03683
G1 X192.768 Y176.714 E1.10016
G1 X193.817 Y177.622 E.04905
G1 X194.207 Y178.95 E.04891
G1 X194.207 Y188.95 E.35346
G1 X193.815 Y190.281 E.04905
G1 X192.398 Y191.32 E.06212
G1 X174.098 Y196.32 E.67054
G1 X173.45 Y196.407 E.02309
G1 X152.35 Y196.407 E.7458
G1 X151.529 Y196.266 E.02945
G1 X137.429 Y191.266 E.52878
G1 X136.305 Y190.452 E.04905
G1 X135.793 Y188.95 E.05608
G1 X135.793 Y178.95 E.35346
G1 X136.185 Y177.619 E.04905
G1 X136.91 Y176.901 E.03606
; printing object Mountable_Filament_Sensor_with_Bowden_PC4-M6.stl id:0 copy 0
G1 E-.5 F2400
EXCLUDE_OBJECT_START NAME=Mountable_Filament_Sensor_with_Bowden_PC4-M6.stl_id_0_copy_0
G1 X148.7 Y188.6 F12000
G1 E.5 F1800
;TYPE:Outer wall
G1 F3000
G1 X138.6 Y188.6 E.35699
G1 X138.6 Y179.3 E.32872
G1 X148.7 Y179.3 E.35699
G1 X148.7 Y178.095 E.04259
G1 X152.495 Y174.3 E.1897
G1 X159.026 Y174.3 E.23086
G1 X159.026 Y166.4 E.27923
G1 X163.074 Y166.4 E.14305
G1 X163.074 Y174.3 E.27923
G1 X173.1 Y174.3 E.35439
G1 X173.1 Y179.3 E.17673
G1 X191.4 Y179.3 E.64683
G1 X191.4 Y188.6 E.32872
M73 P1 R16
G1 X173.1 Y188.6 E.64683
G1 X173.1 Y193.6 E.17673
G1 X152.495 Y193.6 E.7283
G1 X148.7 Y189.805 E.1897
G1 X148.7 Y188.64 E.04118
G1 X149.157 Y188.143 F12000
;TYPE:Inner wall
G1 F3000
G1 X139.057 Y188.143 E.35699
G1 X139.057 Y179.757 E.29641
G1 X149.157 Y179.757 E.35699
G1 X149.157 Y178.284 E.05206
G1 X152.684 Y174.757 E.17631
G1 X159.483 Y174.757 E.24032
G1 X159.483 Y166.857 E.27923
G1 X162.617 Y166.857 E.11074
G1 X162.617 Y174.757 E.27923
G1 X172.643 Y174.757 E.35439
G1 X172.643 Y179.757 E.17673
G1 X190.943 Y179.757 E.64683
G1 X190.943 Y188.143 E.29641
G1 X172.643 Y188.143 E.64683
G1 X172.643 Y193.143 E.17673
G1 X152.684 Y193.143 E.70545
G1 X149.157 Y189.616 E.17631
G1 X149.157 Y188.183 E.05064
G1 E-.5 F2400
G1 X188.025 Y187.476 F12000
G1 E.5 F1800
G1 F3000
G1 X188.818 Y187.072 E.03146
G1 X189.671 Y186.218 E.04267
G1 X190.276 Y185.032 E.04704
G1 X190.486 Y185.083 E.00764
G1 X190.486 Y187.686 E.09202
G1 X188.075 Y187.686 E.08521
G1 X188.034 Y187.514 E.00623
G1 X189.307 Y187.229 F12000
G1 F3000
G1 X190.029 Y186.506 E.03609
G1 X190.029 Y187.229 E.02554
G1 X189.347 Y187.229 E.02408
G1 E-.5 F2400
G1 X189.663 Y184.961 F12000
G1 X189.709 Y184.511
G1 X189.761 Y183.95
G1 X189.709 Y183.389
G1 X189.663 Y182.939
G1 X189.197 Y182.026
G1 X188.025 Y180.424
G1 E.5 F1800
G1 F3000
G1 X188.075 Y180.214 E.00764
G1 X190.486 Y180.214 E.08521
G1 X190.486 Y182.817 E.09202
G1 X190.276 Y182.868 E.00764
G1 X189.671 Y181.682 E.04704
G1 X188.818 Y180.828 E.04267
G1 X188.06 Y180.443 E.03005
G1 X189.307 Y180.671 F12000
G1 F3000
G1 X190.029 Y180.671 E.02549
G1 X190.029 Y181.394 E.02554
G1 X189.336 Y180.7 E.03467
G1 E-.5 F2400
G1 X186.55 Y180.839 F12000
G1 X186.004 Y180.89
G1 X185.57 Y180.931
G1 X185.146 Y181.06
G1 X185.029 Y181.097
G1 X184.626 Y181.302
G1 X183.902 Y182.026
G1 X183.438 Y182.939
G1 X183.277 Y183.95
G1 X183.426 Y184.89
G1 X183.758 Y184.837
G1 E.5 F1800
;TYPE:Outer wall
G1 F3000
G1 X183.617 Y183.95 E.03176
G1 X183.761 Y183.044 E.03242
G1 X184.177 Y182.226 E.03243
G1 X184.826 Y181.577 E.03246
G1 X185.644 Y181.161 E.03243
G1 X186.464 Y181.03 E.02934
G1 X186.55 Y181.017 E.00308
G1 X187.456 Y181.161 E.03242
G1 X188.274 Y181.577 E.03244
G1 X188.922 Y182.226 E.03243
G1 X189.339 Y183.044 E.03245
G1 X189.482 Y183.95 E.03242
G1 X189.339 Y184.856 E.03242
G1 X188.922 Y185.674 E.03245
G1 X188.274 Y186.323 E.03243
G1 X187.456 Y186.739 E.03244
G1 X186.55 Y186.883 E.03242
G1 X185.644 Y186.739 E.03242
G1 X184.826 Y186.323 E.03243
G1 X184.501 Y185.999 E.01623
G1 X184.177 Y185.674 E.01623
G1 X183.77 Y184.875 E.03168
G1 X183.313 Y184.948 F12000
;TYPE:Inner wall
G1 F3000
G1 X183.154 Y183.95 E.0357
G1 X183.321 Y182.901 E.03754
G1 X183.802 Y181.954 E.03754
G1 X184.554 Y181.202 E.03759
G1 X185.501 Y180.721 E.03754
G1 X186.392 Y180.579 E.03189
G1 X186.55 Y180.554 E.00565
G1 X187.599 Y180.721 E.03754
G1 X188.546 Y181.202 E.03756
G1 X189.297 Y181.954 E.03755
G1 X189.779 Y182.901 E.03757
G1 X189.945 Y183.95 E.03753
G1 X189.779 Y184.999 E.03753
G1 X189.297 Y185.946 E.03757
G1 X188.546 Y186.698 E.03755
G1 X187.599 Y187.179 E.03756
G1 X186.55 Y187.346 E.03754
G1 X185.501 Y187.179 E.03754
G1 X184.554 Y186.698 E.03754
G1 X184.178 Y186.322 E.0188
G1 X183.802 Y185.946 E.0188
G1 X183.321 Y184.999 E.03754
G1 X183.319 Y184.987 E.00043
G1 E-.5 F2400
G1 X142.075 Y187.476 F12000
G1 E.5 F1800
G1 F3000
G1 X142.025 Y187.686 E.00764
G1 X139.514 Y187.686 E.08874
G1 X139.514 Y184.446 E.11451
G1 X139.767 Y184.426 E.00896
G1 X139.881 Y185.142 E.02561
G1 X140.428 Y186.218 E.04266
G1 X141.282 Y187.072 E.04272
G1 X142.04 Y187.457 E.03003
G1 X140.793 Y187.229 F12000
G1 F3000
G1 X139.971 Y187.229 E.02903
G1 X139.971 Y186.407 E.02903
G1 X140.764 Y187.2 E.03964
G1 E-.5 F2400
G1 X139.767 Y183.474 F12000
G1 E.5 F1800
G1 F3000
G1 X139.514 Y183.454 E.00896
G1 X139.514 Y180.214 E.11451
G1 X142.025 Y180.214 E.08874
G1 X142.075 Y180.424 E.00764
G1 X141.282 Y180.828 E.03144
G1 X140.428 Y181.682 E.04272
G1 X139.881 Y182.758 E.04266
G1 X139.773 Y183.434 E.0242
G1 X139.971 Y181.493 F12000
G1 F3000
G1 X139.971 Y180.671 E.02903
G1 X140.793 Y180.671 E.02903
G1 X140 Y181.464 E.03964
G1 E-.5 F2400
G1 X140.288 Y183.95 F12000
G1 X140.348 Y184.396
G1 X140.438 Y184.961
G1 X140.902 Y185.874
G1 X141.626 Y186.598
G1 X142.029 Y186.803
G1 X142.146 Y186.84
G1 X142.57 Y186.969
G1 X143.004 Y187.01
G1 X143.464 Y187.053
G1 X143.481 Y186.872
G1 E.5 F1800
;TYPE:Outer wall
G1 F3000
G1 X142.644 Y186.739 E.02996
G1 X141.826 Y186.323 E.03243
G1 X141.177 Y185.674 E.03246
G1 X140.761 Y184.856 E.03243
G1 X140.617 Y183.95 E.03242
G1 X140.761 Y183.044 E.03242
G1 X141.177 Y182.226 E.03243
G1 X141.826 Y181.577 E.03246
G1 X142.644 Y181.161 E.03243
G1 X143.072 Y181.093 E.01531
G1 X143.5 Y181.025 E.01533
G1 X144.356 Y181.161 E.03063
G1 X145.174 Y181.577 E.03243
G1 X145.823 Y182.226 E.03246
G1 X146.239 Y183.044 E.03244
G1 X146.382 Y183.95 E.03241
G1 X146.239 Y184.856 E.03241
G1 X145.823 Y185.674 E.03244
G1 X145.174 Y186.323 E.03246
G1 X144.356 Y186.739 E.03243
G1 X143.521 Y186.872 E.02989
G1 X143.448 Y187.33 F12000
;TYPE:Inner wall
G1 F3000
G1 X142.501 Y187.179 E.0339
G1 X141.554 Y186.698 E.03754
G1 X140.802 Y185.946 E.03759
G1 X140.321 Y184.999 E.03754
G1 X140.154 Y183.95 E.03754
G1 X140.321 Y182.901 E.03754
G1 X140.802 Y181.954 E.03754
G1 X141.554 Y181.202 E.03759
G1 X142.501 Y180.721 E.03754
G1 X143 Y180.641 E.01786
G1 X143.5 Y180.562 E.0179
G1 X144.499 Y180.721 E.03575
G1 X145.446 Y181.202 E.03754
G1 X146.198 Y181.954 E.03759
G1 X146.68 Y182.902 E.03756
G1 X146.845 Y183.95 E.03752
G1 X146.68 Y184.998 E.03752
G1 X146.198 Y185.946 E.03756
G1 X145.446 Y186.698 E.03759
G1 X144.499 Y187.179 E.03754
G1 X143.5 Y187.338 E.03575
G1 X143.488 Y187.336 E.00044
G1 E-.5 F2400
G1 X149.614 Y187.686 F12000
G1 E.5 F1800
G1 F3000
G1 X144.975 Y187.686 E.16397
G1 X144.925 Y187.476 E.00764
G1 X145.718 Y187.072 E.03144
G1 X146.572 Y186.218 E.04272
G1 X147.12 Y185.141 E.04269
G1 X147.308 Y183.95 E.04262
G1 X147.12 Y182.759 E.04262
G1 X146.572 Y181.682 E.04269
G1 X145.718 Y180.828 E.04272
G1 X144.925 Y180.424 E.03144
G1 X144.975 Y180.214 E.00764
G1 X149.614 Y180.214 E.16397
G1 X149.614 Y178.474 E.06152
G1 X152.874 Y175.214 E.16293
G1 X159.941 Y175.214 E.24979
G1 X159.941 Y167.314 E.27923
M73 P2 R16
G1 X162.159 Y167.314 E.07843
G1 X162.159 Y175.214 E.27923
G1 X172.186 Y175.214 E.35439
G1 X172.186 Y180.214 E.17673
G1 X185.025 Y180.214 E.45381
G1 X185.075 Y180.424 E.00764
G1 X184.282 Y180.828 E.03144
G1 X183.428 Y181.682 E.04272
G1 X182.881 Y182.758 E.04266
G1 X182.691 Y183.95 E.04266
G1 X182.881 Y185.142 E.04266
G1 X183.428 Y186.218 E.04266
G1 X184.282 Y187.072 E.04272
G1 X185.075 Y187.476 E.03144
G1 X185.025 Y187.686 E.00764
G1 X172.186 Y187.686 E.45381
G1 X172.186 Y192.686 E.17673
G1 X152.874 Y192.686 E.68261
G1 X149.614 Y189.426 E.16293
G1 X149.614 Y187.726 E.06011
G1 X150.071 Y187.229 F12000
G1 F3000
G1 X146.207 Y187.229 E.13657
G1 X146.947 Y186.489 E.03695
G1 X147.56 Y185.284 E.04781
G1 X147.77 Y183.95 E.04773
G1 X147.56 Y182.616 E.04773
G1 X146.947 Y181.411 E.04781
G1 X146.208 Y180.671 E.03695
G1 X150.071 Y180.671 E.13657
G1 X150.071 Y178.663 E.07098
G1 X153.063 Y175.671 E.14955
G1 X160.398 Y175.671 E.25925
G1 X160.398 Y167.771 E.27923
G1 X161.702 Y167.771 E.04612
G1 X161.702 Y175.671 E.27923
G1 X171.729 Y175.671 E.35439
G1 X171.729 Y180.671 E.17673
G1 X183.793 Y180.671 E.4264
G1 X183.053 Y181.411 E.03695
G1 X182.441 Y182.615 E.04777
G1 X182.228 Y183.95 E.04778
G1 X182.441 Y185.285 E.04778
G1 X183.053 Y186.489 E.04777
G1 X183.793 Y187.229 E.03695
G1 X171.729 Y187.229 E.4264
G1 X171.729 Y192.229 E.17673
G1 X153.063 Y192.229 E.65976
G1 X150.071 Y189.237 E.14955
G1 X150.071 Y187.269 E.06957
G1 E-.5 F2400
G1 X152.644 Y185.141 F12000
G1 E.5 F1800
;TYPE:Outer wall
G1 F3000
G1 X152.036 Y185.386 E.02319
G1 X151.891 Y185.385 E.00512
G1 X151.55 Y185.452 E.01231
G1 X150.974 Y185.338 E.02073
M73 P2 R15
G1 X150.488 Y185.01 E.02074
G1 X150.161 Y184.524 E.02071
G1 X150.048 Y183.95 E.02069
G1 X150.162 Y183.374 E.02075
G1 X150.489 Y182.889 E.02067
G1 X150.976 Y182.561 E.02074
G1 X151.349 Y182.488 E.01346
G1 X151.55 Y182.448 E.00725
G1 X152.126 Y182.562 E.02074
G1 X152.611 Y182.889 E.02068
G1 X152.938 Y183.375 E.02073
G1 X153.052 Y183.95 E.02071
G1 X152.938 Y184.525 E.0207
G1 X152.848 Y184.659 E.00574
G3 X152.732 Y185.105 I-1.904 J-.257 E.01632
G1 X152.681 Y185.126 E.00193
G1 X153.132 Y185.374 F12000
;TYPE:Inner wall
G1 F3000
G1 X153.113 Y185.444 E.00257
G1 X152.122 Y185.844 E.03776
G1 X151.934 Y185.842 E.00667
G1 X151.549 Y185.918 E.01385
G1 X150.795 Y185.769 E.02718
G1 X150.158 Y185.339 E.02715
G1 X149.731 Y184.702 E.02711
G1 X149.582 Y183.949 E.02713
G1 X149.732 Y183.195 E.02719
G1 X150.159 Y182.559 E.02707
G1 X150.797 Y182.131 E.02715
G1 X151.26 Y182.039 E.0167
G1 X151.55 Y181.982 E.01045
G1 X152.305 Y182.132 E.02719
G1 X152.941 Y182.559 E.02708
G1 X153.369 Y183.197 E.02714
G1 X153.518 Y183.95 E.02715
G1 X153.369 Y184.703 E.02714
G1 X153.278 Y184.838 E.00575
G1 X153.143 Y185.336 E.01822
G1 X153.536 Y185.633 F12000
G1 F3000
G1 X153.495 Y185.784 E.00553
G1 X152.209 Y186.302 E.04899
G1 X151.977 Y186.3 E.00822
G1 X151.549 Y186.384 E.0154
G1 X150.616 Y186.199 E.03363
G1 X149.828 Y185.668 E.03357
G1 X149.3 Y184.881 E.03352
G1 X149.116 Y183.949 E.03357
G1 X149.301 Y183.016 E.03364
G1 X149.83 Y182.23 E.03348
G1 X150.618 Y181.7 E.03356
G1 X151.172 Y181.591 E.01994
G1 X151.551 Y181.516 E.01366
G1 X152.484 Y181.701 E.03363
G1 X153.27 Y182.23 E.03349
G1 X153.8 Y183.018 E.03355
G1 X153.984 Y183.95 E.03359
G1 X153.8 Y184.882 E.03358
G1 X153.7 Y185.031 E.00633
G1 X153.546 Y185.594 E.02063
G1 X153.939 Y185.891 F12000
G1 F3000
G1 X153.876 Y186.123 E.00849
G1 X152.296 Y186.76 E.06022
G1 X152.02 Y186.757 E.00977
G1 X151.549 Y186.85 E.01695
G1 X150.437 Y186.63 E.04008
G1 X149.499 Y185.997 E.03999
G1 X148.87 Y185.059 E.03992
G1 X148.65 Y183.949 E.04001
G1 X148.871 Y182.837 E.04008
G1 X149.501 Y181.9 E.03989
G1 X150.439 Y181.27 E.03997
G1 X151.083 Y181.142 E.02318
G1 X151.551 Y181.05 E.01686
G1 X152.663 Y181.271 E.04008
G1 X153.6 Y181.901 E.03989
G1 X154.23 Y182.839 E.03995
G1 X154.45 Y183.95 E.04004
G1 X154.23 Y185.061 E.04002
G1 X154.121 Y185.223 E.00692
G1 X153.95 Y185.852 E.02304
G1 E-.5 F2400
G1 X171.653 Y185.137 F12000
G1 E.5 F1800
;TYPE:Outer wall
G1 F3000
G1 X171.036 Y185.386 E.02351
G1 X170.891 Y185.385 E.00511
G1 X170.55 Y185.452 E.01231
G1 X169.974 Y185.338 E.02073
G1 X169.488 Y185.01 E.02074
G1 X169.161 Y184.524 E.02071
G1 X169.048 Y183.95 E.02069
G1 X169.162 Y183.374 E.02075
G1 X169.489 Y182.889 E.02067
G1 X169.976 Y182.561 E.02074
G1 X170.349 Y182.488 E.01346
G1 X170.55 Y182.448 E.00725
G1 X171.126 Y182.562 E.02074
G1 X171.611 Y182.889 E.02068
G1 X171.938 Y183.375 E.02073
G1 X172.052 Y183.95 E.02071
G1 X171.938 Y184.525 E.0207
G1 X171.848 Y184.659 E.00574
G3 X171.732 Y185.105 I-1.905 J-.257 E.01633
G1 X171.69 Y185.122 E.00161
G1 X172.127 Y185.395 F12000
;TYPE:Inner wall
G1 F3000
G1 X172.113 Y185.444 E.00182
G1 X171.122 Y185.844 E.03776
G1 X170.934 Y185.842 E.00667
G1 X170.549 Y185.918 E.01385
G1 X169.795 Y185.769 E.02718
G1 X169.158 Y185.339 E.02715
G1 X168.731 Y184.702 E.02711
G1 X168.582 Y183.949 E.02713
G1 X168.732 Y183.195 E.02719
G1 X169.159 Y182.559 E.02707
G1 X169.797 Y182.131 E.02715
G1 X170.26 Y182.039 E.0167
G1 X170.55 Y181.982 E.01045
G1 X171.305 Y182.132 E.02719
G1 X171.941 Y182.559 E.02708
G1 X172.369 Y183.197 E.02714
G1 X172.518 Y183.95 E.02715
G1 X172.369 Y184.703 E.02714
G1 X172.278 Y184.838 E.00575
G1 X172.137 Y185.356 E.01898
G1 X172.53 Y185.653 F12000
G1 F3000
G1 X172.495 Y185.784 E.00478
G1 X171.209 Y186.302 E.04899
G1 X170.977 Y186.3 E.00822
G1 X170.549 Y186.384 E.0154
G1 X169.616 Y186.199 E.03363
G1 X168.828 Y185.668 E.03357
G1 X168.3 Y184.881 E.03352
G1 X168.116 Y183.949 E.03357
G1 X168.301 Y183.016 E.03364
G1 X168.83 Y182.23 E.03348
G1 X169.618 Y181.7 E.03356
G1 X170.172 Y181.591 E.01994
G1 X170.551 Y181.516 E.01366
G1 X171.484 Y181.701 E.03363
G1 X172.27 Y182.23 E.03349
G1 X172.8 Y183.018 E.03355
G1 X172.984 Y183.95 E.03359
G1 X172.8 Y184.882 E.03358
G1 X172.7 Y185.031 E.00633
G1 X172.541 Y185.615 E.02138
G1 X172.934 Y185.911 F12000
G1 F3000
G1 X172.876 Y186.123 E.00774
G1 X171.296 Y186.76 E.06022
G1 X171.02 Y186.757 E.00977
G1 X170.549 Y186.85 E.01695
G1 X169.437 Y186.63 E.04008
G1 X168.499 Y185.997 E.03999
G1 X167.87 Y185.059 E.03992
G1 X167.65 Y183.949 E.04001
G1 X167.871 Y182.837 E.04009
G1 X168.501 Y181.9 E.03989
G1 X169.439 Y181.27 E.03997
G1 X170.083 Y181.142 E.02318
G1 X170.551 Y181.05 E.01686
G1 X171.663 Y181.271 E.04008
G1 X172.6 Y181.901 E.03989
G1 X173.23 Y182.839 E.03995
G1 X173.45 Y183.95 E.04004
G1 X173.23 Y185.061 E.04002
G1 X173.121 Y185.223 E.00692
G1 X172.944 Y185.873 E.02379
G1 X172.837 Y186.704 F12000
;TYPE:Gap infill
;WIDTH:0.540308
G1 F3000
G1 X172.691 Y186.732 E.0057
;WIDTH:0.494435
G1 X172.546 Y186.761 E.00517
;WIDTH:0.448562
G1 X172.4 Y186.789 E.00465
;WIDTH:0.402689
G1 X172.255 Y186.817 E.00412
;WIDTH:0.356815
G1 X172.11 Y186.845 E.0036
;WIDTH:0.310942
G1 X171.964 Y186.873 E.00307
;WIDTH:0.265069
G1 X171.819 Y186.902 E.00254
;WIDTH:0.219196
G1 X171.673 Y186.93 E.00202
;WIDTH:0.173322
G1 X171.528 Y186.958 E.00149
;WIDTH:0.127448
G1 X171.516 Y186.979 E.00016
