; HEADER_BLOCK_START
; generated by OrcaSlicer 1.6.6 on 2023-08-28 at 19:53:12
; total layer number: 70
; HEADER_BLOCK_END

; THUMBNAIL_BLOCK_START
; THUMBNAIL_BLOCK_END

; external perimeters extrusion width = 0.40mm
; perimeters extrusion width = 0.46mm
; infill extrusion width = 0.64mm
; solid infill extrusion width = 0.56mm
; top infill extrusion width = 0.40mm
; support material extrusion width = 0.46mm
; first layer extrusion width = 0.50mm

; external perimeters extrusion width = 0.40mm
; perimeters extrusion width = 0.46mm
; infill extrusion width = 0.64mm
; solid infill extrusion width = 0.56mm
; top infill extrusion width = 0.40mm
; support material extrusion width = 0.46mm
; first layer extrusion width = 0.50mm

; EXECUTABLE_BLOCK_START
EXCLUDE_OBJECT_DEFINE NAME=Mountable_Filament_Sensor_with_Bowden_PC4-M6.stl_id_0_copy_0 CENTER=165,183.95 POLYGON=[[138.25,182.9],[156.05,170],[166.05,170],[191.75,182.9],[191.75,192.9],[177.35,197.9],[152.35,197.9],[138.25,192.9],[138.25,182.9]]
EXCLUDE_OBJECT_DEFINE NAME=Mountable_Filament_Sensor_with_Bowden_PC4-M6.stl_id_1_copy_0 CENTER=165,146.05 POLYGON=[[138.25,145],[163.95,132.1],[173.95,132.1],[191.75,145],[191.75,155],[177.65,160],[152.65,160],[138.25,155],[138.25,145]]
M73 P0 R32
M73 C7
;TYPE:Custom
START_PRINT T_BED=110 T_EXTRUDER=260
G90
G21
M83 ; use relative distances for extrusion
; Filament gcode
PRESSURE_ADVANCE_SELECT FILAMENT=ASA
M106 S0
;LAYER_CHANGE
;Z:0.2
;HEIGHT:0.2
;BEFORE_LAYER_CHANGE
;0.2
G92 E0

SET_VELOCITY_LIMIT ACCEL=5000 ACCEL_TO_DECEL=2500
G1 E-.5 F2400
G1 X135.729 Y143.538 F12000
G1 Z.2
G1 E.5 F1800
;TYPE:Skirt
;WIDTH:0.5
G1 F3000
G1 X137.042 Y142.348 E.06265
G1 X165.369 Y129.448 E1.10016
G1 X166.576 Y129.186 E.04368
G1 X171.324 Y129.186 E.1678
G1 X172.88 Y129.636 E.05726
G1 X193.306 Y142.536 E.85391
G1 X194.332 Y143.649 E.0535
G1 X194.664 Y145 E.04917
G1 X194.664 Y192.9 E1.69307
G1 X194.271 Y194.362 E.0535
G1 X192.518 Y195.711 E.07819
G1 X174.218 Y200.711 E.67054
G1 X173.45 Y200.814 E.02739
G1 X152.35 Y200.814 E.7458
G1 X151.376 Y200.647 E.03493
G1 X137.276 Y195.647 E.52878
G1 X136.03 Y194.788 E.0535
G1 X135.336 Y192.9 E.07108
G1 X135.336 Y145 E1.69307
G1 X135.719 Y143.577 E.05209
G1 X136.173 Y143.71 F12000
G1 F3000
G1 X136.185 Y143.669 E.00154
G1 X137.232 Y142.764 E.04891
G1 X165.558 Y129.864 E1.10016
G1 X166.576 Y129.643 E.03683
G1 X171.324 Y129.643 E.1678
G1 X172.636 Y130.023 E.04828
G1 X193.062 Y142.923 E.85391
G1 X193.978 Y143.965 E.04905
G1 X194.207 Y145 E.03748
G1 X194.207 Y192.9 E1.69307
G1 X193.815 Y194.231 E.04905
G1 X192.398 Y195.27 E.06212
G1 X174.098 Y200.27 E.67054
G1 X173.45 Y200.357 E.02309
G1 X152.35 Y200.357 E.7458
G1 X151.529 Y200.216 E.02945
G1 X137.429 Y195.216 E.52878
G1 X136.305 Y194.402 E.04905
G1 X135.793 Y192.9 E.05608
G1 X135.793 Y145 E1.69307
G1 X136.161 Y143.749 E.0461
; printing object Mountable_Filament_Sensor_with_Bowden_PC4-M6.stl id:0 copy 0
G1 E-.5 F2400
EXCLUDE_OBJECT_START NAME=Mountable_Filament_Sensor_with_Bowden_PC4-M6.stl_id_0_copy_0
G1 X148.7 Y192.55 F12000
G1 E.5 F1800
;TYPE:Outer wall
G1 F3000
G1 X138.6 Y192.55 E.35699
G1 X138.6 Y183.25 E.32872
G1 X148.7 Y183.25 E.35699
G1 X148.7 Y182.045 E.04259
G1 X152.495 Y178.25 E.1897
G1 X159.026 Y178.25 E.23086
G1 X159.026 Y170.35 E.27923
G1 X163.074 Y170.35 E.14305
G1 X163.074 Y178.25 E.27923
G1 X173.1 Y178.25 E.35439
G1 X173.1 Y183.25 E.17673
G1 X191.4 Y183.25 E.64683
G1 X191.4 Y192.55 E.32872
G1 X173.1 Y192.55 E.64683
G1 X173.1 Y197.55 E.17673
G1 X152.495 Y197.55 E.7283
G1 X148.7 Y193.755 E.1897
G1 X148.7 Y192.59 E.04118
G1 X149.157 Y192.093 F12000
;TYPE:Inner wall
G1 F3000
G1 X139.057 Y192.093 E.35699
G1 X139.057 Y183.707 E.29641
G1 X149.157 Y183.707 E.35699
G1 X149.157 Y182.234 E.05206
G1 X152.684 Y178.707 E.17631
G1 X159.483 Y178.707 E.24032
G1 X159.483 Y170.807 E.27923
G1 X162.617 Y170.807 E.11074
G1 X162.617 Y178.707 E.27923
G1 X172.643 Y178.707 E.35439
G1 X172.643 Y183.707 E.17673
G1 X190.943 Y183.707 E.64683
G1 X190.943 Y192.093 E.29641
G1 X172.643 Y192.093 E.64683
G1 X172.643 Y197.093 E.17673
G1 X152.684 Y197.093 E.70545
G1 X149.157 Y193.566 E.17631
G1 X149.157 Y192.133 E.05064
G1 E-.5 F2400
G1 X188.025 Y191.426 F12000
G1 E.5 F1800
G1 F3000
G1 X188.818 Y191.022 E.03146
G1 X189.671 Y190.168 E.04267
G1 X190.276 Y188.982 E.04704
G1 X190.486 Y189.033 E.00764
G1 X190.486 Y191.636 E.09202
G1 X188.075 Y191.636 E.08521
G1 X188.034 Y191.464 E.00623
G1 X189.307 Y191.179 F12000
G1 F3000
G1 X190.029 Y190.456 E.03609
G1 X190.029 Y191.179 E.02554
G1 X189.347 Y191.179 E.02408
G1 E-.5 F2400
G1 X189.663 Y188.911 F12000
G1 X189.709 Y188.461
G1 X189.761 Y187.9
G1 X189.709 Y187.339
G1 X189.663 Y186.889
G1 X189.197 Y185.976
G1 X188.025 Y184.374
G1 E.5 F1800
G1 F3000
G1 X188.075 Y184.164 E.00764
G1 X190.486 Y184.164 E.08521
G1 X190.486 Y186.767 E.09202
G1 X190.276 Y186.818 E.00764
G1 X189.671 Y185.632 E.04704
G1 X188.818 Y184.778 E.04267
G1 X188.06 Y184.393 E.03005
G1 X189.307 Y184.621 F12000
G1 F3000
G1 X190.029 Y184.621 E.02549
G1 X190.029 Y185.344 E.02554
G1 X189.336 Y184.65 E.03467
G1 E-.5 F2400
G1 X186.55 Y184.789 F12000
G1 X186.004 Y184.84
G1 X185.57 Y184.881
G1 X185.146 Y185.01
G1 X185.029 Y185.047
G1 X184.626 Y185.252
G1 X183.902 Y185.976
G1 X183.438 Y186.889
G1 X183.277 Y187.9
G1 X183.426 Y188.84
G1 X183.758 Y188.787
G1 E.5 F1800
;TYPE:Outer wall
G1 F3000
G1 X183.617 Y187.9 E.03176
G1 X183.761 Y186.994 E.03242
G1 X184.177 Y186.176 E.03243
G1 X184.826 Y185.527 E.03246
G1 X185.644 Y185.111 E.03243
G1 X186.464 Y184.98 E.02934
G1 X186.55 Y184.967 E.00308
G1 X187.456 Y185.111 E.03242
G1 X188.274 Y185.527 E.03244
G1 X188.922 Y186.176 E.03243
G1 X189.339 Y186.994 E.03245
G1 X189.482 Y187.9 E.03242
G1 X189.339 Y188.806 E.03242
G1 X188.922 Y189.624 E.03245
G1 X188.274 Y190.273 E.03243
G1 X187.456 Y190.689 E.03244
G1 X186.55 Y190.833 E.03242
G1 X185.644 Y190.689 E.03242
G1 X184.826 Y190.273 E.03243
G1 X184.501 Y189.949 E.01623
G1 X184.177 Y189.624 E.01623
G1 X183.77 Y188.825 E.03168
G1 X183.313 Y188.898 F12000
;TYPE:Inner wall
G1 F3000
G1 X183.154 Y187.9 E.0357
G1 X183.321 Y186.851 E.03754
G1 X183.802 Y185.904 E.03754
G1 X184.554 Y185.152 E.03759
G1 X185.501 Y184.671 E.03754
G1 X186.392 Y184.529 E.03189
G1 X186.55 Y184.504 E.00565
G1 X187.599 Y184.671 E.03754
G1 X188.546 Y185.152 E.03756
G1 X189.297 Y185.904 E.03755
G1 X189.779 Y186.851 E.03757
G1 X189.945 Y187.9 E.03753
G1 X189.779 Y188.949 E.03753
G1 X189.297 Y189.896 E.03757
G1 X188.546 Y190.648 E.03755
G1 X187.599 Y191.129 E.03756
G1 X186.55 Y191.296 E.03754
G1 X185.501 Y191.129 E.03754
G1 X184.554 Y190.648 E.03754
G1 X184.178 Y190.272 E.0188
G1 X183.802 Y189.896 E.0188
G1 X183.321 Y188.949 E.03754
G1 X183.319 Y188.937 E.00043
G1 E-.5 F2400
G1 X142.075 Y191.426 F12000
M73 P1 R32
G1 E.5 F1800
G1 F3000
G1 X142.025 Y191.636 E.00764
G1 X139.514 Y191.636 E.08874
G1 X139.514 Y188.396 E.11451
G1 X139.767 Y188.376 E.00896
G1 X139.881 Y189.092 E.02561
G1 X140.428 Y190.168 E.04266
G1 X141.282 Y191.022 E.04272
G1 X142.04 Y191.407 E.03003
G1 X140.793 Y191.179 F12000
G1 F3000
G1 X139.971 Y191.179 E.02903
G1 X139.971 Y190.357 E.02903
G1 X140.764 Y191.15 E.03964
G1 E-.5 F2400
G1 X139.767 Y187.424 F12000
G1 E.5 F1800
G1 F3000
G1 X139.514 Y187.404 E.00896
G1 X139.514 Y184.164 E.11451
G1 X142.025 Y184.164 E.08874
G1 X142.075 Y184.374 E.00764
G1 X141.282 Y184.778 E.03144
G1 X140.428 Y185.632 E.04272
G1 X139.881 Y186.708 E.04266
G1 X139.773 Y187.384 E.0242
G1 X139.971 Y185.443 F12000
G1 F3000
G1 X139.971 Y184.621 E.02903
G1 X140.793 Y184.621 E.02903
G1 X140 Y185.414 E.03964
G1 E-.5 F2400
G1 X140.288 Y187.9 F12000
G1 X140.348 Y188.346
G1 X140.438 Y188.911
G1 X140.902 Y189.824
G1 X141.626 Y190.548
G1 X142.029 Y190.753
G1 X142.146 Y190.79
G1 X142.57 Y190.919
G1 X143.004 Y190.96
G1 X143.464 Y191.003
G1 X143.481 Y190.822
G1 E.5 F1800
;TYPE:Outer wall
G1 F3000
G1 X142.644 Y190.689 E.02996
G1 X141.826 Y190.273 E.03243
G1 X141.177 Y189.624 E.03246
G1 X140.761 Y188.806 E.03243
G1 X140.617 Y187.9 E.03242
G1 X140.761 Y186.994 E.03242
G1 X141.177 Y186.176 E.03243
G1 X141.826 Y185.527 E.03246
G1 X142.644 Y185.111 E.03243
G1 X143.072 Y185.043 E.01531
G1 X143.5 Y184.975 E.01533
G1 X144.356 Y185.111 E.03063
G1 X145.174 Y185.527 E.03243
G1 X145.823 Y186.176 E.03246
G1 X146.239 Y186.994 E.03244
G1 X146.382 Y187.9 E.03241
G1 X146.239 Y188.806 E.03241
G1 X145.823 Y189.624 E.03244
G1 X145.174 Y190.273 E.03246
G1 X144.356 Y190.689 E.03243
G1 X143.521 Y190.822 E.02989
G1 X143.448 Y191.28 F12000
;TYPE:Inner wall
G1 F3000
G1 X142.501 Y191.129 E.0339
G1 X141.554 Y190.648 E.03754
G1 X140.802 Y189.896 E.03759
G1 X140.321 Y188.949 E.03754
G1 X140.154 Y187.9 E.03754
G1 X140.321 Y186.851 E.03754
G1 X140.802 Y185.904 E.03754
G1 X141.554 Y185.152 E.03759
G1 X142.501 Y184.671 E.03754
G1 X143 Y184.591 E.01786
G1 X143.5 Y184.512 E.0179
G1 X144.499 Y184.671 E.03575
G1 X145.446 Y185.152 E.03754
G1 X146.198 Y185.904 E.03759
G1 X146.68 Y186.852 E.03756
G1 X146.845 Y187.9 E.03752
G1 X146.68 Y188.948 E.03752
G1 X146.198 Y189.896 E.03756
G1 X145.446 Y190.648 E.03759
G1 X144.499 Y191.129 E.03754
G1 X143.5 Y191.288 E.03575
G1 X143.488 Y191.286 E.00044
G1 E-.5 F2400
G1 X149.614 Y191.636 F12000
G1 E.5 F1800
G1 F3000
G1 X144.975 Y191.636 E.16397
G1 X144.925 Y191.426 E.00764
G1 X145.718 Y191.022 E.03144
G1 X146.572 Y190.168 E.04272
G1 X147.12 Y189.091 E.04269
G1 X147.308 Y187.9 E.04262
G1 X147.12 Y186.709 E.04262
G1 X146.572 Y185.632 E.04269
G1 X145.718 Y184.778 E.04272
G1 X144.925 Y184.374 E.03144
G1 X144.975 Y184.164 E.00764
G1 X149.614 Y184.164 E.16397
G1 X149.614 Y182.424 E.06152
G1 X152.874 Y179.164 E.16293
G1 X159.941 Y179.164 E.24979
G1 X159.941 Y171.264 E.27923
G1 X162.159 Y171.264 E.07843
G1 X162.159 Y179.164 E.27923
G1 X172.186 Y179.164 E.35439
G1 X172.186 Y184.164 E.17673
G1 X185.025 Y184.164 E.45381
G1 X185.075 Y184.374 E.00764
G1 X184.282 Y184.778 E.03144
G1 X183.428 Y185.632 E.04272
G1 X182.881 Y186.708 E.04266
G1 X182.691 Y187.9 E.04266
G1 X182.881 Y189.092 E.04266
G1 X183.428 Y190.168 E.04266
G1 X184.282 Y191.022 E.04272
G1 X185.075 Y191.426 E.03144
G1 X185.025 Y191.636 E.00764
G1 X172.186 Y191.636 E.45381
G1 X172.186 Y196.636 E.17673
G1 X152.874 Y196.636 E.68261
G1 X149.614 Y193.376 E.16293
G1 X149.614 Y191.676 E.06011
G1 X150.071 Y191.179 F12000
G1 F3000
G1 X146.207 Y191.179 E.13657
G1 X146.947 Y190.439 E.03695
G1 X147.56 Y189.234 E.04781
G1 X147.77 Y187.9 E.04773
G1 X147.56 Y186.566 E.04773
G1 X146.947 Y185.361 E.04781
G1 X146.208 Y184.621 E.03695
G1 X150.071 Y184.621 E.13657
G1 X150.071 Y182.613 E.07098
G1 X153.063 Y179.621 E.14955
G1 X160.398 Y179.621 E.25925
G1 X160.398 Y171.721 E.27923
G1 X161.702 Y171.721 E.04612
G1 X161.702 Y179.621 E.27923
G1 X171.729 Y179.621 E.35439
G1 X171.729 Y184.621 E.17673
G1 X183.793 Y184.621 E.4264
G1 X183.053 Y185.361 E.03695
G1 X182.441 Y186.565 E.04777
G1 X182.228 Y187.9 E.04778
G1 X182.441 Y189.235 E.04778
G1 X183.053 Y190.439 E.04777
G1 X183.793 Y191.179 E.03695
G1 X171.729 Y191.179 E.4264
G1 X171.729 Y196.179 E.17673
G1 X153.063 Y196.179 E.65976
G1 X150.071 Y193.187 E.14955
G1 X150.071 Y191.219 E.06957
G1 E-.5 F2400
G1 X152.644 Y189.091 F12000
G1 E.5 F1800
;TYPE:Outer wall
G1 F3000
G1 X152.036 Y189.336 E.02319
G1 X151.891 Y189.335 E.00512
G1 X151.55 Y189.402 E.01231
G1 X150.974 Y189.288 E.02073
G1 X150.488 Y188.96 E.02074
G1 X150.161 Y188.474 E.02071
G1 X150.048 Y187.9 E.02069
G1 X150.162 Y187.324 E.02075
G1 X150.489 Y186.839 E.02067
G1 X150.976 Y186.511 E.02074
G1 X151.349 Y186.438 E.01346
G1 X151.55 Y186.398 E.00725
G1 X152.126 Y186.512 E.02074
G1 X152.611 Y186.839 E.02068
G1 X152.938 Y187.325 E.02073
G1 X153.052 Y187.9 E.02071
G1 X152.938 Y188.475 E.0207
G1 X152.848 Y188.609 E.00574
G3 X152.732 Y189.055 I-1.904 J-.257 E.01632
G1 X152.681 Y189.076 E.00193
G1 X153.132 Y189.324 F12000
;TYPE:Inner wall
G1 F3000
G1 X153.113 Y189.394 E.00257
G1 X152.122 Y189.794 E.03776
G1 X151.934 Y189.792 E.00667
G1 X151.549 Y189.868 E.01385
G1 X150.795 Y189.719 E.02718
G1 X150.158 Y189.289 E.02715
G1 X149.731 Y188.652 E.02711
G1 X149.582 Y187.899 E.02713
G1 X149.732 Y187.145 E.02719
G1 X150.159 Y186.509 E.02707
G1 X150.797 Y186.081 E.02715
G1 X151.26 Y185.989 E.0167
G1 X151.55 Y185.932 E.01045
G1 X152.305 Y186.082 E.02719
G1 X152.941 Y186.509 E.02708
G1 X153.369 Y187.147 E.02714
G1 X153.518 Y187.9 E.02715
G1 X153.369 Y188.653 E.02714
G1 X153.278 Y188.788 E.00575
G1 X153.143 Y189.286 E.01822
G1 X153.536 Y189.583 F12000
G1 F3000
G1 X153.495 Y189.734 E.00553
G1 X152.209 Y190.252 E.04899
G1 X151.977 Y190.25 E.00822
G1 X151.549 Y190.334 E.0154
G1 X150.616 Y190.149 E.03363
G1 X149.828 Y189.618 E.03357
G1 X149.3 Y188.831 E.03352
G1 X149.116 Y187.899 E.03357
G1 X149.301 Y186.966 E.03364
G1 X149.83 Y186.18 E.03348
G1 X150.618 Y185.65 E.03356
G1 X151.172 Y185.541 E.01994
G1 X151.551 Y185.466 E.01366
G1 X152.484 Y185.651 E.03363
G1 X153.27 Y186.18 E.03349
G1 X153.8 Y186.968 E.03355
G1 X153.984 Y187.9 E.03359
G1 X153.8 Y188.832 E.03358
G1 X153.7 Y188.981 E.00633
G1 X153.546 Y189.544 E.02063
G1 X153.939 Y189.841 F12000
G1 F3000
G1 X153.876 Y190.073 E.00849
G1 X152.296 Y190.71 E.06022
G1 X152.02 Y190.707 E.00977
G1 X151.549 Y190.8 E.01695
G1 X150.437 Y190.58 E.04008
G1 X149.499 Y189.947 E.03999
G1 X148.87 Y189.009 E.03992
G1 X148.65 Y187.899 E.04001
G1 X148.871 Y186.787 E.04008
G1 X149.501 Y185.85 E.03989
G1 X150.439 Y185.22 E.03997
G1 X151.083 Y185.092 E.02318
G1 X151.551 Y185 E.01686
G1 X152.663 Y185.221 E.04008
G1 X153.6 Y185.851 E.03989
G1 X154.23 Y186.789 E.03995
G1 X154.45 Y187.9 E.04004
G1 X154.23 Y189.011 E.04002
G1 X154.121 Y189.173 E.00692
G1 X153.95 Y189.802 E.02304
G1 E-.5 F2400
G1 X171.653 Y189.087 F12000
G1 E.5 F1800
;TYPE:Outer wall
G1 F3000
G1 X171.036 Y189.336 E.02351
G1 X170.891 Y189.335 E.00511
G1 X170.55 Y189.402 E.01231
G1 X169.974 Y189.288 E.02073
G1 X169.488 Y188.96 E.02074
G1 X169.161 Y188.474 E.02071
G1 X169.048 Y187.9 E.02069
G1 X169.162 Y187.324 E.02075
G1 X169.489 Y186.839 E.02067
G1 X169.976 Y186.511 E.02074
G1 X170.349 Y186.438 E.01346
G1 X170.55 Y186.398 E.00725
G1 X171.126 Y186.512 E.02074
G1 X171.611 Y186.839 E.02068
G1 X171.938 Y187.325 E.02073
G1 X172.052 Y187.9 E.02071
G1 X171.938 Y188.475 E.0207
G1 X171.848 Y188.609 E.00574
G3 X171.732 Y189.055 I-1.905 J-.257 E.01633
G1 X171.69 Y189.072 E.00161
G1 X172.127 Y189.345 F12000
;TYPE:Inner wall
G1 F3000
G1 X172.113 Y189.394 E.00182
G1 X171.122 Y189.794 E.03776
G1 X170.934 Y189.792 E.00667
G1 X170.549 Y189.868 E.01385
G1 X169.795 Y189.719 E.02718
G1 X169.158 Y189.289 E.02715
G1 X168.731 Y188.652 E.02711
G1 X168.582 Y187.899 E.02713
G1 X168.732 Y187.145 E.02719
G1 X169.159 Y186.509 E.02707
G1 X169.797 Y186.081 E.02715
G1 X170.26 Y185.989 E.0167
G1 X170.55 Y185.932 E.01045
G1 X171.305 Y186.082 E.02719
G1 X171.941 Y186.509 E.02708
G1 X172.369 Y187.147 E.02714
G1 X172.518 Y187.9 E.02715
G1 X172.369 Y188.653 E.02714
G1 X172.278 Y188.788 E.00575
G1 X172.137 Y189.306 E.01898
G1 X172.53 Y189.603 F12000
G1 F3000
G1 X172.495 Y189.734 E.00478
G1 X171.209 Y190.252 E.04899
G1 X170.977 Y190.25 E.00822
G1 X170.549 Y190.334 E.0154
G1 X169.616 Y190.149 E.03363
G1 X168.828 Y189.618 E.03357
G1 X168.3 Y188.831 E.03352
G1 X168.116 Y187.899 E.03357
G1 X168.301 Y186.966 E.03364
G1 X168.83 Y186.18 E.03348
G1 X169.618 Y185.65 E.03356
G1 X170.172 Y185.541 E.01994
G1 X170.551 Y185.466 E.01366
G1 X171.484 Y185.651 E.03363
G1 X172.27 Y186.18 E.03349
G1 X172.8 Y186.968 E.03355
G1 X172.984 Y187.9 E.03359
G1 X172.8 Y188.832 E.03358
G1 X172.7 Y188.981 E.00633
G1 X172.541 Y189.565 E.02138
G1 X172.934 Y189.861 F12000
G1 F3000
G1 X172.876 Y190.073 E.00774
G1 X171.296 Y190.71 E.06022
G1 X171.02 Y190.707 E.00977
G1 X170.549 Y190.8 E.01695
G1 X169.437 Y190.58 E.04008
G1 X168.499 Y189.947 E.03999
G1 X167.87 Y189.009 E.03992
G1 X167.65 Y187.899 E.04001
G1 X167.871 Y186.787 E.04009
G1 X168.501 Y185.85 E.03989
G1 X169.439 Y185.22 E.03997
G1 X170.083 Y185.092 E.02318
G1 X170.551 Y185 E.01686
G1 X171.663 Y185.221 E.04008
G1 X172.6 Y185.851 E.03989
G1 X173.23 Y186.789 E.03995
G1 X173.45 Y187.9 E.04004
G1 X173.23 Y189.011 E.04002
G1 X173.121 Y189.173 E.00692
G1 X172.944 Y189.823 E.02379
