; HEADER_BLOCK_START
; generated by OrcaSlicer 1.7.0-beta on 2023-09-20 at 15:04:55
; total layer number: 180
; HEADER_BLOCK_END

; THUMBNAIL_BLOCK_START
; THUMBNAIL_BLOCK_END

; external perimeters extrusion width = 0.40mm
; perimeters extrusion width = 0.46mm
; infill extrusion width = 0.64mm
; solid infill extrusion width = 0.56mm
; top infill extrusion width = 0.40mm
; support material extrusion width = 0.46mm
; first layer extrusion width = 0.50mm

; EXECUTABLE_BLOCK_START
EXCLUDE_OBJECT_DEFINE NAME=nozle_clean_vzbot330_v2.stl_id_0_copy_0 CENTER=165,165 POLYGON=[[141.819,150.326],[174.514,140.206],[174.758,140.133],[174.773,140.129],[174.98,140.081],[175.095,140.059],[175.188,140.044],[175.395,140.019],[175.437,140.015],[175.601,140.004],[175.661,140.002],[175.721,140],[175.781,140],[187.181,140],[187.354,140.015],[187.523,140.06],[187.681,140.134],[187.823,140.234],[187.947,140.357],[188.047,140.5],[188.12,140.658],[188.165,140.826],[188.181,141],[188.181,189],[188.165,189.174],[188.12,189.342],[188.047,189.5],[187.947,189.643],[187.823,189.766],[187.681,189.866],[187.523,189.94],[187.354,189.985],[187.181,190],[175.781,190],[175.721,190],[175.661,189.998],[175.601,189.996],[175.437,189.985],[175.399,189.982],[175.192,189.956],[175.095,189.941],[174.982,189.919],[174.773,189.871],[174.758,189.867],[174.61,189.825],[141.819,179.517],[141.819,150.326]]
M73 P0 R34
;TYPE:Custom
START_PRINT T_BED=110 T_EXTRUDER=260
G90
G21
M83 ; use relative distances for extrusion
; Filament gcode
PRESSURE_ADVANCE_SELECT FILAMENT=ASA
M106 S0
;LAYER_CHANGE
;Z:0.2
;HEIGHT:0.2
;BEFORE_LAYER_CHANGE
;0.2
G92 E0

;_SET_FAN_SPEED_CHANGING_LAYER
SET_VELOCITY_LIMIT ACCEL=5000 ACCEL_TO_DECEL=2500
G1 E-.5 F2400
G1 X136.788 Y146.1 F12000
G1 Z.2
G1 E.5 F1800
;TYPE:Skirt
;WIDTH:0.5
G1 F3000
G1 X138.539 Y144.633 E.08073
G1 X139.949 Y144.027 E.05425
G1 X173.291 Y134.141 E1.22921
G1 X174.54 Y133.908 E.04491
G1 X175.781 Y133.829 E.04393
G1 X187.182 Y133.829 E.40297
G1 X187.856 Y133.863 E.02388
G1 X188.987 Y134.063 E.0406
G1 X190.162 Y134.481 E.04408
G1 X191.25 Y135.098 E.0442
G1 X192.211 Y135.893 E.0441
G1 X193.023 Y136.846 E.04425
G1 X193.656 Y137.923 E.04416
G1 X194.118 Y139.195 E.04783
G1 X194.326 Y140.427 E.04418
G1 X194.351 Y189 E1.71684
G1 X194.317 Y189.677 E.02396
G1 X194.118 Y190.805 E.04049
G1 X193.7 Y191.982 E.04415
G1 X193.083 Y193.068 E.04415
G1 X192.287 Y194.031 E.04416
G1 X191.335 Y194.842 E.04419
G1 X190.257 Y195.475 E.0442
G1 X189.085 Y195.911 E.0442
G1 X187.86 Y196.136 E.04402
G1 X175.781 Y196.171 E.42696
G1 X174.211 Y196.046 E.05566
G1 X172.898 Y195.754 E.04754
G1 X139.922 Y185.808 E1.21743
G1 X137.883 Y184.779 E.08073
G1 X136.32 Y183.113 E.08073
G1 X135.421 Y181.014 E.08073
G1 X135.249 Y179.517 E.05325
G1 X135.249 Y150.326 E1.03178
G1 X135.645 Y148.077 E.08073
G1 X136.768 Y146.134 E.07932
G1 X137.177 Y146.381 F12000
G1 F3000
G1 X137.241 Y146.274 E.00439
G1 X138.974 Y144.915 E.07785
G1 X140.08 Y144.465 E.04219
G1 X173.396 Y134.586 E1.22828
G1 X174.603 Y134.36 E.04342
G1 X175.781 Y134.286 E.04169
G1 X187.182 Y134.286 E.40297
G1 X188.869 Y134.504 E.06014
G1 X189.969 Y134.895 E.04127
G1 X190.988 Y135.472 E.04138
G1 X191.888 Y136.216 E.04128
G1 X192.649 Y137.108 E.04143
G1 X193.241 Y138.116 E.04134
G1 X193.677 Y139.313 E.04501
G1 X193.871 Y140.467 E.04136
G1 X193.894 Y189 E1.71544
G1 X193.677 Y190.687 E.06011
G1 X193.285 Y191.789 E.04133
G1 X192.709 Y192.806 E.04134
G1 X191.964 Y193.708 E.04134
G1 X191.073 Y194.468 E.04137
G1 X190.064 Y195.061 E.04139
G1 X188.967 Y195.47 E.04139
G1 X187.82 Y195.681 E.04121
G1 X175.781 Y195.714 E.42554
G1 X174.274 Y195.594 E.05342
G1 X173.03 Y195.316 E.04505
G1 X140.054 Y185.371 E1.21743
G1 X138.094 Y184.365 E.07785
G1 X136.618 Y182.731 E.07785
G1 X135.817 Y180.679 E.07785
G1 X135.706 Y179.517 E.04125
G1 X135.706 Y150.326 E1.03178
G1 X136.102 Y148.16 E.07785
G1 X137.156 Y146.415 E.07204
G1 X137.558 Y146.67 F12000
G1 F3000
G1 X137.693 Y146.457 E.00891
G1 X140.21 Y144.903 E.10454
G1 X173.501 Y135.031 E1.22735
G1 X174.667 Y134.813 E.04193
G1 X175.781 Y134.743 E.03945
G1 X187.182 Y134.743 E.40297
G1 X188.751 Y134.946 E.05592
G1 X189.776 Y135.309 E.03846
G1 X190.725 Y135.847 E.03856
G1 X191.565 Y136.539 E.03847
G1 X192.274 Y137.37 E.03861
G1 X192.827 Y138.31 E.03853
G1 X193.235 Y139.432 E.0422
G1 X193.416 Y140.507 E.03855
G1 X193.437 Y189 E1.71403
G1 X193.235 Y190.568 E.0559
G1 X192.871 Y191.596 E.03852
G1 X192.334 Y192.544 E.03852
G1 X191.641 Y193.385 E.03853
G1 X190.811 Y194.093 E.03856
G1 X189.871 Y194.647 E.03857
G1 X188.848 Y195.028 E.03857
G1 X187.78 Y195.226 E.03841
G1 X175.781 Y195.257 E.42413
G1 X174.337 Y195.141 E.05118
G1 X173.162 Y194.878 E.04256
G1 X140.186 Y184.933 E1.21743
G1 X138.309 Y183.953 E.07486
G1 X136.923 Y182.351 E.07486
G1 X136.163 Y179.517 E.1037
G1 X136.163 Y150.326 E1.03178
M73 P0 R33
G1 X136.559 Y148.246 E.07486
G1 X137.537 Y146.704 E.06454
G1 X137.931 Y146.967 F12000
G1 F3000
G1 X138.144 Y146.648 E.01356
G1 X140.34 Y145.342 E.09031
G1 X173.929 Y135.4 E1.23816
G1 X175.781 Y135.2 E.06583
G1 X187.182 Y135.201 E.40297
G1 X188.632 Y135.387 E.05169
G1 X189.583 Y135.724 E.03565
G1 X190.463 Y136.221 E.03575
G1 X191.242 Y136.863 E.03566
G1 X191.9 Y137.632 E.03578
G1 X192.413 Y138.503 E.03571
G1 X192.794 Y139.55 E.03939
G1 X192.96 Y140.547 E.03573
G1 X192.98 Y189 E1.71262
G1 X192.794 Y190.45 E.05168
G1 X192.457 Y191.402 E.0357
G1 X191.9 Y192.368 E.03939
G1 X191.244 Y193.136 E.03571
G1 X190.463 Y193.779 E.03574
G1 X189.678 Y194.232 E.03206
G1 X188.73 Y194.587 E.03575
G1 X187.74 Y194.77 E.0356
G1 X175.781 Y194.8 E.42271
G1 X174.4 Y194.688 E.04894
G1 X173.294 Y194.441 E.04007
G1 X140.318 Y184.495 E1.21743
G1 X138.527 Y183.541 E.07174
G1 X137.237 Y181.974 E.07174
G1 X136.62 Y179.517 E.08953
G1 X136.62 Y150.326 E1.03178
G1 X137.016 Y148.336 E.07174
G1 X137.909 Y147 E.05677
G1 X138.293 Y147.273 F12000
G1 F3000
G1 X138.594 Y146.849 E.01837
G1 X140.47 Y145.78 E.07632
G1 X174.034 Y135.845 E1.23723
G1 X175.781 Y135.658 E.0621
G1 X187.182 Y135.658 E.40297
G1 X188.514 Y135.829 E.04747
G1 X189.39 Y136.138 E.03284
G1 X190.201 Y136.596 E.03293
G1 X190.919 Y137.186 E.03285
G1 X191.525 Y137.895 E.03296
G1 X191.998 Y138.696 E.03289
G1 X192.352 Y139.668 E.03657
G1 X192.505 Y140.587 E.03291
G1 X192.523 Y189 E1.71121
G1 X192.352 Y190.332 E.04746
G1 X192.043 Y191.209 E.03289
G1 X191.525 Y192.105 E.03657
G1 X190.92 Y192.813 E.0329
G1 X190.201 Y193.404 E.03292
G1 X189.39 Y193.862 E.03293
G1 X188.511 Y194.172 E.03293
G1 X187.596 Y194.324 E.0328
G1 X175.781 Y194.343 E.41762
M73 P1 R33
G1 X174.464 Y194.236 E.0467
G1 X173.426 Y194.003 E.03758
G1 X140.45 Y184.058 E1.21743
G1 X138.748 Y183.131 E.06848
G1 X137.559 Y181.601 E.06848
G1 X137.077 Y179.517 E.07561
G1 X137.077 Y150.326 E1.03178
G1 X137.473 Y148.43 E.06848
G1 X138.27 Y147.306 E.0487
G1 X138.643 Y147.589 F12000
G1 F3000
G1 X139.042 Y147.062 E.02336
G1 X140.6 Y146.218 E.06262
G1 X174.138 Y136.29 E1.2363
G1 X175.781 Y136.115 E.05838
G1 X187.182 Y136.115 E.40297
G1 X188.395 Y136.27 E.04325
G1 X189.197 Y136.552 E.03003
G1 X189.939 Y136.97 E.03011
G1 X190.596 Y137.509 E.03004
G1 X191.151 Y138.157 E.03014
G1 X191.584 Y138.889 E.03008
G1 X191.911 Y139.786 E.03376
G1 X192.05 Y140.627 E.03009
G1 X192.066 Y189 E1.7098
G1 X191.911 Y190.214 E.04324
G1 X191.628 Y191.016 E.03007
G1 X191.151 Y191.843 E.03376
G1 X190.597 Y192.489 E.03008
G1 X189.939 Y193.03 E.0301
G1 X189.197 Y193.448 E.03011
G1 X188.393 Y193.731 E.03011
G1 X187.556 Y193.869 E.02999
G1 X175.781 Y193.885 E.4162
G1 X174.138 Y193.71 E.05838
G1 X140.582 Y183.62 E1.23854
G1 X138.975 Y182.723 E.06506
G1 X137.893 Y181.234 E.06506
G1 X137.534 Y179.517 E.06197
G1 X137.534 Y150.326 E1.03178
G1 X137.929 Y148.528 E.06506
G1 X138.618 Y147.621 E.04028
G1 X138.976 Y147.914 F12000
G1 F3000
G1 X139.489 Y147.289 E.02857
G1 X140.73 Y146.656 E.04925
G1 X174.243 Y136.735 E1.23537
G1 X175.781 Y136.572 E.05466
G1 X187.182 Y136.572 E.40297
G1 X188.277 Y136.712 E.03903
G1 X189.003 Y136.966 E.02722
G1 X189.677 Y137.345 E.02729
G1 X190.273 Y137.833 E.02723
G1 X190.776 Y138.419 E.02732
G1 X191.17 Y139.082 E.02726
G1 X191.469 Y139.905 E.03094
G1 X191.594 Y140.666 E.02728
G1 X191.609 Y189 E1.7084
G1 X191.469 Y190.095 E.03902
G1 X191.214 Y190.823 E.02726
G1 X190.777 Y191.581 E.03094
G1 X190.274 Y192.166 E.02727
G1 X189.677 Y192.656 E.02729
G1 X189.003 Y193.034 E.02729
G1 X188.275 Y193.289 E.02729
G1 X187.516 Y193.414 E.02718
G1 X175.781 Y193.428 E.41479
G1 X174.243 Y193.265 E.05466
G1 X140.714 Y183.183 E1.23754
G1 X139.207 Y182.316 E.06145
G1 X138.239 Y180.872 E.06145
G1 X137.991 Y179.517 E.04867
G1 X137.991 Y150.326 E1.03178
G1 X138.386 Y148.633 E.06145
G1 X138.951 Y147.945 E.03146
G1 X139.288 Y148.249 F12000
G1 F3000
G1 X139.932 Y147.533 E.03404
G1 X140.86 Y147.094 E.03627
G1 X174.348 Y137.18 E1.23444
G1 X175.781 Y137.029 E.05094
G1 X187.182 Y137.029 E.40297
G1 X188.158 Y137.153 E.03481
G1 X188.81 Y137.381 E.02441
G1 X189.414 Y137.719 E.02447
G1 X189.95 Y138.156 E.02442
G1 X190.402 Y138.681 E.0245
G1 X190.756 Y139.275 E.02445
G1 X191.028 Y140.023 E.02813
G1 X191.139 Y140.706 E.02446
G1 X191.152 Y189 E1.70699
G1 X191.028 Y189.977 E.03481
G1 X190.8 Y190.63 E.02445
G1 X190.402 Y191.319 E.02813
G1 X189.951 Y191.843 E.02445
G1 X189.414 Y192.281 E.02447
G1 X188.81 Y192.619 E.02447
G1 X188.157 Y192.847 E.02447
G1 X187.476 Y192.958 E.02438
G1 X175.781 Y192.971 E.41337
G1 X174.348 Y192.82 E.05094
G1 X140.846 Y182.745 E1.23654
G1 X139.445 Y181.911 E.05761
G1 X138.6 Y180.517 E.05761
G1 X138.448 Y179.517 E.03575
G1 X138.448 Y150.326 E1.03178
G1 X138.842 Y148.745 E.05761
G1 X139.261 Y148.278 E.02216
G1 X139.56 Y148.658 F12000
G1 F3000
G1 X140.99 Y147.533 E.06431
G1 X174.128 Y137.701 E1.22177
G1 X175.046 Y137.529 E.03298
G1 X175.781 Y137.486 E.02602
G1 X187.182 Y137.486 E.40297
G1 X188.04 Y137.594 E.03058
G1 X188.617 Y137.795 E.0216
G1 X189.152 Y138.093 E.02165
G1 X189.626 Y138.479 E.02161
G1 X190.028 Y138.943 E.02168
G1 X190.341 Y139.469 E.02163
G1 X190.586 Y140.141 E.02531
G1 X190.684 Y140.746 E.02164
G1 X190.695 Y189 E1.70558
G1 X190.586 Y189.859 E.03059
G1 X190.386 Y190.437 E.02163
G1 X190.028 Y191.057 E.02531
G1 X189.627 Y191.52 E.02164
G1 X189.152 Y191.907 E.02165
G1 X188.617 Y192.205 E.02166
G1 X188.038 Y192.406 E.02166
G1 X187.436 Y192.503 E.02157
G1 X175.781 Y192.514 E.41196
G1 X174.452 Y192.375 E.04721
G1 X140.978 Y182.307 E1.23554
G1 X139.692 Y181.509 E.0535
G1 X138.905 Y179.517 E.07569
G1 X138.905 Y150.326 E1.03178
G1 X139.298 Y148.864 E.0535
G1 X139.529 Y148.683 E.01038
G1 X139.76 Y148.991 F12000
G1 F3000
G1 X141.12 Y147.971 E.0601
G1 X174.557 Y138.069 E1.23258
G1 X175.781 Y137.943 E.04349
G1 X187.182 Y137.943 E.40297
G1 X187.921 Y138.036 E.02636
G1 X188.424 Y138.209 E.01879
G1 X188.89 Y138.468 E.01884
G1 X189.377 Y138.876 E.02248
G1 X189.971 Y139.756 E.03753
G1 X190.145 Y140.26 E.01882
G1 X190.238 Y141 E.02637
G1 X190.238 Y189 E1.6966
G1 X190.145 Y189.74 E.02637
G1 X189.971 Y190.244 E.01882
G1 X189.653 Y190.795 E.0225
G1 X189.304 Y191.197 E.01882
G1 X188.424 Y191.791 E.03753
G1 X187.396 Y192.048 E.03746
G1 X175.781 Y192.057 E.41054
G1 X174.557 Y191.931 E.04349
G1 X141.11 Y181.87 E1.23454
G1 X139.949 Y181.11 E.04905
M73 P2 R33
G1 X139.362 Y179.517 E.05999
G1 X139.362 Y150.326 E1.03178
G1 X139.745 Y149.027 E.04789
; printing object nozle_clean_vzbot330_v2.stl id:0 copy 0
G1 E-.5 F2400
EXCLUDE_OBJECT_START NAME=nozle_clean_vzbot330_v2.stl_id_0_copy_0
G1 X187.657 Y143.018 F12000
G1 E.5 F1800
;TYPE:Outer wall
;WIDTH:0.38292
G1 F3000
G1 X187.659 Y143.498 E.01261
G1 E-.5 F2400
G1 X183.743 Y163.508 F12000
G1 X183.661 Y164.002
G1 X183.611 Y164.5
G1 X183.595 Y165
G1 X184.194 Y186.194
G1 X184.533 Y186.3
G1 E.5 F1800
;WIDTH:0.499999
G1 F3000
G1 X184.465 Y186.566 E.00971
G1 X184.495 Y187.091 E.01859
G1 X184.682 Y187.583 E.0186
G1 X185.008 Y187.996 E.0186
G1 X185.45 Y188.293 E.0188
G1 X185.952 Y188.437 E.01845
G1 X186.298 Y188.441 E.01225
G1 X186.824 Y188.281 E.01942
G1 X187.323 Y187.886 E.02251
G1 X187.531 Y187.61 E.0122
G1 X187.531 Y187.991 E.01346
G1 X187.458 Y188.946 E.03385
G1 X187.356 Y189.16 E.00839
G1 X187.146 Y189.25 E.00806
G1 X175.794 Y189.25 E.40125
G1 X175.184 Y189.194 E.02166
G1 X174.602 Y189.027 E.02138
G1 X174.07 Y188.762 E.021
G1 X173.592 Y188.401 E.02119
G1 X173.188 Y187.958 E.02119
G1 X172.87 Y187.443 E.02138
G1 X172.656 Y186.889 E.021
G3 X172.531 Y185.992 I5.591 J-1.237 E.03206
G1 X172.531 Y179.396 E.23314
G1 X172.459 Y179.23 E.00638
G1 X172.302 Y179.167 E.00598
G1 X142.169 Y179.167 E1.06507
G1 X142.169 Y167.904 E.39809
G2 X142.076 Y166.124 I-17.484 J.014 E.06305
;WIDTH:0.462598
G1 X142.032 Y165.709 E.01352
;WIDTH:0.425196
G1 X142.016 Y165.152 E.01649
;WIDTH:0.418806
G1 X142.029 Y164.871 E.00817
;WIDTH:0.444019
G1 X142.041 Y164.59 E.00872
;WIDTH:0.472009
G1 X142.078 Y164.151 E.01462
;WIDTH:0.499999
G3 X142.164 Y163.191 I51.236 J4.088 E.03407
G1 X142.169 Y150.676 E.44234
G1 X172.302 Y150.676 E1.06507
G1 X172.467 Y150.606 E.00632
G1 X172.531 Y150.448 E.00605
G1 X172.531 Y144.013 E.22743
G1 X172.587 Y143.403 E.02166
G1 X172.753 Y142.822 E.02138
G1 X173.018 Y142.29 E.021
G1 X173.38 Y141.811 E.02119
G1 X173.823 Y141.407 E.02119
G1 X174.332 Y141.092 E.02119
G1 X174.892 Y140.875 E.02119
G3 X175.789 Y140.75 I1.236 J5.587 E.03205
G1 X186.979 Y140.75 E.39555
G1 X187.306 Y140.791 E.01162
G1 X187.424 Y140.949 E.00697
G1 X187.482 Y141.364 E.0148
G1 X187.531 Y142.39 E.03632
G1 X187.323 Y142.115 E.0122
G1 X186.735 Y141.674 E.02596
G1 X186.211 Y141.552 E.01903
G1 X185.691 Y141.616 E.0185
G1 X185.215 Y141.84 E.01861
G1 X184.829 Y142.198 E.0186
G1 X184.569 Y142.656 E.01861
G1 X184.46 Y143.17 E.01858
G1 X184.511 Y143.694 E.01859
G1 X184.704 Y144.16 E.01785
G1 X185.03 Y144.553 E.01803
G1 X185.45 Y144.827 E.01773
G1 X185.952 Y144.971 E.01845
G1 X186.298 Y144.976 E.01225
G1 X186.824 Y144.815 E.01942
G1 X187.329 Y144.415 E.0228
G1 X187.531 Y144.144 E.01192
G3 X187.459 Y145.486 I-10.201 J.13 E.04753
G1 X187.435 Y145.998 E.01811
G1 X187.431 Y158.805 E.45266
G1 X186.798 Y159.226 E.02687
G1 X186.076 Y159.852 E.03378
G1 X185.462 Y160.545 E.03272
G2 X184.91 Y161.362 I50.102 J34.414 E.03485
G1 X184.486 Y162.219 E.03378
G1 X184.178 Y163.124 E.03379
G1 X183.992 Y164.061 E.03378
G1 X183.931 Y165.015 E.03379
G1 X183.996 Y165.969 E.03379
G1 X184.186 Y166.905 E.03378
G1 X184.497 Y167.809 E.03379
G1 X184.925 Y168.664 E.03379
G1 X185.462 Y169.455 E.03378
G1 X186.097 Y170.169 E.03379
G1 X186.821 Y170.792 E.03376
G1 X187.431 Y171.195 E.02583
G1 X187.435 Y183.211 E.42472
G2 X187.515 Y185.005 I11.56 J.384 E.06352
G1 X187.531 Y185.506 E.01773
G1 X187.531 Y185.856 E.01235
G1 X187.329 Y185.585 E.01193
G1 X186.819 Y185.182 E.02298
G1 X186.266 Y185.018 E.02039
G1 X185.761 Y185.063 E.01789
G1 X185.239 Y185.287 E.02011
G1 X184.858 Y185.626 E.01801
G1 X184.595 Y186.058 E.01787
G1 X184.543 Y186.261 E.00743
G1 E-.5 F2400
G1 X184.206 Y186.156 F12000
G1 X184.267 Y185.963
G1 X184.407 Y185.679
G1 X184.589 Y185.42
G1 X184.808 Y185.193
G1 X185.059 Y185.001
G1 X185.385 Y184.957
G1 X185.994 Y185.113
G1 X186.838 Y185.525
G1 X187.014 Y185.639
G1 X187.172 Y185.779
G1 X187.306 Y185.942
G1 X187.657 Y186.484
G1 E.5 F1800
;WIDTH:0.38292
G1 F3000
G1 X187.659 Y186.963 E.01261
G1 X186.979 Y188.758 F12000
;TYPE:Inner wall
;WIDTH:0.5698
G1 F3000
G1 X186.836 Y188.778 E.00591
;WIDTH:0.529494
G1 X186.692 Y188.798 E.00545
;WIDTH:0.489188
G1 X186.548 Y188.819 E.005
;WIDTH:0.448882
G1 X186.405 Y188.839 E.00455
;WIDTH:0.413124
G1 X185.846 Y188.837 E.016
G1 E-.5 F2400
G1 X187.781 Y188.657 F12000
G1 X187.22 Y183.217
G1 X187.095 Y182.722
G1 X183.743 Y166.492
G1 X183.661 Y165.998
G1 X183.611 Y165.5
G1 X183.595 Y165
G1 X183.611 Y164.5
G1 X183.661 Y164.002
G1 X183.743 Y163.508
G1 X187.095 Y147.278
G1 X187.22 Y146.783
G1 X187.781 Y141.343
G1 X185.671 Y141.178
G1 E.5 F1800
;WIDTH:0.441532
G1 F3000
G1 X185.921 Y141.165 E.00771
;WIDTH:0.415532
G1 X186.17 Y141.152 E.0072
;WIDTH:0.43475
G1 X186.398 Y141.174 E.00694
;WIDTH:0.479968
G1 X186.626 Y141.197 E.00774
;WIDTH:0.525186
G1 X186.854 Y141.22 E.00854
;WIDTH:0.56899
G1 X186.979 Y141.242 E.00519
G1 E-.5 F2400
G1 X172.866 Y144.016 F12000
