
; ### Ellis' Pressure Advance / Linear Advance Calibration Tool ###
;
; Original Marlin linear advance calibration tool by Sineos [https://github.com/Sineos]
; Heavily modified/rewritten by Andrew Ellis [https://github.com/AndrewEllis93]
;
; -------------------------------------------
; Generated: Thu Jul 13 2023 08:52:23 GMT-0700 (Pacific Daylight Saving Time)
; -------------------------------------------
;
; Advanced Mode: false
;
; Printer:
;  - Firmware: klipper
;  - Bed Shape: Rect
;  - Bed Size X: 330 mm
;  - Bed Size Y: 330 mm
;  - Origin Bed Center: false
;  - Travel Speed: 150 mm/s
;  - Nozzle Diameter: 0.4 mm
;  - Filament Diameter: 1.75 mm
;  - Extrusion Multiplier: 0.98
;
; Retraction / Z Hop:
;  - Retraction Distance: 0.8 mm
;  - Retract Speed: 50 mm/s
;  - Unretract Speed: 30 mm/s
;  - Z Hop Enable: true
;  - Z Hop Height: 0.2mm
;
; First Layer Settings:
;  - First Layer Height: 0.2 mm
;  - First Layer Printing Speed: 30 mm/s
;  - First Layer Fan Speed: 0%
;  - Anchor Option: anchor_frame
;
; Print Settings:
;  - Layer Height: 0.2 mm
;  - Print Speed: 200 mm/s
;  - Acceleration: 8000 mm/s^2
;  - Fan Speed: 100%
;
; Pressure Advance Stepping:
;  - PA Start Value: 0
;  - PA End Value: 0.08
;  - PA Increment: 0.005
;
; Start / End G-code:
;  - Hotend Temp: 200C
;  - Bed Temp: 60C
;  - Don't Add G28: false
;  - Don't Add Heating G-Codes: false
;
; Calculated Values:
;  - Print Size X: 84.76 mm
;  - Print Size Y: 53.99 mm
;  - Number of Patterns to Print: 17
;  - PA Values: 0, 0.005, 0.01, 0.015, 0.02, 0.025, 0.03, 0.035, 0.04, 0.045, 0.05, 0.055, 0.06, 0.065, 0.07, 0.075, 0.08
;
; Prepare printing
;
G28 ; Home all axes
M190 S60 ; Set & wait for bed temp
M109 S200 ; Set & wait for hotend temp
PRINT_START ; Start macro
; START_PRINT ; Start macro (alternate / official start macro name)
G21 ; Millimeter units
G90 ; Absolute XYZ
M83 ; Relative E
G92 E0 ; Reset extruder distance
;
;  Begin printing
;
M106 S0 ; Set fan speed
SET_VELOCITY_LIMIT ACCEL=8000 ; Set printing acceleration
G1 E-0.8 F3000 ; Retract
G0 Z5 F9000 ; Z raise
G0 X122.6202 Y138.0068 F9000 ; Move to start position
G0 Z0.2 F9000 ; Move to start layer height
G1 E0.8 F1800 ; Un-retract
SET_PRESSURE_ADVANCE ADVANCE=0 ; Set pressure advance to start value
M117 PA 0
G1 X122.6202 Y180.4332 E1.78766 F1800 ; Draw perimeter (up)
G1 X207.3798 Y180.4332 E3.57138 F1800 ; Draw perimeter (right)
G1 X207.3798 Y138.0068 E1.78766 F1800 ; Draw perimeter (down)
G1 X122.6202 Y138.0068 E3.57138 F1800 ; Draw perimeter (left)
G0 X123.1373 Y138.5239 F9000 ; Step inwards to print next perimeter
G1 X123.1373 Y179.9161 E1.74408 F1800 ; Draw perimeter (up)
G1 X206.8627 Y179.9161 E3.5278 F1800 ; Draw perimeter (right)
G1 X206.8627 Y138.5239 E1.74408 F1800 ; Draw perimeter (down)
G1 X123.1373 Y138.5239 E3.5278 F1800 ; Draw perimeter (left)
G0 X123.6544 Y139.041 F9000 ; Step inwards to print next perimeter
G1 X123.6544 Y179.399 E1.70051 F1800 ; Draw perimeter (up)
G1 X206.3456 Y179.399 E3.48423 F1800 ; Draw perimeter (right)
G1 X206.3456 Y139.041 E1.70051 F1800 ; Draw perimeter (down)
G1 X123.6544 Y139.041 E3.48423 F1800 ; Draw perimeter (left)
G0 X124.1715 Y139.558 F9000 ; Step inwards to print next perimeter
G1 X124.1715 Y178.882 E1.65693 F1800 ; Draw perimeter (up)
G1 X205.8285 Y178.882 E3.44066 F1800 ; Draw perimeter (right)
G1 X205.8285 Y139.558 E1.65693 F1800 ; Draw perimeter (down)
G1 X124.1715 Y139.558 E3.44066 F1800 ; Draw perimeter (left)
G1 E-0.8 F3000 ; Retract
G1 Z0.4 F9000 ; Z hop
G0 X122.6202 Y180.9503 F9000 ; Move to box start
G1 Z0.2 F9000 ; Z hop return
G1 E0.8 F1800 ; Un-retract
G1 X122.6202 Y192.4674 E0.48528 F1800 ; Draw perimeter (up)
G1 X186.8747 Y192.4674 E2.70739 F1800 ; Draw perimeter (right)
G1 X186.8747 Y180.9503 E0.48528 F1800 ; Draw perimeter (down)
G1 X122.6202 Y180.9503 E2.70739 F1800 ; Draw perimeter (left)
G0 X123.1373 Y181.4674 F9000 ; Step inwards to print next perimeter
G1 X123.1373 Y191.9503 E0.4417 F1800 ; Draw perimeter (up)
G1 X186.3576 Y191.9503 E2.66382 F1800 ; Draw perimeter (right)
G1 X186.3576 Y181.4674 E0.4417 F1800 ; Draw perimeter (down)
G1 X123.1373 Y181.4674 E2.66382 F1800 ; Draw perimeter (left)
G0 X123.6544 Y181.9844 F9000 ; Step inwards to print next perimeter
G1 X123.6544 Y191.4332 E0.39813 F1800 ; Draw perimeter (up)
G1 X185.8406 Y191.4332 E2.62024 F1800 ; Draw perimeter (right)
G1 X185.8406 Y181.9844 E0.39813 F1800 ; Draw perimeter (down)
G1 X123.6544 Y181.9844 E2.62024 F1800 ; Draw perimeter (left)
G0 X124.1715 Y182.5015 F9000 ; Step inwards to print next perimeter
G1 X124.1715 Y190.9161 E0.35455 F1800 ; Draw perimeter (up)
G1 X185.3235 Y190.9161 E2.57667 F1800 ; Draw perimeter (right)
G1 X185.3235 Y182.5015 E0.35455 F1800 ; Draw perimeter (down)
G1 X124.1715 Y182.5015 E2.57667 F1800 ; Draw perimeter (left)
G0 X124.5448 Y182.8749 F9000 ; Move to fill start
G0 X125.2761 Y182.8749 F9000 ; Move
G1 X124.5448 Y183.6061 E0.04357 F1800 ; Fill
G0 X124.5448 Y184.3374 F9000 ; Move
G1 X126.0073 Y182.8749 E0.08715 F1800 ; Fill
G0 X126.7386 Y182.8749 F9000 ; Move
G1 X124.5448 Y185.0686 E0.13072 F1800 ; Fill
G0 X124.5448 Y185.7999 F9000 ; Move
G1 X127.4699 Y182.8749 E0.1743 F1800 ; Fill
G0 X128.2011 Y182.8749 F9000 ; Move
G1 X124.5448 Y186.5312 E0.21787 F1800 ; Fill
G0 X124.5448 Y187.2624 F9000 ; Move
G1 X128.9324 Y182.8749 E0.26145 F1800 ; Fill
G0 X129.6636 Y182.8749 F9000 ; Move
G1 X124.5448 Y187.9937 E0.30502 F1800 ; Fill
G0 X124.5448 Y188.7249 F9000 ; Move
G1 X130.3949 Y182.8749 E0.3486 F1800 ; Fill
G0 X131.1262 Y182.8749 F9000 ; Move
G1 X124.5448 Y189.4562 E0.39217 F1800 ; Fill
G0 X124.5448 Y190.1875 F9000 ; Move
G1 X131.8574 Y182.8749 E0.43575 F1800 ; Fill
G0 X132.5887 Y182.8749 F9000 ; Move
G1 X124.9207 Y190.5428 E0.45692 F1800 ; Fill
G0 X125.652 Y190.5428 F9000 ; Move
G1 X133.3199 Y182.8749 E0.45692 F1800 ; Fill
G0 X134.0512 Y182.8749 F9000 ; Move
G1 X126.3833 Y190.5428 E0.45692 F1800 ; Fill
G0 X127.1145 Y190.5428 F9000 ; Move
G1 X134.7825 Y182.8749 E0.45692 F1800 ; Fill
G0 X135.5137 Y182.8749 F9000 ; Move
G1 X127.8458 Y190.5428 E0.45692 F1800 ; Fill
G0 X128.5771 Y190.5428 F9000 ; Move
G1 X136.245 Y182.8749 E0.45692 F1800 ; Fill
G0 X136.9762 Y182.8749 F9000 ; Move
G1 X129.3083 Y190.5428 E0.45692 F1800 ; Fill
G0 X130.0396 Y190.5428 F9000 ; Move
G1 X137.7075 Y182.8749 E0.45692 F1800 ; Fill
G0 X138.4388 Y182.8749 F9000 ; Move
G1 X130.7708 Y190.5428 E0.45692 F1800 ; Fill
G0 X131.5021 Y190.5428 F9000 ; Move
G1 X139.17 Y182.8749 E0.45692 F1800 ; Fill
G0 X139.9013 Y182.8749 F9000 ; Move
G1 X132.2334 Y190.5428 E0.45692 F1800 ; Fill
G0 X132.9646 Y190.5428 F9000 ; Move
G1 X140.6326 Y182.8749 E0.45692 F1800 ; Fill
G0 X141.3638 Y182.8749 F9000 ; Move
G1 X133.6959 Y190.5428 E0.45692 F1800 ; Fill
G0 X134.4271 Y190.5428 F9000 ; Move
G1 X142.0951 Y182.8749 E0.45692 F1800 ; Fill
G0 X142.8263 Y182.8749 F9000 ; Move
G1 X135.1584 Y190.5428 E0.45692 F1800 ; Fill
G0 X135.8897 Y190.5428 F9000 ; Move
G1 X143.5576 Y182.8749 E0.45692 F1800 ; Fill
G0 X144.2889 Y182.8749 F9000 ; Move
G1 X136.6209 Y190.5428 E0.45692 F1800 ; Fill
G0 X137.3522 Y190.5428 F9000 ; Move
G1 X145.0201 Y182.8749 E0.45692 F1800 ; Fill
G0 X145.7514 Y182.8749 F9000 ; Move
G1 X138.0834 Y190.5428 E0.45692 F1800 ; Fill
G0 X138.8147 Y190.5428 F9000 ; Move
G1 X146.4826 Y182.8749 E0.45692 F1800 ; Fill
G0 X147.2139 Y182.8749 F9000 ; Move
G1 X139.546 Y190.5428 E0.45692 F1800 ; Fill
G0 X140.2772 Y190.5428 F9000 ; Move
G1 X147.9452 Y182.8749 E0.45692 F1800 ; Fill
G0 X148.6764 Y182.8749 F9000 ; Move
G1 X141.0085 Y190.5428 E0.45692 F1800 ; Fill
G0 X141.7398 Y190.5428 F9000 ; Move
G1 X149.4077 Y182.8749 E0.45692 F1800 ; Fill
G0 X150.1389 Y182.8749 F9000 ; Move
G1 X142.471 Y190.5428 E0.45692 F1800 ; Fill
G0 X143.2023 Y190.5428 F9000 ; Move
G1 X150.8702 Y182.8749 E0.45692 F1800 ; Fill
G0 X151.6015 Y182.8749 F9000 ; Move
G1 X143.9335 Y190.5428 E0.45692 F1800 ; Fill
G0 X144.6648 Y190.5428 F9000 ; Move
G1 X152.3327 Y182.8749 E0.45692 F1800 ; Fill
G0 X153.064 Y182.8749 F9000 ; Move
G1 X145.3961 Y190.5428 E0.45692 F1800 ; Fill
G0 X146.1273 Y190.5428 F9000 ; Move
G1 X153.7953 Y182.8749 E0.45692 F1800 ; Fill
G0 X154.5265 Y182.8749 F9000 ; Move
G1 X146.8586 Y190.5428 E0.45692 F1800 ; Fill
G0 X147.5898 Y190.5428 F9000 ; Move
G1 X155.2578 Y182.8749 E0.45692 F1800 ; Fill
G0 X155.989 Y182.8749 F9000 ; Move
G1 X148.3211 Y190.5428 E0.45692 F1800 ; Fill
G0 X149.0524 Y190.5428 F9000 ; Move
G1 X156.7203 Y182.8749 E0.45692 F1800 ; Fill
G0 X157.4516 Y182.8749 F9000 ; Move
G1 X149.7836 Y190.5428 E0.45692 F1800 ; Fill
G0 X150.5149 Y190.5428 F9000 ; Move
G1 X158.1828 Y182.8749 E0.45692 F1800 ; Fill
G0 X158.9141 Y182.8749 F9000 ; Move
G1 X151.2461 Y190.5428 E0.45692 F1800 ; Fill
G0 X151.9774 Y190.5428 F9000 ; Move
G1 X159.6453 Y182.8749 E0.45692 F1800 ; Fill
G0 X160.3766 Y182.8749 F9000 ; Move
G1 X152.7087 Y190.5428 E0.45692 F1800 ; Fill
G0 X153.4399 Y190.5428 F9000 ; Move
G1 X161.1079 Y182.8749 E0.45692 F1800 ; Fill
G0 X161.8391 Y182.8749 F9000 ; Move
G1 X154.1712 Y190.5428 E0.45692 F1800 ; Fill
G0 X154.9025 Y190.5428 F9000 ; Move
G1 X162.5704 Y182.8749 E0.45692 F1800 ; Fill
G0 X163.3016 Y182.8749 F9000 ; Move
G1 X155.6337 Y190.5428 E0.45692 F1800 ; Fill
G0 X156.365 Y190.5428 F9000 ; Move
G1 X164.0329 Y182.8749 E0.45692 F1800 ; Fill
G0 X164.7642 Y182.8749 F9000 ; Move
G1 X157.0962 Y190.5428 E0.45692 F1800 ; Fill
G0 X157.8275 Y190.5428 F9000 ; Move
G1 X165.4954 Y182.8749 E0.45692 F1800 ; Fill
G0 X166.2267 Y182.8749 F9000 ; Move
G1 X158.5588 Y190.5428 E0.45692 F1800 ; Fill
G0 X159.29 Y190.5428 F9000 ; Move
G1 X166.958 Y182.8749 E0.45692 F1800 ; Fill
G0 X167.6892 Y182.8749 F9000 ; Move
G1 X160.0213 Y190.5428 E0.45692 F1800 ; Fill
G0 X160.7525 Y190.5428 F9000 ; Move
G1 X168.4205 Y182.8749 E0.45692 F1800 ; Fill
G0 X169.1517 Y182.8749 F9000 ; Move
G1 X161.4838 Y190.5428 E0.45692 F1800 ; Fill
G0 X162.2151 Y190.5428 F9000 ; Move
G1 X169.883 Y182.8749 E0.45692 F1800 ; Fill
G0 X170.6143 Y182.8749 F9000 ; Move
G1 X162.9463 Y190.5428 E0.45692 F1800 ; Fill
G0 X163.6776 Y190.5428 F9000 ; Move
G1 X171.3455 Y182.8749 E0.45692 F1800 ; Fill
G0 X172.0768 Y182.8749 F9000 ; Move
G1 X164.4088 Y190.5428 E0.45692 F1800 ; Fill
G0 X165.1401 Y190.5428 F9000 ; Move
G1 X172.808 Y182.8749 E0.45692 F1800 ; Fill
G0 X173.5393 Y182.8749 F9000 ; Move
G1 X165.8714 Y190.5428 E0.45692 F1800 ; Fill
G0 X166.6026 Y190.5428 F9000 ; Move
G1 X174.2706 Y182.8749 E0.45692 F1800 ; Fill
G0 X175.0018 Y182.8749 F9000 ; Move
G1 X167.3339 Y190.5428 E0.45692 F1800 ; Fill
G0 X168.0651 Y190.5428 F9000 ; Move
G1 X175.7331 Y182.8749 E0.45692 F1800 ; Fill
G0 X176.4643 Y182.8749 F9000 ; Move
G1 X168.7964 Y190.5428 E0.45692 F1800 ; Fill
G0 X169.5277 Y190.5428 F9000 ; Move
G1 X177.1956 Y182.8749 E0.45692 F1800 ; Fill
G0 X177.9269 Y182.8749 F9000 ; Move
G1 X170.2589 Y190.5428 E0.45692 F1800 ; Fill
G0 X170.9902 Y190.5428 F9000 ; Move
G1 X178.6581 Y182.8749 E0.45692 F1800 ; Fill
G0 X179.3894 Y182.8749 F9000 ; Move
G1 X171.7215 Y190.5428 E0.45692 F1800 ; Fill
G0 X172.4527 Y190.5428 F9000 ; Move
G1 X180.1206 Y182.8749 E0.45692 F1800 ; Fill
G0 X180.8519 Y182.8749 F9000 ; Move
G1 X173.184 Y190.5428 E0.45692 F1800 ; Fill
G0 X173.9152 Y190.5428 F9000 ; Move
G1 X181.5832 Y182.8749 E0.45692 F1800 ; Fill
G0 X182.3144 Y182.8749 F9000 ; Move
G1 X174.6465 Y190.5428 E0.45692 F1800 ; Fill
G0 X175.3778 Y190.5428 F9000 ; Move
G1 X183.0457 Y182.8749 E0.45692 F1800 ; Fill
G0 X183.777 Y182.8749 F9000 ; Move
G1 X176.109 Y190.5428 E0.45692 F1800 ; Fill
G0 X176.8403 Y190.5428 F9000 ; Move
G1 X184.5082 Y182.8749 E0.45692 F1800 ; Fill
G0 X184.9501 Y183.1642 F9000 ; Move
G1 X177.5715 Y190.5428 E0.43968 F1800 ; Fill
G0 X178.3028 Y190.5428 F9000 ; Move
G1 X184.9501 Y183.8955 E0.3961 F1800 ; Fill
G0 X184.9501 Y184.6267 F9000 ; Move
G1 X179.0341 Y190.5428 E0.35253 F1800 ; Fill
G0 X179.7653 Y190.5428 F9000 ; Move
G1 X184.9501 Y185.358 E0.30896 F1800 ; Fill
G0 X184.9501 Y186.0892 F9000 ; Move
G1 X180.4966 Y190.5428 E0.26538 F1800 ; Fill
G0 X181.2278 Y190.5428 F9000 ; Move
G1 X184.9501 Y186.8205 E0.22181 F1800 ; Fill
G0 X184.9501 Y187.5518 F9000 ; Move
G1 X181.9591 Y190.5428 E0.17823 F1800 ; Fill
G0 X182.6904 Y190.5428 F9000 ; Move
G1 X184.9501 Y188.283 E0.13466 F1800 ; Fill
G0 X184.9501 Y189.0143 F9000 ; Move
G1 X183.4216 Y190.5428 E0.09108 F1800 ; Fill
G0 X184.1529 Y190.5428 F9000 ; Move
G1 X184.9501 Y189.7455 E0.04751 F1800 ; Fill
G0 X184.9501 Y190.4768 F9000 ; Move
G1 X184.8842 Y190.5428 E0.00393 F1800 ; Fill
G0 Z0.2 F9000 ; Move to layer height
G1 E-0.8 F3000 ; Retract
G1 Z0.4 F9000 ; Z hop
G0 X127.2491 Y139.9314 F9000 ; Move to pattern start

G1 Z0.2 F9000 ; Z hop return
G1 E0.8 F1800 ; Un-retract
SET_PRESSURE_ADVANCE ADVANCE=0 ; Set pressure advance
M117 PA 0
G1 X146.5377 Y159.22 E0.90487 F1800 ; Print pattern wall
G1 X127.2491 Y178.5086 E0.90487 F1800 ; Print pattern wall
G1 E-0.8 F3000 ; Retract
G1 Z0.4 F9000 ; Z hop
G0 X127.8248 Y139.9314 F9000 ; Move to start next pattern wall
G1 Z0.2 F9000 ; Z hop return
G1 E0.8 F1800 ; Un-retract
G1 X147.1134 Y159.22 E0.90487 F1800 ; Print pattern wall
G1 X127.8248 Y178.5086 E0.90487 F1800 ; Print pattern wall
G1 E-0.8 F3000 ; Retract
G1 Z0.4 F9000 ; Z hop
G0 X128.4005 Y139.9314 F9000 ; Move to start next pattern wall
G1 Z0.2 F9000 ; Z hop return
G1 E0.8 F1800 ; Un-retract
G1 X147.6891 Y159.22 E0.90487 F1800 ; Print pattern wall
G1 X128.4005 Y178.5086 E0.90487 F1800 ; Print pattern wall
G1 E-0.8 F3000 ; Retract
G1 Z0.4 F9000 ; Z hop
G0 X130.8505 Y139.9314 F9000 ; Move to next pattern
G1 Z0.2 F9000 ; Z hop return
G1 E0.8 F1800 ; Un-retract
SET_PRESSURE_ADVANCE ADVANCE=0.005 ; Set pressure advance
M117 PA 0.005
G1 X150.1391 Y159.22 E0.90487 F1800 ; Print pattern wall
G1 X130.8505 Y178.5086 E0.90487 F1800 ; Print pattern wall
G1 E-0.8 F3000 ; Retract
G1 Z0.4 F9000 ; Z hop
G0 X131.4262 Y139.9314 F9000 ; Move to start next pattern wall
G1 Z0.2 F9000 ; Z hop return
G1 E0.8 F1800 ; Un-retract
G1 X150.7148 Y159.22 E0.90487 F1800 ; Print pattern wall
G1 X131.4262 Y178.5086 E0.90487 F1800 ; Print pattern wall
G1 E-0.8 F3000 ; Retract
G1 Z0.4 F9000 ; Z hop
G0 X132.0019 Y139.9314 F9000 ; Move to start next pattern wall
G1 Z0.2 F9000 ; Z hop return
G1 E0.8 F1800 ; Un-retract
G1 X151.2905 Y159.22 E0.90487 F1800 ; Print pattern wall
G1 X132.0019 Y178.5086 E0.90487 F1800 ; Print pattern wall
G1 E-0.8 F3000 ; Retract
G1 Z0.4 F9000 ; Z hop
G0 X134.4519 Y139.9314 F9000 ; Move to next pattern
G1 Z0.2 F9000 ; Z hop return
G1 E0.8 F1800 ; Un-retract
SET_PRESSURE_ADVANCE ADVANCE=0.01 ; Set pressure advance
M117 PA 0.01
G1 X153.7405 Y159.22 E0.90487 F1800 ; Print pattern wall
G1 X134.4519 Y178.5086 E0.90487 F1800 ; Print pattern wall
G1 E-0.8 F3000 ; Retract
G1 Z0.4 F9000 ; Z hop
G0 X135.0276 Y139.9314 F9000 ; Move to start next pattern wall
G1 Z0.2 F9000 ; Z hop return
G1 E0.8 F1800 ; Un-retract
G1 X154.3162 Y159.22 E0.90487 F1800 ; Print pattern wall
G1 X135.0276 Y178.5086 E0.90487 F1800 ; Print pattern wall
G1 E-0.8 F3000 ; Retract
G1 Z0.4 F9000 ; Z hop
G0 X135.6033 Y139.9314 F9000 ; Move to start next pattern wall
G1 Z0.2 F9000 ; Z hop return
G1 E0.8 F1800 ; Un-retract
G1 X154.8919 Y159.22 E0.90487 F1800 ; Print pattern wall
G1 X135.6033 Y178.5086 E0.90487 F1800 ; Print pattern wall
G1 E-0.8 F3000 ; Retract
G1 Z0.4 F9000 ; Z hop
G0 X138.0533 Y139.9314 F9000 ; Move to next pattern
G1 Z0.2 F9000 ; Z hop return
G1 E0.8 F1800 ; Un-retract
SET_PRESSURE_ADVANCE ADVANCE=0.015 ; Set pressure advance
M117 PA 0.015
G1 X157.3419 Y159.22 E0.90487 F1800 ; Print pattern wall
G1 X138.0533 Y178.5086 E0.90487 F1800 ; Print pattern wall
G1 E-0.8 F3000 ; Retract
G1 Z0.4 F9000 ; Z hop
G0 X138.629 Y139.9314 F9000 ; Move to start next pattern wall
G1 Z0.2 F9000 ; Z hop return
G1 E0.8 F1800 ; Un-retract
G1 X157.9176 Y159.22 E0.90487 F1800 ; Print pattern wall
G1 X138.629 Y178.5086 E0.90487 F1800 ; Print pattern wall
G1 E-0.8 F3000 ; Retract
G1 Z0.4 F9000 ; Z hop
G0 X139.2047 Y139.9314 F9000 ; Move to start next pattern wall
G1 Z0.2 F9000 ; Z hop return
G1 E0.8 F1800 ; Un-retract
G1 X158.4933 Y159.22 E0.90487 F1800 ; Print pattern wall
G1 X139.2047 Y178.5086 E0.90487 F1800 ; Print pattern wall
G1 E-0.8 F3000 ; Retract
G1 Z0.4 F9000 ; Z hop
G0 X141.6547 Y139.9314 F9000 ; Move to next pattern
G1 Z0.2 F9000 ; Z hop return
G1 E0.8 F1800 ; Un-retract
SET_PRESSURE_ADVANCE ADVANCE=0.02 ; Set pressure advance
M117 PA 0.02
G1 X160.9433 Y159.22 E0.90487 F1800 ; Print pattern wall
G1 X141.6547 Y178.5086 E0.90487 F1800 ; Print pattern wall
G1 E-0.8 F3000 ; Retract
G1 Z0.4 F9000 ; Z hop
G0 X142.2304 Y139.9314 F9000 ; Move to start next pattern wall
G1 Z0.2 F9000 ; Z hop return
G1 E0.8 F1800 ; Un-retract
G1 X161.519 Y159.22 E0.90487 F1800 ; Print pattern wall
G1 X142.2304 Y178.5086 E0.90487 F1800 ; Print pattern wall
G1 E-0.8 F3000 ; Retract
G1 Z0.4 F9000 ; Z hop
G0 X142.8061 Y139.9314 F9000 ; Move to start next pattern wall
G1 Z0.2 F9000 ; Z hop return
G1 E0.8 F1800 ; Un-retract
G1 X162.0947 Y159.22 E0.90487 F1800 ; Print pattern wall
G1 X142.8061 Y178.5086 E0.90487 F1800 ; Print pattern wall
G1 E-0.8 F3000 ; Retract
G1 Z0.4 F9000 ; Z hop
G0 X145.2561 Y139.9314 F9000 ; Move to next pattern
G1 Z0.2 F9000 ; Z hop return
G1 E0.8 F1800 ; Un-retract
SET_PRESSURE_ADVANCE ADVANCE=0.025 ; Set pressure advance
M117 PA 0.025
G1 X164.5447 Y159.22 E0.90487 F1800 ; Print pattern wall
G1 X145.2561 Y178.5086 E0.90487 F1800 ; Print pattern wall
G1 E-0.8 F3000 ; Retract
G1 Z0.4 F9000 ; Z hop
G0 X145.8318 Y139.9314 F9000 ; Move to start next pattern wall
G1 Z0.2 F9000 ; Z hop return
G1 E0.8 F1800 ; Un-retract
G1 X165.1204 Y159.22 E0.90487 F1800 ; Print pattern wall
G1 X145.8318 Y178.5086 E0.90487 F1800 ; Print pattern wall
G1 E-0.8 F3000 ; Retract
G1 Z0.4 F9000 ; Z hop
G0 X146.4075 Y139.9314 F9000 ; Move to start next pattern wall
G1 Z0.2 F9000 ; Z hop return
G1 E0.8 F1800 ; Un-retract
G1 X165.6961 Y159.22 E0.90487 F1800 ; Print pattern wall
G1 X146.4075 Y178.5086 E0.90487 F1800 ; Print pattern wall
G1 E-0.8 F3000 ; Retract
G1 Z0.4 F9000 ; Z hop
G0 X148.8575 Y139.9314 F9000 ; Move to next pattern
G1 Z0.2 F9000 ; Z hop return
G1 E0.8 F1800 ; Un-retract
SET_PRESSURE_ADVANCE ADVANCE=0.03 ; Set pressure advance
M117 PA 0.03
G1 X168.1461 Y159.22 E0.90487 F1800 ; Print pattern wall
G1 X148.8575 Y178.5086 E0.90487 F1800 ; Print pattern wall
G1 E-0.8 F3000 ; Retract
G1 Z0.4 F9000 ; Z hop
G0 X149.4332 Y139.9314 F9000 ; Move to start next pattern wall
G1 Z0.2 F9000 ; Z hop return
G1 E0.8 F1800 ; Un-retract
G1 X168.7218 Y159.22 E0.90487 F1800 ; Print pattern wall
G1 X149.4332 Y178.5086 E0.90487 F1800 ; Print pattern wall
G1 E-0.8 F3000 ; Retract
G1 Z0.4 F9000 ; Z hop
G0 X150.0089 Y139.9314 F9000 ; Move to start next pattern wall
G1 Z0.2 F9000 ; Z hop return
G1 E0.8 F1800 ; Un-retract
G1 X169.2975 Y159.22 E0.90487 F1800 ; Print pattern wall
G1 X150.0089 Y178.5086 E0.90487 F1800 ; Print pattern wall
G1 E-0.8 F3000 ; Retract
G1 Z0.4 F9000 ; Z hop
G0 X152.4589 Y139.9314 F9000 ; Move to next pattern
G1 Z0.2 F9000 ; Z hop return
G1 E0.8 F1800 ; Un-retract
SET_PRESSURE_ADVANCE ADVANCE=0.035 ; Set pressure advance
M117 PA 0.035
G1 X171.7475 Y159.22 E0.90487 F1800 ; Print pattern wall
G1 X152.4589 Y178.5086 E0.90487 F1800 ; Print pattern wall
G1 E-0.8 F3000 ; Retract
G1 Z0.4 F9000 ; Z hop
G0 X153.0346 Y139.9314 F9000 ; Move to start next pattern wall
G1 Z0.2 F9000 ; Z hop return
G1 E0.8 F1800 ; Un-retract
G1 X172.3232 Y159.22 E0.90487 F1800 ; Print pattern wall
G1 X153.0346 Y178.5086 E0.90487 F1800 ; Print pattern wall
G1 E-0.8 F3000 ; Retract
G1 Z0.4 F9000 ; Z hop
G0 X153.6103 Y139.9314 F9000 ; Move to start next pattern wall
G1 Z0.2 F9000 ; Z hop return
G1 E0.8 F1800 ; Un-retract
G1 X172.8989 Y159.22 E0.90487 F1800 ; Print pattern wall
G1 X153.6103 Y178.5086 E0.90487 F1800 ; Print pattern wall
G1 E-0.8 F3000 ; Retract
G1 Z0.4 F9000 ; Z hop
G0 X156.0603 Y139.9314 F9000 ; Move to next pattern
G1 Z0.2 F9000 ; Z hop return
G1 E0.8 F1800 ; Un-retract
SET_PRESSURE_ADVANCE ADVANCE=0.04 ; Set pressure advance
M117 PA 0.04
G1 X175.3489 Y159.22 E0.90487 F1800 ; Print pattern wall
G1 X156.0603 Y178.5086 E0.90487 F1800 ; Print pattern wall
G1 E-0.8 F3000 ; Retract
G1 Z0.4 F9000 ; Z hop
G0 X156.636 Y139.9314 F9000 ; Move to start next pattern wall
G1 Z0.2 F9000 ; Z hop return
G1 E0.8 F1800 ; Un-retract
G1 X175.9246 Y159.22 E0.90487 F1800 ; Print pattern wall
G1 X156.636 Y178.5086 E0.90487 F1800 ; Print pattern wall
G1 E-0.8 F3000 ; Retract
G1 Z0.4 F9000 ; Z hop
G0 X157.2117 Y139.9314 F9000 ; Move to start next pattern wall
G1 Z0.2 F9000 ; Z hop return
G1 E0.8 F1800 ; Un-retract
G1 X176.5003 Y159.22 E0.90487 F1800 ; Print pattern wall
G1 X157.2117 Y178.5086 E0.90487 F1800 ; Print pattern wall
G1 E-0.8 F3000 ; Retract
G1 Z0.4 F9000 ; Z hop
G0 X159.6617 Y139.9314 F9000 ; Move to next pattern
G1 Z0.2 F9000 ; Z hop return
G1 E0.8 F1800 ; Un-retract
SET_PRESSURE_ADVANCE ADVANCE=0.045 ; Set pressure advance
M117 PA 0.045
G1 X178.9503 Y159.22 E0.90487 F1800 ; Print pattern wall
G1 X159.6617 Y178.5086 E0.90487 F1800 ; Print pattern wall
G1 E-0.8 F3000 ; Retract
G1 Z0.4 F9000 ; Z hop
G0 X160.2374 Y139.9314 F9000 ; Move to start next pattern wall
G1 Z0.2 F9000 ; Z hop return
G1 E0.8 F1800 ; Un-retract
G1 X179.526 Y159.22 E0.90487 F1800 ; Print pattern wall
G1 X160.2374 Y178.5086 E0.90487 F1800 ; Print pattern wall
G1 E-0.8 F3000 ; Retract
G1 Z0.4 F9000 ; Z hop
G0 X160.8131 Y139.9314 F9000 ; Move to start next pattern wall
G1 Z0.2 F9000 ; Z hop return
G1 E0.8 F1800 ; Un-retract
G1 X180.1017 Y159.22 E0.90487 F1800 ; Print pattern wall
G1 X160.8131 Y178.5086 E0.90487 F1800 ; Print pattern wall
G1 E-0.8 F3000 ; Retract
G1 Z0.4 F9000 ; Z hop
G0 X163.2631 Y139.9314 F9000 ; Move to next pattern
G1 Z0.2 F9000 ; Z hop return
G1 E0.8 F1800 ; Un-retract
SET_PRESSURE_ADVANCE ADVANCE=0.05 ; Set pressure advance
M117 PA 0.05
G1 X182.5517 Y159.22 E0.90487 F1800 ; Print pattern wall
G1 X163.2631 Y178.5086 E0.90487 F1800 ; Print pattern wall
G1 E-0.8 F3000 ; Retract
G1 Z0.4 F9000 ; Z hop
G0 X163.8388 Y139.9314 F9000 ; Move to start next pattern wall
G1 Z0.2 F9000 ; Z hop return
G1 E0.8 F1800 ; Un-retract
G1 X183.1274 Y159.22 E0.90487 F1800 ; Print pattern wall
G1 X163.8388 Y178.5086 E0.90487 F1800 ; Print pattern wall
G1 E-0.8 F3000 ; Retract
G1 Z0.4 F9000 ; Z hop
G0 X164.4145 Y139.9314 F9000 ; Move to start next pattern wall
G1 Z0.2 F9000 ; Z hop return
G1 E0.8 F1800 ; Un-retract
G1 X183.7031 Y159.22 E0.90487 F1800 ; Print pattern wall
G1 X164.4145 Y178.5086 E0.90487 F1800 ; Print pattern wall
G1 E-0.8 F3000 ; Retract
G1 Z0.4 F9000 ; Z hop
G0 X166.8645 Y139.9314 F9000 ; Move to next pattern
G1 Z0.2 F9000 ; Z hop return
G1 E0.8 F1800 ; Un-retract
SET_PRESSURE_ADVANCE ADVANCE=0.055 ; Set pressure advance
M117 PA 0.055
G1 X186.1531 Y159.22 E0.90487 F1800 ; Print pattern wall
G1 X166.8645 Y178.5086 E0.90487 F1800 ; Print pattern wall
G1 E-0.8 F3000 ; Retract
G1 Z0.4 F9000 ; Z hop
G0 X167.4402 Y139.9314 F9000 ; Move to start next pattern wall
G1 Z0.2 F9000 ; Z hop return
G1 E0.8 F1800 ; Un-retract
G1 X186.7288 Y159.22 E0.90487 F1800 ; Print pattern wall
G1 X167.4402 Y178.5086 E0.90487 F1800 ; Print pattern wall
G1 E-0.8 F3000 ; Retract
G1 Z0.4 F9000 ; Z hop
G0 X168.0159 Y139.9314 F9000 ; Move to start next pattern wall
G1 Z0.2 F9000 ; Z hop return
G1 E0.8 F1800 ; Un-retract
G1 X187.3045 Y159.22 E0.90487 F1800 ; Print pattern wall
G1 X168.0159 Y178.5086 E0.90487 F1800 ; Print pattern wall
G1 E-0.8 F3000 ; Retract
G1 Z0.4 F9000 ; Z hop
G0 X170.4659 Y139.9314 F9000 ; Move to next pattern
G1 Z0.2 F9000 ; Z hop return
G1 E0.8 F1800 ; Un-retract
SET_PRESSURE_ADVANCE ADVANCE=0.06 ; Set pressure advance
M117 PA 0.06
G1 X189.7545 Y159.22 E0.90487 F1800 ; Print pattern wall
G1 X170.4659 Y178.5086 E0.90487 F1800 ; Print pattern wall
G1 E-0.8 F3000 ; Retract
G1 Z0.4 F9000 ; Z hop
G0 X171.0416 Y139.9314 F9000 ; Move to start next pattern wall
G1 Z0.2 F9000 ; Z hop return
G1 E0.8 F1800 ; Un-retract
G1 X190.3302 Y159.22 E0.90487 F1800 ; Print pattern wall
G1 X171.0416 Y178.5086 E0.90487 F1800 ; Print pattern wall
G1 E-0.8 F3000 ; Retract
G1 Z0.4 F9000 ; Z hop
G0 X171.6173 Y139.9314 F9000 ; Move to start next pattern wall
G1 Z0.2 F9000 ; Z hop return
G1 E0.8 F1800 ; Un-retract
G1 X190.9059 Y159.22 E0.90487 F1800 ; Print pattern wall
G1 X171.6173 Y178.5086 E0.90487 F1800 ; Print pattern wall
G1 E-0.8 F3000 ; Retract
G1 Z0.4 F9000 ; Z hop
G0 X174.0673 Y139.9314 F9000 ; Move to next pattern
G1 Z0.2 F9000 ; Z hop return
G1 E0.8 F1800 ; Un-retract
SET_PRESSURE_ADVANCE ADVANCE=0.065 ; Set pressure advance
M117 PA 0.065
G1 X193.3559 Y159.22 E0.90487 F1800 ; Print pattern wall
G1 X174.0673 Y178.5086 E0.90487 F1800 ; Print pattern wall
G1 E-0.8 F3000 ; Retract
G1 Z0.4 F9000 ; Z hop
G0 X174.6429 Y139.9314 F9000 ; Move to start next pattern wall
G1 Z0.2 F9000 ; Z hop return
G1 E0.8 F1800 ; Un-retract
G1 X193.9316 Y159.22 E0.90487 F1800 ; Print pattern wall
G1 X174.6429 Y178.5086 E0.90487 F1800 ; Print pattern wall
G1 E-0.8 F3000 ; Retract
G1 Z0.4 F9000 ; Z hop
G0 X175.2186 Y139.9314 F9000 ; Move to start next pattern wall
G1 Z0.2 F9000 ; Z hop return
G1 E0.8 F1800 ; Un-retract
G1 X194.5073 Y159.22 E0.90487 F1800 ; Print pattern wall
G1 X175.2186 Y178.5086 E0.90487 F1800 ; Print pattern wall
G1 E-0.8 F3000 ; Retract
G1 Z0.4 F9000 ; Z hop
G0 X177.6686 Y139.9314 F9000 ; Move to next pattern
G1 Z0.2 F9000 ; Z hop return
G1 E0.8 F1800 ; Un-retract
SET_PRESSURE_ADVANCE ADVANCE=0.07 ; Set pressure advance
M117 PA 0.07
G1 X196.9573 Y159.22 E0.90487 F1800 ; Print pattern wall
G1 X177.6686 Y178.5086 E0.90487 F1800 ; Print pattern wall
G1 E-0.8 F3000 ; Retract
G1 Z0.4 F9000 ; Z hop
G0 X178.2443 Y139.9314 F9000 ; Move to start next pattern wall
G1 Z0.2 F9000 ; Z hop return
G1 E0.8 F1800 ; Un-retract
G1 X197.533 Y159.22 E0.90487 F1800 ; Print pattern wall
G1 X178.2443 Y178.5086 E0.90487 F1800 ; Print pattern wall
G1 E-0.8 F3000 ; Retract
G1 Z0.4 F9000 ; Z hop
G0 X178.82 Y139.9314 F9000 ; Move to start next pattern wall
G1 Z0.2 F9000 ; Z hop return
G1 E0.8 F1800 ; Un-retract
G1 X198.1087 Y159.22 E0.90487 F1800 ; Print pattern wall
G1 X178.82 Y178.5086 E0.90487 F1800 ; Print pattern wall
G1 E-0.8 F3000 ; Retract
G1 Z0.4 F9000 ; Z hop
G0 X181.27 Y139.9314 F9000 ; Move to next pattern
G1 Z0.2 F9000 ; Z hop return
G1 E0.8 F1800 ; Un-retract
SET_PRESSURE_ADVANCE ADVANCE=0.075 ; Set pressure advance
M117 PA 0.075
G1 X200.5587 Y159.22 E0.90487 F1800 ; Print pattern wall
G1 X181.27 Y178.5086 E0.90487 F1800 ; Print pattern wall
G1 E-0.8 F3000 ; Retract
G1 Z0.4 F9000 ; Z hop
G0 X181.8457 Y139.9314 F9000 ; Move to start next pattern wall
G1 Z0.2 F9000 ; Z hop return
G1 E0.8 F1800 ; Un-retract
G1 X201.1344 Y159.22 E0.90487 F1800 ; Print pattern wall
G1 X181.8457 Y178.5086 E0.90487 F1800 ; Print pattern wall
G1 E-0.8 F3000 ; Retract
G1 Z0.4 F9000 ; Z hop
G0 X182.4214 Y139.9314 F9000 ; Move to start next pattern wall
G1 Z0.2 F9000 ; Z hop return
G1 E0.8 F1800 ; Un-retract
G1 X201.7101 Y159.22 E0.90487 F1800 ; Print pattern wall
G1 X182.4214 Y178.5086 E0.90487 F1800 ; Print pattern wall
G1 E-0.8 F3000 ; Retract
G1 Z0.4 F9000 ; Z hop
G0 X184.8714 Y139.9314 F9000 ; Move to next pattern
G1 Z0.2 F9000 ; Z hop return
G1 E0.8 F1800 ; Un-retract
SET_PRESSURE_ADVANCE ADVANCE=0.08 ; Set pressure advance
M117 PA 0.08
G1 X204.1601 Y159.22 E0.90487 F1800 ; Print pattern wall
G1 X184.8714 Y178.5086 E0.90487 F1800 ; Print pattern wall
G1 E-0.8 F3000 ; Retract
G1 Z0.4 F9000 ; Z hop
G0 X185.4471 Y139.9314 F9000 ; Move to start next pattern wall
G1 Z0.2 F9000 ; Z hop return
G1 E0.8 F1800 ; Un-retract
G1 X204.7358 Y159.22 E0.90487 F1800 ; Print pattern wall
G1 X185.4471 Y178.5086 E0.90487 F1800 ; Print pattern wall
G1 E-0.8 F3000 ; Retract
G1 Z0.4 F9000 ; Z hop
G0 X186.0228 Y139.9314 F9000 ; Move to start next pattern wall
G1 Z0.2 F9000 ; Z hop return
G1 E0.8 F1800 ; Un-retract
G1 X205.3115 Y159.22 E0.90487 F1800 ; Print pattern wall
G1 X186.0228 Y178.5086 E0.90487 F1800 ; Print pattern wall
G1 E-0.8 F3000 ; Retract
G1 Z0.4 F9000 ; Z hop
G0 X127.2491 Y139.9314 F9000 ; Move back to start position
G1 Z0.2 F9000 ; Z hop return
G1 E0.8 F1800 ; Un-retract
M106 S255 ; Set fan speed
G0 Z0.4 F9000 ; Move to layer height
SET_PRESSURE_ADVANCE ADVANCE=0 ; Set pressure advance to start value for numbering
M117 PA 0
G1 E-0.8 F3000 ; Retract
G1 Z0.6 F9000 ; Z hop
G0 X123.9002 Y181.8832 F9000 ; Move
G1 Z0.4 F9000 ; Z hop return
G1 E0.8 F1800 ; Un-retract
G1 X125.9002 Y181.8832 E0.06634 F1800 ; Glyph: 0
G1 X127.9002 Y181.8832 E0.06634 F1800 ; Glyph: 0
G1 X127.9002 Y183.8832 E0.06634 F1800 ; Glyph: 0
G1 X125.9002 Y183.8832 E0.06634 F1800 ; Glyph: 0
G1 X123.9002 Y183.8832 E0.06634 F1800 ; Glyph: 0
G1 X123.9002 Y181.8832 E0.06634 F1800 ; Glyph: 0
G1 E-0.8 F3000 ; Retract
G1 Z0.6 F9000 ; Z hop
G0 X131.103 Y181.8832 F9000 ; Move
G1 Z0.4 F9000 ; Z hop return
G1 E0.8 F1800 ; Un-retract
G1 X133.103 Y181.8832 E0.06634 F1800 ; Glyph: 0
G1 X135.103 Y181.8832 E0.06634 F1800 ; Glyph: 0
G1 X135.103 Y183.8832 E0.06634 F1800 ; Glyph: 0
G1 X133.103 Y183.8832 E0.06634 F1800 ; Glyph: 0
G1 X131.103 Y183.8832 E0.06634 F1800 ; Glyph: 0
G1 X131.103 Y181.8832 E0.06634 F1800 ; Glyph: 0
G1 E-0.8 F3000 ; Retract
G1 Z0.6 F9000 ; Z hop
G0 X135.103 Y184.8832 F9000 ; Move
G1 Z0.4 F9000 ; Z hop return
G1 E0.8 F1800 ; Un-retract
G1 X134.353 Y184.8832 E0.02488 F1800 ; Glyph: .
G1 E-0.8 F3000 ; Retract
G1 Z0.6 F9000 ; Z hop
G0 X131.103 Y185.8832 F9000 ; Move
G1 Z0.4 F9000 ; Z hop return
G1 E0.8 F1800 ; Un-retract
G1 X133.103 Y185.8832 E0.06634 F1800 ; Glyph: 0
G1 X135.103 Y185.8832 E0.06634 F1800 ; Glyph: 0
G1 X135.103 Y187.8832 E0.06634 F1800 ; Glyph: 0
G1 X133.103 Y187.8832 E0.06634 F1800 ; Glyph: 0
G1 X131.103 Y187.8832 E0.06634 F1800 ; Glyph: 0
G1 X131.103 Y185.8832 E0.06634 F1800 ; Glyph: 0
G1 E-0.8 F3000 ; Retract
G1 Z0.6 F9000 ; Z hop
G0 X131.103 Y188.8832 F9000 ; Move
G1 Z0.4 F9000 ; Z hop return
G1 E0.8 F1800 ; Un-retract
G1 X133.103 Y188.8832 E0.06634 F1800 ; Glyph: 1
G1 X135.103 Y188.8832 E0.06634 F1800 ; Glyph: 1
G1 E-0.8 F3000 ; Retract
G1 Z0.6 F9000 ; Z hop
G0 X138.3058 Y181.8832 F9000 ; Move
G1 Z0.4 F9000 ; Z hop return
G1 E0.8 F1800 ; Un-retract
G1 X140.3058 Y181.8832 E0.06634 F1800 ; Glyph: 0
G1 X142.3058 Y181.8832 E0.06634 F1800 ; Glyph: 0
G1 X142.3058 Y183.8832 E0.06634 F1800 ; Glyph: 0
G1 X140.3058 Y183.8832 E0.06634 F1800 ; Glyph: 0
G1 X138.3058 Y183.8832 E0.06634 F1800 ; Glyph: 0
G1 X138.3058 Y181.8832 E0.06634 F1800 ; Glyph: 0
G1 E-0.8 F3000 ; Retract
G1 Z0.6 F9000 ; Z hop
G0 X142.3058 Y184.8832 F9000 ; Move
G1 Z0.4 F9000 ; Z hop return
G1 E0.8 F1800 ; Un-retract
G1 X141.5558 Y184.8832 E0.02488 F1800 ; Glyph: .
G1 E-0.8 F3000 ; Retract
G1 Z0.6 F9000 ; Z hop
G0 X138.3058 Y185.8832 F9000 ; Move
G1 Z0.4 F9000 ; Z hop return
G1 E0.8 F1800 ; Un-retract
G1 X140.3058 Y185.8832 E0.06634 F1800 ; Glyph: 0
G1 X142.3058 Y185.8832 E0.06634 F1800 ; Glyph: 0
G1 X142.3058 Y187.8832 E0.06634 F1800 ; Glyph: 0
G1 X140.3058 Y187.8832 E0.06634 F1800 ; Glyph: 0
G1 X138.3058 Y187.8832 E0.06634 F1800 ; Glyph: 0
G1 X138.3058 Y185.8832 E0.06634 F1800 ; Glyph: 0
G1 E-0.8 F3000 ; Retract
G1 Z0.6 F9000 ; Z hop
G0 X138.3058 Y188.8832 F9000 ; Move
G1 Z0.4 F9000 ; Z hop return
G1 E0.8 F1800 ; Un-retract
G1 X138.3058 Y190.8832 E0.06634 F1800 ; Glyph: 2
G1 X140.3058 Y190.8832 E0.06634 F1800 ; Glyph: 2
G1 X140.3058 Y188.8832 E0.06634 F1800 ; Glyph: 2
G1 X142.3058 Y188.8832 E0.06634 F1800 ; Glyph: 2
G1 X142.3058 Y190.8832 E0.06634 F1800 ; Glyph: 2
G1 E-0.8 F3000 ; Retract
G1 Z0.6 F9000 ; Z hop
G0 X145.5086 Y181.8832 F9000 ; Move
G1 Z0.4 F9000 ; Z hop return
G1 E0.8 F1800 ; Un-retract
G1 X147.5086 Y181.8832 E0.06634 F1800 ; Glyph: 0
G1 X149.5086 Y181.8832 E0.06634 F1800 ; Glyph: 0
G1 X149.5086 Y183.8832 E0.06634 F1800 ; Glyph: 0
G1 X147.5086 Y183.8832 E0.06634 F1800 ; Glyph: 0
G1 X145.5086 Y183.8832 E0.06634 F1800 ; Glyph: 0
G1 X145.5086 Y181.8832 E0.06634 F1800 ; Glyph: 0
G1 E-0.8 F3000 ; Retract
G1 Z0.6 F9000 ; Z hop
G0 X149.5086 Y184.8832 F9000 ; Move
G1 Z0.4 F9000 ; Z hop return
G1 E0.8 F1800 ; Un-retract
G1 X148.7586 Y184.8832 E0.02488 F1800 ; Glyph: .
G1 E-0.8 F3000 ; Retract
G1 Z0.6 F9000 ; Z hop
G0 X145.5086 Y185.8832 F9000 ; Move
G1 Z0.4 F9000 ; Z hop return
G1 E0.8 F1800 ; Un-retract
G1 X147.5086 Y185.8832 E0.06634 F1800 ; Glyph: 0
G1 X149.5086 Y185.8832 E0.06634 F1800 ; Glyph: 0
G1 X149.5086 Y187.8832 E0.06634 F1800 ; Glyph: 0
G1 X147.5086 Y187.8832 E0.06634 F1800 ; Glyph: 0
G1 X145.5086 Y187.8832 E0.06634 F1800 ; Glyph: 0
G1 X145.5086 Y185.8832 E0.06634 F1800 ; Glyph: 0
G1 E-0.8 F3000 ; Retract
G1 Z0.6 F9000 ; Z hop
G0 X145.5086 Y188.8832 F9000 ; Move
G1 Z0.4 F9000 ; Z hop return
G1 E0.8 F1800 ; Un-retract
G1 X145.5086 Y190.8832 E0.06634 F1800 ; Glyph: 3
G1 X147.5086 Y190.8832 E0.06634 F1800 ; Glyph: 3
G1 X147.5086 Y188.8832 E0.06634 F1800 ; Glyph: 3
G0 X147.5086 Y190.8832 F9000 ; Move
G1 X149.5086 Y190.8832 E0.06634 F1800 ; Glyph: 3
G1 X149.5086 Y188.8832 E0.06634 F1800 ; Glyph: 3
G1 E-0.8 F3000 ; Retract
G1 Z0.6 F9000 ; Z hop
G0 X152.7114 Y181.8832 F9000 ; Move
G1 Z0.4 F9000 ; Z hop return
G1 E0.8 F1800 ; Un-retract
G1 X154.7114 Y181.8832 E0.06634 F1800 ; Glyph: 0
G1 X156.7114 Y181.8832 E0.06634 F1800 ; Glyph: 0
G1 X156.7114 Y183.8832 E0.06634 F1800 ; Glyph: 0
G1 X154.7114 Y183.8832 E0.06634 F1800 ; Glyph: 0
G1 X152.7114 Y183.8832 E0.06634 F1800 ; Glyph: 0
G1 X152.7114 Y181.8832 E0.06634 F1800 ; Glyph: 0
G1 E-0.8 F3000 ; Retract
G1 Z0.6 F9000 ; Z hop
G0 X156.7114 Y184.8832 F9000 ; Move
G1 Z0.4 F9000 ; Z hop return
G1 E0.8 F1800 ; Un-retract
G1 X155.9614 Y184.8832 E0.02488 F1800 ; Glyph: .
G1 E-0.8 F3000 ; Retract
G1 Z0.6 F9000 ; Z hop
G0 X152.7114 Y185.8832 F9000 ; Move
G1 Z0.4 F9000 ; Z hop return
G1 E0.8 F1800 ; Un-retract
G1 X154.7114 Y185.8832 E0.06634 F1800 ; Glyph: 0
G1 X156.7114 Y185.8832 E0.06634 F1800 ; Glyph: 0
G1 X156.7114 Y187.8832 E0.06634 F1800 ; Glyph: 0
G1 X154.7114 Y187.8832 E0.06634 F1800 ; Glyph: 0
G1 X152.7114 Y187.8832 E0.06634 F1800 ; Glyph: 0
G1 X152.7114 Y185.8832 E0.06634 F1800 ; Glyph: 0
G1 E-0.8 F3000 ; Retract
G1 Z0.6 F9000 ; Z hop
G0 X152.7114 Y190.8832 F9000 ; Move
G1 Z0.4 F9000 ; Z hop return
G1 E0.8 F1800 ; Un-retract
G1 X154.7114 Y190.8832 E0.06634 F1800 ; Glyph: 4
G1 X156.7114 Y190.8832 E0.06634 F1800 ; Glyph: 4
G0 X154.7114 Y190.8832 F9000 ; Move
G1 X154.7114 Y188.8832 E0.06634 F1800 ; Glyph: 4
G1 X152.7114 Y188.8832 E0.06634 F1800 ; Glyph: 4
G1 E-0.8 F3000 ; Retract
G1 Z0.6 F9000 ; Z hop
G0 X159.9142 Y181.8832 F9000 ; Move
G1 Z0.4 F9000 ; Z hop return
G1 E0.8 F1800 ; Un-retract
G1 X161.9142 Y181.8832 E0.06634 F1800 ; Glyph: 0
G1 X163.9142 Y181.8832 E0.06634 F1800 ; Glyph: 0
G1 X163.9142 Y183.8832 E0.06634 F1800 ; Glyph: 0
G1 X161.9142 Y183.8832 E0.06634 F1800 ; Glyph: 0
G1 X159.9142 Y183.8832 E0.06634 F1800 ; Glyph: 0
G1 X159.9142 Y181.8832 E0.06634 F1800 ; Glyph: 0
G1 E-0.8 F3000 ; Retract
G1 Z0.6 F9000 ; Z hop
G0 X163.9142 Y184.8832 F9000 ; Move
G1 Z0.4 F9000 ; Z hop return
G1 E0.8 F1800 ; Un-retract
G1 X163.1642 Y184.8832 E0.02488 F1800 ; Glyph: .
G1 E-0.8 F3000 ; Retract
G1 Z0.6 F9000 ; Z hop
G0 X159.9142 Y185.8832 F9000 ; Move
G1 Z0.4 F9000 ; Z hop return
G1 E0.8 F1800 ; Un-retract
G1 X161.9142 Y185.8832 E0.06634 F1800 ; Glyph: 0
G1 X163.9142 Y185.8832 E0.06634 F1800 ; Glyph: 0
G1 X163.9142 Y187.8832 E0.06634 F1800 ; Glyph: 0
G1 X161.9142 Y187.8832 E0.06634 F1800 ; Glyph: 0
G1 X159.9142 Y187.8832 E0.06634 F1800 ; Glyph: 0
G1 X159.9142 Y185.8832 E0.06634 F1800 ; Glyph: 0
G1 E-0.8 F3000 ; Retract
G1 Z0.6 F9000 ; Z hop
G0 X159.9142 Y190.8832 F9000 ; Move
G1 Z0.4 F9000 ; Z hop return
G1 E0.8 F1800 ; Un-retract
G1 X159.9142 Y188.8832 E0.06634 F1800 ; Glyph: 5
G1 X161.9142 Y188.8832 E0.06634 F1800 ; Glyph: 5
G1 X161.9142 Y190.8832 E0.06634 F1800 ; Glyph: 5
G1 X163.9142 Y190.8832 E0.06634 F1800 ; Glyph: 5
G1 X163.9142 Y188.8832 E0.06634 F1800 ; Glyph: 5
G1 E-0.8 F3000 ; Retract
G1 Z0.6 F9000 ; Z hop
G0 X167.117 Y181.8832 F9000 ; Move
G1 Z0.4 F9000 ; Z hop return
G1 E0.8 F1800 ; Un-retract
G1 X169.117 Y181.8832 E0.06634 F1800 ; Glyph: 0
G1 X171.117 Y181.8832 E0.06634 F1800 ; Glyph: 0
G1 X171.117 Y183.8832 E0.06634 F1800 ; Glyph: 0
G1 X169.117 Y183.8832 E0.06634 F1800 ; Glyph: 0
G1 X167.117 Y183.8832 E0.06634 F1800 ; Glyph: 0
G1 X167.117 Y181.8832 E0.06634 F1800 ; Glyph: 0
G1 E-0.8 F3000 ; Retract
G1 Z0.6 F9000 ; Z hop
G0 X171.117 Y184.8832 F9000 ; Move
G1 Z0.4 F9000 ; Z hop return
G1 E0.8 F1800 ; Un-retract
G1 X170.367 Y184.8832 E0.02488 F1800 ; Glyph: .
G1 E-0.8 F3000 ; Retract
G1 Z0.6 F9000 ; Z hop
G0 X167.117 Y185.8832 F9000 ; Move
G1 Z0.4 F9000 ; Z hop return
G1 E0.8 F1800 ; Un-retract
G1 X169.117 Y185.8832 E0.06634 F1800 ; Glyph: 0
G1 X171.117 Y185.8832 E0.06634 F1800 ; Glyph: 0
G1 X171.117 Y187.8832 E0.06634 F1800 ; Glyph: 0
G1 X169.117 Y187.8832 E0.06634 F1800 ; Glyph: 0
G1 X167.117 Y187.8832 E0.06634 F1800 ; Glyph: 0
G1 X167.117 Y185.8832 E0.06634 F1800 ; Glyph: 0
G1 E-0.8 F3000 ; Retract
G1 Z0.6 F9000 ; Z hop
G0 X167.117 Y190.8832 F9000 ; Move
G1 Z0.4 F9000 ; Z hop return
G1 E0.8 F1800 ; Un-retract
G1 X167.117 Y188.8832 E0.06634 F1800 ; Glyph: 6
G1 X169.117 Y188.8832 E0.06634 F1800 ; Glyph: 6
G1 X171.117 Y188.8832 E0.06634 F1800 ; Glyph: 6
G1 X171.117 Y190.8832 E0.06634 F1800 ; Glyph: 6
G1 X169.117 Y190.8832 E0.06634 F1800 ; Glyph: 6
G1 X169.117 Y188.8832 E0.06634 F1800 ; Glyph: 6
G1 E-0.8 F3000 ; Retract
G1 Z0.6 F9000 ; Z hop
G0 X174.3198 Y181.8832 F9000 ; Move
G1 Z0.4 F9000 ; Z hop return
G1 E0.8 F1800 ; Un-retract
G1 X176.3198 Y181.8832 E0.06634 F1800 ; Glyph: 0
G1 X178.3198 Y181.8832 E0.06634 F1800 ; Glyph: 0
G1 X178.3198 Y183.8832 E0.06634 F1800 ; Glyph: 0
G1 X176.3198 Y183.8832 E0.06634 F1800 ; Glyph: 0
G1 X174.3198 Y183.8832 E0.06634 F1800 ; Glyph: 0
G1 X174.3198 Y181.8832 E0.06634 F1800 ; Glyph: 0
G1 E-0.8 F3000 ; Retract
G1 Z0.6 F9000 ; Z hop
G0 X178.3198 Y184.8832 F9000 ; Move
G1 Z0.4 F9000 ; Z hop return
G1 E0.8 F1800 ; Un-retract
G1 X177.5698 Y184.8832 E0.02488 F1800 ; Glyph: .
G1 E-0.8 F3000 ; Retract
G1 Z0.6 F9000 ; Z hop
G0 X174.3198 Y185.8832 F9000 ; Move
G1 Z0.4 F9000 ; Z hop return
G1 E0.8 F1800 ; Un-retract
G1 X176.3198 Y185.8832 E0.06634 F1800 ; Glyph: 0
G1 X178.3198 Y185.8832 E0.06634 F1800 ; Glyph: 0
G1 X178.3198 Y187.8832 E0.06634 F1800 ; Glyph: 0
G1 X176.3198 Y187.8832 E0.06634 F1800 ; Glyph: 0
G1 X174.3198 Y187.8832 E0.06634 F1800 ; Glyph: 0
G1 X174.3198 Y185.8832 E0.06634 F1800 ; Glyph: 0
G1 E-0.8 F3000 ; Retract
G1 Z0.6 F9000 ; Z hop
G0 X174.3198 Y188.8832 F9000 ; Move
G1 Z0.4 F9000 ; Z hop return
G1 E0.8 F1800 ; Un-retract
G1 X174.3198 Y190.8832 E0.06634 F1800 ; Glyph: 7
G1 X176.3198 Y190.8832 E0.06634 F1800 ; Glyph: 7
G1 X178.3198 Y190.8832 E0.06634 F1800 ; Glyph: 7
G1 E-0.8 F3000 ; Retract
G1 Z0.6 F9000 ; Z hop
G0 X181.5226 Y181.8832 F9000 ; Move
G1 Z0.4 F9000 ; Z hop return
G1 E0.8 F1800 ; Un-retract
G1 X183.5226 Y181.8832 E0.06634 F1800 ; Glyph: 0
G1 X185.5226 Y181.8832 E0.06634 F1800 ; Glyph: 0
G1 X185.5226 Y183.8832 E0.06634 F1800 ; Glyph: 0
G1 X183.5226 Y183.8832 E0.06634 F1800 ; Glyph: 0
G1 X181.5226 Y183.8832 E0.06634 F1800 ; Glyph: 0
G1 X181.5226 Y181.8832 E0.06634 F1800 ; Glyph: 0
G1 E-0.8 F3000 ; Retract
G1 Z0.6 F9000 ; Z hop
G0 X185.5226 Y184.8832 F9000 ; Move
G1 Z0.4 F9000 ; Z hop return
G1 E0.8 F1800 ; Un-retract
G1 X184.7726 Y184.8832 E0.02488 F1800 ; Glyph: .
G1 E-0.8 F3000 ; Retract
G1 Z0.6 F9000 ; Z hop
G0 X181.5226 Y185.8832 F9000 ; Move
G1 Z0.4 F9000 ; Z hop return
G1 E0.8 F1800 ; Un-retract
G1 X183.5226 Y185.8832 E0.06634 F1800 ; Glyph: 0
G1 X185.5226 Y185.8832 E0.06634 F1800 ; Glyph: 0
G1 X185.5226 Y187.8832 E0.06634 F1800 ; Glyph: 0
G1 X183.5226 Y187.8832 E0.06634 F1800 ; Glyph: 0
G1 X181.5226 Y187.8832 E0.06634 F1800 ; Glyph: 0
G1 X181.5226 Y185.8832 E0.06634 F1800 ; Glyph: 0
G1 E-0.8 F3000 ; Retract
G1 Z0.6 F9000 ; Z hop
G0 X181.5226 Y188.8832 F9000 ; Move
G1 Z0.4 F9000 ; Z hop return
G1 E0.8 F1800 ; Un-retract
G1 X183.5226 Y188.8832 E0.06634 F1800 ; Glyph: 8
G1 X185.5226 Y188.8832 E0.06634 F1800 ; Glyph: 8
G1 X185.5226 Y190.8832 E0.06634 F1800 ; Glyph: 8
G1 X183.5226 Y190.8832 E0.06634 F1800 ; Glyph: 8
G1 X181.5226 Y190.8832 E0.06634 F1800 ; Glyph: 8
G1 X181.5226 Y188.8832 E0.06634 F1800 ; Glyph: 8
G0 X183.5226 Y188.8832 F9000 ; Move
G1 X183.5226 Y190.8832 E0.06634 F1800 ; Glyph: 8
G1 E-0.8 F3000 ; Retract
G1 Z0.6 F9000 ; Z hop
G0 X125.3245 Y138.0068 F9000 ; Move to pattern start

G1 Z0.4 F9000 ; Z hop return
G1 E0.8 F1800 ; Un-retract
SET_PRESSURE_ADVANCE ADVANCE=0 ; Set pressure advance
M117 PA 0
G1 X146.5377 Y159.22 E0.99515 F12000 ; Print pattern wall
G1 X125.3245 Y180.4332 E0.99515 F12000 ; Print pattern wall
G1 E-0.8 F3000 ; Retract
G1 Z0.6 F9000 ; Z hop
G0 X125.9002 Y138.0068 F9000 ; Move to start next pattern wall
G1 Z0.4 F9000 ; Z hop return
G1 E0.8 F1800 ; Un-retract
G1 X147.1134 Y159.22 E0.99515 F12000 ; Print pattern wall
G1 X125.9002 Y180.4332 E0.99515 F12000 ; Print pattern wall
G1 E-0.8 F3000 ; Retract
G1 Z0.6 F9000 ; Z hop
G0 X126.4759 Y138.0068 F9000 ; Move to start next pattern wall
G1 Z0.4 F9000 ; Z hop return
G1 E0.8 F1800 ; Un-retract
G1 X147.6891 Y159.22 E0.99515 F12000 ; Print pattern wall
G1 X126.4759 Y180.4332 E0.99515 F12000 ; Print pattern wall
G1 E-0.8 F3000 ; Retract
G1 Z0.6 F9000 ; Z hop
G0 X128.9259 Y138.0068 F9000 ; Move to next pattern
G1 Z0.4 F9000 ; Z hop return
G1 E0.8 F1800 ; Un-retract
SET_PRESSURE_ADVANCE ADVANCE=0.005 ; Set pressure advance
M117 PA 0.005
G1 X150.1391 Y159.22 E0.99515 F12000 ; Print pattern wall
G1 X128.9259 Y180.4332 E0.99515 F12000 ; Print pattern wall
G1 E-0.8 F3000 ; Retract
G1 Z0.6 F9000 ; Z hop
G0 X129.5016 Y138.0068 F9000 ; Move to start next pattern wall
G1 Z0.4 F9000 ; Z hop return
G1 E0.8 F1800 ; Un-retract
G1 X150.7148 Y159.22 E0.99515 F12000 ; Print pattern wall
G1 X129.5016 Y180.4332 E0.99515 F12000 ; Print pattern wall
G1 E-0.8 F3000 ; Retract
G1 Z0.6 F9000 ; Z hop
G0 X130.0773 Y138.0068 F9000 ; Move to start next pattern wall
G1 Z0.4 F9000 ; Z hop return
G1 E0.8 F1800 ; Un-retract
G1 X151.2905 Y159.22 E0.99515 F12000 ; Print pattern wall
G1 X130.0773 Y180.4332 E0.99515 F12000 ; Print pattern wall
G1 E-0.8 F3000 ; Retract
G1 Z0.6 F9000 ; Z hop
G0 X132.5273 Y138.0068 F9000 ; Move to next pattern
G1 Z0.4 F9000 ; Z hop return
G1 E0.8 F1800 ; Un-retract
SET_PRESSURE_ADVANCE ADVANCE=0.01 ; Set pressure advance
M117 PA 0.01
G1 X153.7405 Y159.22 E0.99515 F12000 ; Print pattern wall
G1 X132.5273 Y180.4332 E0.99515 F12000 ; Print pattern wall
G1 E-0.8 F3000 ; Retract
G1 Z0.6 F9000 ; Z hop
G0 X133.103 Y138.0068 F9000 ; Move to start next pattern wall
G1 Z0.4 F9000 ; Z hop return
G1 E0.8 F1800 ; Un-retract
G1 X154.3162 Y159.22 E0.99515 F12000 ; Print pattern wall
G1 X133.103 Y180.4332 E0.99515 F12000 ; Print pattern wall
G1 E-0.8 F3000 ; Retract
G1 Z0.6 F9000 ; Z hop
G0 X133.6787 Y138.0068 F9000 ; Move to start next pattern wall
G1 Z0.4 F9000 ; Z hop return
G1 E0.8 F1800 ; Un-retract
G1 X154.8919 Y159.22 E0.99515 F12000 ; Print pattern wall
G1 X133.6787 Y180.4332 E0.99515 F12000 ; Print pattern wall
G1 E-0.8 F3000 ; Retract
G1 Z0.6 F9000 ; Z hop
G0 X136.1287 Y138.0068 F9000 ; Move to next pattern
G1 Z0.4 F9000 ; Z hop return
G1 E0.8 F1800 ; Un-retract
SET_PRESSURE_ADVANCE ADVANCE=0.015 ; Set pressure advance
M117 PA 0.015
G1 X157.3419 Y159.22 E0.99515 F12000 ; Print pattern wall
G1 X136.1287 Y180.4332 E0.99515 F12000 ; Print pattern wall
G1 E-0.8 F3000 ; Retract
G1 Z0.6 F9000 ; Z hop
G0 X136.7044 Y138.0068 F9000 ; Move to start next pattern wall
G1 Z0.4 F9000 ; Z hop return
G1 E0.8 F1800 ; Un-retract
G1 X157.9176 Y159.22 E0.99515 F12000 ; Print pattern wall
G1 X136.7044 Y180.4332 E0.99515 F12000 ; Print pattern wall
G1 E-0.8 F3000 ; Retract
G1 Z0.6 F9000 ; Z hop
G0 X137.2801 Y138.0068 F9000 ; Move to start next pattern wall
G1 Z0.4 F9000 ; Z hop return
G1 E0.8 F1800 ; Un-retract
G1 X158.4933 Y159.22 E0.99515 F12000 ; Print pattern wall
G1 X137.2801 Y180.4332 E0.99515 F12000 ; Print pattern wall
G1 E-0.8 F3000 ; Retract
G1 Z0.6 F9000 ; Z hop
G0 X139.7301 Y138.0068 F9000 ; Move to next pattern
G1 Z0.4 F9000 ; Z hop return
G1 E0.8 F1800 ; Un-retract
SET_PRESSURE_ADVANCE ADVANCE=0.02 ; Set pressure advance
M117 PA 0.02
G1 X160.9433 Y159.22 E0.99515 F12000 ; Print pattern wall
G1 X139.7301 Y180.4332 E0.99515 F12000 ; Print pattern wall
G1 E-0.8 F3000 ; Retract
G1 Z0.6 F9000 ; Z hop
G0 X140.3058 Y138.0068 F9000 ; Move to start next pattern wall
G1 Z0.4 F9000 ; Z hop return
G1 E0.8 F1800 ; Un-retract
G1 X161.519 Y159.22 E0.99515 F12000 ; Print pattern wall
G1 X140.3058 Y180.4332 E0.99515 F12000 ; Print pattern wall
G1 E-0.8 F3000 ; Retract
G1 Z0.6 F9000 ; Z hop
G0 X140.8815 Y138.0068 F9000 ; Move to start next pattern wall
G1 Z0.4 F9000 ; Z hop return
G1 E0.8 F1800 ; Un-retract
G1 X162.0947 Y159.22 E0.99515 F12000 ; Print pattern wall
G1 X140.8815 Y180.4332 E0.99515 F12000 ; Print pattern wall
G1 E-0.8 F3000 ; Retract
G1 Z0.6 F9000 ; Z hop
G0 X143.3315 Y138.0068 F9000 ; Move to next pattern
G1 Z0.4 F9000 ; Z hop return
G1 E0.8 F1800 ; Un-retract
SET_PRESSURE_ADVANCE ADVANCE=0.025 ; Set pressure advance
M117 PA 0.025
G1 X164.5447 Y159.22 E0.99515 F12000 ; Print pattern wall
G1 X143.3315 Y180.4332 E0.99515 F12000 ; Print pattern wall
G1 E-0.8 F3000 ; Retract
G1 Z0.6 F9000 ; Z hop
G0 X143.9072 Y138.0068 F9000 ; Move to start next pattern wall
G1 Z0.4 F9000 ; Z hop return
G1 E0.8 F1800 ; Un-retract
G1 X165.1204 Y159.22 E0.99515 F12000 ; Print pattern wall
G1 X143.9072 Y180.4332 E0.99515 F12000 ; Print pattern wall
G1 E-0.8 F3000 ; Retract
G1 Z0.6 F9000 ; Z hop
G0 X144.4829 Y138.0068 F9000 ; Move to start next pattern wall
G1 Z0.4 F9000 ; Z hop return
G1 E0.8 F1800 ; Un-retract
G1 X165.6961 Y159.22 E0.99515 F12000 ; Print pattern wall
G1 X144.4829 Y180.4332 E0.99515 F12000 ; Print pattern wall
G1 E-0.8 F3000 ; Retract
G1 Z0.6 F9000 ; Z hop
G0 X146.9329 Y138.0068 F9000 ; Move to next pattern
G1 Z0.4 F9000 ; Z hop return
G1 E0.8 F1800 ; Un-retract
SET_PRESSURE_ADVANCE ADVANCE=0.03 ; Set pressure advance
M117 PA 0.03
G1 X168.1461 Y159.22 E0.99515 F12000 ; Print pattern wall
G1 X146.9329 Y180.4332 E0.99515 F12000 ; Print pattern wall
G1 E-0.8 F3000 ; Retract
G1 Z0.6 F9000 ; Z hop
G0 X147.5086 Y138.0068 F9000 ; Move to start next pattern wall
G1 Z0.4 F9000 ; Z hop return
G1 E0.8 F1800 ; Un-retract
G1 X168.7218 Y159.22 E0.99515 F12000 ; Print pattern wall
G1 X147.5086 Y180.4332 E0.99515 F12000 ; Print pattern wall
G1 E-0.8 F3000 ; Retract
G1 Z0.6 F9000 ; Z hop
G0 X148.0843 Y138.0068 F9000 ; Move to start next pattern wall
G1 Z0.4 F9000 ; Z hop return
G1 E0.8 F1800 ; Un-retract
G1 X169.2975 Y159.22 E0.99515 F12000 ; Print pattern wall
G1 X148.0843 Y180.4332 E0.99515 F12000 ; Print pattern wall
G1 E-0.8 F3000 ; Retract
G1 Z0.6 F9000 ; Z hop
G0 X150.5343 Y138.0068 F9000 ; Move to next pattern
G1 Z0.4 F9000 ; Z hop return
G1 E0.8 F1800 ; Un-retract
SET_PRESSURE_ADVANCE ADVANCE=0.035 ; Set pressure advance
M117 PA 0.035
G1 X171.7475 Y159.22 E0.99515 F12000 ; Print pattern wall
G1 X150.5343 Y180.4332 E0.99515 F12000 ; Print pattern wall
G1 E-0.8 F3000 ; Retract
G1 Z0.6 F9000 ; Z hop
G0 X151.11 Y138.0068 F9000 ; Move to start next pattern wall
G1 Z0.4 F9000 ; Z hop return
G1 E0.8 F1800 ; Un-retract
G1 X172.3232 Y159.22 E0.99515 F12000 ; Print pattern wall
G1 X151.11 Y180.4332 E0.99515 F12000 ; Print pattern wall
G1 E-0.8 F3000 ; Retract
G1 Z0.6 F9000 ; Z hop
G0 X151.6857 Y138.0068 F9000 ; Move to start next pattern wall
G1 Z0.4 F9000 ; Z hop return
G1 E0.8 F1800 ; Un-retract
G1 X172.8989 Y159.22 E0.99515 F12000 ; Print pattern wall
G1 X151.6857 Y180.4332 E0.99515 F12000 ; Print pattern wall
G1 E-0.8 F3000 ; Retract
G1 Z0.6 F9000 ; Z hop
G0 X154.1357 Y138.0068 F9000 ; Move to next pattern
G1 Z0.4 F9000 ; Z hop return
G1 E0.8 F1800 ; Un-retract
SET_PRESSURE_ADVANCE ADVANCE=0.04 ; Set pressure advance
M117 PA 0.04
G1 X175.3489 Y159.22 E0.99515 F12000 ; Print pattern wall
G1 X154.1357 Y180.4332 E0.99515 F12000 ; Print pattern wall
G1 E-0.8 F3000 ; Retract
G1 Z0.6 F9000 ; Z hop
G0 X154.7114 Y138.0068 F9000 ; Move to start next pattern wall
G1 Z0.4 F9000 ; Z hop return
G1 E0.8 F1800 ; Un-retract
G1 X175.9246 Y159.22 E0.99515 F12000 ; Print pattern wall
G1 X154.7114 Y180.4332 E0.99515 F12000 ; Print pattern wall
G1 E-0.8 F3000 ; Retract
G1 Z0.6 F9000 ; Z hop
G0 X155.2871 Y138.0068 F9000 ; Move to start next pattern wall
G1 Z0.4 F9000 ; Z hop return
G1 E0.8 F1800 ; Un-retract
G1 X176.5003 Y159.22 E0.99515 F12000 ; Print pattern wall
G1 X155.2871 Y180.4332 E0.99515 F12000 ; Print pattern wall
G1 E-0.8 F3000 ; Retract
G1 Z0.6 F9000 ; Z hop
G0 X157.7371 Y138.0068 F9000 ; Move to next pattern
G1 Z0.4 F9000 ; Z hop return
G1 E0.8 F1800 ; Un-retract
SET_PRESSURE_ADVANCE ADVANCE=0.045 ; Set pressure advance
M117 PA 0.045
G1 X178.9503 Y159.22 E0.99515 F12000 ; Print pattern wall
G1 X157.7371 Y180.4332 E0.99515 F12000 ; Print pattern wall
G1 E-0.8 F3000 ; Retract
G1 Z0.6 F9000 ; Z hop
G0 X158.3128 Y138.0068 F9000 ; Move to start next pattern wall
G1 Z0.4 F9000 ; Z hop return
G1 E0.8 F1800 ; Un-retract
G1 X179.526 Y159.22 E0.99515 F12000 ; Print pattern wall
G1 X158.3128 Y180.4332 E0.99515 F12000 ; Print pattern wall
G1 E-0.8 F3000 ; Retract
G1 Z0.6 F9000 ; Z hop
G0 X158.8885 Y138.0068 F9000 ; Move to start next pattern wall
G1 Z0.4 F9000 ; Z hop return
G1 E0.8 F1800 ; Un-retract
G1 X180.1017 Y159.22 E0.99515 F12000 ; Print pattern wall
G1 X158.8885 Y180.4332 E0.99515 F12000 ; Print pattern wall
G1 E-0.8 F3000 ; Retract
G1 Z0.6 F9000 ; Z hop
G0 X161.3385 Y138.0068 F9000 ; Move to next pattern
G1 Z0.4 F9000 ; Z hop return
G1 E0.8 F1800 ; Un-retract
SET_PRESSURE_ADVANCE ADVANCE=0.05 ; Set pressure advance
M117 PA 0.05
G1 X182.5517 Y159.22 E0.99515 F12000 ; Print pattern wall
G1 X161.3385 Y180.4332 E0.99515 F12000 ; Print pattern wall
G1 E-0.8 F3000 ; Retract
G1 Z0.6 F9000 ; Z hop
G0 X161.9142 Y138.0068 F9000 ; Move to start next pattern wall
G1 Z0.4 F9000 ; Z hop return
G1 E0.8 F1800 ; Un-retract
G1 X183.1274 Y159.22 E0.99515 F12000 ; Print pattern wall
G1 X161.9142 Y180.4332 E0.99515 F12000 ; Print pattern wall
G1 E-0.8 F3000 ; Retract
G1 Z0.6 F9000 ; Z hop
G0 X162.4899 Y138.0068 F9000 ; Move to start next pattern wall
G1 Z0.4 F9000 ; Z hop return
G1 E0.8 F1800 ; Un-retract
G1 X183.7031 Y159.22 E0.99515 F12000 ; Print pattern wall
G1 X162.4899 Y180.4332 E0.99515 F12000 ; Print pattern wall
G1 E-0.8 F3000 ; Retract
G1 Z0.6 F9000 ; Z hop
G0 X164.9399 Y138.0068 F9000 ; Move to next pattern
G1 Z0.4 F9000 ; Z hop return
G1 E0.8 F1800 ; Un-retract
SET_PRESSURE_ADVANCE ADVANCE=0.055 ; Set pressure advance
M117 PA 0.055
G1 X186.1531 Y159.22 E0.99515 F12000 ; Print pattern wall
G1 X164.9399 Y180.4332 E0.99515 F12000 ; Print pattern wall
G1 E-0.8 F3000 ; Retract
G1 Z0.6 F9000 ; Z hop
G0 X165.5156 Y138.0068 F9000 ; Move to start next pattern wall
G1 Z0.4 F9000 ; Z hop return
G1 E0.8 F1800 ; Un-retract
G1 X186.7288 Y159.22 E0.99515 F12000 ; Print pattern wall
G1 X165.5156 Y180.4332 E0.99515 F12000 ; Print pattern wall
G1 E-0.8 F3000 ; Retract
G1 Z0.6 F9000 ; Z hop
G0 X166.0913 Y138.0068 F9000 ; Move to start next pattern wall
G1 Z0.4 F9000 ; Z hop return
G1 E0.8 F1800 ; Un-retract
G1 X187.3045 Y159.22 E0.99515 F12000 ; Print pattern wall
G1 X166.0913 Y180.4332 E0.99515 F12000 ; Print pattern wall
G1 E-0.8 F3000 ; Retract
G1 Z0.6 F9000 ; Z hop
G0 X168.5413 Y138.0068 F9000 ; Move to next pattern
G1 Z0.4 F9000 ; Z hop return
G1 E0.8 F1800 ; Un-retract
SET_PRESSURE_ADVANCE ADVANCE=0.06 ; Set pressure advance
M117 PA 0.06
G1 X189.7545 Y159.22 E0.99515 F12000 ; Print pattern wall
G1 X168.5413 Y180.4332 E0.99515 F12000 ; Print pattern wall
G1 E-0.8 F3000 ; Retract
G1 Z0.6 F9000 ; Z hop
G0 X169.117 Y138.0068 F9000 ; Move to start next pattern wall
G1 Z0.4 F9000 ; Z hop return
G1 E0.8 F1800 ; Un-retract
G1 X190.3302 Y159.22 E0.99515 F12000 ; Print pattern wall
G1 X169.117 Y180.4332 E0.99515 F12000 ; Print pattern wall
G1 E-0.8 F3000 ; Retract
G1 Z0.6 F9000 ; Z hop
G0 X169.6927 Y138.0068 F9000 ; Move to start next pattern wall
G1 Z0.4 F9000 ; Z hop return
G1 E0.8 F1800 ; Un-retract
G1 X190.9059 Y159.22 E0.99515 F12000 ; Print pattern wall
G1 X169.6927 Y180.4332 E0.99515 F12000 ; Print pattern wall
G1 E-0.8 F3000 ; Retract
G1 Z0.6 F9000 ; Z hop
G0 X172.1427 Y138.0068 F9000 ; Move to next pattern
G1 Z0.4 F9000 ; Z hop return
G1 E0.8 F1800 ; Un-retract
SET_PRESSURE_ADVANCE ADVANCE=0.065 ; Set pressure advance
M117 PA 0.065
G1 X193.3559 Y159.22 E0.99515 F12000 ; Print pattern wall
G1 X172.1427 Y180.4332 E0.99515 F12000 ; Print pattern wall
G1 E-0.8 F3000 ; Retract
G1 Z0.6 F9000 ; Z hop
G0 X172.7184 Y138.0068 F9000 ; Move to start next pattern wall
G1 Z0.4 F9000 ; Z hop return
G1 E0.8 F1800 ; Un-retract
G1 X193.9316 Y159.22 E0.99515 F12000 ; Print pattern wall
G1 X172.7184 Y180.4332 E0.99515 F12000 ; Print pattern wall
G1 E-0.8 F3000 ; Retract
G1 Z0.6 F9000 ; Z hop
G0 X173.2941 Y138.0068 F9000 ; Move to start next pattern wall
G1 Z0.4 F9000 ; Z hop return
G1 E0.8 F1800 ; Un-retract
G1 X194.5073 Y159.22 E0.99515 F12000 ; Print pattern wall
G1 X173.2941 Y180.4332 E0.99515 F12000 ; Print pattern wall
G1 E-0.8 F3000 ; Retract
G1 Z0.6 F9000 ; Z hop
G0 X175.7441 Y138.0068 F9000 ; Move to next pattern
G1 Z0.4 F9000 ; Z hop return
G1 E0.8 F1800 ; Un-retract
SET_PRESSURE_ADVANCE ADVANCE=0.07 ; Set pressure advance
M117 PA 0.07
G1 X196.9573 Y159.22 E0.99515 F12000 ; Print pattern wall
G1 X175.7441 Y180.4332 E0.99515 F12000 ; Print pattern wall
G1 E-0.8 F3000 ; Retract
G1 Z0.6 F9000 ; Z hop
G0 X176.3198 Y138.0068 F9000 ; Move to start next pattern wall
G1 Z0.4 F9000 ; Z hop return
G1 E0.8 F1800 ; Un-retract
G1 X197.533 Y159.22 E0.99515 F12000 ; Print pattern wall
G1 X176.3198 Y180.4332 E0.99515 F12000 ; Print pattern wall
G1 E-0.8 F3000 ; Retract
G1 Z0.6 F9000 ; Z hop
G0 X176.8955 Y138.0068 F9000 ; Move to start next pattern wall
G1 Z0.4 F9000 ; Z hop return
G1 E0.8 F1800 ; Un-retract
G1 X198.1087 Y159.22 E0.99515 F12000 ; Print pattern wall
G1 X176.8955 Y180.4332 E0.99515 F12000 ; Print pattern wall
G1 E-0.8 F3000 ; Retract
G1 Z0.6 F9000 ; Z hop
G0 X179.3455 Y138.0068 F9000 ; Move to next pattern
G1 Z0.4 F9000 ; Z hop return
G1 E0.8 F1800 ; Un-retract
SET_PRESSURE_ADVANCE ADVANCE=0.075 ; Set pressure advance
M117 PA 0.075
G1 X200.5587 Y159.22 E0.99515 F12000 ; Print pattern wall
G1 X179.3455 Y180.4332 E0.99515 F12000 ; Print pattern wall
G1 E-0.8 F3000 ; Retract
G1 Z0.6 F9000 ; Z hop
G0 X179.9212 Y138.0068 F9000 ; Move to start next pattern wall
G1 Z0.4 F9000 ; Z hop return
G1 E0.8 F1800 ; Un-retract
G1 X201.1344 Y159.22 E0.99515 F12000 ; Print pattern wall
G1 X179.9212 Y180.4332 E0.99515 F12000 ; Print pattern wall
G1 E-0.8 F3000 ; Retract
G1 Z0.6 F9000 ; Z hop
G0 X180.4969 Y138.0068 F9000 ; Move to start next pattern wall
G1 Z0.4 F9000 ; Z hop return
G1 E0.8 F1800 ; Un-retract
G1 X201.7101 Y159.22 E0.99515 F12000 ; Print pattern wall
G1 X180.4969 Y180.4332 E0.99515 F12000 ; Print pattern wall
G1 E-0.8 F3000 ; Retract
G1 Z0.6 F9000 ; Z hop
G0 X182.9469 Y138.0068 F9000 ; Move to next pattern
G1 Z0.4 F9000 ; Z hop return
G1 E0.8 F1800 ; Un-retract
SET_PRESSURE_ADVANCE ADVANCE=0.08 ; Set pressure advance
M117 PA 0.08
G1 X204.1601 Y159.22 E0.99515 F12000 ; Print pattern wall
G1 X182.9469 Y180.4332 E0.99515 F12000 ; Print pattern wall
G1 E-0.8 F3000 ; Retract
G1 Z0.6 F9000 ; Z hop
G0 X183.5226 Y138.0068 F9000 ; Move to start next pattern wall
G1 Z0.4 F9000 ; Z hop return
G1 E0.8 F1800 ; Un-retract
G1 X204.7358 Y159.22 E0.99515 F12000 ; Print pattern wall
G1 X183.5226 Y180.4332 E0.99515 F12000 ; Print pattern wall
G1 E-0.8 F3000 ; Retract
G1 Z0.6 F9000 ; Z hop
G0 X184.0983 Y138.0068 F9000 ; Move to start next pattern wall
G1 Z0.4 F9000 ; Z hop return
G1 E0.8 F1800 ; Un-retract
G1 X205.3115 Y159.22 E0.99515 F12000 ; Print pattern wall
G1 X184.0983 Y180.4332 E0.99515 F12000 ; Print pattern wall
G1 E-0.8 F3000 ; Retract
G1 Z0.6 F9000 ; Z hop
G0 X125.3245 Y138.0068 F9000 ; Move back to start position
G1 Z0.4 F9000 ; Z hop return
G1 E0.8 F1800 ; Un-retract
G0 Z0.6 F9000 ; Move to layer height
SET_PRESSURE_ADVANCE ADVANCE=0 ; Set pressure advance
M117 PA 0
G1 X146.5377 Y159.22 E0.99515 F12000 ; Print pattern wall
G1 X125.3245 Y180.4332 E0.99515 F12000 ; Print pattern wall
G1 E-0.8 F3000 ; Retract
G1 Z0.8 F9000 ; Z hop
G0 X125.9002 Y138.0068 F9000 ; Move to start next pattern wall
G1 Z0.6 F9000 ; Z hop return
G1 E0.8 F1800 ; Un-retract
G1 X147.1134 Y159.22 E0.99515 F12000 ; Print pattern wall
G1 X125.9002 Y180.4332 E0.99515 F12000 ; Print pattern wall
G1 E-0.8 F3000 ; Retract
G1 Z0.8 F9000 ; Z hop
G0 X126.4759 Y138.0068 F9000 ; Move to start next pattern wall
G1 Z0.6 F9000 ; Z hop return
G1 E0.8 F1800 ; Un-retract
G1 X147.6891 Y159.22 E0.99515 F12000 ; Print pattern wall
G1 X126.4759 Y180.4332 E0.99515 F12000 ; Print pattern wall
G1 E-0.8 F3000 ; Retract
G1 Z0.8 F9000 ; Z hop
G0 X128.9259 Y138.0068 F9000 ; Move to next pattern
G1 Z0.6 F9000 ; Z hop return
G1 E0.8 F1800 ; Un-retract
SET_PRESSURE_ADVANCE ADVANCE=0.005 ; Set pressure advance
M117 PA 0.005
G1 X150.1391 Y159.22 E0.99515 F12000 ; Print pattern wall
G1 X128.9259 Y180.4332 E0.99515 F12000 ; Print pattern wall
G1 E-0.8 F3000 ; Retract
G1 Z0.8 F9000 ; Z hop
G0 X129.5016 Y138.0068 F9000 ; Move to start next pattern wall
G1 Z0.6 F9000 ; Z hop return
G1 E0.8 F1800 ; Un-retract
G1 X150.7148 Y159.22 E0.99515 F12000 ; Print pattern wall
G1 X129.5016 Y180.4332 E0.99515 F12000 ; Print pattern wall
G1 E-0.8 F3000 ; Retract
G1 Z0.8 F9000 ; Z hop
G0 X130.0773 Y138.0068 F9000 ; Move to start next pattern wall
G1 Z0.6 F9000 ; Z hop return
G1 E0.8 F1800 ; Un-retract
G1 X151.2905 Y159.22 E0.99515 F12000 ; Print pattern wall
G1 X130.0773 Y180.4332 E0.99515 F12000 ; Print pattern wall
G1 E-0.8 F3000 ; Retract
G1 Z0.8 F9000 ; Z hop
G0 X132.5273 Y138.0068 F9000 ; Move to next pattern
G1 Z0.6 F9000 ; Z hop return
G1 E0.8 F1800 ; Un-retract
SET_PRESSURE_ADVANCE ADVANCE=0.01 ; Set pressure advance
M117 PA 0.01
G1 X153.7405 Y159.22 E0.99515 F12000 ; Print pattern wall
G1 X132.5273 Y180.4332 E0.99515 F12000 ; Print pattern wall
G1 E-0.8 F3000 ; Retract
G1 Z0.8 F9000 ; Z hop
G0 X133.103 Y138.0068 F9000 ; Move to start next pattern wall
G1 Z0.6 F9000 ; Z hop return
G1 E0.8 F1800 ; Un-retract
G1 X154.3162 Y159.22 E0.99515 F12000 ; Print pattern wall
G1 X133.103 Y180.4332 E0.99515 F12000 ; Print pattern wall
G1 E-0.8 F3000 ; Retract
G1 Z0.8 F9000 ; Z hop
G0 X133.6787 Y138.0068 F9000 ; Move to start next pattern wall
G1 Z0.6 F9000 ; Z hop return
G1 E0.8 F1800 ; Un-retract
G1 X154.8919 Y159.22 E0.99515 F12000 ; Print pattern wall
G1 X133.6787 Y180.4332 E0.99515 F12000 ; Print pattern wall
G1 E-0.8 F3000 ; Retract
G1 Z0.8 F9000 ; Z hop
G0 X136.1287 Y138.0068 F9000 ; Move to next pattern
G1 Z0.6 F9000 ; Z hop return
G1 E0.8 F1800 ; Un-retract
SET_PRESSURE_ADVANCE ADVANCE=0.015 ; Set pressure advance
M117 PA 0.015
G1 X157.3419 Y159.22 E0.99515 F12000 ; Print pattern wall
G1 X136.1287 Y180.4332 E0.99515 F12000 ; Print pattern wall
G1 E-0.8 F3000 ; Retract
G1 Z0.8 F9000 ; Z hop
G0 X136.7044 Y138.0068 F9000 ; Move to start next pattern wall
G1 Z0.6 F9000 ; Z hop return
G1 E0.8 F1800 ; Un-retract
G1 X157.9176 Y159.22 E0.99515 F12000 ; Print pattern wall
G1 X136.7044 Y180.4332 E0.99515 F12000 ; Print pattern wall
G1 E-0.8 F3000 ; Retract
G1 Z0.8 F9000 ; Z hop
G0 X137.2801 Y138.0068 F9000 ; Move to start next pattern wall
G1 Z0.6 F9000 ; Z hop return
G1 E0.8 F1800 ; Un-retract
G1 X158.4933 Y159.22 E0.99515 F12000 ; Print pattern wall
G1 X137.2801 Y180.4332 E0.99515 F12000 ; Print pattern wall
G1 E-0.8 F3000 ; Retract
G1 Z0.8 F9000 ; Z hop
G0 X139.7301 Y138.0068 F9000 ; Move to next pattern
G1 Z0.6 F9000 ; Z hop return
G1 E0.8 F1800 ; Un-retract
SET_PRESSURE_ADVANCE ADVANCE=0.02 ; Set pressure advance
M117 PA 0.02
G1 X160.9433 Y159.22 E0.99515 F12000 ; Print pattern wall
G1 X139.7301 Y180.4332 E0.99515 F12000 ; Print pattern wall
G1 E-0.8 F3000 ; Retract
G1 Z0.8 F9000 ; Z hop
G0 X140.3058 Y138.0068 F9000 ; Move to start next pattern wall
G1 Z0.6 F9000 ; Z hop return
G1 E0.8 F1800 ; Un-retract
G1 X161.519 Y159.22 E0.99515 F12000 ; Print pattern wall
G1 X140.3058 Y180.4332 E0.99515 F12000 ; Print pattern wall
G1 E-0.8 F3000 ; Retract
G1 Z0.8 F9000 ; Z hop
G0 X140.8815 Y138.0068 F9000 ; Move to start next pattern wall
G1 Z0.6 F9000 ; Z hop return
G1 E0.8 F1800 ; Un-retract
G1 X162.0947 Y159.22 E0.99515 F12000 ; Print pattern wall
G1 X140.8815 Y180.4332 E0.99515 F12000 ; Print pattern wall
G1 E-0.8 F3000 ; Retract
G1 Z0.8 F9000 ; Z hop
G0 X143.3315 Y138.0068 F9000 ; Move to next pattern
G1 Z0.6 F9000 ; Z hop return
G1 E0.8 F1800 ; Un-retract
SET_PRESSURE_ADVANCE ADVANCE=0.025 ; Set pressure advance
M117 PA 0.025
G1 X164.5447 Y159.22 E0.99515 F12000 ; Print pattern wall
G1 X143.3315 Y180.4332 E0.99515 F12000 ; Print pattern wall
G1 E-0.8 F3000 ; Retract
G1 Z0.8 F9000 ; Z hop
G0 X143.9072 Y138.0068 F9000 ; Move to start next pattern wall
G1 Z0.6 F9000 ; Z hop return
G1 E0.8 F1800 ; Un-retract
G1 X165.1204 Y159.22 E0.99515 F12000 ; Print pattern wall
G1 X143.9072 Y180.4332 E0.99515 F12000 ; Print pattern wall
G1 E-0.8 F3000 ; Retract
G1 Z0.8 F9000 ; Z hop
G0 X144.4829 Y138.0068 F9000 ; Move to start next pattern wall
G1 Z0.6 F9000 ; Z hop return
G1 E0.8 F1800 ; Un-retract
G1 X165.6961 Y159.22 E0.99515 F12000 ; Print pattern wall
G1 X144.4829 Y180.4332 E0.99515 F12000 ; Print pattern wall
G1 E-0.8 F3000 ; Retract
G1 Z0.8 F9000 ; Z hop
G0 X146.9329 Y138.0068 F9000 ; Move to next pattern
G1 Z0.6 F9000 ; Z hop return
G1 E0.8 F1800 ; Un-retract
SET_PRESSURE_ADVANCE ADVANCE=0.03 ; Set pressure advance
M117 PA 0.03
G1 X168.1461 Y159.22 E0.99515 F12000 ; Print pattern wall
G1 X146.9329 Y180.4332 E0.99515 F12000 ; Print pattern wall
G1 E-0.8 F3000 ; Retract
G1 Z0.8 F9000 ; Z hop
G0 X147.5086 Y138.0068 F9000 ; Move to start next pattern wall
G1 Z0.6 F9000 ; Z hop return
G1 E0.8 F1800 ; Un-retract
G1 X168.7218 Y159.22 E0.99515 F12000 ; Print pattern wall
G1 X147.5086 Y180.4332 E0.99515 F12000 ; Print pattern wall
G1 E-0.8 F3000 ; Retract
G1 Z0.8 F9000 ; Z hop
G0 X148.0843 Y138.0068 F9000 ; Move to start next pattern wall
G1 Z0.6 F9000 ; Z hop return
G1 E0.8 F1800 ; Un-retract
G1 X169.2975 Y159.22 E0.99515 F12000 ; Print pattern wall
G1 X148.0843 Y180.4332 E0.99515 F12000 ; Print pattern wall
G1 E-0.8 F3000 ; Retract
G1 Z0.8 F9000 ; Z hop
G0 X150.5343 Y138.0068 F9000 ; Move to next pattern
G1 Z0.6 F9000 ; Z hop return
G1 E0.8 F1800 ; Un-retract
SET_PRESSURE_ADVANCE ADVANCE=0.035 ; Set pressure advance
M117 PA 0.035
G1 X171.7475 Y159.22 E0.99515 F12000 ; Print pattern wall
G1 X150.5343 Y180.4332 E0.99515 F12000 ; Print pattern wall
G1 E-0.8 F3000 ; Retract
G1 Z0.8 F9000 ; Z hop
G0 X151.11 Y138.0068 F9000 ; Move to start next pattern wall
G1 Z0.6 F9000 ; Z hop return
G1 E0.8 F1800 ; Un-retract
G1 X172.3232 Y159.22 E0.99515 F12000 ; Print pattern wall
G1 X151.11 Y180.4332 E0.99515 F12000 ; Print pattern wall
G1 E-0.8 F3000 ; Retract
G1 Z0.8 F9000 ; Z hop
G0 X151.6857 Y138.0068 F9000 ; Move to start next pattern wall
G1 Z0.6 F9000 ; Z hop return
G1 E0.8 F1800 ; Un-retract
G1 X172.8989 Y159.22 E0.99515 F12000 ; Print pattern wall
G1 X151.6857 Y180.4332 E0.99515 F12000 ; Print pattern wall
G1 E-0.8 F3000 ; Retract
G1 Z0.8 F9000 ; Z hop
G0 X154.1357 Y138.0068 F9000 ; Move to next pattern
G1 Z0.6 F9000 ; Z hop return
G1 E0.8 F1800 ; Un-retract
SET_PRESSURE_ADVANCE ADVANCE=0.04 ; Set pressure advance
M117 PA 0.04
G1 X175.3489 Y159.22 E0.99515 F12000 ; Print pattern wall
G1 X154.1357 Y180.4332 E0.99515 F12000 ; Print pattern wall
G1 E-0.8 F3000 ; Retract
G1 Z0.8 F9000 ; Z hop
G0 X154.7114 Y138.0068 F9000 ; Move to start next pattern wall
G1 Z0.6 F9000 ; Z hop return
G1 E0.8 F1800 ; Un-retract
G1 X175.9246 Y159.22 E0.99515 F12000 ; Print pattern wall
G1 X154.7114 Y180.4332 E0.99515 F12000 ; Print pattern wall
G1 E-0.8 F3000 ; Retract
G1 Z0.8 F9000 ; Z hop
G0 X155.2871 Y138.0068 F9000 ; Move to start next pattern wall
G1 Z0.6 F9000 ; Z hop return
G1 E0.8 F1800 ; Un-retract
G1 X176.5003 Y159.22 E0.99515 F12000 ; Print pattern wall
G1 X155.2871 Y180.4332 E0.99515 F12000 ; Print pattern wall
G1 E-0.8 F3000 ; Retract
G1 Z0.8 F9000 ; Z hop
G0 X157.7371 Y138.0068 F9000 ; Move to next pattern
G1 Z0.6 F9000 ; Z hop return
G1 E0.8 F1800 ; Un-retract
SET_PRESSURE_ADVANCE ADVANCE=0.045 ; Set pressure advance
M117 PA 0.045
G1 X178.9503 Y159.22 E0.99515 F12000 ; Print pattern wall
G1 X157.7371 Y180.4332 E0.99515 F12000 ; Print pattern wall
G1 E-0.8 F3000 ; Retract
G1 Z0.8 F9000 ; Z hop
G0 X158.3128 Y138.0068 F9000 ; Move to start next pattern wall
G1 Z0.6 F9000 ; Z hop return
G1 E0.8 F1800 ; Un-retract
G1 X179.526 Y159.22 E0.99515 F12000 ; Print pattern wall
G1 X158.3128 Y180.4332 E0.99515 F12000 ; Print pattern wall
G1 E-0.8 F3000 ; Retract
G1 Z0.8 F9000 ; Z hop
G0 X158.8885 Y138.0068 F9000 ; Move to start next pattern wall
G1 Z0.6 F9000 ; Z hop return
G1 E0.8 F1800 ; Un-retract
G1 X180.1017 Y159.22 E0.99515 F12000 ; Print pattern wall
G1 X158.8885 Y180.4332 E0.99515 F12000 ; Print pattern wall
G1 E-0.8 F3000 ; Retract
G1 Z0.8 F9000 ; Z hop
G0 X161.3385 Y138.0068 F9000 ; Move to next pattern
G1 Z0.6 F9000 ; Z hop return
G1 E0.8 F1800 ; Un-retract
SET_PRESSURE_ADVANCE ADVANCE=0.05 ; Set pressure advance
M117 PA 0.05
G1 X182.5517 Y159.22 E0.99515 F12000 ; Print pattern wall
G1 X161.3385 Y180.4332 E0.99515 F12000 ; Print pattern wall
G1 E-0.8 F3000 ; Retract
G1 Z0.8 F9000 ; Z hop
G0 X161.9142 Y138.0068 F9000 ; Move to start next pattern wall
G1 Z0.6 F9000 ; Z hop return
G1 E0.8 F1800 ; Un-retract
G1 X183.1274 Y159.22 E0.99515 F12000 ; Print pattern wall
G1 X161.9142 Y180.4332 E0.99515 F12000 ; Print pattern wall
G1 E-0.8 F3000 ; Retract
G1 Z0.8 F9000 ; Z hop
G0 X162.4899 Y138.0068 F9000 ; Move to start next pattern wall
G1 Z0.6 F9000 ; Z hop return
G1 E0.8 F1800 ; Un-retract
G1 X183.7031 Y159.22 E0.99515 F12000 ; Print pattern wall
G1 X162.4899 Y180.4332 E0.99515 F12000 ; Print pattern wall
G1 E-0.8 F3000 ; Retract
G1 Z0.8 F9000 ; Z hop
G0 X164.9399 Y138.0068 F9000 ; Move to next pattern
G1 Z0.6 F9000 ; Z hop return
G1 E0.8 F1800 ; Un-retract
SET_PRESSURE_ADVANCE ADVANCE=0.055 ; Set pressure advance
M117 PA 0.055
G1 X186.1531 Y159.22 E0.99515 F12000 ; Print pattern wall
G1 X164.9399 Y180.4332 E0.99515 F12000 ; Print pattern wall
G1 E-0.8 F3000 ; Retract
G1 Z0.8 F9000 ; Z hop
G0 X165.5156 Y138.0068 F9000 ; Move to start next pattern wall
G1 Z0.6 F9000 ; Z hop return
G1 E0.8 F1800 ; Un-retract
G1 X186.7288 Y159.22 E0.99515 F12000 ; Print pattern wall
G1 X165.5156 Y180.4332 E0.99515 F12000 ; Print pattern wall
G1 E-0.8 F3000 ; Retract
G1 Z0.8 F9000 ; Z hop
G0 X166.0913 Y138.0068 F9000 ; Move to start next pattern wall
G1 Z0.6 F9000 ; Z hop return
G1 E0.8 F1800 ; Un-retract
G1 X187.3045 Y159.22 E0.99515 F12000 ; Print pattern wall
G1 X166.0913 Y180.4332 E0.99515 F12000 ; Print pattern wall
G1 E-0.8 F3000 ; Retract
G1 Z0.8 F9000 ; Z hop
G0 X168.5413 Y138.0068 F9000 ; Move to next pattern
G1 Z0.6 F9000 ; Z hop return
G1 E0.8 F1800 ; Un-retract
SET_PRESSURE_ADVANCE ADVANCE=0.06 ; Set pressure advance
M117 PA 0.06
G1 X189.7545 Y159.22 E0.99515 F12000 ; Print pattern wall
G1 X168.5413 Y180.4332 E0.99515 F12000 ; Print pattern wall
G1 E-0.8 F3000 ; Retract
G1 Z0.8 F9000 ; Z hop
G0 X169.117 Y138.0068 F9000 ; Move to start next pattern wall
G1 Z0.6 F9000 ; Z hop return
G1 E0.8 F1800 ; Un-retract
G1 X190.3302 Y159.22 E0.99515 F12000 ; Print pattern wall
G1 X169.117 Y180.4332 E0.99515 F12000 ; Print pattern wall
G1 E-0.8 F3000 ; Retract
G1 Z0.8 F9000 ; Z hop
G0 X169.6927 Y138.0068 F9000 ; Move to start next pattern wall
G1 Z0.6 F9000 ; Z hop return
G1 E0.8 F1800 ; Un-retract
G1 X190.9059 Y159.22 E0.99515 F12000 ; Print pattern wall
G1 X169.6927 Y180.4332 E0.99515 F12000 ; Print pattern wall
G1 E-0.8 F3000 ; Retract
G1 Z0.8 F9000 ; Z hop
G0 X172.1427 Y138.0068 F9000 ; Move to next pattern
G1 Z0.6 F9000 ; Z hop return
G1 E0.8 F1800 ; Un-retract
SET_PRESSURE_ADVANCE ADVANCE=0.065 ; Set pressure advance
M117 PA 0.065
G1 X193.3559 Y159.22 E0.99515 F12000 ; Print pattern wall
G1 X172.1427 Y180.4332 E0.99515 F12000 ; Print pattern wall
G1 E-0.8 F3000 ; Retract
G1 Z0.8 F9000 ; Z hop
G0 X172.7184 Y138.0068 F9000 ; Move to start next pattern wall
G1 Z0.6 F9000 ; Z hop return
G1 E0.8 F1800 ; Un-retract
G1 X193.9316 Y159.22 E0.99515 F12000 ; Print pattern wall
G1 X172.7184 Y180.4332 E0.99515 F12000 ; Print pattern wall
G1 E-0.8 F3000 ; Retract
G1 Z0.8 F9000 ; Z hop
G0 X173.2941 Y138.0068 F9000 ; Move to start next pattern wall
G1 Z0.6 F9000 ; Z hop return
G1 E0.8 F1800 ; Un-retract
G1 X194.5073 Y159.22 E0.99515 F12000 ; Print pattern wall
G1 X173.2941 Y180.4332 E0.99515 F12000 ; Print pattern wall
G1 E-0.8 F3000 ; Retract
G1 Z0.8 F9000 ; Z hop
G0 X175.7441 Y138.0068 F9000 ; Move to next pattern
G1 Z0.6 F9000 ; Z hop return
G1 E0.8 F1800 ; Un-retract
SET_PRESSURE_ADVANCE ADVANCE=0.07 ; Set pressure advance
M117 PA 0.07
G1 X196.9573 Y159.22 E0.99515 F12000 ; Print pattern wall
G1 X175.7441 Y180.4332 E0.99515 F12000 ; Print pattern wall
G1 E-0.8 F3000 ; Retract
G1 Z0.8 F9000 ; Z hop
G0 X176.3198 Y138.0068 F9000 ; Move to start next pattern wall
G1 Z0.6 F9000 ; Z hop return
G1 E0.8 F1800 ; Un-retract
G1 X197.533 Y159.22 E0.99515 F12000 ; Print pattern wall
G1 X176.3198 Y180.4332 E0.99515 F12000 ; Print pattern wall
G1 E-0.8 F3000 ; Retract
G1 Z0.8 F9000 ; Z hop
G0 X176.8955 Y138.0068 F9000 ; Move to start next pattern wall
G1 Z0.6 F9000 ; Z hop return
G1 E0.8 F1800 ; Un-retract
G1 X198.1087 Y159.22 E0.99515 F12000 ; Print pattern wall
G1 X176.8955 Y180.4332 E0.99515 F12000 ; Print pattern wall
G1 E-0.8 F3000 ; Retract
G1 Z0.8 F9000 ; Z hop
G0 X179.3455 Y138.0068 F9000 ; Move to next pattern
G1 Z0.6 F9000 ; Z hop return
G1 E0.8 F1800 ; Un-retract
SET_PRESSURE_ADVANCE ADVANCE=0.075 ; Set pressure advance
M117 PA 0.075
G1 X200.5587 Y159.22 E0.99515 F12000 ; Print pattern wall
G1 X179.3455 Y180.4332 E0.99515 F12000 ; Print pattern wall
G1 E-0.8 F3000 ; Retract
G1 Z0.8 F9000 ; Z hop
G0 X179.9212 Y138.0068 F9000 ; Move to start next pattern wall
G1 Z0.6 F9000 ; Z hop return
G1 E0.8 F1800 ; Un-retract
G1 X201.1344 Y159.22 E0.99515 F12000 ; Print pattern wall
G1 X179.9212 Y180.4332 E0.99515 F12000 ; Print pattern wall
G1 E-0.8 F3000 ; Retract
G1 Z0.8 F9000 ; Z hop
G0 X180.4969 Y138.0068 F9000 ; Move to start next pattern wall
G1 Z0.6 F9000 ; Z hop return
G1 E0.8 F1800 ; Un-retract
G1 X201.7101 Y159.22 E0.99515 F12000 ; Print pattern wall
G1 X180.4969 Y180.4332 E0.99515 F12000 ; Print pattern wall
G1 E-0.8 F3000 ; Retract
G1 Z0.8 F9000 ; Z hop
G0 X182.9469 Y138.0068 F9000 ; Move to next pattern
G1 Z0.6 F9000 ; Z hop return
G1 E0.8 F1800 ; Un-retract
SET_PRESSURE_ADVANCE ADVANCE=0.08 ; Set pressure advance
M117 PA 0.08
G1 X204.1601 Y159.22 E0.99515 F12000 ; Print pattern wall
G1 X182.9469 Y180.4332 E0.99515 F12000 ; Print pattern wall
G1 E-0.8 F3000 ; Retract
G1 Z0.8 F9000 ; Z hop
G0 X183.5226 Y138.0068 F9000 ; Move to start next pattern wall
G1 Z0.6 F9000 ; Z hop return
G1 E0.8 F1800 ; Un-retract
G1 X204.7358 Y159.22 E0.99515 F12000 ; Print pattern wall
G1 X183.5226 Y180.4332 E0.99515 F12000 ; Print pattern wall
G1 E-0.8 F3000 ; Retract
G1 Z0.8 F9000 ; Z hop
G0 X184.0983 Y138.0068 F9000 ; Move to start next pattern wall
G1 Z0.6 F9000 ; Z hop return
G1 E0.8 F1800 ; Un-retract
G1 X205.3115 Y159.22 E0.99515 F12000 ; Print pattern wall
G1 X184.0983 Y180.4332 E0.99515 F12000 ; Print pattern wall
G1 E-0.8 F3000 ; Retract
G1 Z0.8 F9000 ; Z hop
G0 X125.3245 Y138.0068 F9000 ; Move back to start position
G1 Z0.6 F9000 ; Z hop return
G1 E0.8 F1800 ; Un-retract
G0 Z0.8 F9000 ; Move to layer height
SET_PRESSURE_ADVANCE ADVANCE=0 ; Set pressure advance
M117 PA 0
G1 X146.5377 Y159.22 E0.99515 F12000 ; Print pattern wall
G1 X125.3245 Y180.4332 E0.99515 F12000 ; Print pattern wall
G1 E-0.8 F3000 ; Retract
G1 Z1 F9000 ; Z hop
G0 X125.9002 Y138.0068 F9000 ; Move to start next pattern wall
G1 Z0.8 F9000 ; Z hop return
G1 E0.8 F1800 ; Un-retract
G1 X147.1134 Y159.22 E0.99515 F12000 ; Print pattern wall
G1 X125.9002 Y180.4332 E0.99515 F12000 ; Print pattern wall
G1 E-0.8 F3000 ; Retract
G1 Z1 F9000 ; Z hop
G0 X126.4759 Y138.0068 F9000 ; Move to start next pattern wall
G1 Z0.8 F9000 ; Z hop return
G1 E0.8 F1800 ; Un-retract
G1 X147.6891 Y159.22 E0.99515 F12000 ; Print pattern wall
G1 X126.4759 Y180.4332 E0.99515 F12000 ; Print pattern wall
G1 E-0.8 F3000 ; Retract
G1 Z1 F9000 ; Z hop
G0 X128.9259 Y138.0068 F9000 ; Move to next pattern
G1 Z0.8 F9000 ; Z hop return
G1 E0.8 F1800 ; Un-retract
SET_PRESSURE_ADVANCE ADVANCE=0.005 ; Set pressure advance
M117 PA 0.005
G1 X150.1391 Y159.22 E0.99515 F12000 ; Print pattern wall
G1 X128.9259 Y180.4332 E0.99515 F12000 ; Print pattern wall
G1 E-0.8 F3000 ; Retract
G1 Z1 F9000 ; Z hop
G0 X129.5016 Y138.0068 F9000 ; Move to start next pattern wall
G1 Z0.8 F9000 ; Z hop return
G1 E0.8 F1800 ; Un-retract
G1 X150.7148 Y159.22 E0.99515 F12000 ; Print pattern wall
G1 X129.5016 Y180.4332 E0.99515 F12000 ; Print pattern wall
G1 E-0.8 F3000 ; Retract
G1 Z1 F9000 ; Z hop
G0 X130.0773 Y138.0068 F9000 ; Move to start next pattern wall
G1 Z0.8 F9000 ; Z hop return
G1 E0.8 F1800 ; Un-retract
G1 X151.2905 Y159.22 E0.99515 F12000 ; Print pattern wall
G1 X130.0773 Y180.4332 E0.99515 F12000 ; Print pattern wall
G1 E-0.8 F3000 ; Retract
G1 Z1 F9000 ; Z hop
G0 X132.5273 Y138.0068 F9000 ; Move to next pattern
G1 Z0.8 F9000 ; Z hop return
G1 E0.8 F1800 ; Un-retract
SET_PRESSURE_ADVANCE ADVANCE=0.01 ; Set pressure advance
M117 PA 0.01
G1 X153.7405 Y159.22 E0.99515 F12000 ; Print pattern wall
G1 X132.5273 Y180.4332 E0.99515 F12000 ; Print pattern wall
G1 E-0.8 F3000 ; Retract
G1 Z1 F9000 ; Z hop
G0 X133.103 Y138.0068 F9000 ; Move to start next pattern wall
G1 Z0.8 F9000 ; Z hop return
G1 E0.8 F1800 ; Un-retract
G1 X154.3162 Y159.22 E0.99515 F12000 ; Print pattern wall
G1 X133.103 Y180.4332 E0.99515 F12000 ; Print pattern wall
G1 E-0.8 F3000 ; Retract
G1 Z1 F9000 ; Z hop
G0 X133.6787 Y138.0068 F9000 ; Move to start next pattern wall
G1 Z0.8 F9000 ; Z hop return
G1 E0.8 F1800 ; Un-retract
G1 X154.8919 Y159.22 E0.99515 F12000 ; Print pattern wall
G1 X133.6787 Y180.4332 E0.99515 F12000 ; Print pattern wall
G1 E-0.8 F3000 ; Retract
G1 Z1 F9000 ; Z hop
G0 X136.1287 Y138.0068 F9000 ; Move to next pattern
G1 Z0.8 F9000 ; Z hop return
G1 E0.8 F1800 ; Un-retract
SET_PRESSURE_ADVANCE ADVANCE=0.015 ; Set pressure advance
M117 PA 0.015
G1 X157.3419 Y159.22 E0.99515 F12000 ; Print pattern wall
G1 X136.1287 Y180.4332 E0.99515 F12000 ; Print pattern wall
G1 E-0.8 F3000 ; Retract
G1 Z1 F9000 ; Z hop
G0 X136.7044 Y138.0068 F9000 ; Move to start next pattern wall
G1 Z0.8 F9000 ; Z hop return
G1 E0.8 F1800 ; Un-retract
G1 X157.9176 Y159.22 E0.99515 F12000 ; Print pattern wall
G1 X136.7044 Y180.4332 E0.99515 F12000 ; Print pattern wall
G1 E-0.8 F3000 ; Retract
G1 Z1 F9000 ; Z hop
G0 X137.2801 Y138.0068 F9000 ; Move to start next pattern wall
G1 Z0.8 F9000 ; Z hop return
G1 E0.8 F1800 ; Un-retract
G1 X158.4933 Y159.22 E0.99515 F12000 ; Print pattern wall
G1 X137.2801 Y180.4332 E0.99515 F12000 ; Print pattern wall
G1 E-0.8 F3000 ; Retract
G1 Z1 F9000 ; Z hop
G0 X139.7301 Y138.0068 F9000 ; Move to next pattern
G1 Z0.8 F9000 ; Z hop return
G1 E0.8 F1800 ; Un-retract
SET_PRESSURE_ADVANCE ADVANCE=0.02 ; Set pressure advance
M117 PA 0.02
G1 X160.9433 Y159.22 E0.99515 F12000 ; Print pattern wall
G1 X139.7301 Y180.4332 E0.99515 F12000 ; Print pattern wall
G1 E-0.8 F3000 ; Retract
G1 Z1 F9000 ; Z hop
G0 X140.3058 Y138.0068 F9000 ; Move to start next pattern wall
G1 Z0.8 F9000 ; Z hop return
G1 E0.8 F1800 ; Un-retract
G1 X161.519 Y159.22 E0.99515 F12000 ; Print pattern wall
G1 X140.3058 Y180.4332 E0.99515 F12000 ; Print pattern wall
G1 E-0.8 F3000 ; Retract
G1 Z1 F9000 ; Z hop
G0 X140.8815 Y138.0068 F9000 ; Move to start next pattern wall
G1 Z0.8 F9000 ; Z hop return
G1 E0.8 F1800 ; Un-retract
G1 X162.0947 Y159.22 E0.99515 F12000 ; Print pattern wall
G1 X140.8815 Y180.4332 E0.99515 F12000 ; Print pattern wall
G1 E-0.8 F3000 ; Retract
G1 Z1 F9000 ; Z hop
G0 X143.3315 Y138.0068 F9000 ; Move to next pattern
G1 Z0.8 F9000 ; Z hop return
G1 E0.8 F1800 ; Un-retract
SET_PRESSURE_ADVANCE ADVANCE=0.025 ; Set pressure advance
M117 PA 0.025
G1 X164.5447 Y159.22 E0.99515 F12000 ; Print pattern wall
G1 X143.3315 Y180.4332 E0.99515 F12000 ; Print pattern wall
G1 E-0.8 F3000 ; Retract
G1 Z1 F9000 ; Z hop
G0 X143.9072 Y138.0068 F9000 ; Move to start next pattern wall
G1 Z0.8 F9000 ; Z hop return
G1 E0.8 F1800 ; Un-retract
G1 X165.1204 Y159.22 E0.99515 F12000 ; Print pattern wall
G1 X143.9072 Y180.4332 E0.99515 F12000 ; Print pattern wall
G1 E-0.8 F3000 ; Retract
G1 Z1 F9000 ; Z hop
G0 X144.4829 Y138.0068 F9000 ; Move to start next pattern wall
G1 Z0.8 F9000 ; Z hop return
G1 E0.8 F1800 ; Un-retract
G1 X165.6961 Y159.22 E0.99515 F12000 ; Print pattern wall
G1 X144.4829 Y180.4332 E0.99515 F12000 ; Print pattern wall
G1 E-0.8 F3000 ; Retract
G1 Z1 F9000 ; Z hop
G0 X146.9329 Y138.0068 F9000 ; Move to next pattern
G1 Z0.8 F9000 ; Z hop return
G1 E0.8 F1800 ; Un-retract
SET_PRESSURE_ADVANCE ADVANCE=0.03 ; Set pressure advance
M117 PA 0.03
G1 X168.1461 Y159.22 E0.99515 F12000 ; Print pattern wall
G1 X146.9329 Y180.4332 E0.99515 F12000 ; Print pattern wall
G1 E-0.8 F3000 ; Retract
G1 Z1 F9000 ; Z hop
G0 X147.5086 Y138.0068 F9000 ; Move to start next pattern wall
G1 Z0.8 F9000 ; Z hop return
G1 E0.8 F1800 ; Un-retract
G1 X168.7218 Y159.22 E0.99515 F12000 ; Print pattern wall
G1 X147.5086 Y180.4332 E0.99515 F12000 ; Print pattern wall
G1 E-0.8 F3000 ; Retract
G1 Z1 F9000 ; Z hop
G0 X148.0843 Y138.0068 F9000 ; Move to start next pattern wall
G1 Z0.8 F9000 ; Z hop return
G1 E0.8 F1800 ; Un-retract
G1 X169.2975 Y159.22 E0.99515 F12000 ; Print pattern wall
G1 X148.0843 Y180.4332 E0.99515 F12000 ; Print pattern wall
G1 E-0.8 F3000 ; Retract
G1 Z1 F9000 ; Z hop
G0 X150.5343 Y138.0068 F9000 ; Move to next pattern
G1 Z0.8 F9000 ; Z hop return
G1 E0.8 F1800 ; Un-retract
SET_PRESSURE_ADVANCE ADVANCE=0.035 ; Set pressure advance
M117 PA 0.035
G1 X171.7475 Y159.22 E0.99515 F12000 ; Print pattern wall
G1 X150.5343 Y180.4332 E0.99515 F12000 ; Print pattern wall
G1 E-0.8 F3000 ; Retract
G1 Z1 F9000 ; Z hop
G0 X151.11 Y138.0068 F9000 ; Move to start next pattern wall
G1 Z0.8 F9000 ; Z hop return
G1 E0.8 F1800 ; Un-retract
G1 X172.3232 Y159.22 E0.99515 F12000 ; Print pattern wall
G1 X151.11 Y180.4332 E0.99515 F12000 ; Print pattern wall
G1 E-0.8 F3000 ; Retract
G1 Z1 F9000 ; Z hop
G0 X151.6857 Y138.0068 F9000 ; Move to start next pattern wall
G1 Z0.8 F9000 ; Z hop return
G1 E0.8 F1800 ; Un-retract
G1 X172.8989 Y159.22 E0.99515 F12000 ; Print pattern wall
G1 X151.6857 Y180.4332 E0.99515 F12000 ; Print pattern wall
G1 E-0.8 F3000 ; Retract
G1 Z1 F9000 ; Z hop
G0 X154.1357 Y138.0068 F9000 ; Move to next pattern
G1 Z0.8 F9000 ; Z hop return
G1 E0.8 F1800 ; Un-retract
SET_PRESSURE_ADVANCE ADVANCE=0.04 ; Set pressure advance
M117 PA 0.04
G1 X175.3489 Y159.22 E0.99515 F12000 ; Print pattern wall
G1 X154.1357 Y180.4332 E0.99515 F12000 ; Print pattern wall
G1 E-0.8 F3000 ; Retract
G1 Z1 F9000 ; Z hop
G0 X154.7114 Y138.0068 F9000 ; Move to start next pattern wall
G1 Z0.8 F9000 ; Z hop return
G1 E0.8 F1800 ; Un-retract
G1 X175.9246 Y159.22 E0.99515 F12000 ; Print pattern wall
G1 X154.7114 Y180.4332 E0.99515 F12000 ; Print pattern wall
G1 E-0.8 F3000 ; Retract
G1 Z1 F9000 ; Z hop
G0 X155.2871 Y138.0068 F9000 ; Move to start next pattern wall
G1 Z0.8 F9000 ; Z hop return
G1 E0.8 F1800 ; Un-retract
G1 X176.5003 Y159.22 E0.99515 F12000 ; Print pattern wall
G1 X155.2871 Y180.4332 E0.99515 F12000 ; Print pattern wall
G1 E-0.8 F3000 ; Retract
G1 Z1 F9000 ; Z hop
G0 X157.7371 Y138.0068 F9000 ; Move to next pattern
G1 Z0.8 F9000 ; Z hop return
G1 E0.8 F1800 ; Un-retract
SET_PRESSURE_ADVANCE ADVANCE=0.045 ; Set pressure advance
M117 PA 0.045
G1 X178.9503 Y159.22 E0.99515 F12000 ; Print pattern wall
G1 X157.7371 Y180.4332 E0.99515 F12000 ; Print pattern wall
G1 E-0.8 F3000 ; Retract
G1 Z1 F9000 ; Z hop
G0 X158.3128 Y138.0068 F9000 ; Move to start next pattern wall
G1 Z0.8 F9000 ; Z hop return
G1 E0.8 F1800 ; Un-retract
G1 X179.526 Y159.22 E0.99515 F12000 ; Print pattern wall
G1 X158.3128 Y180.4332 E0.99515 F12000 ; Print pattern wall
G1 E-0.8 F3000 ; Retract
G1 Z1 F9000 ; Z hop
G0 X158.8885 Y138.0068 F9000 ; Move to start next pattern wall
G1 Z0.8 F9000 ; Z hop return
G1 E0.8 F1800 ; Un-retract
G1 X180.1017 Y159.22 E0.99515 F12000 ; Print pattern wall
G1 X158.8885 Y180.4332 E0.99515 F12000 ; Print pattern wall
G1 E-0.8 F3000 ; Retract
G1 Z1 F9000 ; Z hop
G0 X161.3385 Y138.0068 F9000 ; Move to next pattern
G1 Z0.8 F9000 ; Z hop return
G1 E0.8 F1800 ; Un-retract
SET_PRESSURE_ADVANCE ADVANCE=0.05 ; Set pressure advance
M117 PA 0.05
G1 X182.5517 Y159.22 E0.99515 F12000 ; Print pattern wall
G1 X161.3385 Y180.4332 E0.99515 F12000 ; Print pattern wall
G1 E-0.8 F3000 ; Retract
G1 Z1 F9000 ; Z hop
G0 X161.9142 Y138.0068 F9000 ; Move to start next pattern wall
G1 Z0.8 F9000 ; Z hop return
G1 E0.8 F1800 ; Un-retract
G1 X183.1274 Y159.22 E0.99515 F12000 ; Print pattern wall
G1 X161.9142 Y180.4332 E0.99515 F12000 ; Print pattern wall
G1 E-0.8 F3000 ; Retract
G1 Z1 F9000 ; Z hop
G0 X162.4899 Y138.0068 F9000 ; Move to start next pattern wall
G1 Z0.8 F9000 ; Z hop return
G1 E0.8 F1800 ; Un-retract
G1 X183.7031 Y159.22 E0.99515 F12000 ; Print pattern wall
G1 X162.4899 Y180.4332 E0.99515 F12000 ; Print pattern wall
G1 E-0.8 F3000 ; Retract
G1 Z1 F9000 ; Z hop
G0 X164.9399 Y138.0068 F9000 ; Move to next pattern
G1 Z0.8 F9000 ; Z hop return
G1 E0.8 F1800 ; Un-retract
SET_PRESSURE_ADVANCE ADVANCE=0.055 ; Set pressure advance
M117 PA 0.055
G1 X186.1531 Y159.22 E0.99515 F12000 ; Print pattern wall
G1 X164.9399 Y180.4332 E0.99515 F12000 ; Print pattern wall
G1 E-0.8 F3000 ; Retract
G1 Z1 F9000 ; Z hop
G0 X165.5156 Y138.0068 F9000 ; Move to start next pattern wall
G1 Z0.8 F9000 ; Z hop return
G1 E0.8 F1800 ; Un-retract
G1 X186.7288 Y159.22 E0.99515 F12000 ; Print pattern wall
G1 X165.5156 Y180.4332 E0.99515 F12000 ; Print pattern wall
G1 E-0.8 F3000 ; Retract
G1 Z1 F9000 ; Z hop
G0 X166.0913 Y138.0068 F9000 ; Move to start next pattern wall
G1 Z0.8 F9000 ; Z hop return
G1 E0.8 F1800 ; Un-retract
G1 X187.3045 Y159.22 E0.99515 F12000 ; Print pattern wall
G1 X166.0913 Y180.4332 E0.99515 F12000 ; Print pattern wall
G1 E-0.8 F3000 ; Retract
G1 Z1 F9000 ; Z hop
G0 X168.5413 Y138.0068 F9000 ; Move to next pattern
G1 Z0.8 F9000 ; Z hop return
G1 E0.8 F1800 ; Un-retract
SET_PRESSURE_ADVANCE ADVANCE=0.06 ; Set pressure advance
M117 PA 0.06
G1 X189.7545 Y159.22 E0.99515 F12000 ; Print pattern wall
G1 X168.5413 Y180.4332 E0.99515 F12000 ; Print pattern wall
G1 E-0.8 F3000 ; Retract
G1 Z1 F9000 ; Z hop
G0 X169.117 Y138.0068 F9000 ; Move to start next pattern wall
G1 Z0.8 F9000 ; Z hop return
G1 E0.8 F1800 ; Un-retract
G1 X190.3302 Y159.22 E0.99515 F12000 ; Print pattern wall
G1 X169.117 Y180.4332 E0.99515 F12000 ; Print pattern wall
G1 E-0.8 F3000 ; Retract
G1 Z1 F9000 ; Z hop
G0 X169.6927 Y138.0068 F9000 ; Move to start next pattern wall
G1 Z0.8 F9000 ; Z hop return
G1 E0.8 F1800 ; Un-retract
G1 X190.9059 Y159.22 E0.99515 F12000 ; Print pattern wall
G1 X169.6927 Y180.4332 E0.99515 F12000 ; Print pattern wall
G1 E-0.8 F3000 ; Retract
G1 Z1 F9000 ; Z hop
G0 X172.1427 Y138.0068 F9000 ; Move to next pattern
G1 Z0.8 F9000 ; Z hop return
G1 E0.8 F1800 ; Un-retract
SET_PRESSURE_ADVANCE ADVANCE=0.065 ; Set pressure advance
M117 PA 0.065
G1 X193.3559 Y159.22 E0.99515 F12000 ; Print pattern wall
G1 X172.1427 Y180.4332 E0.99515 F12000 ; Print pattern wall
G1 E-0.8 F3000 ; Retract
G1 Z1 F9000 ; Z hop
G0 X172.7184 Y138.0068 F9000 ; Move to start next pattern wall
G1 Z0.8 F9000 ; Z hop return
G1 E0.8 F1800 ; Un-retract
G1 X193.9316 Y159.22 E0.99515 F12000 ; Print pattern wall
G1 X172.7184 Y180.4332 E0.99515 F12000 ; Print pattern wall
G1 E-0.8 F3000 ; Retract
G1 Z1 F9000 ; Z hop
G0 X173.2941 Y138.0068 F9000 ; Move to start next pattern wall
G1 Z0.8 F9000 ; Z hop return
G1 E0.8 F1800 ; Un-retract
G1 X194.5073 Y159.22 E0.99515 F12000 ; Print pattern wall
G1 X173.2941 Y180.4332 E0.99515 F12000 ; Print pattern wall
G1 E-0.8 F3000 ; Retract
G1 Z1 F9000 ; Z hop
G0 X175.7441 Y138.0068 F9000 ; Move to next pattern
G1 Z0.8 F9000 ; Z hop return
G1 E0.8 F1800 ; Un-retract
SET_PRESSURE_ADVANCE ADVANCE=0.07 ; Set pressure advance
M117 PA 0.07
G1 X196.9573 Y159.22 E0.99515 F12000 ; Print pattern wall
G1 X175.7441 Y180.4332 E0.99515 F12000 ; Print pattern wall
G1 E-0.8 F3000 ; Retract
G1 Z1 F9000 ; Z hop
G0 X176.3198 Y138.0068 F9000 ; Move to start next pattern wall
G1 Z0.8 F9000 ; Z hop return
G1 E0.8 F1800 ; Un-retract
G1 X197.533 Y159.22 E0.99515 F12000 ; Print pattern wall
G1 X176.3198 Y180.4332 E0.99515 F12000 ; Print pattern wall
G1 E-0.8 F3000 ; Retract
G1 Z1 F9000 ; Z hop
G0 X176.8955 Y138.0068 F9000 ; Move to start next pattern wall
G1 Z0.8 F9000 ; Z hop return
G1 E0.8 F1800 ; Un-retract
G1 X198.1087 Y159.22 E0.99515 F12000 ; Print pattern wall
G1 X176.8955 Y180.4332 E0.99515 F12000 ; Print pattern wall
G1 E-0.8 F3000 ; Retract
G1 Z1 F9000 ; Z hop
G0 X179.3455 Y138.0068 F9000 ; Move to next pattern
G1 Z0.8 F9000 ; Z hop return
G1 E0.8 F1800 ; Un-retract
SET_PRESSURE_ADVANCE ADVANCE=0.075 ; Set pressure advance
M117 PA 0.075
G1 X200.5587 Y159.22 E0.99515 F12000 ; Print pattern wall
G1 X179.3455 Y180.4332 E0.99515 F12000 ; Print pattern wall
G1 E-0.8 F3000 ; Retract
G1 Z1 F9000 ; Z hop
G0 X179.9212 Y138.0068 F9000 ; Move to start next pattern wall
G1 Z0.8 F9000 ; Z hop return
G1 E0.8 F1800 ; Un-retract
G1 X201.1344 Y159.22 E0.99515 F12000 ; Print pattern wall
G1 X179.9212 Y180.4332 E0.99515 F12000 ; Print pattern wall
G1 E-0.8 F3000 ; Retract
G1 Z1 F9000 ; Z hop
G0 X180.4969 Y138.0068 F9000 ; Move to start next pattern wall
G1 Z0.8 F9000 ; Z hop return
G1 E0.8 F1800 ; Un-retract
G1 X201.7101 Y159.22 E0.99515 F12000 ; Print pattern wall
G1 X180.4969 Y180.4332 E0.99515 F12000 ; Print pattern wall
G1 E-0.8 F3000 ; Retract
G1 Z1 F9000 ; Z hop
G0 X182.9469 Y138.0068 F9000 ; Move to next pattern
G1 Z0.8 F9000 ; Z hop return
G1 E0.8 F1800 ; Un-retract
SET_PRESSURE_ADVANCE ADVANCE=0.08 ; Set pressure advance
M117 PA 0.08
G1 X204.1601 Y159.22 E0.99515 F12000 ; Print pattern wall
G1 X182.9469 Y180.4332 E0.99515 F12000 ; Print pattern wall
G1 E-0.8 F3000 ; Retract
G1 Z1 F9000 ; Z hop
G0 X183.5226 Y138.0068 F9000 ; Move to start next pattern wall
G1 Z0.8 F9000 ; Z hop return
G1 E0.8 F1800 ; Un-retract
G1 X204.7358 Y159.22 E0.99515 F12000 ; Print pattern wall
G1 X183.5226 Y180.4332 E0.99515 F12000 ; Print pattern wall
G1 E-0.8 F3000 ; Retract
G1 Z1 F9000 ; Z hop
G0 X184.0983 Y138.0068 F9000 ; Move to start next pattern wall
G1 Z0.8 F9000 ; Z hop return
G1 E0.8 F1800 ; Un-retract
G1 X205.3115 Y159.22 E0.99515 F12000 ; Print pattern wall
G1 X184.0983 Y180.4332 E0.99515 F12000 ; Print pattern wall
SET_PRESSURE_ADVANCE ADVANCE=0 ; Set pressure advance back to start value
M117 PA 0
G1 E-0.8 F3000 ; Retract
G1 Z1 F9000 ; Z hop
G0 Z5.8 F9000 ; Z raise
M104 S0 ; Turn off hotend
M140 S0 ; Turn off bed
M107    ; Turn off fan
;
; End G-code
;
PRINT_END ; End macro. Change name to match yours
;
; FINISH
;
