; generated by SuperSlicer 2.5.59 on 2023-07-15 at 16:50:18 UTC


;
;

;
;
; 

; external perimeters extrusion width = 0.40mm
; perimeters extrusion width = 0.46mm
; infill extrusion width = 0.64mm
; solid infill extrusion width = 0.56mm
; top infill extrusion width = 0.40mm
; first layer extrusion width = 0.50mm

; object:{"name":"BoxwithSliding_lid","id":"BoxwithSliding_lid.stl id:0 copy 0","object_center":[165.000000,165.000000,0.000000],"boundingbox_center":[165.000000,165.000000,6.500000],"boundingbox_size":[110.099998,270.100006,13.000000]}
EXCLUDE_OBJECT_DEFINE NAME=BoxwithSliding_lid_stl_id_0_copy_0 CENTER=165.000000,165.000000 POLYGON=[[109.950000,33.949996],[110.145776,32.713928],[110.713928,31.598862],[111.598864,30.713928],[112.713928,30.145768],[113.950000,29.949998],[216.050000,29.949998],[217.286080,30.145768],[218.401136,30.713928],[219.286080,31.598862],[219.854240,32.713928],[220.050000,33.949996],[220.050000,161.050000],[218.850000,298.049984],[218.752112,298.668032],[218.468032,299.225600],[218.025568,299.668032],[217.468032,299.952096],[216.850000,300.049984],[113.950000,300.049984],[113.331968,299.952096],[112.774432,299.668032],[112.331968,299.225600],[112.047880,298.668032],[111.950000,298.049984],[109.950000,161.050000],[109.950000,33.949996]]
; plater:{"center":[165.000000,165.000000,0.000000],"boundingbox_center":[165.000000,165.000000,6.500000],"boundingbox_size":[110.099998,270.100006,13.000000]}

M73 P0 R178
M204 P4000 T4000 ; sets acceleration (P, T), mm/sec^2
;TYPE:Custom
; custom gcode: start_gcode
START_PRINT T_BED=60 T_EXTRUDER=210
; custom gcode end: start_gcode
M107
G21 ; set units to millimeters
G90 ; use absolute coordinates
M82 ; use absolute distances for extrusion
G92 E0
; custom gcode: start_filament_gcode
; Filament gcode

    PRESSURE_ADVANCE_SELECT FILAMENT=PLA
; custom gcode end: start_filament_gcode
;_TOOLCHANGE 0
M104 S210 ; set temperature
M109 S210 ; set temperature and wait for it to be reached
M190 S60 ; set bed temperature and wait for it to be reached
;LAYER_CHANGE
;Z:0.2
;HEIGHT:0.2
G1 Z0.2 F9000
M73 P0 R178
G1 E-0.8 F2400
M204 S1000
G1 X106.572 Y32.164 F9000
G1 E0 F1800
;TYPE:Skirt
;WIDTH:0.52
G1 X106.334 Y33.958 E0.07179
G1 X106.334 Y161.042 E5.11313
G1 X108.368 Y298.097 E10.55062
G1 X108.506 Y299.208 E10.59501
G1 X108.865 Y300.313 E10.64113
G1 X109.13 Y300.833 E10.66428
G1 X109.813 Y301.774 E10.71039
G1 X110.226 Y302.186 E10.73354
G1 X111.167 Y302.87 E10.77966
G1 X111.687 Y303.135 E10.80282
G1 X112.792 Y303.494 E10.84892
G1 X113.958 Y303.632 E10.89549
G1 X216.842 Y303.632 E14.97684
G1 X218.008 Y303.494 E15.0234
G1 X219.113 Y303.135 E15.06951
G1 X219.633 Y302.87 E15.09266
G1 X220.574 Y302.186 E15.13878
G1 X220.987 Y301.774 E15.16194
G1 X221.67 Y300.833 E15.20805
G1 X221.935 Y300.313 E15.2312
G1 X222.294 Y299.208 E15.27732
G1 X222.432 Y298.076 E15.32256
G1 X223.665 Y161.076 E20.75748
G1 X223.666 Y33.958 E25.80016
G1 X223.428 Y32.164 E25.87194
G1 X223.069 Y31.058 E25.91806
G1 X222.515 Y29.972 E25.96645
G1 X221.832 Y29.031 E26.01256
G1 X220.969 Y28.169 E26.06095
G1 X220.029 Y27.485 E26.10706
G1 X218.942 Y26.931 E26.15545
G1 X217.836 Y26.572 E26.20157
G1 X216.623 Y26.38 E26.25028
G1 X113.958 Y26.334 E30.32295
G1 X112.164 Y26.572 E30.39473
G1 X111.058 Y26.931 E30.44085
G1 X109.971 Y27.485 E30.48924
G1 X109.031 Y28.169 E30.53535
G1 X108.168 Y29.031 E30.58374
G1 X107.485 Y29.972 E30.62986
G1 X106.931 Y31.058 E30.67824
G1 X106.572 Y32.164 E30.72436
G1 X107.043 Y32.239 F9000
G1 F1800
G1 X106.811 Y33.958 E30.79318
G1 X106.811 Y161.042 E35.83453
G1 X108.845 Y298.09 E41.27173
G1 X108.977 Y299.133 E41.31343
G1 X109.29 Y300.097 E41.35363
G1 X109.555 Y300.617 E41.37678
G1 X110.151 Y301.436 E41.41697
G1 X110.563 Y301.849 E41.44012
G1 X111.383 Y302.445 E41.48033
G1 X111.903 Y302.71 E41.50348
G1 X112.867 Y303.023 E41.54366
G1 X113.958 Y303.155 E41.58726
G1 X216.842 Y303.155 E45.66861
G1 X217.933 Y303.023 E45.71221
G1 X218.897 Y302.71 E45.7524
G1 X219.417 Y302.445 E45.77555
G1 X220.236 Y301.849 E45.81575
G1 X220.649 Y301.436 E45.8389
G1 X221.245 Y300.617 E45.87909
G1 X221.51 Y300.097 E45.90225
G1 X221.823 Y299.133 E45.94244
G1 X221.955 Y298.071 E45.98489
G1 X223.188 Y161.071 E51.41981
G1 X223.189 Y33.958 E56.46231
G1 X222.957 Y32.239 E56.53113
G1 X222.643 Y31.275 E56.57133
G1 X222.09 Y30.188 E56.61971
G1 X221.494 Y29.368 E56.65991
G1 X220.632 Y28.506 E56.7083
G1 X219.812 Y27.91 E56.74849
G1 X218.725 Y27.357 E56.79688
G1 X217.761 Y27.043 E56.83708
G1 X216.549 Y26.851 E56.88578
G1 X113.958 Y26.811 E60.95549
G1 X112.239 Y27.043 E61.02431
G1 X111.275 Y27.357 E61.06451
G1 X110.188 Y27.91 E61.1129
G1 X109.368 Y28.506 E61.15309
G1 X108.506 Y29.368 E61.20148
G1 X107.91 Y30.188 E61.24167
G1 X107.357 Y31.275 E61.29006
G1 X107.043 Y32.239 E61.33025
G92 E0
G1 E-0.8 F2400
; printing object BoxwithSliding_lid.stl id:0 copy 0
EXCLUDE_OBJECT_START NAME=BoxwithSliding_lid_stl_id_0_copy_0
; acceleration to travel
M204 S3000
G1 X189.558 Y135.782 F9000
; decel to extrusion
M204 S1000
G1 X217.062 Y170.297
; end travel
G1 E0 F1800
;TYPE:Internal perimeter
;WIDTH:0.5
G1 X217.254 Y170.394 E0.00817
G1 X217.406 Y170.546 E0.01633
G1 X217.503 Y170.738 E0.0245
G1 X217.553 Y171.049 E0.03649
G1 X217.553 Y297.951 E4.85953
G1 X217.503 Y298.262 E4.87153
G1 X217.406 Y298.454 E4.8797
G1 X217.254 Y298.606 E4.88786
G1 X217.062 Y298.703 E4.89603
G1 X216.75 Y298.753 E4.90802
G1 X114.05 Y298.753 E8.81131
M73 P1 R177
G1 X113.738 Y298.703 E8.82331
G1 X113.546 Y298.606 E8.83147
G1 X113.394 Y298.454 E8.83964
G1 X113.297 Y298.262 E8.8478
G1 X113.247 Y297.951 E8.8598
G1 X113.247 Y171.049 E13.68284
G1 X113.297 Y170.738 E13.69483
G1 X113.394 Y170.546 E13.703
G1 X113.546 Y170.394 E13.71117
G1 X113.738 Y170.297 E13.71933
G1 X114.049 Y170.247 E13.73133
G1 X216.751 Y170.247 E17.63462
G1 X217.062 Y170.297 E17.64661
G1 X217.205 Y169.857 F9000
G1 F1800
G1 X217.526 Y170.02 E17.66028
G1 X217.78 Y170.274 E17.67395
G1 X217.943 Y170.595 E17.68762
G1 X218.01 Y171.014 E17.70373
G1 X218.01 Y297.986 E22.52951
G1 X217.943 Y298.405 E22.54562
G1 X217.78 Y298.726 E22.55929
G1 X217.526 Y298.98 E22.57296
G1 X217.205 Y299.143 E22.58663
G1 X216.786 Y299.21 E22.60274
G1 X114.014 Y299.21 E26.50876
G1 X113.595 Y299.143 E26.52488
G1 X113.274 Y298.98 E26.53855
G1 X113.02 Y298.726 E26.55221
G1 X112.857 Y298.405 E26.56588
G1 X112.79 Y297.986 E26.582
G1 X112.79 Y171.014 E31.40777
G1 X112.857 Y170.595 E31.42389
G1 X113.02 Y170.274 E31.43756
G1 X113.274 Y170.02 E31.45122
G1 X113.595 Y169.857 E31.46489
G1 X114.014 Y169.79 E31.48101
G1 X216.786 Y169.79 E35.38703
G1 X217.205 Y169.857 E35.40314
G1 X217.348 Y169.417 F9000
;TYPE:External perimeter
G1 F1800
G1 X217.798 Y169.646 E35.42231
G1 X218.154 Y170.002 E35.44149
G1 X218.383 Y170.452 E35.46066
G1 X218.467 Y170.978 E35.48089
G1 X218.467 Y298.022 E40.3094
M73 P1 R176
G1 X218.383 Y298.548 E40.32963
G1 X218.154 Y298.998 E40.3488
G1 X217.798 Y299.354 E40.36798
G1 X217.348 Y299.583 E40.38715
G1 X216.822 Y299.667 E40.40738
G1 X113.978 Y299.667 E44.31614
G1 X113.452 Y299.583 E44.33637
G1 X113.002 Y299.354 E44.35554
G1 X112.646 Y298.998 E44.37471
G1 X112.417 Y298.548 E44.39388
G1 X112.333 Y298.022 E44.41412
G1 X112.333 Y170.978 E49.24263
G1 X112.417 Y170.452 E49.26286
G1 X112.646 Y170.002 E49.28203
G1 X113.002 Y169.646 E49.3012
G1 X113.452 Y169.417 E49.32037
G1 X113.978 Y169.333 E49.34061
G1 X216.822 Y169.333 E53.24936
G1 X217.348 Y169.417 E53.2696
;WIPE_START
M204 S4000
G1 X217.411 Y169.812 F9000
;WIPE_END
; acceleration to travel
M204 S3000
G1 X217.412 Y170.699
; decel to extrusion
M204 S1000
G1 X217.412 Y171.037
; end travel
;TYPE:Solid infill
;WIDTH:0.500273
G1 F3600
G1 X216.763 Y170.388 E53.30451
G1 X216.113 Y170.385 F9000
G1 F3600
G1 X217.415 Y171.687 E53.37457
G1 X217.415 Y172.334 F9000
G1 F3600
G1 X215.466 Y170.385 E53.4794
G1 X214.82 Y170.385 F9000
G1 F3600
G1 X217.415 Y172.98 E53.61898
G1 X217.415 Y173.627 F9000
G1 F3600
G1 X214.173 Y170.385 E53.79334
G1 X213.527 Y170.385 F9000
G1 F3600
G1 X217.415 Y174.273 E54.00245
G1 X217.415 Y174.919 F9000
G1 F3600
G1 X212.881 Y170.385 E54.24633
G1 X212.234 Y170.385 F9000
G1 F3600
G1 X217.415 Y175.566 E54.52497
G1 X217.415 Y176.212 F9000
G1 F3600
G1 X211.588 Y170.385 E54.83837
G1 X210.941 Y170.385 F9000
G1 F3600
G1 X217.415 Y176.859 E55.18654
G1 X217.415 Y177.505 F9000
G1 F3600
G1 X210.295 Y170.385 E55.56946
G1 X209.649 Y170.385 F9000
G1 F3600
G1 X217.415 Y178.151 E55.98715
G1 X217.415 Y178.798 F9000
G1 F3600
G1 X209.002 Y170.385 E56.43961
G1 X208.356 Y170.385 F9000
G1 F3600
G1 X217.415 Y179.444 E56.92682
G1 X217.415 Y180.091 F9000
G1 F3600
G1 X207.709 Y170.385 E57.4488
G1 X207.063 Y170.385 F9000
G1 F3600
G1 X217.415 Y180.737 E58.00555
G1 X217.415 Y181.384 F9000
G1 F3600
G1 X206.416 Y170.385 E58.59705
G1 X205.77 Y170.385 F9000
G1 F3600
G1 X217.415 Y182.03 E59.22332
G1 X217.415 Y182.676 F9000
G1 F3600
G1 X205.124 Y170.385 E59.88435
G1 X204.477 Y170.385 F9000
G1 F3600
G1 X217.415 Y183.323 E60.58014
G1 X217.415 Y183.969 F9000
G1 F3600
G1 X203.831 Y170.385 E61.31069
G1 X203.184 Y170.385 F9000
G1 F3600
G1 X217.415 Y184.616 E62.07601
G1 X217.415 Y185.262 F9000
G1 F3600
G1 X202.538 Y170.385 E62.87609
G1 X201.892 Y170.385 F9000
G1 F3600
G1 X217.415 Y185.908 E63.71094
G1 X217.415 Y186.555 F9000
G1 F3600
G1 X201.245 Y170.385 E64.58054
G1 X200.599 Y170.385 F9000
G1 F3600
G1 X217.415 Y187.201 E65.48491
G1 X217.415 Y187.848 F9000
G1 F3600
G1 X199.952 Y170.385 E66.42404
G1 X199.306 Y170.385 F9000
G1 F3600
G1 X217.415 Y188.494 E67.39794
G1 X217.415 Y189.14 F9000
G1 F3600
G1 X198.66 Y170.385 E68.4066
G1 X198.013 Y170.385 F9000
G1 F3600
G1 X217.415 Y189.787 E69.45002
G1 X217.415 Y190.433 F9000
G1 F3600
G1 X197.367 Y170.385 E70.5282
G1 X196.72 Y170.385 F9000
G1 F3600
G1 X217.415 Y191.08 E71.64114
G1 X217.415 Y191.726 F9000
G1 F3600
G1 X196.074 Y170.385 E72.78885
G1 X195.428 Y170.385 F9000
G1 F3600
G1 X217.415 Y192.372 E73.97132
G1 X217.415 Y193.019 F9000
G1 F3600
G1 X194.781 Y170.385 E75.18856
G1 X194.135 Y170.385 F9000
G1 F3600
G1 X217.415 Y193.665 E76.44055
G1 X217.415 Y194.312 F9000
G1 F3600
G1 X193.488 Y170.385 E77.72731
G1 X192.842 Y170.385 F9000
G1 F3600
G1 X217.415 Y194.958 E79.04883
G1 X217.415 Y195.604 F9000
G1 F3600
G1 X192.196 Y170.385 E80.40512
G1 X191.549 Y170.385 F9000
G1 F3600
G1 X217.415 Y196.251 E81.79617
G1 X217.415 Y196.897 F9000
G1 F3600
G1 X190.903 Y170.385 E83.22198
G1 X190.256 Y170.385 F9000
G1 F3600
G1 X217.415 Y197.544 E84.68255
G1 X217.415 Y198.19 F9000
G1 F3600
G1 X189.61 Y170.385 E86.17788
G1 X188.963 Y170.385 F9000
G1 F3600
G1 X217.415 Y198.837 E87.70798
M73 P1 R176
G1 X217.415 Y199.483 F9000
G1 F3600
G1 X188.317 Y170.385 E89.27284
G1 X187.671 Y170.385 F9000
G1 F3600
G1 X217.415 Y200.129 E90.87247
G1 X217.415 Y200.776 F9000
G1 F3600
G1 X187.024 Y170.385 E92.50685
G1 X186.378 Y170.385 F9000
G1 F3600
G1 X217.415 Y201.422 E94.176
G1 X217.415 Y202.069 F9000
G1 F3600
G1 X185.731 Y170.385 E95.87991
G1 X185.085 Y170.385 F9000
G1 F3600
G1 X217.415 Y202.715 E97.61859
G1 X217.415 Y203.361 F9000
G1 F3600
G1 X184.439 Y170.385 E99.39203
G1 X183.792 Y170.385 F9000
G1 F3600
G1 X217.415 Y204.008 E101.20023
G1 X217.415 Y204.654 F9000
G1 F3600
G1 X183.146 Y170.385 E103.04319
G1 X182.499 Y170.385 F9000
G1 F3600
G1 X217.415 Y205.301 E104.92091
G1 X217.415 Y205.947 F9000
G1 F3600
G1 X181.853 Y170.385 E106.8334
G1 X181.207 Y170.385 F9000
G1 F3600
G1 X217.415 Y206.593 E108.78065
G1 X217.415 Y207.24 F9000
G1 F3600
G1 X180.56 Y170.385 E110.76267
G1 X179.914 Y170.385 F9000
G1 F3600
G1 X217.415 Y207.886 E112.77944
G1 X217.415 Y208.533 F9000
G1 F3600
G1 X179.267 Y170.385 E114.83098
G1 X178.621 Y170.385 F9000
G1 F3600
G1 X217.415 Y209.179 E116.91728
G1 X217.415 Y209.825 F9000
G1 F3600
G1 X177.975 Y170.385 E119.03835
G1 X177.328 Y170.385 F9000
G1 F3600
G1 X217.415 Y210.472 E121.19418
G1 X217.415 Y211.118 F9000
G1 F3600
G1 X176.682 Y170.385 E123.38477
G1 X176.035 Y170.385 F9000
G1 F3600
G1 X217.415 Y211.765 E125.61012
G1 X217.415 Y212.411 F9000
G1 F3600
G1 X175.389 Y170.385 E127.87023
G1 X174.743 Y170.385 F9000
G1 F3600
G1 X217.415 Y213.057 E130.16511
G1 X217.415 Y213.704 F9000
G1 F3600
G1 X174.096 Y170.385 E132.49475
G1 X173.45 Y170.385 F9000
G1 F3600
G1 X217.415 Y214.35 E134.85916
G1 X217.415 Y214.997 F9000
G1 F3600
G1 X172.803 Y170.385 E137.25832
G1 X172.157 Y170.385 F9000
G1 F3600
G1 X217.415 Y215.643 E139.69225
G1 X217.415 Y216.29 F9000
G1 F3600
G1 X171.51 Y170.385 E142.16094
G1 X170.864 Y170.385 F9000
G1 F3600
G1 X217.415 Y216.936 E144.6644
G1 X217.415 Y217.582 F9000
G1 F3600
G1 X170.218 Y170.385 E147.20262
G1 X169.571 Y170.385 F9000
G1 F3600
G1 X217.415 Y218.229 E149.7756
G1 X217.415 Y218.875 F9000
G1 F3600
G1 X168.925 Y170.385 E152.38334
G1 X168.278 Y170.385 F9000
G1 F3600
G1 X217.415 Y219.522 E155.02585
G1 X217.415 Y220.168 F9000
G1 F3600
G1 X167.632 Y170.385 E157.70311
G1 X166.986 Y170.385 F9000
G1 F3600
G1 X217.415 Y220.814 E160.41514
G1 X217.415 Y221.461 F9000
G1 F3600
G1 X166.339 Y170.385 E163.16194
G1 X165.693 Y170.385 F9000
G1 F3600
G1 X217.415 Y222.107 E165.94349
G1 X217.415 Y222.754 F9000
G1 F3600
G1 X165.046 Y170.385 E168.75981
G1 X164.4 Y170.385 F9000
G1 F3600
G1 X217.415 Y223.4 E171.6109
G1 X217.415 Y224.046 F9000
G1 F3600
G1 X163.754 Y170.385 E174.49674
G1 X163.107 Y170.385 F9000
G1 F3600
G1 X217.415 Y224.693 E177.41735
G1 X217.415 Y225.339 F9000
G1 F3600
G1 X162.461 Y170.385 E180.37272
G1 X161.814 Y170.385 F9000
G1 F3600
G1 X217.415 Y225.986 E183.36285
G1 X217.415 Y226.632 F9000
G1 F3600
G1 X161.168 Y170.385 E186.38775
G1 X160.522 Y170.385 F9000
G1 F3600
G1 X217.415 Y227.278 E189.4474
G1 X217.415 Y227.925 F9000
G1 F3600
G1 X159.875 Y170.385 E192.54183
G1 X159.229 Y170.385 F9000
G1 F3600
G1 X217.415 Y228.571 E195.67101
G1 X217.415 Y229.218 F9000
G1 F3600
G1 X158.582 Y170.385 E198.83496
G1 X157.936 Y170.385 F9000
G1 F3600
G1 X217.415 Y229.864 E202.03366
G1 X217.415 Y230.51 F9000
G1 F3600
G1 X157.29 Y170.385 E205.26714
G1 X156.643 Y170.385 F9000
G1 F3600
G1 X217.415 Y231.157 E208.53537
G1 X217.415 Y231.803 F9000
G1 F3600
G1 X155.997 Y170.385 E211.83837
G1 X155.35 Y170.385 F9000
G1 F3600
G1 X217.415 Y232.45 E215.17613
G1 X217.415 Y233.096 F9000
G1 F3600
G1 X154.704 Y170.385 E218.54865
M73 P2 R175
G1 X154.057 Y170.385 F9000
G1 F3600
G1 X217.415 Y233.743 E221.95594
G1 X217.415 Y234.389 F9000
G1 F3600
G1 X153.411 Y170.385 E225.39799
G1 X152.765 Y170.385 F9000
G1 F3600
G1 X217.415 Y235.035 E228.8748
G1 X217.415 Y235.682 F9000
G1 F3600
G1 X152.118 Y170.385 E232.38637
G1 X151.472 Y170.385 F9000
G1 F3600
G1 X217.415 Y236.328 E235.93271
G1 X217.415 Y236.975 F9000
G1 F3600
G1 X150.825 Y170.385 E239.51381
G1 X150.179 Y170.385 F9000
G1 F3600
G1 X217.415 Y237.621 E243.12967
M73 P2 R174
G1 X217.415 Y238.267 F9000
G1 F3600
G1 X149.533 Y170.385 E246.78029
G1 X148.886 Y170.385 F9000
G1 F3600
G1 X217.415 Y238.914 E250.46568
G1 X217.415 Y239.56 F9000
G1 F3600
G1 X148.24 Y170.385 E254.18583
G1 X147.593 Y170.385 F9000
G1 F3600
G1 X217.415 Y240.207 E257.94074
G1 X217.415 Y240.853 F9000
G1 F3600
G1 X146.947 Y170.385 E261.73042
G1 X146.301 Y170.385 F9000
G1 F3600
G1 X217.415 Y241.499 E265.55486
G1 X217.415 Y242.146 F9000
G1 F3600
G1 X145.654 Y170.385 E269.41406
G1 X145.008 Y170.385 F9000
G1 F3600
G1 X217.415 Y242.792 E273.30802
G1 X217.415 Y243.439 F9000
G1 F3600
G1 X144.361 Y170.385 E277.23675
G1 X143.715 Y170.385 F9000
G1 F3600
G1 X217.415 Y244.085 E281.20024
G1 X217.415 Y244.731 F9000
G1 F3600
G1 X143.069 Y170.385 E285.19849
G1 X142.422 Y170.385 F9000
G1 F3600
G1 X217.415 Y245.378 E289.23151
G1 X217.415 Y246.024 F9000
G1 F3600
G1 X141.776 Y170.385 E293.29928
G1 X141.129 Y170.385 F9000
G1 F3600
G1 X217.415 Y246.671 E297.40182
G1 X217.415 Y247.317 F9000
G1 F3600
G1 X140.483 Y170.385 E301.53913
G1 X139.837 Y170.385 F9000
G1 F3600
G1 X217.415 Y247.963 E305.71119
G1 X217.415 Y248.61 F9000
G1 F3600
G1 X139.19 Y170.385 E309.91802
G1 X138.544 Y170.385 F9000
G1 F3600
G1 X217.415 Y249.256 E314.15961
G1 X217.415 Y249.903 F9000
G1 F3600
G1 X137.897 Y170.385 E318.43597
G1 X137.251 Y170.385 F9000
G1 F3600
G1 X217.415 Y250.549 E322.74708
G1 X217.415 Y251.195 F9000
G1 F3600
