; HEADER_BLOCK_START
; generated by OrcaSlicer 1.6.3 on 2023-07-13 at 14:48:52
; total layer number: 10
; HEADER_BLOCK_END

; THUMBNAIL_BLOCK_START
; THUMBNAIL_BLOCK_END

; external perimeters extrusion width = 0.40mm
; perimeters extrusion width = 0.45mm
; infill extrusion width = 0.45mm
; solid infill extrusion width = 0.40mm
; top infill extrusion width = 0.40mm
; first layer extrusion width = 0.50mm

; EXECUTABLE_BLOCK_START
EXCLUDE_OBJECT_DEFINE NAME=Panda_Keychain.stl_id_0_copy_0 CENTER=165,165 POLYGON=[[141.456,185.827],[141.464,185.428],[142.955,154.371],[142.983,154.06],[143.03,153.757],[143.095,153.463],[143.177,153.18],[143.278,152.909],[143.397,152.651],[150.424,138.408],[150.698,138.023],[150.995,137.656],[151.314,137.307],[151.654,136.978],[152.013,136.671],[152.389,136.385],[152.783,136.124],[153.192,135.886],[153.614,135.674],[154.049,135.488],[154.494,135.329],[154.947,135.197],[155.408,135.093],[155.875,135.017],[156.345,134.969],[156.817,134.95],[173.183,134.914],[173.655,134.933],[174.126,134.98],[174.592,135.056],[175.053,135.161],[175.507,135.293],[175.952,135.452],[176.387,135.638],[176.809,135.85],[177.218,136.088],[177.611,136.349],[177.988,136.635],[178.347,136.942],[178.687,137.271],[179.006,137.62],[179.303,137.987],[179.577,138.372],[186.68,152.824],[186.749,152.985],[186.812,153.148],[186.868,153.315],[186.958,153.658],[187.02,154.012],[187.053,154.375],[188.538,185.468],[188.544,185.827],[188.53,186.309],[188.489,186.779],[188.422,187.236],[188.327,187.681],[188.207,188.111],[188.061,188.528],[187.889,188.93],[187.692,189.316],[187.47,189.687],[187.223,190.041],[186.952,190.378],[186.656,190.698],[186.337,191],[185.994,191.283],[185.629,191.547],[185.24,191.792],[185.042,191.902],[184.838,192.004],[184.628,192.1],[184.412,192.187],[184.192,192.267],[183.967,192.34],[183.738,192.405],[183.506,192.463],[183.27,192.513],[183.033,192.556],[168.594,194.768],[167.79,194.89],[166.982,194.983],[166.172,195.047],[165.36,195.081],[164.547,195.086],[163.734,195.061],[162.923,195.008],[162.114,194.924],[161.309,194.812],[147.041,192.596],[146.699,192.541],[146.365,192.469],[146.038,192.379],[145.718,192.273],[145.407,192.151],[145.104,192.014],[144.81,191.861],[144.525,191.693],[144.251,191.51],[143.986,191.313],[143.733,191.103],[143.49,190.88],[143.259,190.643],[143.039,190.394],[142.832,190.133],[142.638,189.86],[142.457,189.576],[142.29,189.281],[142.137,188.976],[141.998,188.661],[141.874,188.336],[141.765,188.002],[141.672,187.659],[141.595,187.308],[141.534,186.948],[141.491,186.582],[141.465,186.207],[141.456,185.827]]
M73 P0 R8
M73 C7
;TYPE:Custom
START_PRINT T_BED=60 T_EXTRUDER=220
G90
G21
M83 ; use relative distances for extrusion
; filament start gcode

    PRESSURE_ADVANCE_SELECT FILAMENT=PLA
M106 S0
;LAYER_CHANGE
;Z:0.2
;HEIGHT:0.2
;BEFORE_LAYER_CHANGE
;0.2
G92 E0

M204 S1000
G1 E-.8 F3000
G1 X149.287 Y135.213 F9000
G1 Z.2
G1 E.8 F1800
;TYPE:Skirt
;WIDTH:0.5
G1 F3000
G1 X150.254 Y134.347 E.04838
G1 X151.319 Y133.604 E.04837
G1 X152.467 Y132.995 E.04838
G1 X153.511 Y132.585 E.04179
G1 X154.758 Y132.252 E.04806
G1 X156.052 Y132.07 E.04869
G1 X173.299 Y132.002 E.6424
G1 X174.594 Y132.104 E.04838
G1 X175.696 Y132.318 E.04179
G1 X176.934 Y132.708 E.04837
G1 X177.694 Y133.034 E.03079
G1 X178.832 Y133.661 E.04837
G1 X179.884 Y134.422 E.04838
G1 X180.714 Y135.177 E.04179
G1 X181.569 Y136.155 E.04837
G1 X182.192 Y137.087 E.04176
G1 X189.295 Y151.539 E.59978
G1 X189.687 Y152.575 E.04127
G1 X189.964 Y154.236 E.06272
G1 X191.451 Y185.419 E1.16275
G1 X191.433 Y186.561 E.04253
G1 X191.273 Y187.84 E.04803
G1 X190.957 Y189.077 E.04754
G1 X190.485 Y190.254 E.04723
G1 X189.494 Y191.867 E.07052
G1 X188.339 Y193.117 E.06338
G1 X187.7 Y193.646 E.03089
G1 X186.658 Y194.338 E.0466
G1 X185.087 Y195.041 E.06411
G1 X183.474 Y195.436 E.06184
G1 X167.211 Y197.888 E.6126
G1 X164.459 Y197.999 E.10257
G1 X161.711 Y197.811 E.10257
G1 X146.236 Y195.418 E.58324
G1 X145.121 Y195.146 E.04275
G1 X143.897 Y194.666 E.04896
G1 X142.913 Y194.12 E.04195
G1 X141.873 Y193.347 E.04825
G1 X141.072 Y192.569 E.04159
G1 X140.264 Y191.551 E.04841
G1 X139.686 Y190.59 E.04177
G1 X139.103 Y189.238 E.05483
G1 X138.748 Y187.932 E.05044
G1 X138.584 Y186.785 E.04316
G1 X138.553 Y185.288 E.05574
G1 X140.044 Y154.231 E1.15809
M73 P1 R8
G1 X140.249 Y152.836 E.05251
G1 X140.749 Y151.433 E.0555
G1 X147.81 Y137.119 E.59448
G1 X148.432 Y136.191 E.04159
G1 X149.247 Y135.259 E.04614
G1 X149.591 Y135.558 F9000
G1 F3000
G1 X149.605 Y135.542 E.00081
G1 X150.53 Y134.711 E.04631
G1 X151.549 Y133.999 E.04631
G1 X152.647 Y133.416 E.04631
G1 X153.807 Y132.969 E.04631
G1 X155.013 Y132.667 E.04631
G1 X156.098 Y132.524 E.04075
G1 X173.281 Y132.459 E.64001
G1 X174.521 Y132.555 E.04631
G1 X175.595 Y132.764 E.04075
G1 X176.78 Y133.139 E.04631
G1 X177.912 Y133.654 E.04631
G1 X179.587 Y134.769 E.07494
G1 X180.396 Y135.506 E.04075
G1 X181.213 Y136.442 E.04631
G1 X181.782 Y137.288 E.03797
G1 X188.885 Y151.741 E.59978
G1 X189.244 Y152.691 E.03787
G1 X189.508 Y154.258 E.05917
G1 X190.994 Y185.426 E1.16222
G1 X190.978 Y186.521 E.04077
G1 X190.825 Y187.745 E.04595
G1 X190.525 Y188.925 E.04535
G1 X190.078 Y190.046 E.04495
G1 X189.138 Y191.581 E.06703
G1 X187.903 Y192.894 E.06714
G1 X186.435 Y193.938 E.06708
G1 X185.641 Y194.338 E.03314
G1 X184.721 Y194.678 E.03651
G1 X183.405 Y194.984 E.05034
G1 X167.175 Y197.432 E.61135
G1 X164.473 Y197.542 E.10073
G1 X161.775 Y197.358 E.10073
G1 X146.309 Y194.967 E.58288
G1 X145.265 Y194.712 E.04003
G1 X144.086 Y194.25 E.04714
G1 X143.166 Y193.739 E.03923
G1 X142.165 Y192.995 E.04645
G1 X141.415 Y192.267 E.03893
G1 X140.566 Y191.181 E.05133
G1 X139.888 Y189.967 E.05179
G1 X139.428 Y188.763 E.04801
G1 X139.172 Y187.715 E.04017
G1 X139.013 Y186.379 E.05014
G1 X139.01 Y185.31 E.0398
G1 X140.5 Y154.253 E1.15809
G1 X140.695 Y152.935 E.04964
G1 X141.164 Y151.624 E.05186
G1 X148.22 Y137.321 E.59402
G1 X148.787 Y136.478 E.03783
G1 X149.551 Y135.603 E.04326
; printing object Panda_Keychain.stl id:0 copy 0
EXCLUDE_OBJECT_START NAME=Panda_Keychain.stl_id_0_copy_0
G1 E-.8
G1 X149.563 Y162.836 F9000
G1 E.8 F1800
;TYPE:Outer wall
;WIDTH:0.499999
G1 F3000
G1 X149.586 Y162.659 E.00666
M73 P2 R8
G1 X149.479 Y162.522 E.00646
G1 X148.076 Y161.721 E.06019
G3 X146.204 Y160.279 I6.02 J-9.752 E.08816
G3 X144.036 Y157.58 I8.35 J-8.929 E.12937
G3 X143.346 Y154.053 I5.331 J-2.873 E.13591
G3 X144.359 Y151.913 I3.75 J.465 E.08968
G1 X144.833 Y151.513 E.02311
G1 X145.399 Y151.191 E.02426
G3 X148.334 Y150.621 I2.867 J6.92 E.1121
G1 X148.491 Y150.556 E.00635
G1 X148.561 Y150.398 E.00644
G1 X148.575 Y149.806 E.02204
G1 X148.683 Y148.878 E.03482
G1 X148.9 Y147.972 E.0347
G1 X149.226 Y147.099 E.03469
G1 X149.654 Y146.272 E.03469
G1 X150.179 Y145.502 E.03469
G1 X150.793 Y144.802 E.03469
G3 X152.011 Y143.755 I11.175 J11.778 E.05984
G1 X152.021 Y143.588 E.00625
G1 X150.661 Y139.647 E.15529
G1 X150.573 Y139.199 E.01699
G3 X150.73 Y138.584 I1.239 J-.013 E.02391
G1 X151.261 Y137.884 E.03271
G1 X151.89 Y137.237 E.03361
G1 X152.592 Y136.671 E.03361
G1 X153.358 Y136.195 E.03361
G1 X154.177 Y135.814 E.03361
G1 X155.013 Y135.543 E.03274
G1 X155.921 Y135.364 E.03447
G1 X156.821 Y135.301 E.0336
G1 X157.722 Y135.347 E.03361
G1 X158.611 Y135.502 E.03361
G1 X159.468 Y135.762 E.03335
G3 X160.722 Y136.377 I-18.551 J39.389 E.05205
G3 X163.211 Y138.808 I-3.335 J5.903 E.13104
G1 X163.481 Y139.444 E.02573
G1 X163.643 Y140.091 E.02484
G1 X163.725 Y140.253 E.00677
G1 X163.883 Y140.311 E.00626
G3 X166.108 Y140.313 I1.093 J30.317 E.08291
G1 X166.236 Y140.277 E.00495
G1 X166.336 Y140.141 E.00628
G3 X166.665 Y139.003 I8.202 J1.756 E.04418
G3 X168.04 Y137.231 I5.585 J2.915 E.08399
G3 X169.504 Y136.217 I4.675 J5.184 E.06651
G1 X170.533 Y135.726 E.04246
G1 X171.39 Y135.466 E.03334
G1 X172.279 Y135.311 E.03361
G1 X173.18 Y135.265 E.03361
G1 X174.08 Y135.328 E.03361
G1 X174.966 Y135.5 E.0336
G1 X175.824 Y135.778 E.03361
G1 X176.642 Y136.159 E.03361
G1 X177.389 Y136.622 E.03274
G1 X178.111 Y137.201 E.03447
G1 X178.74 Y137.848 E.0336
G1 X179.148 Y138.386 E.02515
G1 X179.33 Y138.69 E.01319
G1 X179.427 Y139.115 E.01624
G1 X179.358 Y139.567 E.01703
G1 X177.979 Y143.562 E.15741
G1 X177.959 Y143.741 E.00671
G1 X178.054 Y143.873 E.00608
G1 X178.504 Y144.16 E.01986
G1 X179.179 Y144.688 E.03193
G1 X179.779 Y145.295 E.03179
G1 X180.296 Y145.974 E.03179
G1 X180.723 Y146.713 E.03179
G1 X181.052 Y147.501 E.03179
G1 X181.278 Y148.324 E.03179
G1 X181.397 Y149.169 E.03179
G3 X181.407 Y150.494 I-56.465 J1.096 E.04935
G1 X181.472 Y150.653 E.00641
G1 X181.635 Y150.722 E.00661
G3 X183.052 Y150.77 I.382 J9.825 E.05285
G3 X185.554 Y151.888 I-.704 J4.932 E.10341
G1 X186.042 Y152.424 E.02697
G1 X186.39 Y153.055 E.02687
G1 X186.615 Y153.73 E.02649
G1 X186.703 Y154.395 E.02496
G1 X186.689 Y155.096 E.02613
G1 X186.572 Y155.829 E.02763
G1 X186.354 Y156.583 E.02924
G3 X184.597 Y159.476 I-8.373 J-3.105 E.12684
G3 X182.075 Y161.635 I-8.896 J-7.841 E.12405
G2 X180.57 Y162.603 I612.25 J953.545 E.06665
G1 X180.481 Y162.753 E.0065
G1 X180.527 Y162.924 E.00661
G3 X184.425 Y179.833 I-15.238 J12.416 E.66935
G1 X184.414 Y180.064 E.00862
G1 X184.597 Y180.25 E.00973
G1 X184.739 Y180.302 E.00565
G1 X184.976 Y180.235 E.00915
G1 X185.126 Y180.297 E.00607
G3 X186.018 Y181.014 I-2.32 J3.798 E.04273
G3 X187.43 Y182.693 I-6.16 J6.616 E.08193
G3 X188.178 Y185.38 I-5.046 J2.851 E.10492
G1 X188.193 Y185.823 E.01652
G1 X188.141 Y186.738 E.03411
G1 X187.987 Y187.597 E.03251
G1 X187.734 Y188.401 E.03138
G1 X187.385 Y189.146 E.03066
G1 X186.942 Y189.831 E.03037
G1 X186.407 Y190.452 E.03054
G1 X185.78 Y191.006 E.03116
G1 X185.062 Y191.49 E.03223
G3 X182.519 Y192.27 I-3.159 J-5.759 E.09977
G1 X181.592 Y192.306 E.03458
G3 X179.078 Y191.75 I.099 J-6.408 E.09656
G3 X178.083 Y191.082 I2.115 J-4.225 E.04476
G1 X177.621 Y190.754 E.02108
G1 X177.443 Y190.786 E.00674
G3 X152.911 Y191.259 I-12.622 J-18.226 E.96845
G1 X152.33 Y190.893 E.02556
G1 X152.152 Y190.907 E.00666
G1 X151.944 Y191.174 E.01261
G3 X150.971 Y191.645 I-2.283 J-3.48 E.04039
G3 X148.6 Y192.265 I-4.108 J-10.868 E.09144
G3 X144.431 Y191.207 I-.651 J-6.177 E.1636
;WIDTH:0.544312
G1 X144.323 Y191.093 E.0064
;WIDTH:0.588625
G1 X144.216 Y190.979 E.00696
;WIDTH:0.632938
G1 X144.108 Y190.866 E.00753
;WIDTH:0.67725
G2 X143.736 Y190.515 I-2.317 J2.086 E.02647
;WIDTH:0.635953
G1 X143.471 Y190.278 E.01716
;WIDTH:0.594656
G1 X143.024 Y189.744 E.0313
;WIDTH:0.552462
G1 X142.658 Y189.155 E.0288
;WIDTH:0.590507
G1 X142.373 Y188.512 E.0314
;WIDTH:0.622471
G1 X142.289 Y188.234 E.01371
;WIDTH:0.654435
G2 X142.157 Y187.861 I-1.092 J.177 E.01983
;WIDTH:0.615826
G1 X142.109 Y187.766 E.00498
;WIDTH:0.577217
G1 X142.06 Y187.671 E.00464
;WIDTH:0.538608
G1 X142.012 Y187.576 E.00431
;WIDTH:0.499999
G3 X141.985 Y184.088 I8.155 J-1.807 E.13086
G3 X143.134 Y181.898 I5.06 J1.258 E.09301
G3 X144.644 Y180.508 I7.464 J6.593 E.07658
G1 X145.066 Y180.255 E.01832
G1 X145.342 Y180.237 E.01028
G1 X145.479 Y180.137 E.00634
G1 X145.51 Y179.971 E.00628
G3 X149.525 Y162.883 I19.393 J-4.46 E.67711
G1 X149.597 Y162.828
G1 E-.8
G1 X147.224 Y185.876 F9000
G1 E.8 F1800
G1 F3000
G1 X147.242 Y185.889 E.0008
G1 X147.634 Y186.347 E.02247
G1 X147.911 Y186.883 E.02246
G1 X148.056 Y187.469 E.02249
G1 X148.062 Y188.073 E.02247
G1 X147.929 Y188.661 E.02248
G1 X147.67 Y189.191 E.02196
G1 X147.281 Y189.669 E.02294
G1 X146.8 Y190.035 E.02251
G1 X146.249 Y190.279 E.02246
G1 X145.707 Y190.381 E.02053
G1 X145.066 Y190.363 E.02388
;WIDTH:0.539845
G1 X144.863 Y190.326 E.00836
;WIDTH:0.579691
G1 X144.66 Y190.289 E.00903
;WIDTH:0.619537
M73 P3 R8
G1 X144.457 Y190.252 E.0097
;WIDTH:0.648394
G1 X144.418 Y190.251 E.0019
;WIDTH:0.67725
G1 X144.38 Y190.25 E.00199
G1 X144.15 Y190.097 E.01426
;WIDTH:0.643061
G1 X143.92 Y189.945 E.01349
;WIDTH:0.608871
G1 X143.528 Y189.555 E.0255
;WIDTH:0.565762
G1 X143.214 Y189.109 E.02324
;WIDTH:0.576877
G1 X142.981 Y188.605 E.02414
;WIDTH:0.605486
G1 X142.91 Y188.335 E.01282
;WIDTH:0.634094
G1 X142.84 Y188.064 E.01347
;WIDTH:0.654435
G1 X142.802 Y187.833 E.01167
G1 X142.829 Y187.755 E.00412
;WIDTH:0.615826
G1 X142.855 Y187.676 E.00386
;WIDTH:0.577217
G1 X142.882 Y187.598 E.0036
;WIDTH:0.538608
G1 X142.909 Y187.52 E.00334
;WIDTH:0.499999
G1 X142.955 Y187.172 E.01306
G1 X143.144 Y186.655 E.02051
G1 X143.47 Y186.147 E.02247
G1 X143.879 Y185.753 E.02116
G1 X144.424 Y185.422 E.02376
G1 X145 Y185.243 E.02247
G1 X145.602 Y185.202 E.02247
G1 X146.198 Y185.3 E.02247
G1 X146.754 Y185.534 E.02247
G1 X147.176 Y185.841 E.01944
G1 X147.228 Y185.874
G1 E-.8
G1 X186.49 Y153.831 F9000
G1 E.8 F1800
;TYPE:Bottom surface
;WIDTH:0.500534
G1 F6300
G1 X184.04 Y151.382 E.12919
G2 X183.141 Y151.129 I-2.006 J5.423 E.03487
G1 X186.35 Y154.339 E.16924
G1 X186.348 Y154.984 E.02408
G1 X182.224 Y150.86 E.21751
G1 E-.8 F3000
G1 X179.228 Y138.804 F9000
G1 E.8 F1800
G1 F6300
G1 X177.879 Y137.455 E.07115
G1 X177.191 Y136.903 E.03291
G1 X176.479 Y136.461 E.03124
G1 X176.029 Y136.251 E.01852
G1 X179.067 Y139.29 E.16023
G1 X179.061 Y139.354 E.0024
G1 X178.914 Y139.783 E.01694
G1 X175.002 Y135.872 E.20626
G1 X174.88 Y135.833 E.00481
G1 X174.179 Y135.697 E.0266
G1 X178.748 Y140.265 E.24094
G1 X178.583 Y140.747 E.019
G1 X173.464 Y135.628 E.26995
G2 X172.815 Y135.627 I-.331 J2.655 E.02426
G1 X178.418 Y141.229 E.29545
G1 X178.252 Y141.711 E.019
G1 X172.212 Y135.67 E.31854
G1 X171.661 Y135.767 E.02086
G1 X178.087 Y142.193 E.33888
G1 X177.922 Y142.674 E.019
G1 X171.145 Y135.898 E.35735
G1 X170.65 Y136.05 E.01933
G1 X177.918 Y143.318 E.38331
G1 E-.8 F3000
G1 X180.426 Y146.473 F9000
G1 E.8 F1800
G1 F6300
G1 X170.212 Y136.259 E.53868
G1 X169.773 Y136.468 E.0181
G1 X180.59 Y147.285 E.57043
G1 X180.727 Y147.613 E.01326
G1 X180.9 Y148.241 E.02432
G1 X169.351 Y136.693 E.60903
G2 X168.956 Y136.944 I1.015 J2.033 E.01751
G1 X181.03 Y149.019 E.63674
G1 X181.055 Y149.195 E.00664
G1 X181.059 Y149.695 E.01866
G1 X168.585 Y137.221 E.65782
G2 X168.236 Y137.519 I1.61 J2.241 E.01714
G1 X181.065 Y150.348 E.67655
M73 P4 R8
G2 X181.78 Y151.063 I.61 J.105 E.04411
G1 X186.269 Y155.552 E.23674
G3 X186.144 Y156.074 I-2.149 J-.239 E.02007
G1 X167.911 Y137.841 E.96154
G2 X167.609 Y138.186 I1.881 J1.955 E.01712
G1 X185.989 Y156.566 E.9693
G1 X185.798 Y157.023 E.01845
G1 X167.329 Y138.554 E.97397
G2 X167.082 Y138.953 I1.614 J1.278 E.01756
G1 X185.584 Y157.456 E.97574
G1 X185.355 Y157.874 E.01778
G1 X166.885 Y139.404 E.97403
G2 X166.746 Y139.912 I2.507 J.957 E.01968
G1 X185.098 Y158.264 E.96776
G1 X184.835 Y158.648 E.01736
G1 X166.587 Y140.4 E.96232
G3 X166.193 Y140.652 I-.499 J-.346 E.01788
G1 X184.543 Y159.004 E.96774
M73 C6
G1 X184.25 Y159.357 E.01714
G1 X165.537 Y140.644 E.98684
G1 X164.882 Y140.637 E.02442
G1 X183.929 Y159.684 E1.00449
G1 X183.607 Y160.008 E.01706
G1 X164.243 Y140.645 E1.02117
G1 X163.86 Y140.654 E.01426
G3 X163.348 Y140.302 I.015 J-.57 E.02454
G1 X163.156 Y139.558 E.02862
G1 X159.988 Y136.39 E.16709
G1 X159.343 Y136.082 E.02663
G1 X158.898 Y135.947 E.01734
G1 X183.261 Y160.31 E1.2848
M73 P5 R8
G1 X182.91 Y160.606 E.01713
G1 X158.057 Y135.753 E1.31063
G2 X157.326 Y135.67 I-.707 J2.949 E.02749
G1 X182.547 Y160.89 E1.33
G3 X182.166 Y161.156 I-2.455 J-3.11 E.01734
G1 X156.665 Y135.655 E1.3448
G1 X156.06 Y135.698 E.0226
G1 X181.773 Y161.411 E1.356
G1 X181.381 Y161.666 E.01744
G1 X155.509 Y135.794 E1.36437
G2 X154.981 Y135.913 I.229 J2.248 E.02024
G1 X180.989 Y161.921 E1.37155
G1 X180.597 Y162.176 E.01744
G1 X154.493 Y136.072 E1.37663
G2 X154.033 Y136.259 I.541 J1.989 E.01856
G1 X180.238 Y162.465 E1.38197
G1 X180.187 Y162.545 E.00354
G1 X180.134 Y162.782 E.00908
G2 X180.244 Y163.117 I.747 J-.058 E.01326
G1 X153.591 Y136.465 E1.40555
G2 X153.185 Y136.706 I.786 J1.781 E.01765
G1 X181.786 Y165.306 E1.50826
G3 X182.584 Y166.752 I-16.692 J10.162 E.06159
G1 X152.787 Y136.955 E1.57137
M73 P6 R8
G1 X152.428 Y137.243 E.01716
G1 X183.125 Y167.94 E1.61882
M73 P6 R7
G3 X183.53 Y168.992 I-14.509 J6.187 E.04204
G1 X152.076 Y137.538 E1.65878
G1 X151.757 Y137.866 E.01707
G1 X183.83 Y169.94 E1.69143
G3 X184.065 Y170.821 I-11.441 J3.513 E.03402
G1 X151.448 Y138.205 E1.72006
