; HEADER_BLOCK_START
; generated by OrcaSlicer 1.6.4-beta3 on 2023-08-19 at 10:12:03
; total layer number: 1
; HEADER_BLOCK_END

; THUMBNAIL_BLOCK_START
; THUMBNAIL_BLOCK_END

; external perimeters extrusion width = 0.40mm
; perimeters extrusion width = 0.46mm
; infill extrusion width = 0.64mm
; solid infill extrusion width = 0.56mm
; top infill extrusion width = 0.40mm
; support material extrusion width = 0.46mm
; first layer extrusion width = 0.50mm

; EXECUTABLE_BLOCK_START
EXCLUDE_OBJECT_DEFINE NAME=parametric_bed_center_calibration_crosshair.stl_id_0_copy_0 CENTER=165,165 POLYGON=[[40,40],[290,40],[290,290],[40,290],[40,40]]
M73 P0 R2
;TYPE:Custom
START_PRINT T_BED=60 T_EXTRUDER=220
G90
G21
M83 ; use relative distances for extrusion
; filament start gcode

    PRESSURE_ADVANCE_SELECT FILAMENT=PLA
M106 S0
;LAYER_CHANGE
;Z:0.2
;HEIGHT:0.2
;BEFORE_LAYER_CHANGE
;0.2
G92 E0

SET_VELOCITY_LIMIT ACCEL=1000 ACCEL_TO_DECEL=500
G1 E-.8 F3000
G1 X37.904 Y38.116 F12000
G1 Z.2
G1 E.8 F1800
;TYPE:Skirt
;WIDTH:0.5
G1 F3000
G1 X38.552 Y37.471 E.03407
G1 X40 Y37.086 E.0558
G1 X290 Y37.086 E9.31155
M73 P3 R2
G1 X291.462 Y37.479 E.05638
G1 X292.529 Y38.552 E.05638
G1 X292.914 Y40 E.0558
G1 X292.914 Y290 E9.31155
M73 P7 R2
G1 X292.521 Y291.462 E.05638
G1 X291.448 Y292.529 E.05638
G1 X290 Y292.914 E.0558
G1 X40 Y292.914 E9.31155
M73 P10 R2
G1 X38.538 Y292.521 E.05638
G1 X37.471 Y291.448 E.05638
G1 X37.086 Y290 E.0558
G1 X37.086 Y40 E9.31155
M73 P14 R2
G1 X37.479 Y38.538 E.05638
G1 X37.875 Y38.144 E.02082
G1 X38.16 Y38.474 F12000
G1 F3000
G1 X38.985 Y37.762 E.04059
G1 X40 Y37.543 E.03866
G1 X290 Y37.543 E9.31155
M73 P17 R2
G1 X291.331 Y37.935 E.05169
G1 X292.238 Y38.985 E.05169
G1 X292.457 Y40 E.03866
G1 X292.457 Y290 E9.31155
M73 P20 R1
G1 X292.065 Y291.331 E.05169
G1 X291.015 Y292.238 E.05169
G1 X290 Y292.457 E.03866
G1 X40 Y292.457 E9.31155
M73 P24 R1
G1 X38.669 Y292.065 E.05169
G1 X37.762 Y291.015 E.05169
G1 X37.543 Y290 E.03866
G1 X37.543 Y40 E9.31155
M73 P27 R1
G1 X37.935 Y38.669 E.05169
G1 X38.13 Y38.5 E.00961
; printing object parametric_bed_center_calibration_crosshair.stl id:0 copy 0
G1 E-.8
EXCLUDE_OBJECT_START NAME=parametric_bed_center_calibration_crosshair.stl_id_0_copy_0
G1 X40.256 Y289.744 F12000
M73 P28 R1
G1 E.8 F1800
;TYPE:Outer wall
G1 F3000
G1 X40.25 Y179.514 E4.10567
M73 P30 R1
G2 X40.35 Y177 I-20.792 J-2.086 E.09375
G2 X40.279 Y173.492 I-69.712 J-.346 E.13071
G1 X40.25 Y172.496 E.03709
G1 X40.25 Y157.504 E.55842
G2 X40.349 Y154.001 I-276.931 J-9.598 E.13051
G2 X40.338 Y151.489 I-110.68 J-.744 E.09356
G2 X40.25 Y150.486 I-11.323 J.484 E.03751
G1 X40.256 Y40.256 E4.10567
M73 P32 R1
G1 X150.486 Y40.25 E4.10567
M73 P33 R1
G1 X150.978 Y40.304 E.01843
G2 X151.997 Y40.348 I1.006 J-11.464 E.03801
G2 X156.508 Y40.279 I1.03 J-79.98 E.16805
G1 X157.504 Y40.25 E.03709
G1 X172.496 Y40.25 E.55842
G2 X175.999 Y40.349 I9.598 J-276.934 E.13051
G2 X179.022 Y40.304 I.889 J-41.779 E.11263
G1 X179.514 Y40.25 E.01843
G1 X289.744 Y40.256 E4.10567
M73 P35 R1
G1 X289.75 Y150.486 E4.10567
M73 P36 R1
G2 X289.65 Y153 I20.792 J2.086 E.09375
G2 X289.721 Y156.508 I69.712 J.346 E.13071
G1 X289.75 Y157.504 E.03709
M73 P37 R1
G1 X289.75 Y172.496 E.55842
G2 X289.651 Y175.999 I276.931 J9.598 E.13051
G2 X289.662 Y178.511 I110.68 J.744 E.09356
G2 X289.75 Y179.514 I11.323 J-.484 E.03751
G1 X289.744 Y289.744 E4.10567
M73 P38 R1
G1 X179.514 Y289.75 E4.10567
M73 P40 R1
G2 X177 Y289.65 I-2.086 J20.792 E.09375
G2 X173.492 Y289.721 I-.346 J69.712 E.13071
G1 X172.496 Y289.75 E.03709
G1 X157.504 Y289.75 E.55842
G2 X154.001 Y289.651 I-9.598 J276.931 E.13051
G2 X151.489 Y289.662 I-.744 J110.69 E.09356
G2 X150.486 Y289.75 I.484 J11.323 E.03751
G1 X40.296 Y289.744 E4.10418
M73 P42 R1
G1 E-.8
G1 X165.325 Y289.272 F12000
G1 X167.169 Y289.256
G1 X169.337 Y289.199
G1 X179.547 Y288.819
G1 E.8 F1800
G1 F3000
G2 X288.746 Y180.194 I-14.554 J-123.831 E6.18367
M73 P45 R1
G1 X288.819 Y179.547 E.02426
G1 X289.525 Y179.587 E.02632
G1 X289.525 Y289.525 E4.09477
M73 P46 R1
G1 X179.587 Y289.525 E4.09477
M73 P48 R1
G1 X179.549 Y288.859 E.02483
G1 E-.8
G1 X169.337 Y289.199 F12000
G1 X167.169 Y289.256
G1 X165.325 Y289.272
G1 X165.325 Y40.728
M73 P49 R1
G1 X167.169 Y40.744
G1 X169.337 Y40.801
G1 X179.547 Y41.181
G1 E.8 F1800
G1 F3000
G1 X179.587 Y40.475 E.02632
G1 X289.525 Y40.475 E4.09477
M73 P50 R1
G1 X289.525 Y150.413 E4.09477
M73 P52 R1
G1 X288.819 Y150.453 E.02632
G2 X179.587 Y41.185 I-123.806 J14.534 E6.20656
M73 P54 R1
G1 E-.8
G1 X169.337 Y40.801 F12000
G1 X167.169 Y40.744
G1 X165.325 Y40.728
G1 X164.675 Y40.728
G1 X162.831 Y40.744
G1 X160.663 Y40.801
G1 X158.496 Y40.895
G1 X156.331 Y41.028
G1 X154.169 Y41.198
G1 X151.665 Y41.408
G1 X147.704 Y41.934
G1 X145.559 Y42.255
G1 X143.42 Y42.613
G1 X141.287 Y43.008
G1 X139.162 Y43.441
G1 X137.044 Y43.91
G1 X134.935 Y44.416
G1 X132.835 Y44.959
G1 X130.745 Y45.539
G1 X128.665 Y46.155
G1 X126.597 Y46.807
G1 X124.54 Y47.496
G1 X122.495 Y48.22
G1 X120.464 Y48.979
G1 X118.446 Y49.774
G1 X116.442 Y50.604
G1 X114.453 Y51.469
G1 X112.479 Y52.368
G1 X110.521 Y53.302
G1 X108.58 Y54.27
G1 X106.656 Y55.272
G1 X104.75 Y56.307
G1 X102.862 Y57.375
G1 X100.994 Y58.475
M73 P55 R1
G1 X99.144 Y59.609
G1 X97.315 Y60.774
G1 X95.506 Y61.971
G1 X93.719 Y63.2
G1 X91.953 Y64.459
G1 X90.209 Y65.75
G1 X88.489 Y67.07
G1 X86.791 Y68.42
G1 X85.117 Y69.8
G1 X83.468 Y71.208
G1 X81.844 Y72.646
G1 X80.245 Y74.111
G1 X78.671 Y75.604
G1 X77.124 Y77.124
G1 X75.604 Y78.671
G1 X74.111 Y80.245
G1 X72.646 Y81.844
G1 X71.208 Y83.468
G1 X69.8 Y85.117
G1 X68.42 Y86.791
G1 X67.07 Y88.489
G1 X65.75 Y90.209
G1 X64.459 Y91.953
G1 X63.2 Y93.719
G1 X61.971 Y95.506
G1 X60.774 Y97.315
G1 X59.609 Y99.144
G1 X58.475 Y100.994
G1 X57.375 Y102.862
G1 X56.307 Y104.75
G1 X55.272 Y106.656
G1 X54.27 Y108.58
G1 X53.302 Y110.521
G1 X52.368 Y112.479
G1 X51.469 Y114.453
G1 X50.604 Y116.442
G1 X49.774 Y118.446
G1 X48.979 Y120.464
G1 X48.22 Y122.495
G1 X47.496 Y124.54
G1 X46.807 Y126.597
G1 X46.155 Y128.665
G1 X45.539 Y130.745
G1 X44.959 Y132.835
G1 X44.416 Y134.935
G1 X43.91 Y137.044
G1 X43.441 Y139.162
G1 X43.008 Y141.287
G1 X42.613 Y143.42
G1 X42.255 Y145.559
G1 X41.934 Y147.704
G1 X41.408 Y151.665
G1 X41.198 Y154.169
G1 X41.028 Y156.331
G1 X40.476 Y164.925
G1 E.8 F1800
G1 F3000
G3 X40.699 Y157.617 I119.756 J-.004 E.27235
G3 X40.85 Y154.139 I105.583 J2.85 E.12967
G1 X41.06 Y151.97 E.08116
G3 X41.307 Y150.672 I9.423 J1.12 E.04925
G3 X150.672 Y41.307 I123.679 J14.313 E6.21571
M73 P57 R1
G3 X151.528 Y41.12 I2.144 J7.795 E.03264
G3 X157.188 Y40.716 I6.411 J49.939 E.21143
M73 P58 R1
G3 X163.89 Y40.485 I8.342 J144.428 E.24982
G1 X164.925 Y40.476 E.03855
G1 X164.925 Y164.925 E4.63527
M73 P59 R1
G1 X40.516 Y164.925 E4.63378
M73 P61 R0
G1 E-.8
G1 X40.895 Y158.496 F12000
G1 X41.028 Y156.331
G1 X41.198 Y154.169
G1 X41.408 Y151.665
G1 X41.934 Y147.704
G1 X42.255 Y145.559
G1 X42.613 Y143.42
G1 X43.008 Y141.287
G1 X43.441 Y139.162
G1 X43.91 Y137.044
G1 X44.416 Y134.935
G1 X44.959 Y132.835
G1 X45.539 Y130.745
G1 X46.155 Y128.665
G1 X46.807 Y126.597
G1 X47.496 Y124.54
G1 X48.22 Y122.495
G1 X48.979 Y120.464
G1 X49.774 Y118.446
G1 X50.604 Y116.442
G1 X51.469 Y114.453
G1 X52.368 Y112.479
G1 X53.302 Y110.521
G1 X54.27 Y108.58
G1 X55.272 Y106.656
G1 X56.307 Y104.75
G1 X57.375 Y102.862
G1 X58.475 Y100.994
G1 X59.609 Y99.144
G1 X60.774 Y97.315
G1 X61.971 Y95.506
G1 X63.2 Y93.719
G1 X64.459 Y91.953
G1 X65.75 Y90.209
G1 X67.07 Y88.489
G1 X68.42 Y86.791
G1 X69.8 Y85.117
G1 X71.208 Y83.468
G1 X72.646 Y81.844
G1 X74.111 Y80.245
G1 X75.604 Y78.671
G1 X77.124 Y77.124
G1 X78.671 Y75.604
G1 X80.245 Y74.111
G1 X81.844 Y72.646
G1 X83.468 Y71.208
G1 X85.117 Y69.8
G1 X86.791 Y68.42
G1 X88.489 Y67.07
G1 X90.209 Y65.75
M73 P62 R0
G1 X91.953 Y64.459
G1 X93.719 Y63.2
G1 X95.506 Y61.971
G1 X97.315 Y60.774
G1 X99.144 Y59.609
G1 X100.994 Y58.475
G1 X102.862 Y57.375
G1 X104.75 Y56.307
G1 X106.656 Y55.272
G1 X108.58 Y54.27
G1 X110.521 Y53.302
G1 X112.479 Y52.368
G1 X114.453 Y51.469
G1 X116.442 Y50.604
G1 X118.446 Y49.774
G1 X120.464 Y48.979
G1 X122.495 Y48.22
G1 X124.54 Y47.496
G1 X126.597 Y46.807
G1 X128.665 Y46.155
G1 X130.745 Y45.539
G1 X132.835 Y44.959
G1 X134.935 Y44.416
G1 X137.044 Y43.91
G1 X139.162 Y43.441
G1 X141.287 Y43.008
G1 X150.453 Y41.181
G1 E.8 F1800
G1 F3000
G2 X41.181 Y150.453 I14.534 J123.806 E6.20805
M73 P64 R0
G1 X40.475 Y150.413 E.02632
G1 X40.475 Y40.475 E4.09477
M73 P66 R0
G1 X150.413 Y40.475 E4.09477
M73 P67 R0
G1 X150.451 Y41.141 E.02483
G1 E-.8
G1 X160.663 Y40.801 F12000
G1 X162.831 Y40.744
G1 X164.675 Y40.728
G1 X164.675 Y289.272
M73 P68 R0
G1 X162.831 Y289.256
G1 X160.663 Y289.199
G1 X150.453 Y288.819
G1 E.8 F1800
G1 F3000
G1 X150.413 Y289.525 E.02632
G1 X40.475 Y289.525 E4.09477
M73 P70 R0
G1 X40.475 Y179.587 E4.09477
M73 P71 R0
G1 X41.181 Y179.547 E.02632
G2 X150.413 Y288.815 I123.806 J-14.534 E6.20656
M73 P74 R0
G1 E-.8
G1 X141.287 Y286.992 F12000
G1 X139.162 Y286.559
G1 X137.044 Y286.09
G1 X134.935 Y285.584
G1 X132.835 Y285.041
G1 X130.745 Y284.461
G1 X128.665 Y283.845
G1 X126.597 Y283.193
G1 X124.54 Y282.504
G1 X122.495 Y281.78
G1 X120.464 Y281.021
G1 X118.446 Y280.226
G1 X116.442 Y279.396
G1 X114.453 Y278.531
G1 X112.479 Y277.632
G1 X110.521 Y276.698
G1 X108.58 Y275.73
G1 X106.656 Y274.728
G1 X104.75 Y273.693
G1 X102.862 Y272.625
G1 X100.994 Y271.525
G1 X99.144 Y270.391
G1 X97.315 Y269.226
G1 X95.506 Y268.029
G1 X93.719 Y266.8
G1 X91.953 Y265.541
G1 X90.209 Y264.25
G1 X88.489 Y262.93
G1 X86.791 Y261.58
G1 X85.117 Y260.2
G1 X83.468 Y258.792
G1 X81.844 Y257.354
G1 X80.245 Y255.889
G1 X78.671 Y254.396
G1 X77.124 Y252.876
G1 X75.604 Y251.329
G1 X74.111 Y249.755
G1 X72.646 Y248.156
G1 X71.208 Y246.532
G1 X69.8 Y244.883
G1 X68.42 Y243.209
G1 X67.07 Y241.511
G1 X65.75 Y239.791
G1 X64.459 Y238.047
G1 X63.2 Y236.281
G1 X61.971 Y234.494
G1 X60.774 Y232.685
G1 X59.609 Y230.856
G1 X58.475 Y229.006
G1 X57.375 Y227.138
G1 X56.307 Y225.25
G1 X55.272 Y223.344
G1 X54.27 Y221.42
G1 X53.302 Y219.479
G1 X52.368 Y217.521
G1 X51.469 Y215.547
G1 X50.604 Y213.558
G1 X49.774 Y211.554
G1 X48.979 Y209.536
G1 X48.22 Y207.505
G1 X47.496 Y205.46
G1 X46.807 Y203.403
G1 X46.155 Y201.335
G1 X45.539 Y199.255
G1 X44.959 Y197.165
G1 X44.416 Y195.065
G1 X43.91 Y192.956
G1 X43.441 Y190.838
G1 X43.008 Y188.713
G1 X42.613 Y186.58
G1 X42.255 Y184.441
G1 X41.934 Y182.296
G1 X41.408 Y178.335
G1 X41.198 Y175.831
G1 X41.028 Y173.669
G1 X40.476 Y165.075
G1 E.8 F1800
G1 F3000
G1 X164.925 Y165.075 E4.63527
M73 P76 R0
G1 X164.925 Y289.524 E4.63527
M73 P78 R0
G3 X157.617 Y289.301 I-.004 J-119.756 E.27235
G3 X154.139 Y289.15 I2.85 J-105.583 E.12967
G1 X151.97 Y288.94 E.08116
G3 X150.672 Y288.693 I1.12 J-9.423 E.04925
G3 X41.307 Y179.328 I14.313 J-123.679 E6.21571
M73 P80 R0
G3 X41.12 Y178.472 I7.795 J-2.144 E.03264
G3 X40.716 Y172.812 I49.939 J-6.411 E.21143
G3 X40.476 Y165.115 I145.454 J-8.393 E.28687
G1 E-.8
G1 X41.028 Y156.331 F12000
M73 P81 R0
G1 X41.198 Y154.169
G1 X41.408 Y151.665
G1 X41.934 Y147.704
G1 X42.255 Y145.559
G1 X42.613 Y143.42
G1 X43.008 Y141.287
G1 X43.441 Y139.162
G1 X43.91 Y137.044
G1 X44.416 Y134.935
G1 X44.959 Y132.835
G1 X45.539 Y130.745
G1 X46.155 Y128.665
G1 X46.807 Y126.597
G1 X47.496 Y124.54
G1 X48.22 Y122.495
G1 X48.979 Y120.464
G1 X49.774 Y118.446
G1 X50.604 Y116.442
G1 X51.469 Y114.453
G1 X52.368 Y112.479
G1 X53.302 Y110.521
G1 X54.27 Y108.58
G1 X55.272 Y106.656
G1 X56.307 Y104.75
G1 X57.375 Y102.862
G1 X58.475 Y100.994
G1 X59.609 Y99.144
G1 X60.774 Y97.315
G1 X61.971 Y95.506
G1 X63.2 Y93.719
G1 X64.459 Y91.953
G1 X65.75 Y90.209
G1 X67.07 Y88.489
G1 X68.42 Y86.791
G1 X69.8 Y85.117
G1 X71.208 Y83.468
G1 X72.646 Y81.844
G1 X74.111 Y80.245
G1 X75.604 Y78.671
G1 X77.124 Y77.124
G1 X78.671 Y75.604
G1 X80.245 Y74.111
G1 X81.844 Y72.646
G1 X83.468 Y71.208
G1 X85.117 Y69.8
G1 X86.791 Y68.42
G1 X88.489 Y67.07
G1 X90.209 Y65.75
G1 X91.953 Y64.459
G1 X93.719 Y63.2
G1 X95.506 Y61.971
G1 X97.315 Y60.774
G1 X99.144 Y59.609
G1 X100.994 Y58.475
G1 X102.862 Y57.375
G1 X104.75 Y56.307
G1 X106.656 Y55.272
G1 X108.58 Y54.27
G1 X110.521 Y53.302
G1 X112.479 Y52.368
G1 X114.453 Y51.469
G1 X116.442 Y50.604
G1 X118.446 Y49.774
G1 X120.464 Y48.979
G1 X122.495 Y48.22
G1 X124.54 Y47.496
G1 X126.597 Y46.807
G1 X128.665 Y46.155
G1 X130.745 Y45.539
G1 X132.835 Y44.959
G1 X134.935 Y44.416
G1 X137.044 Y43.91
G1 X139.162 Y43.441
G1 X141.287 Y43.008
G1 X143.42 Y42.613
G1 X145.559 Y42.255
G1 X147.704 Y41.934
G1 X151.665 Y41.408
G1 X154.169 Y41.198
G1 X156.331 Y41.028
G1 X165.075 Y40.476
G1 E.8 F1800
G1 F3000
G3 X172.812 Y40.716 I-.655 J145.694 E.28836
G3 X177.592 Y41.016 I-.686 J49.176 E.17845
G3 X179.328 Y41.307 I-1.202 J12.503 E.06558
G3 X288.693 Y150.672 I-14.313 J123.679 E6.21571
M73 P84 R0
G3 X288.88 Y151.528 I-7.795 J2.144 E.03264
G3 X289.284 Y157.188 I-49.939 J6.411 E.21143
G3 X289.524 Y164.925 I-145.454 J8.393 E.28836
G1 X165.075 Y164.925 E4.63527
M73 P86 R0
G1 X165.075 Y40.516 E4.63378
M73 P87 R0
G1 E-.8
G1 X165.075 Y165.075 F12000
M73 P88 R0
G1 E.8 F1800
G1 F3000
G1 X289.524 Y165.075 E4.63527
M73 P90 R0
G3 X289.284 Y172.812 I-145.695 J-.655 E.28836
G3 X288.984 Y177.592 I-49.176 J-.686 E.17845
G3 X288.693 Y179.328 I-12.504 J-1.202 E.06558
G3 X179.328 Y288.693 I-123.679 J-14.313 E6.21571
M73 P92 R0
G3 X178.472 Y288.88 I-2.144 J-7.795 E.03264
G3 X172.812 Y289.284 I-6.411 J-49.939 E.21143
G3 X165.075 Y289.524 I-8.393 J-145.454 E.28836
G1 X165.075 Y165.115 E4.63378
M73 P94 R0
G1 E-.8
G1 X165.325 Y289.272 F12000
G1 X176.013 Y289.394
M73 P95 R0
G1 E.8 F1800
;TYPE:Gap infill
;WIDTH:0.150527
G1 F3000
G1 X176.511 Y289.37 E.00437
;WIDTH:0.198096
G1 X177.01 Y289.346 E.0063
;WIDTH:0.245665
G1 X177.508 Y289.322 E.00824
;WIDTH:0.293234
G1 X178.006 Y289.298 E.01017
;WIDTH:0.328339
G1 X178.299 Y289.282 E.00683
;WIDTH:0.372277
G1 X178.524 Y289.269 E.00605
;WIDTH:0.41084
G1 X178.694 Y289.259 E.0051
;WIDTH:0.453503
G1 X178.848 Y289.25 E.00517
;WIDTH:0.492527
G1 X179.003 Y289.24 E.00567
;WIDTH:0.520692
G1 X179.341 Y289.217 E.01319
G1 E-.8
G1 X153.987 Y289.394 F12000
G1 E.8 F1800
;WIDTH:0.102959
G1 F3000
G1 X153.489 Y289.37 E.00244
;WIDTH:0.150528
G1 X152.99 Y289.346 E.00437
;WIDTH:0.198097
G1 X152.492 Y289.322 E.0063
;WIDTH:0.245909
G1 X151.992 Y289.298 E.00829
;WIDTH:0.29407
G1 X151.926 Y289.295 E.00134
;WIDTH:0.301318
G1 X151.701 Y289.282 E.00475
;WIDTH:0.339125
G1 X151.46 Y289.269 E.00582
;WIDTH:0.375452
G1 X151.306 Y289.259 E.00419
;WIDTH:0.414476
G1 X151.152 Y289.25 E.00468
;WIDTH:0.456387
G1 X150.985 Y289.239 E.00563
;WIDTH:0.510122
G1 X150.659 Y289.217 E.01243
G1 E-.8
G1 X150.19 Y289.041 F12000
G1 X126.071 Y283.702
G1 X103.703 Y273.848
G1 X83.042 Y259.282
G1 X66.046 Y241.244
M73 P96 R0
G1 X52.718 Y219.763
G1 X43.996 Y196.036
G1 X40.959 Y179.81
G1 X40.783 Y179.341
G1 E.8 F1800
;WIDTH:0.520692
G1 F3000
G1 X40.76 Y179.003 E.01319
;WIDTH:0.492524
G1 X40.75 Y178.848 E.00567
;WIDTH:0.453501
G1 X40.741 Y178.694 E.00517
;WIDTH:0.410837
G1 X40.731 Y178.524 E.0051
;WIDTH:0.372273
G1 X40.718 Y178.299 E.00605
;WIDTH:0.328338
G1 X40.702 Y178.006 E.00683
;WIDTH:0.293234
G1 X40.678 Y177.508 E.01017
;WIDTH:0.245665
G1 X40.654 Y177.01 E.00824
;WIDTH:0.198096
G1 X40.63 Y176.511 E.0063
;WIDTH:0.150527
G1 X40.606 Y176.013 E.00437
G1 E-.8
G1 X40.606 Y153.987 F12000
G1 E.8 F1800
;WIDTH:0.150528
G1 F3000
G1 X40.63 Y153.489 E.00437
;WIDTH:0.198097
G1 X40.654 Y152.99 E.0063
;WIDTH:0.245666
G1 X40.678 Y152.492 E.00824
;WIDTH:0.293235
G1 X40.702 Y151.994 E.01017
;WIDTH:0.328339
G1 X40.718 Y151.701 E.00683
;WIDTH:0.372276
G1 X40.731 Y151.476 E.00605
;WIDTH:0.41084
G1 X40.741 Y151.306 E.0051
;WIDTH:0.453503
G1 X40.75 Y151.152 E.00517
;WIDTH:0.492526
G1 X40.76 Y150.997 E.00567
;WIDTH:0.52069
G1 X40.783 Y150.659 E.01319
G1 E-.8
M73 P97 R0
G1 X40.959 Y150.19 F12000
G1 X46.298 Y126.071
G1 X56.152 Y103.703
G1 X70.718 Y83.042
G1 X88.756 Y66.046
G1 X110.237 Y52.718
G1 X133.964 Y43.996
G1 X150.19 Y40.959
M73 P98 R0
G1 X150.659 Y40.783
G1 E.8 F1800
;WIDTH:0.510123
G1 F3000
G1 X150.985 Y40.761 E.01243
;WIDTH:0.456389
G1 X151.152 Y40.75 E.00563
;WIDTH:0.414479
G1 X151.306 Y40.741 E.00468
;WIDTH:0.375455
G1 X151.46 Y40.731 E.00419
;WIDTH:0.339125
G1 X151.701 Y40.718 E.00582
