; generated by SuperSlicer 2.5.59 on 2023-05-01 at 02:24:23 UTC


;
;

;
;
; 

; external perimeters extrusion width = 0.40mm
; perimeters extrusion width = 0.46mm
; infill extrusion width = 0.64mm
; solid infill extrusion width = 0.56mm
; top infill extrusion width = 0.40mm
; support material extrusion width = 0.46mm
; first layer extrusion width = 0.50mm

; object:{"name":"Part_Studio_1_-_Part_1","id":"Part_Studio_1_-_Part_1.stl id:0 copy 0","object_center":[165.000013,164.999892,0.000000],"boundingbox_center":[165.000013,164.999892,17.700000],"boundingbox_size":[41.000802,63.000269,35.400000]}
EXCLUDE_OBJECT_DEFINE NAME=Part_Studio_1___Part_1_stl_id_0_copy_0 CENTER=165.000013,164.999892 POLYGON=[[144.499616,194.499728],[144.500384,135.499728],[144.502288,135.412496],[144.508000,135.325424],[144.517504,135.238672],[144.530784,135.152432],[144.547808,135.066848],[144.568544,134.982080],[144.592960,134.898320],[144.621024,134.815696],[144.652640,134.734368],[144.687792,134.654496],[144.726384,134.576240],[144.768336,134.499744],[144.813616,134.425136],[144.862096,134.352592],[144.913696,134.282208],[144.968320,134.214160],[145.025856,134.148560],[145.086192,134.085528],[145.149232,134.025176],[145.214832,133.967648],[145.282880,133.913040],[145.353264,133.861432],[145.425808,133.812960],[145.500416,133.767704],[145.576912,133.725720],[145.655184,133.687136],[145.735040,133.651992],[145.816384,133.620360],[145.899008,133.592320],[145.982768,133.567904],[146.000416,133.563264],[146.067536,133.547168],[146.153120,133.530136],[146.239360,133.516864],[146.326096,133.507368],[146.413184,133.501664],[146.500416,133.499760],[172.586736,133.500088],[185.500416,133.500272],[185.500128,155.500272],[185.499840,176.500272],[185.481808,177.349088],[185.481600,177.354032],[185.427776,178.196384],[185.426944,178.206256],[185.337824,179.040624],[185.335936,179.055360],[185.212128,179.880272],[185.208768,179.899808],[185.050896,180.713856],[185.045664,180.738048],[184.854448,181.539824],[184.846928,181.568576],[184.623104,182.356720],[184.612928,182.389856],[184.357312,183.163056],[184.344064,183.200400],[184.057520,183.957376],[184.040864,183.998736],[183.724304,184.738272],[183.703856,184.783392],[183.358240,185.504320],[183.333648,185.552928],[182.960000,186.254128],[182.930944,186.305984],[182.530288,186.986368],[182.496448,187.041152],[182.069904,187.699728],[182.030960,187.757104],[181.579632,188.392880],[181.535344,188.452544],[181.060400,189.064608],[181.010480,189.126176],[180.513120,189.713696],[180.457360,189.776800],[179.938800,190.338976],[179.876960,190.403200],[179.338448,190.939312],[179.270336,191.004272],[178.713152,191.513632],[178.638608,191.578896],[178.064048,192.060880],[177.982944,192.126016],[177.392304,192.580112],[177.304512,192.644672],[176.699120,193.070336],[176.604560,193.133888],[175.985776,193.530736],[175.884352,193.592752],[175.253520,193.960416],[175.145216,194.020480],[174.503696,194.358640],[174.388512,194.416256],[174.094368,194.559200],[173.802992,194.694992],[173.737584,194.724720],[173.514320,194.823984],[173.228208,194.946480],[172.956720,195.057888],[172.944608,195.062752],[172.663440,195.173072],[172.384592,195.277664],[172.162224,195.357712],[172.108032,195.376768],[171.951488,195.430832],[171.677616,195.521968],[171.409200,195.607056],[171.355776,195.623504],[171.146096,195.686464],[170.888208,195.760464],[170.635456,195.829408],[170.538640,195.854880],[170.387744,195.893520],[170.145072,195.953072],[169.907424,196.008304],[169.779632,196.036736],[169.713184,196.051168],[169.653136,196.064016],[169.418896,196.112272],[169.193264,196.156016],[168.976128,196.195568],[168.878704,196.212528],[168.767376,196.231280],[168.566992,196.263424],[166.999584,196.500032],[147.078944,196.499776],[146.499584,196.499760],[146.456176,196.499280],[146.414704,196.497952],[146.412880,196.497872],[146.371200,196.495632],[146.329968,196.492560],[146.312800,196.491008],[146.286336,196.488352],[146.267536,196.486256],[146.245552,196.483552],[146.223088,196.480544],[146.201600,196.477440],[146.186960,196.475168],[146.181088,196.474224],[146.161584,196.470976],[146.151824,196.469280],[146.137936,196.466784],[146.121424,196.463664],[146.098656,196.459152],[146.092144,196.457808],[146.078240,196.454864],[146.067728,196.452576],[146.059984,196.450832],[146.044112,196.447184],[146.030640,196.444000],[146.029968,196.443840],[146.019552,196.441280],[146.010864,196.439120],[146.007200,196.438192],[146.000832,196.436576],[145.999584,196.436256],[145.995632,196.435216],[145.913936,196.412080],[145.833312,196.385504],[145.753872,196.355536],[145.675776,196.322208],[145.599184,196.285600],[145.524208,196.245776],[145.499584,196.231792],[145.450976,196.202800],[145.379632,196.156768],[145.310336,196.107728],[145.243152,196.055824],[145.178240,196.001088],[145.115728,195.943648],[145.055680,195.883616],[144.998240,195.821088],[144.943520,195.756176],[144.891600,195.688992],[144.842576,195.619696],[144.796544,195.548352],[144.753568,195.475136],[144.713744,195.400144],[144.677136,195.323536],[144.643824,195.245456],[144.613840,195.166016],[144.587264,195.085376],[144.564128,195.003696],[144.544496,194.921088],[144.528384,194.837744],[144.515808,194.753776],[144.506816,194.669344],[144.501424,194.584608],[144.499616,194.499728]]
; plater:{"center":[165.000013,164.999892,0.000000],"boundingbox_center":[165.000013,164.999892,17.700000],"boundingbox_size":[41.000802,63.000269,35.400000]}

M73 P0 R64
;TYPE:Custom
; custom gcode: start_gcode
START_PRINT T_BED=70 T_EXTRUDER=235
; custom gcode end: start_gcode
M107
G21 ; set units to millimeters
G90 ; use absolute coordinates
M82 ; use absolute distances for extrusion
G92 E0
; custom gcode: start_filament_gcode
; Filament gcode
PRESSURE_ADVANCE_SELECT FILAMENT=PETG
; custom gcode end: start_filament_gcode
;_TOOLCHANGE 0
M104 S235 ; set temperature
M109 S235 ; set temperature and wait for it to be reached
M190 S70 ; set bed temperature and wait for it to be reached
;LAYER_CHANGE
;Z:0.2
;HEIGHT:0.2
G1 Z0.2 F9000
M73 P0 R64
G1 E-1 F3000
M204 S1000
G1 X142.016 Y131.379 F9000
G1 E0 F1800
;TYPE:Skirt
;WIDTH:0.52
G1 X141.222 Y132.462 E0.05328
G1 X140.871 Y133.177 E0.08487
G1 X140.596 Y134.02 E0.12004
G1 X140.408 Y135.477 E0.17831
G1 X140.307 Y151.365 E0.80861
G1 X140.407 Y194.509 E2.52009
G1 X140.545 Y195.774 E2.5706
G1 X141.058 Y197.234 E2.63197
G1 X141.923 Y198.517 E2.69334
G1 X143.083 Y199.541 E2.75471
G1 X144.462 Y200.239 E2.81603
G1 X145.375 Y200.483 E2.85354
G1 X146.502 Y200.592 E2.89846
G1 X166.433 Y200.574 E3.68911
G1 X168.648 Y200.385 E3.77727
G1 X171.482 Y199.837 E3.8918
G1 X173.441 Y199.246 E3.97295
G1 X175.501 Y198.418 E4.06103
G1 X177.325 Y197.49 E4.14222
G1 X179.752 Y195.924 E4.25682
G1 X181.482 Y194.527 E4.34501
G1 X182.953 Y193.107 E4.42613
G1 X184.299 Y191.567 E4.50726
G1 X185.967 Y189.208 E4.62186
G1 X187.416 Y186.505 E4.74351
G1 X188.561 Y183.47 E4.8722
G1 X189.032 Y181.663 E4.94628
G1 X189.385 Y179.649 E5.02741
G1 X189.592 Y176.588 E5.14909
G1 X189.693 Y159.5 E5.82697
G1 X189.593 Y133.577 E6.85535
G1 X189.455 Y132.531 E6.89718
G1 X188.619 Y130.914 E6.9694
G1 X187.177 Y129.803 E7.04161
G1 X185.4 Y129.408 E7.11383
G1 X145.962 Y129.434 E8.67831
G1 X145.174 Y129.556 E8.70996
G1 X144.243 Y129.85 E8.74869
G1 X143.072 Y130.474 E8.80133
G1 X142.016 Y131.379 E8.85649
G1 X142.361 Y131.709 F9000
G1 F1800
G1 X141.641 Y132.692 E8.90482
G1 X141.316 Y133.35 E8.93395
G1 X141.061 Y134.123 E8.96623
G1 X140.885 Y135.48 E9.02049
G1 X140.785 Y151.365 E9.65068
G1 X140.884 Y194.507 E11.3621
G1 X141.013 Y195.684 E11.40906
G1 X141.489 Y197.028 E11.46562
G1 X142.287 Y198.209 E11.52218
G1 X143.358 Y199.151 E11.57875
G1 X144.63 Y199.792 E11.63526
G1 X145.476 Y200.016 E11.66997
G1 X146.502 Y200.115 E11.71087
G1 X166.423 Y200.097 E12.50111
G1 X168.577 Y199.914 E12.58687
G1 X171.372 Y199.373 E12.69979
G1 X173.291 Y198.793 E12.77934
G1 X175.295 Y197.988 E12.86501
G1 X177.084 Y197.079 E12.9446
G1 X179.477 Y195.534 E13.05759
G1 X181.159 Y194.176 E13.14336
G1 X182.602 Y192.784 E13.22289
G1 X183.922 Y191.275 E13.30241
G1 X185.566 Y188.95 E13.4154
G1 X186.985 Y186.3 E13.53464
G1 X188.102 Y183.34 E13.66013
G1 X188.788 Y180.414 E13.77936
G1 X189.097 Y177.424 E13.8986
G1 X189.216 Y159.5 E14.60963
G1 X189.116 Y133.58 E15.6379
G1 X188.379 Y131.379 E15.72995
G1 X187.067 Y130.279 E15.79788
G1 X185.4 Y129.885 E15.86581
G1 X146.419 Y129.886 E17.41219
G1 X145.048 Y130.078 E17.46709
G1 X144.054 Y130.454 E17.50923
G1 X143.354 Y130.858 E17.54133
G1 X142.361 Y131.709 E17.59319
G1 X142.706 Y132.039 F9000
G1 F1800
G1 X142.059 Y132.921 E17.63658
G1 X141.527 Y134.226 E17.69249
G1 X141.362 Y135.483 E17.74275
G1 X141.262 Y151.861 E18.39248
M73 P0 R64
G1 X141.361 Y194.506 E20.08418
G1 X141.481 Y195.593 E20.12758
G1 X141.919 Y196.823 E20.17934
G1 X142.652 Y197.902 E20.2311
G1 X143.633 Y198.762 E20.28286
G1 X144.799 Y199.346 E20.33457
G1 X145.576 Y199.55 E20.36646
G1 X146.502 Y199.638 E20.40336
G1 X166.413 Y199.62 E21.1932
G1 X168.506 Y199.442 E21.27654
G1 X171.261 Y198.909 E21.38786
G1 X173.142 Y198.339 E21.46581
G1 X175.09 Y197.557 E21.54907
G1 X176.842 Y196.667 E21.62705
G1 X179.202 Y195.145 E21.73843
G1 X180.837 Y193.825 E21.8218
G1 X182.251 Y192.461 E21.89971
G1 X183.544 Y190.983 E21.97763
G1 X185.166 Y188.691 E22.08902
G1 X186.555 Y186.094 E22.20585
G1 X187.603 Y183.342 E22.32268
G1 X188.293 Y180.479 E22.43951
G1 X188.62 Y177.414 E22.56178
G1 X188.739 Y159.5 E23.27241
G1 X188.639 Y133.582 E24.30057
G1 X188.12 Y131.841 E24.37264
G1 X186.948 Y130.756 E24.436
G1 X185.4 Y130.362 E24.49936
G1 X146.419 Y130.363 E26.04574
G1 X145.162 Y130.542 E26.0961
G1 X144.246 Y130.891 E26.13495
G1 X143.636 Y131.243 E26.16293
G1 X142.706 Y132.039 E26.21149
G92 E0
G1 E-1 F3000
; printing object Part_Studio_1_-_Part_1.stl id:0 copy 0
EXCLUDE_OBJECT_START NAME=Part_Studio_1___Part_1_stl_id_0_copy_0
; acceleration to travel
M204 S3000
G1 X160.09 Y135.16 F9000
; decel to extrusion
M204 S1000
G1 X165.884 Y136.2
; end travel
G1 E0 F1800
;TYPE:Support material
;WIDTH:0.5
G1 X166.256 Y136.224 E0.01416
G1 X166.68 Y136.252 E0.0303
G1 X167.535 Y136.346 E0.063
G1 X168.354 Y136.472 E0.09449
G1 X169.18 Y136.636 E0.12649
G1 X169.997 Y136.836 E0.15847
G1 X170.81 Y137.073 E0.19067
G1 X171.609 Y137.344 E0.22271
G1 X172.394 Y137.65 E0.25475
G1 X173.166 Y137.989 E0.28679
G1 X173.922 Y138.362 E0.31882
G1 X174.661 Y138.767 E0.35086
G1 X175.382 Y139.205 E0.3829
G1 X176.083 Y139.673 E0.41494
G1 X176.762 Y140.172 E0.44698
G1 X177.737 Y140.977 E0.49503
G1 X178.663 Y141.838 E0.54308
G1 X179.245 Y142.447 E0.57512
G1 X179.801 Y143.081 E0.60715
G1 X180.329 Y143.738 E0.63919
G1 X180.827 Y144.418 E0.67123
G1 X181.296 Y145.119 E0.70327
G1 X181.733 Y145.84 E0.73531
G1 X182.138 Y146.579 E0.76735
G1 X182.511 Y147.335 E0.79938
G1 X182.851 Y148.106 E0.83142
G1 X183.156 Y148.892 E0.86346
G1 X183.427 Y149.688 E0.89543
G1 X183.64 Y150.466 E0.92606
G1 X183.767 Y151.299 E0.95809
G1 X183.929 Y152.163 E0.9915
G1 X184.057 Y152.991 E1.02337
G1 X184.148 Y153.825 E1.05524
G1 X184.203 Y154.662 E1.08711
G1 X184.221 Y155.5 E1.11899
G1 X184.203 Y156.339 E1.15086
G1 X184.148 Y157.175 E1.18273
G1 X184.057 Y158.009 E1.2146
G1 X183.929 Y158.838 E1.24648
G1 X183.766 Y159.702 E1.27989
G1 X183.64 Y160.535 E1.31191
G1 X183.426 Y161.312 E1.34254
G1 X183.156 Y162.108 E1.37451
G1 X182.851 Y162.894 E1.40655
G1 X182.511 Y163.666 E1.43859
G1 X182.138 Y164.422 E1.47063
G1 X181.733 Y165.161 E1.50266
G1 X181.295 Y165.882 E1.5347
G1 X180.827 Y166.582 E1.56674
G1 X180.329 Y167.262 E1.59878
G1 X179.801 Y167.92 E1.63082
G1 X179.245 Y168.553 E1.66286
G1 X178.662 Y169.162 E1.6949
G1 X178.053 Y169.745 E1.72694
G1 X177.419 Y170.301 E1.75897
G1 X176.762 Y170.829 E1.79101
G1 X176.082 Y171.327 E1.82305
G1 X175.381 Y171.796 E1.85509
G1 X174.743 Y172.183 E1.88347
G1 X173.921 Y172.638 E1.91917
G1 X173.165 Y173.011 E1.9512
G1 X172.394 Y173.351 E1.98324
G1 X171.608 Y173.656 E2.01528
G1 X170.81 Y173.927 E2.04732
G1 X170.001 Y174.163 E2.07936
G1 X169.182 Y174.363 E2.1114
G1 X168.355 Y174.528 E2.14344
G1 X167.522 Y174.656 E2.17547
G1 X166.684 Y174.748 E2.20751
G1 X166.018 Y174.791 E2.23289
G1 X166.009 Y136.709 E3.68027
G1 X165.884 Y136.2 E3.70018
; acceleration to travel
M204 S3000
G1 X179.314 Y153.261 F9000
; decel to extrusion
M204 S1000
G1 X183.791 Y158.947
; end travel
G1 F1800
G1 X183.791 Y153.418 E3.91033
G1 X183.623 Y152.216 E3.95644
G1 X183.46 Y151.35 E3.98995
G1 X183.336 Y150.531 E4.02143
G1 X183.283 Y150.331 E4.02931
G1 X183.283 Y160.669 E4.42225
G1 X183.13 Y161.219 E4.44395
G1 X182.775 Y162.23 E4.48466
G1 X182.775 Y148.77 E4.99624
G1 X182.564 Y148.225 E5.01844
G1 X182.267 Y147.552 E5.04639
G1 X182.267 Y163.448 E5.65051
G1 X181.76 Y164.466 E5.69375
G1 X181.76 Y146.534 E6.37526
G1 X181.252 Y145.646 E6.41416
G1 X181.252 Y165.354 E7.16322
G1 X180.744 Y166.148 E7.19902
G1 X180.744 Y144.852 E8.00836
G1 X180.236 Y144.137 E8.04171
G1 X180.236 Y166.863 E8.90543
G1 X179.728 Y167.514 E8.93681
G1 X179.728 Y143.486 E9.85001
G1 X179.22 Y142.89 E9.87979
G1 X179.22 Y168.11 E10.83834
G1 X178.712 Y168.66 E10.8668
G1 X178.712 Y142.34 E11.86716
G1 X178.205 Y141.83 E11.89451
G1 X178.205 Y169.17 E12.93361
G1 X177.697 Y169.645 E12.96003
G1 X177.697 Y141.355 E14.0352
G1 X177.189 Y140.912 E14.06081
G1 X177.189 Y170.088 E15.16966
G1 X176.681 Y170.495 E15.19441
G1 X176.681 Y140.505 E16.33424
G1 X176.173 Y140.125 E16.35835
G1 X176.173 Y170.875 E17.52705
G1 X175.665 Y171.232 E17.55064
G1 X175.665 Y139.768 E18.74648
G1 X175.157 Y139.432 E18.76962
G1 X175.157 Y171.568 E19.99098
G1 X174.649 Y171.876 E20.01355
G1 X174.649 Y139.124 E21.25834
G1 X174.142 Y138.837 E21.28051
G1 X174.142 Y172.163 E22.54711
G1 X173.634 Y172.434 E22.56899
G1 X173.634 Y138.566 E23.85616
G1 X173.126 Y138.316 E23.87768
G1 X173.126 Y172.684 E25.18389
G1 X172.618 Y172.912 E25.20505
G1 X172.618 Y138.088 E26.52862
G1 X172.11 Y137.873 E26.54958
G1 X172.11 Y173.127 E27.88949
G1 X171.602 Y173.325 E27.9102
G1 X171.602 Y137.675 E29.26512
G1 X171.094 Y137.498 E29.28557
G1 X171.094 Y173.502 E30.65397
G1 X170.587 Y173.668 E30.67428
M73 P1 R63
G1 X170.587 Y137.332 E32.05532
G1 X170.079 Y137.184 E32.07542
G1 X170.079 Y173.817 E33.4677
M73 P1 R63
G1 X169.571 Y173.948 E33.48765
G1 X169.571 Y137.052 E34.88994
G1 X169.063 Y136.93 E34.90979
G1 X169.063 Y174.07 E36.32136
G1 X168.555 Y174.171 E36.34104
G1 X168.555 Y136.829 E37.76028
G1 X168.047 Y136.739 E37.77988
G1 X168.047 Y174.261 E39.20593
G1 X167.539 Y174.339 E39.22546
G1 X167.539 Y136.661 E40.65746
G1 X167.031 Y136.603 E40.67689
G1 X167.031 Y174.397 E42.11329
G1 X166.524 Y174.447 E42.13269
G1 X166.524 Y136.356 E43.58037
G92 E0
G1 E-1 F3000
; acceleration to travel
M204 S3000
G1 X177.334 Y162.48 F9000
; decel to extrusion
M204 S1000
G1 X180.938 Y171.188
; end travel
G1 E0 F1800
G1 X181.033 Y171.184 E0.00364
G1 X181.176 Y171.235 E0.00942
G1 X181.264 Y171.323 E0.01413
G1 X181.312 Y171.438 E0.01887
G1 X181.312 Y171.562 E0.02359
G1 X181.265 Y171.677 E0.02831
G1 X181.2 Y171.748 E0.03195
G1 X181.062 Y171.812 E0.03774
G1 X180.938 Y171.812 E0.04246
G1 X180.823 Y171.765 E0.04718
G1 X180.735 Y171.677 E0.0519
G1 X180.688 Y171.563 E0.05662
G1 X180.683 Y171.467 E0.06026
G1 X180.735 Y171.324 E0.06605
G1 X180.823 Y171.236 E0.07077
G1 X180.938 Y171.188 E0.07548
G92 E0
G1 E-1 F3000
; acceleration to travel
M204 S3000
G1 X156.626 Y165.14 F9000
; decel to extrusion
M204 S1000
G1 X148.522 Y163.124
; end travel
G1 E0 F1800
G1 X147.326 Y163.294 E0.04592
G1 X146.847 Y162.116 E0.09426
G1 X146.574 Y161.312 E0.12656
G1 X146.461 Y160.916 E0.14218
G1 X146.36 Y160.534 E0.15719
G1 X146.234 Y159.701 E0.18921
G1 X146.071 Y158.837 E0.22262
G1 X145.943 Y158.009 E0.2545
G1 X145.852 Y157.175 E0.28637
G1 X145.797 Y156.338 E0.31824
G1 X145.779 Y155.5 E0.35011
G1 X145.797 Y154.661 E0.38199
G1 X145.852 Y153.825 E0.41386
G1 X145.943 Y152.991 E0.44573
G1 X146.36 Y150.465 E0.54303
G1 X146.574 Y149.688 E0.57366
G1 X146.844 Y148.893 E0.60556
G1 X147.15 Y148.106 E0.63766
G1 X147.326 Y147.706 E0.65426
G1 X148.522 Y147.877 E0.70017
G1 X148.522 Y163.124 E1.27964
