; generated by SuperSlicer 2.5.59 on 2023-04-24 at 22:42:58 UTC


;
;

;
;
; 

; external perimeters extrusion width = 0.40mm
; perimeters extrusion width = 0.46mm
; infill extrusion width = 0.64mm
; solid infill extrusion width = 0.56mm
; top infill extrusion width = 0.40mm
; support material extrusion width = 0.46mm
; first layer extrusion width = 0.50mm

; object:{"name":"pc_hdd_bracket_35_-_525","id":"pc_hdd_bracket_35_-_525.stl id:0 copy 0","object_center":[165.000001,165.000001,0.000000],"boundingbox_center":[165.000001,165.000001,13.500000],"boundingbox_size":[152.000000,146.000000,27.000000]}
EXCLUDE_OBJECT_DEFINE NAME=pc_hdd_bracket_35___525_stl_id_0_copy_0 CENTER=165.000001,165.000001 POLYGON=[[89.000000,112.000000],[111.000000,92.000000],[200.000000,92.000000],[241.000000,112.000000],[241.000000,218.000000],[200.000000,238.000000],[111.000000,238.000000],[89.000000,218.000000],[89.000000,112.000000]]
; plater:{"center":[165.000001,165.000001,0.000000],"boundingbox_center":[165.000001,165.000001,13.500000],"boundingbox_size":[152.000000,146.000000,27.000000]}

M73 P0 R144
;TYPE:Custom
; custom gcode: start_gcode
START_PRINT T_BED=70 T_EXTRUDER=235
; custom gcode end: start_gcode
M107
G21 ; set units to millimeters
G90 ; use absolute coordinates
M82 ; use absolute distances for extrusion
G92 E0
; custom gcode: start_filament_gcode
; Filament gcode
PRESSURE_ADVANCE_SELECT FILAMENT=PETG
; custom gcode end: start_filament_gcode
;_TOOLCHANGE 0
M104 S235 ; set temperature
M109 S235 ; set temperature and wait for it to be reached
M190 S70 ; set bed temperature and wait for it to be reached
;LAYER_CHANGE
;Z:0.2
;HEIGHT:0.2
G1 Z0.2 F9000
G1 E-1 F3000
M204 S1000
G1 X93.614 Y102.975 F9000
G1 E0 F1800
;TYPE:Skirt
;WIDTH:0.52
G1 X86.601 Y109.351 E0.37598
G1 X85.779 Y110.434 E0.42991
G1 X85.384 Y112.1 E0.49784
G1 X85.384 Y217.9 E4.69486
G1 X85.633 Y219.236 E4.74878
G1 X86.601 Y220.649 E4.81671
G1 X108.601 Y240.649 E5.99617
G1 X109.434 Y241.221 E6.03625
G1 X111.1 Y241.616 E6.10418
G1 X199.9 Y241.616 E9.62681
G1 X201.529 Y241.239 E9.69314
G1 X242.529 Y221.239 E11.50277
G1 X244.221 Y219.566 E11.59717
G1 X244.616 Y217.9 E11.6651
G1 X244.616 Y112.1 E15.86211
G1 X243.854 Y109.846 E15.95651
G1 X242.529 Y108.761 E16.02444
G1 X201.529 Y88.761 E17.83407
G1 X199.9 Y88.384 E17.9004
G1 X111.1 Y88.384 E21.42303
G1 X110.099 Y88.522 E21.46311
G1 X108.601 Y89.351 E21.53104
G1 X93.614 Y102.975 E22.33451
G1 X93.935 Y103.328 F9000
G1 F1800
G1 X86.922 Y109.704 E22.7105
G1 X86.255 Y110.552 E22.75329
G1 X85.861 Y112.1 E22.81665
G1 X85.861 Y217.9 E27.01367
G1 X86.041 Y218.964 E27.05646
G1 X86.922 Y220.296 E27.11982
G1 X108.922 Y240.296 E28.29927
G1 X111.1 Y241.139 E28.39192
G1 X199.9 Y241.139 E31.91456
G1 X201.32 Y240.811 E31.97237
M73 P0 R143
G1 X242.32 Y220.811 E33.782
G1 X243.745 Y219.448 E33.86022
G1 X244.139 Y217.9 E33.92358
G1 X244.139 Y112.1 E38.12059
G1 X243.538 Y110.222 E38.19881
G1 X242.32 Y109.189 E38.26217
G1 X201.32 Y89.189 E40.0718
G1 X199.9 Y88.861 E40.12961
G1 X111.1 Y88.861 E43.65224
G1 X108.922 Y89.704 E43.7449
G1 X93.935 Y103.328 E44.54837
G92 E0
G1 E-1 F3000
; printing object pc_hdd_bracket_35_-_525.stl id:0 copy 0
EXCLUDE_OBJECT_START NAME=pc_hdd_bracket_35___525_stl_id_0_copy_0
; acceleration to travel
M204 S3000
G1 X155.264 Y187.301 F9000
; decel to extrusion
M204 S1000
G1 X175.708 Y215.292
; end travel
G1 E0 F1800
;TYPE:Internal perimeter
;WIDTH:0.5
G1 X176.071 Y215.656 E0.01953
G1 X176.985 Y216.121 E0.0585
G1 X178 Y216.283 E0.09758
G1 X179.015 Y216.121 E0.13665
G1 X179.929 Y215.656 E0.17562
G1 X180.656 Y214.929 E0.21468
G1 X181.121 Y214.015 E0.25366
G1 X181.283 Y213 E0.29273
G1 X181.121 Y211.985 E0.3318
G1 X180.656 Y211.071 E0.37077
G1 X179.929 Y210.344 E0.40983
G1 X179.014 Y209.879 E0.44884
G1 X178 Y209.718 E0.48787
G1 X177.493 Y209.798 E0.50739
G1 X176.986 Y209.879 E0.5269
G1 X176.071 Y210.344 E0.56591
G1 X175.344 Y211.071 E0.60497
G1 X174.879 Y211.985 E0.64394
G1 X174.717 Y213 E0.68302
G1 X174.879 Y214.015 E0.72209
G1 X175.344 Y214.929 E0.76106
G1 X175.708 Y215.292 E0.78059
G1 X176.031 Y214.969 F9000
G1 F1800
G1 X176.343 Y215.281 E0.79736
G1 X177.128 Y215.681 E0.83085
G1 X178 Y215.82 E0.86441
G1 X178.872 Y215.681 E0.89797
G1 X179.657 Y215.281 E0.93146
G1 X180.281 Y214.657 E0.965
G1 X180.681 Y213.872 E0.99849
G1 X180.82 Y213 E1.03205
G1 X180.681 Y212.128 E1.0656
G1 X180.281 Y211.343 E1.09909
G1 X179.657 Y210.719 E1.13263
G1 X178.871 Y210.319 E1.16615
G1 X178 Y210.181 E1.19968
G1 X177.564 Y210.25 E1.21644
G1 X177.129 Y210.319 E1.2332
G1 X176.343 Y210.719 E1.26672
G1 X175.719 Y211.343 E1.30026
G1 X175.319 Y212.128 E1.33375
G1 X175.18 Y213 E1.36731
G1 X175.319 Y213.872 E1.40086
G1 X175.719 Y214.657 E1.43435
G1 X176.031 Y214.969 E1.45112
G1 X176.354 Y214.646 F9000
;TYPE:External perimeter
G1 F1800
G1 X176.615 Y214.907 E1.46514
G1 X177.271 Y215.241 E1.49314
G1 X178 Y215.357 E1.52118
G1 X178.729 Y215.241 E1.54923
G1 X179.385 Y214.907 E1.57723
G1 X179.907 Y214.385 E1.60526
G1 X180.241 Y213.729 E1.63326
G1 X180.357 Y213 E1.66131
G1 X180.241 Y212.271 E1.68935
G1 X179.907 Y211.615 E1.71735
G1 X179.385 Y211.093 E1.74538
G1 X178.728 Y210.759 E1.77339
G1 X178 Y210.644 E1.80142
G1 X177.636 Y210.701 E1.81544
G1 X177.272 Y210.759 E1.82945
G1 X176.615 Y211.093 E1.85746
G1 X176.093 Y211.615 E1.88549
G1 X175.759 Y212.271 E1.91349
G1 X175.643 Y213 E1.94154
G1 X175.759 Y213.729 E1.96958
G1 X176.093 Y214.385 E1.99758
G1 X176.354 Y214.646 E2.0116
;WIPE_START
M204 S4000
G1 X176.25 Y215.032 F9000
;WIPE_END
G92 E0
G1 E-1 F3000
; acceleration to travel
M204 S3000
G1 X141.364 Y213.592 F9000
; decel to extrusion
M204 S1000
G1 X129.735 Y213.112
; end travel
G1 E0 F1800
;TYPE:Internal perimeter
G1 X129.879 Y214.015 E0.03475
G1 X130.344 Y214.929 E0.07373
G1 X131.071 Y215.656 E0.11279
G1 X131.985 Y216.121 E0.15176
G1 X133 Y216.283 E0.19083
G1 X134.015 Y216.121 E0.22991
G1 X134.929 Y215.656 E0.26888
G1 X135.656 Y214.929 E0.30794
G1 X136.121 Y214.014 E0.34695
G1 X136.282 Y213 E0.38598
G1 X136.121 Y211.986 E0.42501
G1 X135.656 Y211.071 E0.46402
G1 X134.929 Y210.344 E0.50308
G1 X134.014 Y209.879 E0.54209
G1 X133 Y209.718 E0.58112
G1 X132.493 Y209.798 E0.60063
G1 X131.986 Y209.879 E0.62014
G1 X131.071 Y210.344 E0.65916
G1 X130.344 Y211.071 E0.69821
G1 X129.879 Y211.985 E0.73719
G1 X129.717 Y213 E0.77626
G1 X129.735 Y213.112 E0.78058
G1 X130.189 Y213.056 F9000
G1 F1800
G1 X130.319 Y213.872 E0.81198
G1 X130.719 Y214.657 E0.84547
G1 X131.343 Y215.281 E0.87901
G1 X132.128 Y215.681 E0.9125
G1 X133 Y215.82 E0.94606
G1 X133.872 Y215.681 E0.97962
G1 X134.657 Y215.281 E1.0131
G1 X135.281 Y214.657 E1.04665
G1 X135.681 Y213.871 E1.08016
G1 X135.819 Y213 E1.11369
G1 X135.681 Y212.129 E1.14721
G1 X135.281 Y211.343 E1.18073
G1 X134.657 Y210.719 E1.21427
G1 X133.871 Y210.319 E1.24778
G1 X133 Y210.181 E1.28131
G1 X132.564 Y210.25 E1.29808
G1 X132.129 Y210.319 E1.31484
G1 X131.343 Y210.719 E1.34835
G1 X130.719 Y211.343 E1.38189
G1 X130.319 Y212.128 E1.41538
G1 X130.18 Y213 E1.44894
G1 X130.189 Y213.056 E1.4511
G1 X130.643 Y213 F9000
;TYPE:External perimeter
G1 F1800
G1 X130.759 Y213.729 E1.47915
G1 X131.093 Y214.385 E1.50715
G1 X131.615 Y214.907 E1.53518
G1 X132.271 Y215.241 E1.56318
G1 X133 Y215.357 E1.59122
G1 X133.729 Y215.241 E1.61927
G1 X134.385 Y214.907 E1.64727
G1 X134.907 Y214.385 E1.6753
G1 X135.241 Y213.728 E1.70331
G1 X135.356 Y213 E1.73134
G1 X135.241 Y212.272 E1.75937
G1 X134.907 Y211.615 E1.78738
G1 X134.385 Y211.093 E1.81541
G1 X133.728 Y210.759 E1.84342
G1 X133 Y210.644 E1.87145
G1 X132.636 Y210.701 E1.88546
G1 X132.272 Y210.759 E1.89948
G1 X131.615 Y211.093 E1.92749
G1 X131.093 Y211.615 E1.95552
G1 X130.759 Y212.271 E1.98352
G1 X130.643 Y213 E2.01156
;WIPE_START
M204 S4000
G1 X130.307 Y213.218 F9000
;WIPE_END
G92 E0
G1 E-1 F3000
; acceleration to travel
M204 S3000
G1 X135.126 Y210.255 F9000
; decel to extrusion
M204 S1000
G1 X136.733 Y209.267
; end travel
G1 E0 F1800
;TYPE:Internal perimeter
G1 X174.266 Y209.267 E1.4265
G1 X174.266 Y119.733 E4.82937
G1 X136.733 Y119.733 E6.25588
G1 X136.733 Y209.267 E9.65875
G1 X137.19 Y208.81 F9000
G1 F1800
G1 X173.809 Y208.81 E11.05051
G1 X173.809 Y120.19 E14.41863
G1 X137.19 Y120.19 E15.81039
G1 X137.19 Y208.81 E19.17852
G1 X137.647 Y208.353 F9000
;TYPE:External perimeter
G1 F1800
G1 X173.352 Y208.353 E20.53554
M73 P1 R143
G1 X173.352 Y120.647 E23.86892
G1 X137.647 Y120.647 E25.22593
G1 X137.647 Y208.353 E28.55932
;WIPE_START
M204 S4000
G1 X137.647 Y208.753 F9000
;WIPE_END
G92 E0
G1 E-1 F3000
; acceleration to travel
M204 S3000
G1 X134.078 Y137.489 F9000
; decel to extrusion
M204 S1000
G1 X132.888 Y113.735
; end travel
G1 E0 F1800
;TYPE:Internal perimeter
G1 X132.491 Y113.798 E0.01528
G1 X131.985 Y113.879 E0.03475
G1 X131.071 Y114.344 E0.07373
G1 X130.344 Y115.071 E0.11279
G1 X129.879 Y115.985 E0.15176
G1 X129.717 Y117 E0.19084
G1 X129.879 Y118.015 E0.22991
G1 X130.344 Y118.929 E0.26888
G1 X131.071 Y119.656 E0.30794
G1 X131.986 Y120.121 E0.34695
G1 X133 Y120.282 E0.38598
G1 X134.014 Y120.121 E0.42501
G1 X134.929 Y119.656 E0.46402
G1 X135.656 Y118.929 E0.50308
G1 X136.121 Y118.014 E0.54209
G1 X136.282 Y117 E0.58112
G1 X136.121 Y115.986 E0.62014
G1 X135.656 Y115.071 E0.65916
G1 X134.929 Y114.344 E0.69821
G1 X134.015 Y113.879 E0.73719
G1 X133 Y113.717 E0.77626
G1 X132.888 Y113.735 E0.78058
G1 X132.944 Y114.189 F9000
G1 F1800
G1 X132.563 Y114.25 E0.79524
G1 X132.128 Y114.319 E0.81198
G1 X131.343 Y114.719 E0.84547
G1 X130.719 Y115.343 E0.87901
G1 X130.319 Y116.128 E0.9125
G1 X130.18 Y117 E0.94606
G1 X130.319 Y117.872 E0.97962
G1 X130.719 Y118.657 E1.0131
G1 X131.343 Y119.281 E1.04665
G1 X132.129 Y119.681 E1.08016
G1 X133 Y119.819 E1.11369
G1 X133.871 Y119.681 E1.14721
G1 X134.657 Y119.281 E1.18073
G1 X135.281 Y118.657 E1.21427
G1 X135.681 Y117.871 E1.24778
G1 X135.819 Y117 E1.28131
G1 X135.681 Y116.129 E1.31484
G1 X135.281 Y115.343 E1.34835
G1 X134.657 Y114.719 E1.38189
G1 X133.872 Y114.319 E1.41538
G1 X133 Y114.18 E1.44894
G1 X132.944 Y114.189 E1.4511
G1 X133 Y114.643 F9000
;TYPE:External perimeter
G1 F1800
G1 X132.635 Y114.701 E1.46514
G1 X132.271 Y114.759 E1.47915
G1 X131.615 Y115.093 E1.50715
G1 X131.093 Y115.615 E1.53518
G1 X130.759 Y116.271 E1.56318
G1 X130.643 Y117 E1.59122
G1 X130.759 Y117.729 E1.61927
G1 X131.093 Y118.385 E1.64727
G1 X131.615 Y118.907 E1.6753
G1 X132.272 Y119.241 E1.70331
G1 X133 Y119.356 E1.73134
G1 X133.728 Y119.241 E1.75937
G1 X134.385 Y118.907 E1.78738
G1 X134.907 Y118.385 E1.81541
G1 X135.241 Y117.728 E1.84342
G1 X135.356 Y117 E1.87145
G1 X135.241 Y116.272 E1.89948
G1 X134.907 Y115.615 E1.92749
G1 X134.385 Y115.093 E1.95552
G1 X133.729 Y114.759 E1.98352
G1 X133 Y114.643 E2.01156
;WIPE_START
M204 S4000
G1 X132.782 Y114.307 F9000
;WIPE_END
G92 E0
G1 E-1 F3000
; acceleration to travel
M204 S3000
G1 X130.146 Y118.376 F9000
; decel to extrusion
M204 S1000
G1 X129.267 Y119.733
; end travel
G1 E0 F1800
;TYPE:Internal perimeter
G1 X98.733 Y119.733 E1.1605
G1 X98.733 Y120.926 E1.20584
G1 X97.867 Y120.926 E1.23875
G1 X97.867 Y209.074 E4.58895
G1 X98.733 Y209.074 E4.62186
G1 X98.733 Y209.267 E4.62919
G1 X129.267 Y209.267 E5.78969
G1 X129.267 Y119.733 E9.19256
G1 X128.81 Y120.19 F9000
G1 F1800
G1 X99.19 Y120.19 E10.31832
G1 X99.19 Y121.383 E10.36366
G1 X98.324 Y121.383 E10.39657
G1 X98.324 Y208.617 E13.71202
G1 X99.19 Y208.617 E13.74493
G1 X99.19 Y208.81 E13.75227
G1 X128.81 Y208.81 E14.87802
G1 X128.81 Y120.19 E18.24615
M73 P1 R142
G1 X128.353 Y120.647 F9000
;TYPE:External perimeter
G1 F1800
G1 X99.647 Y120.647 E19.33716
G1 X99.647 Y121.84 E19.3825
G1 X98.781 Y121.84 E19.41541
G1 X98.781 Y208.16 E22.69612
G1 X99.647 Y208.16 E22.72903
G1 X99.647 Y208.353 E22.73637
G1 X128.353 Y208.353 E23.82738
G1 X128.353 Y120.647 E27.16076
;WIPE_START
M204 S4000
G1 X128.353 Y120.247 F9000
;WIPE_END
G92 E0
G1 E-1 F3000
; acceleration to travel
M204 S3000
G1 X163.656 Y116.305 F9000
; decel to extrusion
M204 S1000
G1 X175.424 Y114.991
; end travel
G1 E0 F1800
;TYPE:Internal perimeter
G1 X175.344 Y115.071 E0.00429
G1 X174.879 Y115.985 E0.04327
G1 X174.717 Y117 E0.08234
G1 X174.879 Y118.015 E0.12141
G1 X175.344 Y118.929 E0.16039
G1 X176.071 Y119.656 E0.19944
G1 X176.986 Y120.121 E0.23846
G1 X178 Y120.282 E0.27748
G1 X179.014 Y120.121 E0.31651
G1 X179.929 Y119.656 E0.35553
G1 X180.656 Y118.929 E0.39458
G1 X181.121 Y118.015 E0.43356
G1 X181.283 Y117 E0.47263
G1 X181.121 Y115.985 E0.5117
G1 X180.656 Y115.071 E0.55068
G1 X179.929 Y114.344 E0.58973
G1 X179.015 Y113.879 E0.62871
G1 X178 Y113.717 E0.66778
G1 X177.491 Y113.798 E0.68738
G1 X176.985 Y113.879 E0.70685
G1 X176.071 Y114.344 E0.74583
G1 X175.424 Y114.991 E0.78059
G1 X175.759 Y115.303 F9000
G1 F1800
G1 X175.719 Y115.343 E0.78274
G1 X175.319 Y116.128 E0.81622
G1 X175.18 Y117 E0.84978
G1 X175.319 Y117.872 E0.88334
G1 X175.719 Y118.657 E0.91683
G1 X176.343 Y119.281 E0.95037
G1 X177.129 Y119.681 E0.98389
G1 X178 Y119.819 E1.01741
G1 X178.871 Y119.681 E1.05094
G1 X179.657 Y119.281 E1.08445
G1 X180.281 Y118.657 E1.118
G1 X180.681 Y117.872 E1.15149
G1 X180.82 Y117 E1.18504
G1 X180.681 Y116.128 E1.2186
G1 X180.281 Y115.343 E1.25209
G1 X179.657 Y114.719 E1.28563
G1 X178.872 Y114.319 E1.31912
G1 X178 Y114.18 E1.35268
G1 X177.563 Y114.25 E1.3695
G1 X177.128 Y114.319 E1.38624
G1 X176.343 Y114.719 E1.41973
G1 X175.759 Y115.303 E1.45112
G1 X176.093 Y115.615 F9000
;TYPE:External perimeter
G1 F1800
G1 X175.759 Y116.271 E1.47912
G1 X175.643 Y117 E1.50717
G1 X175.759 Y117.729 E1.53522
G1 X176.093 Y118.385 E1.56322
G1 X176.615 Y118.907 E1.59125
G1 X177.272 Y119.241 E1.61926
G1 X178 Y119.356 E1.64729
G1 X178.728 Y119.241 E1.67531
G1 X179.385 Y118.907 E1.70333
G1 X179.907 Y118.385 E1.73136
G1 X180.241 Y117.729 E1.75936
G1 X180.357 Y117 E1.7874
G1 X180.241 Y116.271 E1.81545
G1 X179.907 Y115.615 E1.84345
G1 X179.385 Y115.093 E1.87148
G1 X178.729 Y114.759 E1.89948
G1 X178 Y114.643 E1.92752
G1 X177.635 Y114.701 E1.94156
G1 X177.271 Y114.759 E1.95557
G1 X176.615 Y115.093 E1.98357
G1 X176.093 Y115.615 E2.0116
;WIPE_START
M204 S4000
G1 X175.694 Y115.594 F9000
;WIPE_END
G92 E0
G1 E-1 F3000
; acceleration to travel
M204 S3000
G1 X218.023 Y119.593 F9000
; decel to extrusion
M204 S1000
G1 X232.133 Y120.926
; end travel
G1 E0 F1800
;TYPE:Internal perimeter
G1 X227.267 Y120.926 E0.18494
G1 X227.267 Y120.733 E0.19227
G1 X181.734 Y120.733 E1.92283
G1 X181.734 Y209.267 E5.28769
G1 X227.267 Y209.267 E7.01825
G1 X227.267 Y209.074 E7.02558
G1 X232.133 Y209.074 E7.21052
G1 X232.133 Y120.926 E10.56071
G1 X231.676 Y121.383 F9000
G1 F1800
G1 X226.81 Y121.383 E10.74565
G1 X226.81 Y121.19 E10.75299
G1 X182.191 Y121.19 E12.4488
G1 X182.191 Y208.81 E15.77892
G1 X226.81 Y208.81 E17.47473
G1 X226.81 Y208.617 E17.48206
G1 X231.676 Y208.617 E17.667
G1 X231.676 Y121.383 E20.98245
G1 X231.219 Y121.84 F9000
;TYPE:External perimeter
G1 F1800
G1 X226.353 Y121.84 E21.16739
G1 X226.353 Y121.647 E21.17473
G1 X182.648 Y121.647 E22.83579
G1 X182.648 Y208.353 E26.13117
G1 X226.353 Y208.353 E27.79224
G1 X226.353 Y208.16 E27.79957
G1 X231.219 Y208.16 E27.98451
G1 X231.219 Y121.84 E31.26522
;WIPE_START
M204 S4000
G1 X231.219 Y121.44 F9000
;WIPE_END
G92 E0
G1 E-1 F3000
; acceleration to travel
M204 S3000
G1 X206.857 Y114.623 F9000
; decel to extrusion
M204 S1000
G1 X198.736 Y112.35
; end travel
G1 E0 F1800
;TYPE:Internal perimeter
G1 X198.736 Y113.264 E0.03474
G1 X239.736 Y113.264 E1.593
G1 X239.736 Y216.736 E5.52558
G1 X198.736 Y216.736 E7.08384
G1 X198.736 Y236.736 E7.84397
G1 X112.264 Y236.736 E11.13044
G1 X112.264 Y216.736 E11.89057
G1 X90.264 Y216.736 E12.7267
G1 X90.264 Y113.264 E16.65928
G1 X112.264 Y113.264 E17.49542
M73 P2 R141
G1 X112.264 Y93.264 E18.25555
G1 X198.736 Y93.264 E21.54202
G1 X198.736 Y112.35 E22.2674
G1 X199.193 Y112.35 F9000
G1 F1800
G1 X199.193 Y112.807 E22.28477
G1 X240.193 Y112.807 E23.84303
M73 P2 R141
G1 X240.193 Y217.193 E27.81036
G1 X199.193 Y217.193 E29.36862
G1 X199.193 Y237.193 E30.12874
G1 X111.807 Y237.193 E33.44996
G1 X111.807 Y217.193 E34.21008
G1 X89.807 Y217.193 E35.04622
G1 X89.807 Y112.807 E39.01354
G1 X111.807 Y112.807 E39.84968
G1 X111.807 Y92.807 E40.60981
