; HEADER_BLOCK_START
; generated by OrcaSlicer 1.7.0-beta on 2023-10-03 at 19:36:57
; total layer number: 38
; HEADER_BLOCK_END

; THUMBNAIL_BLOCK_START
; THUMBNAIL_BLOCK_END

; external perimeters extrusion width = 0.40mm
; perimeters extrusion width = 0.46mm
; infill extrusion width = 0.64mm
; solid infill extrusion width = 0.56mm
; top infill extrusion width = 0.40mm
; first layer extrusion width = 0.50mm

; external perimeters extrusion width = 0.40mm
; perimeters extrusion width = 0.46mm
; infill extrusion width = 0.64mm
; solid infill extrusion width = 0.56mm
; top infill extrusion width = 0.40mm
; first layer extrusion width = 0.50mm

; external perimeters extrusion width = 0.40mm
; perimeters extrusion width = 0.46mm
; infill extrusion width = 0.64mm
; solid infill extrusion width = 0.56mm
; top infill extrusion width = 0.40mm
; first layer extrusion width = 0.50mm

; EXECUTABLE_BLOCK_START
EXCLUDE_OBJECT_DEFINE NAME=PCB_Cover_v4.stl_id_0_copy_0 CENTER=190.897,181.218 POLYGON=[[129.897,163.618],[129.931,163.359],[130.031,163.118],[130.19,162.911],[130.397,162.752],[130.638,162.652],[130.897,162.618],[250.897,162.618],[251.156,162.652],[251.397,162.752],[251.604,162.911],[251.763,163.118],[251.863,163.359],[251.897,163.618],[251.897,198.818],[251.863,199.076],[251.763,199.318],[251.604,199.525],[251.397,199.684],[251.156,199.784],[250.897,199.818],[130.897,199.818],[130.638,199.784],[130.397,199.684],[130.19,199.525],[130.031,199.318],[129.931,199.076],[129.897,198.818],[129.897,163.618]]
EXCLUDE_OBJECT_DEFINE NAME=EBB36_1.0_sherpa_mini_mount_overmold_strain_relief.stl_id_1_copy_0 CENTER=96.5,174.1 POLYGON=[[68.1028,173.184],[68.108,173.016],[68.1234,172.848],[68.1491,172.682],[68.1849,172.517],[68.3882,171.704],[68.4208,171.585],[68.4382,171.529],[68.4586,171.468],[68.4998,171.357],[68.5017,171.352],[68.5267,171.292],[68.5531,171.232],[68.5726,171.19],[68.5808,171.173],[68.6096,171.115],[68.6563,171.028],[68.6708,171.002],[68.7359,170.895],[68.7505,170.872],[68.809,170.786],[68.8548,170.723],[68.8845,170.684],[68.9612,170.589],[68.9688,170.58],[69.0383,170.503],[69.092,170.446],[69.1135,170.424],[69.1866,170.354],[69.2239,170.32],[69.2566,170.291],[69.2896,170.263],[69.3206,170.238],[69.3637,170.203],[69.3959,170.178],[70.3569,169.428],[70.5042,169.32],[70.6583,169.223],[105.26,148.766],[105.376,148.703],[105.419,148.681],[105.503,148.641],[105.57,148.611],[105.583,148.606],[105.641,148.582],[105.713,148.555],[105.752,148.541],[105.789,148.528],[105.872,148.502],[105.925,148.487],[105.96,148.478],[106.053,148.454],[106.1,148.444],[106.152,148.434],[106.205,148.424],[106.26,148.415],[106.278,148.412],[106.318,148.407],[106.378,148.399],[106.44,148.393],[106.458,148.392],[106.504,148.388],[106.57,148.384],[106.638,148.382],[117.471,148.382],[117.642,148.388],[117.812,148.406],[117.98,148.435],[118.146,148.475],[118.309,148.527],[118.467,148.589],[118.622,148.663],[118.77,148.746],[118.913,148.84],[119.049,148.943],[119.178,149.055],[119.299,149.176],[119.411,149.305],[119.514,149.441],[119.607,149.583],[119.691,149.732],[119.764,149.886],[119.827,150.045],[119.879,150.208],[119.919,150.374],[124.444,170.036],[124.543,170.498],[124.631,170.963],[124.706,171.429],[124.769,171.898],[124.819,172.368],[124.857,172.839],[124.883,173.311],[124.896,173.783],[124.897,174.256],[124.886,174.729],[124.862,175.201],[124.825,175.672],[124.777,176.142],[124.716,176.611],[124.643,177.078],[121.1,197.658],[121.071,197.826],[121.031,197.992],[120.979,198.155],[120.917,198.313],[120.843,198.468],[120.76,198.616],[120.666,198.759],[120.563,198.895],[120.451,199.024],[120.33,199.145],[120.201,199.257],[120.065,199.36],[119.923,199.454],[119.774,199.537],[119.62,199.611],[119.461,199.673],[119.298,199.725],[119.132,199.765],[118.964,199.794],[118.794,199.812],[118.624,199.818],[106.627,199.818],[106.559,199.813],[106.493,199.806],[106.444,199.801],[106.429,199.799],[106.369,199.79],[106.31,199.781],[106.262,199.773],[106.253,199.771],[106.147,199.75],[106.082,199.735],[106.048,199.726],[105.954,199.701],[105.904,199.686],[105.865,199.674],[105.78,199.645],[105.73,199.627],[105.7,199.616],[105.625,199.587],[105.559,199.559],[105.554,199.556],[105.485,199.525],[105.393,199.48],[70.8185,182.555],[70.6583,182.468],[70.5042,182.37],[70.3569,182.263],[69.3873,181.506],[69.3637,181.488],[69.3387,181.468],[69.3109,181.445],[69.2826,181.422],[69.2523,181.396],[69.2239,181.371],[69.1866,181.337],[69.1158,181.269],[69.092,181.245],[69.0425,181.193],[68.9688,181.11],[68.9687,181.11],[68.8951,181.021],[68.8548,180.968],[68.8229,180.925],[68.7528,180.822],[68.7505,180.819],[68.7161,180.765],[68.6804,180.705],[68.6563,180.663],[68.6458,180.644],[68.6126,180.582],[68.5829,180.522],[68.5726,180.501],[68.5545,180.462],[68.5274,180.401],[68.5017,180.339],[68.4998,180.334],[68.4586,180.223],[68.4382,180.162],[68.4208,180.106],[68.3882,179.987],[68.1849,179.174],[68.1491,179.009],[68.1234,178.843],[68.108,178.675],[68.1028,178.507],[68.1028,173.184]]
EXCLUDE_OBJECT_DEFINE NAME=EBB36_1.0_sherpa_mini_mount_strain_relief.stl_id_2_copy_0 CENTER=148.723,131.9 POLYGON=[[119.851,130.224],[120.601,129.474],[157.867,106.621],[157.958,106.566],[158.074,106.503],[158.117,106.481],[158.201,106.441],[158.269,106.411],[158.282,106.406],[158.339,106.382],[158.412,106.355],[158.451,106.341],[158.488,106.328],[158.57,106.302],[158.623,106.287],[158.658,106.278],[158.751,106.254],[158.799,106.244],[158.85,106.234],[158.903,106.224],[158.959,106.215],[158.977,106.212],[159.016,106.207],[159.076,106.199],[159.138,106.193],[159.156,106.192],[159.203,106.188],[159.269,106.184],[159.337,106.182],[170.17,106.182],[170.348,106.189],[170.526,106.208],[170.701,106.239],[170.874,106.284],[171.044,106.34],[171.208,106.408],[171.368,106.488],[171.522,106.579],[171.668,106.681],[171.807,106.793],[171.938,106.915],[172.059,107.045],[172.171,107.184],[172.273,107.331],[172.364,107.484],[172.444,107.644],[172.512,107.809],[172.569,107.978],[172.613,108.151],[177.142,127.836],[177.242,128.298],[177.329,128.763],[177.404,129.229],[177.467,129.698],[177.518,130.168],[177.556,130.639],[177.581,131.111],[177.595,131.583],[177.596,132.056],[177.584,132.529],[177.56,133.001],[177.524,133.472],[177.475,133.942],[177.414,134.411],[177.341,134.878],[173.797,155.473],[173.765,155.649],[173.721,155.822],[173.665,155.991],[173.596,156.156],[173.516,156.316],[173.425,156.469],[173.324,156.616],[173.212,156.755],[173.09,156.885],[172.959,157.007],[172.82,157.119],[172.674,157.221],[172.52,157.312],[172.361,157.392],[172.196,157.46],[172.026,157.516],[171.854,157.561],[171.678,157.592],[171.5,157.611],[171.322,157.618],[159.325,157.618],[159.257,157.613],[159.191,157.606],[159.142,157.6],[159.128,157.599],[159.067,157.59],[159.009,157.581],[158.96,157.573],[158.952,157.571],[158.845,157.55],[158.78,157.535],[158.747,157.526],[158.653,157.501],[158.603,157.486],[158.563,157.474],[158.478,157.445],[158.429,157.427],[158.398,157.416],[158.324,157.387],[158.258,157.359],[158.252,157.356],[158.183,157.325],[158.092,157.28],[120.601,137.914],[119.851,137.164],[119.851,130.224]]
M73 P0 R48
;TYPE:Custom
START_PRINT T_BED=110 T_EXTRUDER=260
G90
G21
M83 ; use relative distances for extrusion
; Filament gcode

    PRESSURE_ADVANCE_SELECT FILAMENT=ABS
M106 S0
;LAYER_CHANGE
;Z:0.2
;HEIGHT:0.2
;BEFORE_LAYER_CHANGE
;0.2
G92 E0

G1 E-.5 F2400
;_SET_FAN_SPEED_CHANGING_LAYER
SET_VELOCITY_LIMIT ACCEL=2000 ACCEL_TO_DECEL=1000
G1 X107.953 Y135.805 F24000
G1 Z.2
G1 E.5 F1800
;TYPE:Skirt
;WIDTH:0.5
G1 F3000
G1 X118.788 Y127.193 E.4871
G1 X156.902 Y103.832 E1.5733
G1 X158.1 Y103.415 E.04462
G1 X159.179 Y103.272 E.03831
G1 X170.206 Y103.269 E.38808
G1 X171.043 Y103.34 E.02956
G1 X171.794 Y103.519 E.02719
G1 X172.513 Y103.802 E.02718
G1 X173.183 Y104.185 E.02718
G1 X253.074 Y160.368 E3.43729
G1 X253.916 Y161.137 E.04014
G1 X254.555 Y162.244 E.04499
G1 X254.752 Y162.978 E.02677
G1 X254.811 Y163.618 E.02259
G1 X254.811 Y198.818 E1.23882
G1 X254.752 Y199.457 E.02259
G1 X254.456 Y200.433 E.0359
G1 X254.075 Y201.092 E.02678
G1 X253.378 Y201.837 E.0359
G1 X252.271 Y202.476 E.04499
G1 X251.536 Y202.673 E.02677
G1 X250.897 Y202.732 E.02259
G1 X106.17 Y202.702 E5.0935
G1 X105.132 Y202.496 E.03726
G1 X104.155 Y202.118 E.03684
G1 X69.537 Y185.172 E1.35649
G1 X68.788 Y184.725 E.0307
G1 X67.571 Y183.785 E.05412
G1 X66.581 Y182.791 E.04937
G1 X66.162 Y182.169 E.0264
G1 X65.757 Y181.318 E.03318
G1 X65.243 Y179.287 E.07371
G1 X65.19 Y173.095 E.21795
G1 X65.302 Y172.061 E.03657
G1 X65.757 Y170.373 E.06155
G1 X66.256 Y169.365 E.03957
G1 X66.944 Y168.476 E.03957
G1 X67.551 Y167.921 E.02894
G1 X107.922 Y135.83 E1.81501
G1 X108.206 Y136.188 F24000
G1 F3000
G1 X119.072 Y127.55 E.48851
G1 X157.093 Y104.248 E1.56942
G1 X158.209 Y103.859 E.0416
G1 X159.203 Y103.729 E.03528
G1 X170.206 Y103.727 E.38724
G1 X170.962 Y103.79 E.0267
G1 X171.65 Y103.952 E.02489
G1 X172.308 Y104.211 E.02489
G1 X172.923 Y104.561 E.02489
G1 X252.811 Y160.742 E3.43719
G1 X253.554 Y161.415 E.03528
G1 X254.133 Y162.419 E.04079
G1 X254.299 Y163.038 E.02258
G1 X254.354 Y163.618 E.02049
G1 X254.354 Y198.818 E1.23882
G1 X254.299 Y199.397 E.02049
G1 X254.033 Y200.258 E.03171
G1 X253.713 Y200.813 E.02258
G1 X253.1 Y201.474 E.0317
G1 X252.096 Y202.054 E.04079
G1 X251.477 Y202.22 E.02257
G1 X250.897 Y202.275 E.02049
G1 X106.213 Y202.247 E5.092
G1 X105.253 Y202.055 E.03446
G1 X104.35 Y201.705 E.03407
G1 X69.738 Y184.761 E1.35625
G1 X69.057 Y184.356 E.0279
G1 X67.852 Y183.425 E.05358
G1 X66.938 Y182.505 E.04565
G1 X66.553 Y181.933 E.02427
G1 X66.187 Y181.164 E.02999
G1 X65.695 Y179.218 E.07064
G1 X65.647 Y173.109 E.215
G1 X65.748 Y172.159 E.03362
G1 X66.187 Y170.527 E.05946
G1 X66.647 Y169.602 E.03638
G1 X67.281 Y168.785 E.03638
G1 X67.836 Y168.279 E.02642
G1 X108.175 Y136.213 E1.8136
; printing object EBB36 1.0 sherpa mini mount overmold strain relief.stl id:1 copy 0
G1 E-.35 F2400
;WIPE_START
G1 F3000
G1 X108.958 Y135.59 E-.15
;WIPE_END
EXCLUDE_OBJECT_START NAME=EBB36_1.0_sherpa_mini_mount_overmold_strain_relief.stl_id_1_copy_0
G1 X108.842 Y152.132 F24000
G1 X108.838 Y152.3
G1 X108.82 Y152.468
G1 X108.786 Y152.633
G1 X106.242 Y161.993
G1 X106.242 Y170.998
G1 X106.235 Y171.132
G1 X106.212 Y171.272
G1 X103.374 Y181.952
G1 X103.358 Y182.05
G1 X103.356 Y182.167
G1 X103.371 Y182.283
G1 X103.851 Y185.235
M73 P0 R47
G1 E.5 F1800
;TYPE:Outer wall
;WIDTH:0.499999
G1 F3000
G1 X103.893 Y185.069 E.00606
G1 X103.829 Y184.938 E.00511
G1 X98.512 Y179.622 E.26459
G1 X98.337 Y179.546 E.00672
G1 X98.18 Y179.613 E.00601
G1 X90.687 Y187.106 E.37294
G1 X90.588 Y186.876 E.00884
G2 X86.768 Y182.681 I-5.45 J1.127 E.20948
G1 X86.097 Y182.542 E.02412
G1 X85.394 Y182.495 E.02481
G1 X72.204 Y182.495 E.4642
G1 X71.575 Y182.447 E.02219
G1 X71.12 Y182.307 E.01676
G1 X70.568 Y181.984 E.02253
G1 X69.701 Y181.307 E.0387
G1 X69.235 Y180.882 E.02219
G1 X68.963 Y180.491 E.01676
G1 X68.771 Y180.051 E.01692
G1 X68.528 Y179.104 E.0344
G1 X68.453 Y178.491 E.02172
G1 X68.458 Y173.041 E.19182
G3 X68.963 Y171.199 I7.626 J1.101 E.06737
G1 X69.235 Y170.809 E.01676
G1 X69.59 Y170.47 E.01727
G1 X70.45 Y169.799 E.03839
G1 X70.976 Y169.45 E.02219
G1 X71.421 Y169.28 E.01676
G1 X72.055 Y169.195 E.02253
G1 X86.321 Y169.19 E.50209
G2 X88.986 Y168.248 I-.337 J-5.19 E.10074
G2 X91.269 Y165.695 I-4.79 J-6.58 E.12142
G3 X92.849 Y163.67 I14.327 J9.547 E.0905
G1 X101.139 Y154.702 E.42979
G2 X103.313 Y151.906 I-15.656 J-14.417 E.1248
G1 X104.55 Y149.999 E.08
G1 X104.936 Y149.476 E.02287
G1 X105.257 Y149.193 E.01506
G3 X106.649 Y148.733 I1.56 J2.384 E.05219
G1 X117.552 Y148.738 E.38371
G3 X119.079 Y149.467 I-.106 J2.186 E.06114
G1 X119.379 Y149.894 E.01837
G1 X119.554 Y150.381 E.01821
G1 X119.621 Y150.888 E.01802
G2 X119.622 Y159.33 I1256.286 J4.19 E.29711
G2 X120.891 Y163.288 I6.957 J-.048 E.14853
G3 X124.533 Y173.342 I-14.233 J10.844 E.38218
G3 X122.063 Y183.086 I-17.888 J.65 E.35861
G2 X120.872 Y185.954 I6.206 J4.256 E.11009
G2 X120.772 Y187.124 I6.774 J1.172 E.04135
G1 X120.773 Y197.102 E.35119
G1 X120.742 Y197.616 E.01812
G1 X120.643 Y198.019 E.0146
G1 X120.42 Y198.484 E.01815
G3 X118.614 Y199.468 I-1.867 J-1.278 E.07514
G1 X106.814 Y199.468 E.41528
G1 X106.233 Y199.404 E.02055
G1 X105.876 Y199.296 E.01313
G1 X105.349 Y199.047 E.02052
G1 X105.008 Y198.781 E.01522
G1 X104.682 Y198.396 E.01774
G1 X103.462 Y196.532 E.07842
G2 X102.603 Y195.272 I-17.466 J10.985 E.05368
G2 X97.747 Y193.032 I-4.61 J3.61 E.19546
G3 X96.762 Y192.996 I-.385 J-2.929 E.03485
G1 X96.282 Y192.808 E.01813
G2 X103.845 Y185.241 I-1058.466 J-1065.516 E.37652
G1 E-.5 F2400
G1 X103.885 Y185.26 F24000
G1 X107.632 Y183.026
G1 X107.573 Y181.109
G1 X107.573 Y180.956
G1 X107.584 Y180.799
G1 X107.606 Y180.637
G1 X107.643 Y180.472
G1 X107.697 Y180.306
G1 X107.77 Y180.141
G1 X107.863 Y179.978
G1 X107.96 Y179.847
G1 X108.128 Y179.718
G1 X108.328 Y179.691
G1 X108.517 Y179.689
G1 X108.698 Y179.706
G1 X108.844 Y179.733
G1 X109.029 Y179.788
G1 X109.186 Y179.849
G1 X109.328 Y179.918
G1 X113.474 Y182.226
G1 X117.3 Y186.392
G1 X117.396 Y186.49
G1 X117.506 Y186.589
M73 P1 R47
G1 X117.625 Y186.68
G1 X117.752 Y186.765
G1 X117.888 Y186.841
G1 X118.034 Y186.909
G1 X118.191 Y186.965
G1 X118.357 Y187.008
G1 X118.533 Y187.036
G1 X118.717 Y187.046
G1 X118.89 Y186.995
G1 X119.027 Y186.87
G1 X119.147 Y186.737
G1 X119.251 Y186.599
G1 X119.339 Y186.458
G1 X119.413 Y186.314
G1 X121.991 Y180.345
G1 X122.161 Y179.921
G1 X122.319 Y179.491
G1 X122.465 Y179.058
G1 X122.601 Y178.614
G1 X122.636 Y178.478
G1 X122.662 Y178.332
G1 X122.706 Y178.072
G1 E.5 F1800
G1 F3000
G1 X122.721 Y178.144 E.00258
G1 X122.67 Y178.642 E.01761
G3 X121.007 Y182.455 I-16.824 J-5.066 E.14674
G2 X120.035 Y184.358 I8.454 J5.518 E.07534
G2 X119.589 Y186.01 I15.29 J5.017 E.06025
G1 X119.314 Y186.458 E.01851
G1 X118.921 Y186.757 E.01739
G1 X118.471 Y186.904 E.01664
G1 X117.998 Y186.894 E.01664
G1 X117.555 Y186.731 E.01663
G1 X117.216 Y186.464 E.01516
G1 X110.548 Y179.204 E.34695
G1 X110.283 Y178.779 E.01761
G1 X110.18 Y178.323 E.01647
G1 X110.232 Y177.857 E.01647
G1 X110.431 Y177.434 E.01647
G1 X110.757 Y177.098 E.01647
G1 X111.194 Y176.883 E.01713
G1 X111.595 Y176.819 E.01431
G1 X121.307 Y176.819 E.34178
G1 X121.71 Y176.889 E.01442
G1 X122.085 Y177.059 E.01448
G1 X122.42 Y177.366 E.01599
G1 X122.64 Y177.762 E.01595
G1 X122.704 Y178.064 E.01086
G1 E-.5 F2400
G1 X121.931 Y175.583 F24000
G1 E.5 F1800
G1 F3000
G1 X121.87 Y175.607 E.00229
G1 X121.307 Y175.669 E.01995
G1 X111.091 Y175.669 E.35954
G1 X110.68 Y175.595 E.0147
G1 X110.309 Y175.427 E.01434
G1 X109.962 Y175.1 E.01678
G1 X109.743 Y174.676 E.01678
G1 X109.676 Y174.204 E.01678
G1 X109.769 Y173.737 E.01677
G1 X109.982 Y173.358 E.01529
G1 X117.164 Y164.375 E.40476
G1 X117.641 Y163.952 E.02246
G1 X118.1 Y163.742 E.01777
G1 X118.598 Y163.659 E.01777
G1 X119.002 Y163.688 E.01423
G1 X119.476 Y163.837 E.0175
G1 X119.902 Y164.108 E.01777
G1 X120.262 Y164.508 E.01893
G3 X123.318 Y173.736 I-13.458 J9.578 E.34725
G1 X123.254 Y174.238 E.0178
G1 X123.059 Y174.708 E.01791
G1 X122.748 Y175.111 E.01791
G1 X122.342 Y175.418 E.01791
G1 X121.938 Y175.58 E.01533
G1 E-.5 F2400
G1 X110.947 Y175.586 F24000
G1 X110.792 Y175.584
G1 X110.633 Y175.571
G1 X110.471 Y175.545
G1 X110.306 Y175.504
G1 X110.139 Y175.446
G1 X109.972 Y175.369
G1 X109.808 Y175.271
G1 X109.651 Y175.152
G1 X109.51 Y175.007
G1 X107.815 Y171.435
G1 X107.606 Y170.972
G1 E.5 F1800
G1 F3000
G1 X107.57 Y170.892 E.00309
G1 X107.513 Y170.545 E.01239
G1 X107.513 Y158.335 E.42973
G1 X107.621 Y157.671 E.02366
G1 X107.85 Y157.179 E.01909
G1 X108.189 Y156.765 E.01882
G1 X108.619 Y156.446 E.01886
G2 X109.942 Y155.624 I-3.216 J-6.651 E.05491
G1 X110.419 Y155.142 E.02386
G1 X110.819 Y154.595 E.02386
G1 X111.135 Y153.995 E.02386
G1 X111.358 Y153.355 E.02386
G2 X111.596 Y151.926 I-16.954 J-3.557 E.05097
G1 X111.808 Y151.386 E.02043
G1 X112.129 Y150.909 E.02023
G1 X112.545 Y150.511 E.02027
G1 X113.035 Y150.213 E.02019
G1 X113.579 Y150.026 E.02023
G3 X114.17 Y149.957 I.834 J4.635 E.02098
G1 X116.476 Y149.957 E.08114
