; HEADER_BLOCK_START
; generated by OrcaSlicer 1.7.0-beta on 2023-10-03 at 15:05:40
; total layer number: 38
; HEADER_BLOCK_END

; THUMBNAIL_BLOCK_START
; THUMBNAIL_BLOCK_END

; external perimeters extrusion width = 0.40mm
; perimeters extrusion width = 0.46mm
; infill extrusion width = 0.64mm
; solid infill extrusion width = 0.56mm
; top infill extrusion width = 0.40mm
; first layer extrusion width = 0.50mm

; external perimeters extrusion width = 0.40mm
; perimeters extrusion width = 0.46mm
; infill extrusion width = 0.64mm
; solid infill extrusion width = 0.56mm
; top infill extrusion width = 0.40mm
; first layer extrusion width = 0.50mm

; EXECUTABLE_BLOCK_START
EXCLUDE_OBJECT_DEFINE NAME=PCB_Cover_v4.stl_id_0_copy_0 CENTER=160,174 POLYGON=[[99,156.4],[99.0341,156.141],[99.134,155.9],[99.2929,155.693],[99.5,155.534],[99.7412,155.434],[100,155.4],[220,155.4],[220.259,155.434],[220.5,155.534],[220.707,155.693],[220.866,155.9],[220.966,156.141],[221,156.4],[221,191.6],[220.966,191.859],[220.866,192.1],[220.707,192.307],[220.5,192.466],[220.259,192.566],[220,192.6],[100,192.6],[99.7412,192.566],[99.5,192.466],[99.2929,192.307],[99.134,192.1],[99.0341,191.859],[99,191.6],[99,156.4]]
EXCLUDE_OBJECT_DEFINE NAME=Panel.stl_id_1_copy_0 CENTER=160,131.9 POLYGON=[[99,115.4],[99.011,115.191],[99.0437,114.984],[99.0979,114.782],[99.1729,114.587],[99.2679,114.4],[99.382,114.224],[99.5137,114.062],[99.6617,113.914],[99.8244,113.782],[100,113.668],[100.187,113.573],[100.382,113.498],[100.584,113.444],[100.791,113.411],[101,113.4],[219,113.4],[219.209,113.411],[219.416,113.444],[219.618,113.498],[219.813,113.573],[220,113.668],[220.176,113.782],[220.338,113.914],[220.486,114.062],[220.618,114.224],[220.732,114.4],[220.827,114.587],[220.902,114.782],[220.956,114.984],[220.989,115.191],[221,115.4],[221,148.4],[220.989,148.609],[220.956,148.816],[220.902,149.018],[220.827,149.213],[220.732,149.4],[220.618,149.576],[220.486,149.738],[220.338,149.886],[220.176,150.018],[220,150.132],[219.813,150.227],[219.618,150.302],[219.416,150.356],[219.209,150.389],[219,150.4],[101,150.4],[100.791,150.389],[100.584,150.356],[100.382,150.302],[100.187,150.227],[100,150.132],[99.8244,150.018],[99.6617,149.886],[99.5137,149.738],[99.382,149.576],[99.2679,149.4],[99.1729,149.213],[99.0979,149.018],[99.0437,148.816],[99.011,148.609],[99,148.4],[99,115.4]]
M73 P0 R32
;TYPE:Custom
START_PRINT T_BED=110 T_EXTRUDER=260
G90
G21
M83 ; use relative distances for extrusion
; Filament gcode

    PRESSURE_ADVANCE_SELECT FILAMENT=ABS
M106 S0
;LAYER_CHANGE
;Z:0.2
;HEIGHT:0.2
;BEFORE_LAYER_CHANGE
;0.2
G92 E0

G1 E-.5 F2400
;_SET_FAN_SPEED_CHANGING_LAYER
SET_VELOCITY_LIMIT ACCEL=2000 ACCEL_TO_DECEL=1000
G1 X98.237 Y111.338 F36000
G1 Z.2
G1 E.5 F1800
;TYPE:Skirt
;WIDTH:0.5
G1 F3000
G1 X98.864 Y110.976 E.02545
G1 X99.628 Y110.683 E.02881
G1 X101 Y110.486 E.04879
G1 X219.153 Y110.49 E4.15824
G1 X220.154 Y110.625 E.03556
G1 X220.858 Y110.852 E.02604
G1 X221.763 Y111.338 E.03614
G1 X222.399 Y111.853 E.02881
G1 X223.062 Y112.637 E.03614
G1 X223.424 Y113.264 E.02545
G1 X223.771 Y114.23 E.03614
G1 X223.91 Y115.247 E.03614
G1 X223.914 Y191.6 E2.68714
G1 X223.855 Y192.239 E.02259
G1 X223.558 Y193.215 E.0359
G1 X223.019 Y194.081 E.0359
G1 X222.274 Y194.778 E.0359
G1 X221.374 Y195.258 E.0359
G1 X220.639 Y195.455 E.02677
G1 X220 Y195.514 E.02259
G1 X100 Y195.514 E4.22326
M73 P0 R31
G1 X99.361 Y195.455 E.02259
G1 X98.385 Y195.158 E.0359
G1 X97.519 Y194.619 E.0359
G1 X96.822 Y193.874 E.0359
G1 X96.342 Y192.974 E.0359
G1 X96.145 Y192.239 E.02678
G1 X96.086 Y191.6 E.02259
G1 X96.086 Y115.4 E2.68177
G1 X96.229 Y114.23 E.04149
G1 X96.671 Y113.077 E.04346
G1 X97.249 Y112.228 E.03615
G1 X98.208 Y111.365 E.04539
G1 X98.486 Y111.721 F36000
G1 F3000
G1 X99.071 Y111.384 E.02377
G1 X99.746 Y111.125 E.02545
G1 X101 Y110.943 E.04459
G1 X219.129 Y110.946 E4.1574
G1 X220.037 Y111.067 E.03225
G1 X220.694 Y111.279 E.0243
G1 X221.514 Y111.721 E.03278
G1 X222.076 Y112.176 E.02545
G1 X222.679 Y112.886 E.03278
G1 X223.016 Y113.471 E.02377
G1 X223.33 Y114.348 E.03278
G1 X223.454 Y115.271 E.03278
G1 X223.457 Y191.6 E2.6863
G1 X223.402 Y192.18 E.02049
G1 X223.136 Y193.04 E.03171
G1 X222.656 Y193.803 E.03171
G1 X221.996 Y194.415 E.0317
G1 X221.199 Y194.836 E.03171
G1 X220.58 Y195.002 E.02257
G1 X220 Y195.057 E.02049
G1 X100 Y195.057 E4.22326
G1 X99.42 Y195.002 E.02049
G1 X98.56 Y194.736 E.03171
G1 X97.797 Y194.256 E.03171
G1 X97.185 Y193.596 E.03171
G1 X96.764 Y192.799 E.03171
G1 X96.598 Y192.18 E.02258
G1 X96.543 Y191.6 E.02049
G1 X96.543 Y115.4 E2.68177
G1 X96.67 Y114.348 E.03729
G1 X97.079 Y113.285 E.0401
G1 X97.604 Y112.515 E.03278
G1 X98.456 Y111.748 E.04036
; printing object PCB_Cover v4.stl id:0 copy 0
G1 E-.35 F2400
;WIPE_START
G1 F3000
G1 X99.071 Y111.384 E-.10717
G1 X99.338 Y111.281 E-.04283
;WIPE_END
EXCLUDE_OBJECT_START NAME=PCB_Cover_v4.stl_id_0_copy_0
G1 X153.68 Y137.436 F36000
M73 P1 R31
G1 X153.829 Y138.114
G1 X154.06 Y138.791
G1 X154.342 Y139.4
G1 X154.699 Y139.994
G1 X155.119 Y140.546
G1 X155.596 Y141.049
G1 X156.124 Y141.498
G1 X156.698 Y141.887
G1 X157.311 Y142.212
G1 X157.955 Y142.469
G1 X220.323 Y169.159
G1 E.5 F1800
;TYPE:Outer wall
G1 F3000
G3 X219.977 Y169.25 I-.336 J-.572 E.01273
G1 X218.524 Y169.25 E.05113
G1 X218.076 Y169.188 E.01594
G1 X217.563 Y169.226 E.01811
G1 X217.069 Y169.373 E.01811
G1 X216.618 Y169.621 E.01811
G1 X216.23 Y169.959 E.01811
G1 X215.923 Y170.371 E.01811
G1 X215.709 Y170.84 E.01811
G1 X215.6 Y171.343 E.01811
G1 X215.6 Y171.857 E.01811
G1 X215.709 Y172.36 E.01811
G1 X215.923 Y172.829 E.01811
G1 X216.23 Y173.241 E.01811
G1 X216.618 Y173.579 E.01811
G1 X217.069 Y173.827 E.01811
G1 X217.563 Y173.974 E.01811
G1 X218.076 Y174.012 E.01811
G1 X218.524 Y173.95 E.01594
G1 X219.977 Y173.95 E.05113
G3 X220.65 Y174.623 I.01 J.663 E.03735
G1 X220.65 Y191.577 E.59668
G3 X219.977 Y192.25 I-.663 J.01 E.03735
G1 X100.023 Y192.25 E4.22165
G3 X99.35 Y191.577 I-.009 J-.663 E.03735
G1 X99.35 Y174.623 E.59668
G3 X100.023 Y173.95 I.663 J-.01 E.03735
G1 X101.02 Y173.95 E.03508
G1 X101.523 Y173.893 E.01784
G1 X102.021 Y173.719 E.01854
G1 X102.467 Y173.439 E.01854
G1 X102.839 Y173.067 E.01854
G1 X103.119 Y172.621 E.01854
G1 X103.293 Y172.123 E.01854
G1 X103.352 Y171.6 E.01854
G1 X103.293 Y171.077 E.01854
G1 X103.119 Y170.579 E.01854
G1 X102.839 Y170.133 E.01854
G1 X102.467 Y169.761 E.01854
G1 X102.021 Y169.481 E.01854
G1 X101.523 Y169.307 E.01854
G1 X101.02 Y169.25 E.01784
G1 X100.023 Y169.25 E.03508
G3 X99.35 Y168.577 I-.009 J-.663 E.03735
G1 X99.35 Y156.423 E.42775
G3 X100.023 Y155.75 I.663 J-.01 E.03735
G1 X156.232 Y155.751 E1.97822
G3 X156.9 Y156.423 I.005 J.663 E.03715
G1 X156.9 Y162.916 E.22852
G1 X156.951 Y163.47 E.01957
G1 X157.108 Y164.02 E.02014
G1 X157.363 Y164.533 E.02014
G1 X157.701 Y164.981 E.01976
G1 X158.13 Y165.375 E.02049
G1 X158.618 Y165.676 E.02017
G1 X159.141 Y165.879 E.01976
G1 X159.713 Y165.988 E.02049
G1 X160.286 Y165.988 E.02017
G1 X160.849 Y165.883 E.02014
G1 X161.382 Y165.676 E.02014
G1 X161.869 Y165.375 E.02014
G1 X162.292 Y164.989 E.02014
G1 X162.637 Y164.533 E.02014
G1 X162.892 Y164.02 E.02014
G1 X163.049 Y163.47 E.02014
G1 X163.1 Y162.916 E.01957
G1 X163.1 Y156.423 E.22852
G3 X163.773 Y155.75 I.663 J-.01 E.03735
G1 X219.977 Y155.75 E1.97804
G1 X220.167 Y155.775 E.00676
G3 X220.65 Y156.423 I-.194 J.648 E.03047
G1 X220.65 Y168.577 E.42775
G3 X220.329 Y169.155 I-.663 J.01 E.02434
G1 X220.09 Y168.756 F36000
;TYPE:Inner wall
G1 F3000
G1 X220.048 Y168.779 E.00169
G3 X219.947 Y168.793 I-.082 J-.213 E.00361
G1 X218.556 Y168.793 E.04896
G1 X218.09 Y168.728 E.01655
G1 X217.479 Y168.774 E.02156
G1 X216.892 Y168.949 E.02156
G1 X216.355 Y169.244 E.02156
G1 X215.893 Y169.646 E.02156
G1 X215.527 Y170.137 E.02156
G1 X215.273 Y170.695 E.02156
G1 X215.143 Y171.294 E.02156
G1 X215.143 Y171.906 E.02156
G1 X215.273 Y172.505 E.02156
G1 X215.527 Y173.063 E.02156
G1 X215.893 Y173.554 E.02156
G1 X216.355 Y173.956 E.02156
G1 X216.892 Y174.251 E.02156
G1 X217.479 Y174.426 E.02156
G1 X218.09 Y174.472 E.02156
G1 X218.556 Y174.407 E.01655
G1 X219.947 Y174.407 E.04896
G3 X220.193 Y174.653 I.019 J.227 E.01392
G1 X220.193 Y191.547 E.59457
G3 X219.947 Y191.793 I-.227 J.019 E.01392
G1 X100.053 Y191.793 E4.21954
G3 X99.807 Y191.547 I-.019 J-.227 E.01392
G1 X99.807 Y174.653 E.59457
G3 X100.053 Y174.407 I.227 J-.019 E.01392
G1 X101.045 Y174.407 E.03493
G1 X101.626 Y174.342 E.02056
G1 X102.22 Y174.134 E.02216
G1 X102.753 Y173.799 E.02216
G1 X103.199 Y173.353 E.02216
G1 X103.534 Y172.82 E.02216
G1 X103.742 Y172.226 E.02216
G1 X103.812 Y171.6 E.02216
G1 X103.742 Y170.974 E.02216
G1 X103.534 Y170.38 E.02216
G1 X103.199 Y169.847 E.02216
G1 X102.753 Y169.401 E.02216
G1 X102.22 Y169.066 E.02216
G1 X101.626 Y168.858 E.02216
G1 X101.045 Y168.793 E.02056
G1 X100.053 Y168.793 E.03493
G3 X99.807 Y168.547 I-.019 J-.227 E.01392
G1 X99.807 Y156.453 E.42564
G3 X100.053 Y156.207 I.227 J-.019 E.01392
G1 X156.202 Y156.208 E1.97611
G3 X156.443 Y156.453 I.015 J.226 E.01373
G1 X156.443 Y162.937 E.22821
G1 X156.5 Y163.554 E.02181
G1 X156.68 Y164.186 E.02312
G1 X156.973 Y164.774 E.02312
G1 X157.362 Y165.289 E.02271
G1 X157.853 Y165.741 E.02348
G1 X158.413 Y166.087 E.02318
G1 X159.015 Y166.32 E.02271
G1 X159.67 Y166.445 E.02348
G1 X160.329 Y166.445 E.02318
G1 X160.974 Y166.325 E.02312
G1 X161.587 Y166.087 E.02312
G1 X162.146 Y165.741 E.02312
G1 X162.631 Y165.299 E.02312
G1 X163.027 Y164.774 E.02312
G1 X163.32 Y164.186 E.02312
G1 X163.5 Y163.554 E.02312
G1 X163.557 Y162.937 E.02181
G1 X163.557 Y156.453 E.22821
G3 X163.803 Y156.207 I.227 J-.019 E.01392
G1 X219.947 Y156.207 E1.97593
G1 X220.048 Y156.22 E.00359
G3 X220.193 Y156.453 I-.067 J.203 E.01046
G1 X220.193 Y168.547 E.42564
G3 X220.127 Y168.727 I-.227 J.019 E.00696
G1 X220.096 Y168.751 E.00137
G1 X219.736 Y168.336 F36000
G1 F3000
G1 X218.587 Y168.336 E.04042
G1 X218.104 Y168.269 E.01716
G1 X217.396 Y168.322 E.02501
G1 X216.715 Y168.525 E.02501
G1 X216.092 Y168.867 E.02501
G1 X215.556 Y169.334 E.02501
G1 X215.131 Y169.903 E.02501
G1 X214.837 Y170.55 E.02501
G1 X214.686 Y171.245 E.02501
G1 X214.686 Y171.955 E.02501
G1 X214.837 Y172.65 E.02501
G1 X215.131 Y173.297 E.02501
G1 X215.556 Y173.866 E.02501
G1 X216.092 Y174.333 E.02501
G1 X216.715 Y174.675 E.02501
G1 X217.396 Y174.878 E.02501
G1 X218.104 Y174.931 E.02501
G1 X218.587 Y174.864 E.01716
G1 X219.736 Y174.864 E.04042
G1 X219.736 Y191.336 E.5797
M73 P2 R31
G1 X100.264 Y191.336 E4.20467
G1 X100.264 Y174.864 E.5797
G1 X101.071 Y174.864 E.0284
G1 X101.728 Y174.79 E.02327
G1 X102.42 Y174.548 E.02579
G1 X103.04 Y174.158 E.02579
G1 X103.558 Y173.64 E.02579
G1 X103.948 Y173.02 E.02579
G1 X104.19 Y172.328 E.02579
G1 X104.272 Y171.6 E.02579
G1 X104.19 Y170.872 E.02579
G1 X103.948 Y170.18 E.02579
G1 X103.558 Y169.56 E.02579
G1 X103.04 Y169.042 E.02579
G1 X102.42 Y168.652 E.02579
G1 X101.728 Y168.41 E.02579
G1 X101.071 Y168.336 E.02327
G1 X100.264 Y168.336 E.0284
G1 X100.264 Y156.664 E.41077
G1 X155.986 Y156.665 E1.96106
G1 X155.986 Y162.958 E.2215
G1 X156.049 Y163.639 E.02404
G1 X156.252 Y164.352 E.02611
G1 X156.582 Y165.016 E.02611
G1 X157.022 Y165.598 E.02567
G1 X157.576 Y166.106 E.02646
G1 X158.208 Y166.498 E.02619
G1 X158.888 Y166.762 E.02567
G1 X159.627 Y166.902 E.02646
G1 X160.371 Y166.902 E.02619
G1 X161.1 Y166.766 E.02611
G1 X161.792 Y166.498 E.02611
G1 X162.422 Y166.108 E.02611
G1 X162.97 Y165.608 E.0261
G1 X163.418 Y165.016 E.02611
G1 X163.748 Y164.352 E.02611
G1 X163.951 Y163.639 E.02611
G1 X164.014 Y162.958 E.02404
G1 X164.014 Y156.664 E.22152
G1 X219.736 Y156.664 E1.96106
G1 X219.736 Y168.328 E.41049
G1 X219.279 Y167.879 F36000
G1 F3000
G1 X218.619 Y167.879 E.02322
G1 X218.119 Y167.809 E.01777
G1 X217.313 Y167.87 E.02846
G1 X216.537 Y168.101 E.02846
G1 X215.829 Y168.49 E.02846
G1 X215.219 Y169.021 E.02846
G1 X214.735 Y169.669 E.02846
G1 X214.4 Y170.405 E.02846
G1 X214.229 Y171.196 E.02846
G1 X214.229 Y172.004 E.02846
G1 X214.4 Y172.795 E.02846
G1 X214.735 Y173.531 E.02846
G1 X215.219 Y174.179 E.02846
G1 X215.829 Y174.71 E.02846
G1 X216.537 Y175.099 E.02846
G1 X217.313 Y175.33 E.02846
G1 X218.119 Y175.391 E.02846
G1 X218.619 Y175.321 E.01777
G1 X219.279 Y175.321 E.02322
G1 X219.279 Y190.879 E.54753
G1 X181.273 Y190.879 E1.33756
G1 X177.459 Y180.253 E.39733
G1 X172.884 Y180.253 E.16101
G1 X172.237 Y182.003 E.06567
G1 X171.671 Y181.396 E.0292
G1 X171.251 Y181.039 E.01942
G2 X169.333 Y180.307 I-3.027 J5.054 E.07261
G2 X166.209 Y180.259 I-1.702 J9.141 E.11047
G2 X164.735 Y180.673 I2.053 J10.145 E.05392
G1 X164.735 Y180.253 E.01478
G1 X155.514 Y180.253 E.32452
G1 X155.333 Y180.603 E.01388
G2 X151.871 Y180.176 I-2.741 J7.973 E.12365
G2 X150.444 Y180.429 I.338 J6.068 E.05112
G1 X149.678 Y180.673 E.02829
G1 X149.678 Y180.253 E.01478
G1 X144.585 Y180.253 E.17926
G1 X144.585 Y180.852 E.02108
G1 X144.393 Y180.913 E.00709
G1 X143.934 Y180.253 E.02829
G1 X139.496 Y180.253 E.15619
G1 X139.496 Y190.879 E.37396
G1 X100.721 Y190.879 E1.36462
G1 X100.721 Y175.321 E.54753
G1 X101.097 Y175.321 E.01321
G1 X101.83 Y175.239 E.02599
G1 X102.619 Y174.963 E.02941
G1 X103.327 Y174.518 E.02941
G1 X103.918 Y173.927 E.02941
G1 X104.363 Y173.219 E.02941
G1 X104.639 Y172.43 E.02941
G1 X104.732 Y171.6 E.02941
G1 X104.639 Y170.77 E.02941
G1 X104.363 Y169.981 E.02941
G1 X103.918 Y169.273 E.02941
G1 X103.327 Y168.682 E.02941
G1 X102.619 Y168.237 E.02941
G1 X101.83 Y167.961 E.02941
G1 X101.097 Y167.879 E.02599
G1 X100.721 Y167.879 E.01321
G1 X100.721 Y157.121 E.3786
G1 X155.529 Y157.122 E1.92889
G1 X155.529 Y162.98 E.20615
G1 X155.598 Y163.723 E.02627
G1 X155.824 Y164.518 E.02909
G1 X156.192 Y165.258 E.02909
G1 X156.682 Y165.907 E.02862
G1 X157.298 Y166.472 E.02944
G1 X158.004 Y166.909 E.0292
G1 X158.762 Y167.203 E.02862
G1 X159.584 Y167.36 E.02944
G1 X160.413 Y167.36 E.0292
G1 X161.226 Y167.208 E.02909
G1 X161.996 Y166.909 E.02909
G1 X162.699 Y166.474 E.02909
G1 X163.31 Y165.917 E.02909
G1 X163.808 Y165.258 E.02909
G1 X164.176 Y164.518 E.02909
G1 X164.402 Y163.723 E.02909
G1 X164.471 Y162.98 E.02627
G1 X164.471 Y157.121 E.20618
G1 X219.279 Y157.121 E1.92889
G1 X219.279 Y167.871 E.37832
G1 E-.5 F2400
G1 X165.779 Y181.427 F36000
G1 X165.231 Y181.776
G1 X164.983 Y182.036
G1 X164.772 Y182.305
G1 X163.014 Y184.722
G1 X163.238 Y189.348
G1 X162.671 Y189.81
G1 X144.78 Y190.183
G1 E.5 F1800
G1 F3000
G1 X145.272 Y190.879 E.02999
G1 X144.59 Y190.879 E.02403
G1 X144.589 Y190.244 E.02234
G1 X144.772 Y190.186 E.00678
G1 E-.5 F2400
G1 X149.678 Y190.438 F36000
G1 E.5 F1800
G1 F3000
G1 X150.078 Y190.588 E.01504
G1 X150.26 Y190.647 E.00673
G1 X150.224 Y190.879 E.00826
G1 X149.678 Y190.879 E.01921
G1 X149.678 Y190.446 E.01523
G1 E-.5 F2400
G1 X157.864 Y190.879 F36000
G1 E.5 F1800
G1 F3000
G1 X154.888 Y190.879 E.10474
G1 X154.851 Y190.648 E.00824
G2 X156.35 Y189.877 I-1.204 J-4.184 E.05971
G1 X156.882 Y190.299 E.02391
G1 X157.748 Y190.602 E.03228
G1 X157.892 Y190.636 E.00522
G1 X157.865 Y190.871 E.00831
G1 E-.5 F2400
G1 X164.735 Y190.438 F36000
G1 E.5 F1800
G1 F3000
G1 X165.135 Y190.588 E.01504
G1 X165.317 Y190.647 E.00673
G1 X165.281 Y190.879 E.00826
G1 X164.735 Y190.879 E.01921
G1 X164.735 Y190.446 E.01523
G1 E-.5 F2400
G1 X174.489 Y190.879 F36000
G1 E.5 F1800
G1 F3000
G1 X175.007 Y189.332 E.05741
G1 X175.204 Y189.332 E.00694
G1 X175.723 Y190.879 E.05741
G1 X174.497 Y190.879 E.04315
G1 E-.5 F2400
G1 X170.941 Y189.45 F36000
G1 E.5 F1800
;TYPE:Outer wall
G1 F3000
G2 X171.673 Y187.699 I-22.43 J-10.408 E.0668
G3 X172.102 Y186.324 I16.443 J4.379 E.0507
G1 X173.839 Y181.624 E.17634
G1 X176.494 Y181.624 E.09344
M73 P3 R31
G1 X179.312 Y189.474 E.29354
G1 X176.698 Y189.474 E.092
G1 X175.696 Y186.484 E.11101
G3 X175.413 Y185.534 I9.966 J-3.483 E.03488
G2 X175.204 Y184.704 I-3.109 J.341 E.03023
G1 X175.007 Y184.704 E.00694
G1 X174.887 Y185.061 E.01328
G3 X174.666 Y186.017 I-6.074 J-.899 E.03454
G3 X173.513 Y189.475 I-167.502 J-53.955 E.12829
G3 X170.949 Y189.45 I-.702 J-60.847 E.09024
G1 E-.5 F2400
G1 X168.76 Y189.851 F36000
G1 X168.502 Y189.882
G1 X168.277 Y189.898
G1 X168.058 Y189.91
G1 X167.63 Y189.918
G1 X167.165 Y189.908
G1 X166.924 Y189.892
