; HEADER_BLOCK_START
; generated by OrcaSlicer 1.7.0-beta on 2023-10-03 at 15:05:58
; total layer number: 38
; HEADER_BLOCK_END

; THUMBNAIL_BLOCK_START
; THUMBNAIL_BLOCK_END

; external perimeters extrusion width = 0.40mm
; perimeters extrusion width = 0.46mm
; infill extrusion width = 0.64mm
; solid infill extrusion width = 0.56mm
; top infill extrusion width = 0.40mm
; first layer extrusion width = 0.50mm

; EXECUTABLE_BLOCK_START
EXCLUDE_OBJECT_DEFINE NAME=PCB_Cover_v4.stl_id_0_copy_0 CENTER=160,153 POLYGON=[[99,135.4],[99.0341,135.141],[99.134,134.9],[99.2929,134.693],[99.5,134.534],[99.7412,134.434],[100,134.4],[220,134.4],[220.259,134.434],[220.5,134.534],[220.707,134.693],[220.866,134.9],[220.966,135.141],[221,135.4],[221,170.6],[220.966,170.859],[220.866,171.1],[220.707,171.307],[220.5,171.466],[220.259,171.566],[220,171.6],[100,171.6],[99.7412,171.566],[99.5,171.466],[99.2929,171.307],[99.134,171.1],[99.0341,170.859],[99,170.6],[99,135.4]]
M73 P0 R18
;TYPE:Custom
START_PRINT T_BED=110 T_EXTRUDER=260
G90
G21
M83 ; use relative distances for extrusion
; Filament gcode

    PRESSURE_ADVANCE_SELECT FILAMENT=ABS
M106 S0
;LAYER_CHANGE
;Z:0.2
;HEIGHT:0.2
;BEFORE_LAYER_CHANGE
;0.2
G92 E0

G1 E-.5 F2400
;_SET_FAN_SPEED_CHANGING_LAYER
SET_VELOCITY_LIMIT ACCEL=2000 ACCEL_TO_DECEL=1000
G1 X97.519 Y132.381 F36000
G1 Z.2
G1 E.5 F1800
;TYPE:Skirt
;WIDTH:0.5
G1 F3000
G1 X98.626 Y131.742 E.04499
G1 X99.361 Y131.545 E.02678
G1 X100 Y131.486 E.02259
G1 X220.38 Y131.511 E4.23665
G1 X221.615 Y131.842 E.04499
G1 X222.481 Y132.381 E.0359
G1 X223.019 Y132.919 E.02677
G1 X223.658 Y134.026 E.04499
G1 X223.855 Y134.761 E.02677
G1 X223.914 Y135.4 E.02259
G1 X223.914 Y170.6 E1.23882
G1 X223.855 Y171.239 E.02259
G1 X223.658 Y171.974 E.02677
G1 X223.178 Y172.874 E.0359
G1 X222.274 Y173.778 E.04499
G1 X221.374 Y174.258 E.0359
G1 X220.639 Y174.455 E.02677
G1 X220 Y174.514 E.02259
G1 X100 Y174.514 E4.22326
G1 X99.361 Y174.455 E.02259
G1 X98.626 Y174.258 E.02677
G1 X97.726 Y173.778 E.0359
G1 X96.981 Y173.081 E.0359
G1 X96.342 Y171.974 E.04499
G1 X96.145 Y171.239 E.02678
G1 X96.086 Y170.6 E.02259
G1 X96.086 Y135.4 E1.23882
G1 X96.145 Y134.761 E.02259
G1 X96.342 Y134.026 E.02678
G1 X96.822 Y133.126 E.0359
G1 X97.492 Y132.41 E.0345
G1 X97.797 Y132.744 F36000
G1 F3000
G1 X98.801 Y132.164 E.04079
G1 X99.42 Y131.998 E.02258
G1 X100 Y131.943 E.02049
G1 X220.321 Y131.964 E4.23455
G1 X221.44 Y132.264 E.04079
G1 X222.203 Y132.744 E.0317
G1 X222.656 Y133.197 E.02257
G1 X223.236 Y134.201 E.04079
G1 X223.402 Y134.82 E.02258
G1 X223.457 Y135.4 E.02049
G1 X223.457 Y170.6 E1.23882
M73 P1 R18
G1 X223.402 Y171.18 E.02049
G1 X223.236 Y171.799 E.02257
G1 X222.815 Y172.596 E.03171
G1 X221.996 Y173.415 E.04079
G1 X221.199 Y173.836 E.03171
G1 X220.58 Y174.002 E.02257
G1 X220 Y174.057 E.02049
G1 X100 Y174.057 E4.22326
G1 X99.42 Y174.002 E.02049
G1 X98.801 Y173.836 E.02257
G1 X98.004 Y173.415 E.03171
G1 X97.344 Y172.803 E.03171
G1 X96.764 Y171.799 E.04079
G1 X96.598 Y171.18 E.02258
G1 X96.543 Y170.6 E.02049
G1 X96.543 Y135.4 E1.23882
G1 X96.598 Y134.82 E.02049
G1 X96.764 Y134.201 E.02258
G1 X97.185 Y133.404 E.0317
G1 X97.77 Y132.773 E.0303
; printing object PCB_Cover v4.stl id:0 copy 0
G1 E-.35 F2400
;WIPE_START
G1 F3000
G1 X98.631 Y132.264 E-.15
;WIPE_END
EXCLUDE_OBJECT_START NAME=PCB_Cover_v4.stl_id_0_copy_0
G1 X220.323 Y148.159 F36000
G1 E.5 F1800
;TYPE:Outer wall
G1 F3000
G3 X219.977 Y148.25 I-.336 J-.572 E.01273
G1 X218.524 Y148.25 E.05113
G1 X218.076 Y148.188 E.01594
G1 X217.563 Y148.226 E.01811
G1 X217.069 Y148.373 E.01811
G1 X216.618 Y148.621 E.01811
G1 X216.23 Y148.959 E.01811
G1 X215.923 Y149.371 E.01811
G1 X215.709 Y149.84 E.01811
G1 X215.6 Y150.343 E.01811
G1 X215.6 Y150.857 E.01811
G1 X215.709 Y151.36 E.01811
G1 X215.923 Y151.829 E.01811
G1 X216.23 Y152.241 E.01811
G1 X216.618 Y152.579 E.01811
G1 X217.069 Y152.827 E.01811
G1 X217.563 Y152.974 E.01811
G1 X218.076 Y153.012 E.01811
G1 X218.524 Y152.95 E.01594
G1 X219.977 Y152.95 E.05113
G3 X220.65 Y153.623 I.01 J.663 E.03735
G1 X220.65 Y170.577 E.59668
G3 X219.977 Y171.25 I-.663 J.01 E.03735
G1 X100.023 Y171.25 E4.22165
G3 X99.35 Y170.577 I-.009 J-.663 E.03735
G1 X99.35 Y153.623 E.59668
G3 X100.023 Y152.95 I.663 J-.01 E.03735
G1 X101.02 Y152.95 E.03508
G1 X101.523 Y152.893 E.01784
G1 X102.021 Y152.719 E.01854
G1 X102.467 Y152.439 E.01854
G1 X102.839 Y152.067 E.01854
G1 X103.119 Y151.621 E.01854
G1 X103.293 Y151.123 E.01854
G1 X103.352 Y150.6 E.01854
G1 X103.293 Y150.077 E.01854
G1 X103.119 Y149.579 E.01854
G1 X102.839 Y149.133 E.01854
G1 X102.467 Y148.761 E.01854
G1 X102.021 Y148.481 E.01854
G1 X101.523 Y148.307 E.01854
G1 X101.02 Y148.25 E.01784
G1 X100.023 Y148.25 E.03508
G3 X99.35 Y147.577 I-.009 J-.663 E.03735
G1 X99.35 Y135.423 E.42775
G3 X100.023 Y134.75 I.663 J-.01 E.03735
G1 X156.232 Y134.751 E1.97822
G3 X156.9 Y135.423 I.005 J.663 E.03715
G1 X156.9 Y141.916 E.22852
G1 X156.951 Y142.47 E.01957
G1 X157.108 Y143.02 E.02014
M73 P2 R18
G1 X157.363 Y143.533 E.02014
G1 X157.701 Y143.981 E.01976
G1 X158.13 Y144.375 E.02049
G1 X158.618 Y144.676 E.02017
G1 X159.141 Y144.879 E.01976
G1 X159.713 Y144.988 E.02049
G1 X160.286 Y144.988 E.02017
G1 X160.849 Y144.883 E.02014
G1 X161.382 Y144.676 E.02014
G1 X161.869 Y144.375 E.02014
G1 X162.292 Y143.989 E.02014
G1 X162.637 Y143.533 E.02014
G1 X162.892 Y143.02 E.02014
G1 X163.049 Y142.47 E.02014
G1 X163.1 Y141.916 E.01957
G1 X163.1 Y135.423 E.22852
G3 X163.773 Y134.75 I.663 J-.01 E.03735
G1 X219.977 Y134.75 E1.97804
G1 X220.167 Y134.775 E.00676
G3 X220.65 Y135.423 I-.194 J.648 E.03047
G1 X220.65 Y147.577 E.42775
G3 X220.329 Y148.155 I-.663 J.01 E.02434
G1 X220.09 Y147.756 F36000
;TYPE:Inner wall
G1 F3000
G1 X220.048 Y147.779 E.00169
G3 X219.947 Y147.793 I-.082 J-.213 E.00361
G1 X218.556 Y147.793 E.04896
G1 X218.09 Y147.728 E.01655
G1 X217.479 Y147.774 E.02156
G1 X216.892 Y147.949 E.02156
G1 X216.355 Y148.244 E.02156
G1 X215.893 Y148.646 E.02156
G1 X215.527 Y149.137 E.02156
G1 X215.273 Y149.695 E.02156
G1 X215.143 Y150.294 E.02156
G1 X215.143 Y150.906 E.02156
G1 X215.273 Y151.505 E.02156
G1 X215.527 Y152.063 E.02156
G1 X215.893 Y152.554 E.02156
G1 X216.355 Y152.956 E.02156
G1 X216.892 Y153.251 E.02156
G1 X217.479 Y153.426 E.02156
G1 X218.09 Y153.472 E.02156
G1 X218.556 Y153.407 E.01655
G1 X219.947 Y153.407 E.04896
G3 X220.193 Y153.653 I.019 J.227 E.01392
G1 X220.193 Y170.547 E.59457
G3 X219.947 Y170.793 I-.227 J.019 E.01392
G1 X100.053 Y170.793 E4.21954
G3 X99.807 Y170.547 I-.019 J-.227 E.01392
G1 X99.807 Y153.653 E.59457
G3 X100.053 Y153.407 I.227 J-.019 E.01392
G1 X101.045 Y153.407 E.03493
G1 X101.626 Y153.342 E.02056
G1 X102.22 Y153.134 E.02216
G1 X102.753 Y152.799 E.02216
G1 X103.199 Y152.353 E.02216
G1 X103.534 Y151.82 E.02216
G1 X103.742 Y151.226 E.02216
G1 X103.812 Y150.6 E.02216
G1 X103.742 Y149.974 E.02216
G1 X103.534 Y149.38 E.02216
G1 X103.199 Y148.847 E.02216
G1 X102.753 Y148.401 E.02216
G1 X102.22 Y148.066 E.02216
G1 X101.626 Y147.858 E.02216
G1 X101.045 Y147.793 E.02056
G1 X100.053 Y147.793 E.03493
G3 X99.807 Y147.547 I-.019 J-.227 E.01392
G1 X99.807 Y135.453 E.42564
G3 X100.053 Y135.207 I.227 J-.019 E.01392
G1 X156.202 Y135.208 E1.97611
G3 X156.443 Y135.453 I.015 J.226 E.01373
G1 X156.443 Y141.937 E.22821
G1 X156.5 Y142.554 E.02181
G1 X156.68 Y143.186 E.02312
G1 X156.973 Y143.774 E.02312
G1 X157.362 Y144.289 E.02271
G1 X157.853 Y144.741 E.02348
G1 X158.413 Y145.087 E.02318
G1 X159.015 Y145.32 E.02271
G1 X159.67 Y145.445 E.02348
G1 X160.329 Y145.445 E.02318
G1 X160.974 Y145.325 E.02312
G1 X161.587 Y145.087 E.02312
G1 X162.146 Y144.741 E.02312
G1 X162.631 Y144.299 E.02312
G1 X163.027 Y143.774 E.02312
G1 X163.32 Y143.186 E.02312
G1 X163.5 Y142.554 E.02312
G1 X163.557 Y141.937 E.02181
G1 X163.557 Y135.453 E.22821
G3 X163.803 Y135.207 I.227 J-.019 E.01392
G1 X219.947 Y135.207 E1.97593
G1 X220.048 Y135.22 E.00359
G3 X220.193 Y135.453 I-.067 J.203 E.01046
G1 X220.193 Y147.547 E.42564
G3 X220.127 Y147.727 I-.227 J.019 E.00696
G1 X220.096 Y147.751 E.00137
G1 X219.736 Y147.336 F36000
G1 F3000
G1 X218.587 Y147.336 E.04042
G1 X218.104 Y147.269 E.01716
G1 X217.396 Y147.322 E.02501
G1 X216.715 Y147.525 E.02501
G1 X216.092 Y147.867 E.02501
G1 X215.556 Y148.334 E.02501
G1 X215.131 Y148.903 E.02501
G1 X214.837 Y149.55 E.02501
G1 X214.686 Y150.245 E.02501
G1 X214.686 Y150.955 E.02501
G1 X214.837 Y151.65 E.02501
G1 X215.131 Y152.297 E.02501
G1 X215.556 Y152.866 E.02501
M73 P3 R18
G1 X216.092 Y153.333 E.02501
G1 X216.715 Y153.675 E.02501
G1 X217.396 Y153.878 E.02501
G1 X218.104 Y153.931 E.02501
G1 X218.587 Y153.864 E.01716
G1 X219.736 Y153.864 E.04042
G1 X219.736 Y170.336 E.5797
G1 X100.264 Y170.336 E4.20467
G1 X100.264 Y153.864 E.5797
G1 X101.071 Y153.864 E.0284
G1 X101.728 Y153.79 E.02327
G1 X102.42 Y153.548 E.02579
G1 X103.04 Y153.158 E.02579
G1 X103.558 Y152.64 E.02579
G1 X103.948 Y152.02 E.02579
G1 X104.19 Y151.328 E.02579
G1 X104.272 Y150.6 E.02579
G1 X104.19 Y149.872 E.02579
G1 X103.948 Y149.18 E.02579
G1 X103.558 Y148.56 E.02579
G1 X103.04 Y148.042 E.02579
G1 X102.42 Y147.652 E.02579
G1 X101.728 Y147.41 E.02579
G1 X101.071 Y147.336 E.02327
G1 X100.264 Y147.336 E.0284
G1 X100.264 Y135.664 E.41077
G1 X155.986 Y135.665 E1.96106
G1 X155.986 Y141.958 E.2215
G1 X156.049 Y142.639 E.02404
G1 X156.252 Y143.352 E.02611
G1 X156.582 Y144.016 E.02611
G1 X157.022 Y144.598 E.02567
G1 X157.576 Y145.106 E.02646
G1 X158.208 Y145.498 E.02619
G1 X158.888 Y145.762 E.02567
G1 X159.627 Y145.902 E.02646
G1 X160.371 Y145.902 E.02619
G1 X161.1 Y145.766 E.02611
G1 X161.792 Y145.498 E.02611
G1 X162.422 Y145.108 E.02611
G1 X162.97 Y144.608 E.0261
G1 X163.418 Y144.016 E.02611
G1 X163.748 Y143.352 E.02611
G1 X163.951 Y142.639 E.02611
G1 X164.014 Y141.958 E.02404
G1 X164.014 Y135.664 E.22152
G1 X219.736 Y135.664 E1.96106
G1 X219.736 Y147.328 E.41049
G1 X219.279 Y146.879 F36000
G1 F3000
G1 X218.619 Y146.879 E.02322
G1 X218.119 Y146.809 E.01777
G1 X217.313 Y146.87 E.02846
G1 X216.537 Y147.101 E.02846
G1 X215.829 Y147.49 E.02846
G1 X215.219 Y148.021 E.02846
G1 X214.735 Y148.669 E.02846
G1 X214.4 Y149.405 E.02846
G1 X214.229 Y150.196 E.02846
G1 X214.229 Y151.004 E.02846
G1 X214.4 Y151.795 E.02846
G1 X214.735 Y152.531 E.02846
G1 X215.219 Y153.179 E.02846
G1 X215.829 Y153.71 E.02846
G1 X216.537 Y154.099 E.02846
G1 X217.313 Y154.33 E.02846
G1 X218.119 Y154.391 E.02846
G1 X218.619 Y154.321 E.01777
G1 X219.279 Y154.321 E.02322
G1 X219.279 Y169.879 E.54753
G1 X181.273 Y169.879 E1.33756
G1 X177.459 Y159.253 E.39733
G1 X172.884 Y159.253 E.16101
G1 X172.237 Y161.003 E.06567
G1 X171.671 Y160.396 E.0292
G1 X171.251 Y160.039 E.01942
G2 X169.333 Y159.307 I-3.027 J5.054 E.07261
G2 X166.209 Y159.259 I-1.702 J9.141 E.11047
G2 X164.735 Y159.673 I2.053 J10.145 E.05392
G1 X164.735 Y159.253 E.01478
G1 X155.514 Y159.253 E.32452
G1 X155.333 Y159.603 E.01388
G2 X151.871 Y159.176 I-2.741 J7.973 E.12365
G2 X150.444 Y159.429 I.338 J6.068 E.05112
G1 X149.678 Y159.673 E.02829
G1 X149.678 Y159.253 E.01478
G1 X144.585 Y159.253 E.17926
G1 X144.585 Y159.852 E.02108
G1 X144.393 Y159.913 E.00709
G1 X143.934 Y159.253 E.02829
G1 X139.496 Y159.253 E.15619
G1 X139.496 Y169.879 E.37396
M73 P4 R18
G1 X100.721 Y169.879 E1.36462
G1 X100.721 Y154.321 E.54753
G1 X101.097 Y154.321 E.01321
G1 X101.83 Y154.239 E.02599
G1 X102.619 Y153.963 E.02941
G1 X103.327 Y153.518 E.02941
G1 X103.918 Y152.927 E.02941
G1 X104.363 Y152.219 E.02941
G1 X104.639 Y151.43 E.02941
G1 X104.732 Y150.6 E.02941
G1 X104.639 Y149.77 E.02941
G1 X104.363 Y148.981 E.02941
G1 X103.918 Y148.273 E.02941
G1 X103.327 Y147.682 E.02941
G1 X102.619 Y147.237 E.02941
G1 X101.83 Y146.961 E.02941
G1 X101.097 Y146.879 E.02599
G1 X100.721 Y146.879 E.01321
G1 X100.721 Y136.121 E.3786
G1 X155.529 Y136.122 E1.92889
G1 X155.529 Y141.98 E.20615
G1 X155.598 Y142.723 E.02627
G1 X155.824 Y143.518 E.02909
G1 X156.192 Y144.258 E.02909
G1 X156.682 Y144.907 E.02862
G1 X157.298 Y145.472 E.02944
G1 X158.004 Y145.909 E.0292
G1 X158.762 Y146.203 E.02862
G1 X159.584 Y146.36 E.02944
G1 X160.413 Y146.36 E.0292
G1 X161.226 Y146.208 E.02909
G1 X161.996 Y145.909 E.02909
G1 X162.699 Y145.474 E.02909
G1 X163.31 Y144.917 E.02909
G1 X163.808 Y144.258 E.02909
G1 X164.176 Y143.518 E.02909
G1 X164.402 Y142.723 E.02909
M73 P4 R17
G1 X164.471 Y141.98 E.02627
G1 X164.471 Y136.121 E.20618
G1 X219.279 Y136.121 E1.92889
G1 X219.279 Y146.871 E.37832
G1 E-.5 F2400
G1 X165.779 Y160.427 F36000
G1 X165.231 Y160.776
G1 X164.983 Y161.036
G1 X164.772 Y161.305
G1 X163.014 Y163.722
G1 X163.238 Y168.348
G1 X162.671 Y168.81
G1 X144.78 Y169.183
G1 E.5 F1800
G1 F3000
G1 X145.272 Y169.879 E.02999
G1 X144.59 Y169.879 E.02403
G1 X144.589 Y169.244 E.02234
G1 X144.772 Y169.186 E.00678
G1 E-.5 F2400
G1 X149.678 Y169.438 F36000
G1 E.5 F1800
G1 F3000
G1 X150.078 Y169.588 E.01504
G1 X150.26 Y169.647 E.00673
G1 X150.224 Y169.879 E.00826
G1 X149.678 Y169.879 E.01921
G1 X149.678 Y169.446 E.01523
G1 E-.5 F2400
G1 X157.864 Y169.879 F36000
G1 E.5 F1800
G1 F3000
G1 X154.888 Y169.879 E.10474
G1 X154.851 Y169.648 E.00824
G2 X156.35 Y168.877 I-1.204 J-4.184 E.05971
G1 X156.882 Y169.299 E.02391
G1 X157.748 Y169.602 E.03228
G1 X157.892 Y169.636 E.00522
G1 X157.865 Y169.871 E.00831
G1 E-.5 F2400
G1 X164.735 Y169.438 F36000
G1 E.5 F1800
G1 F3000
G1 X165.135 Y169.588 E.01504
G1 X165.317 Y169.647 E.00673
G1 X165.281 Y169.879 E.00826
G1 X164.735 Y169.879 E.01921
G1 X164.735 Y169.446 E.01523
G1 E-.5 F2400
G1 X174.489 Y169.879 F36000
G1 E.5 F1800
G1 F3000
G1 X175.007 Y168.332 E.05741
G1 X175.204 Y168.332 E.00694
G1 X175.723 Y169.879 E.05741
G1 X174.497 Y169.879 E.04315
G1 E-.5 F2400
G1 X170.941 Y168.45 F36000
G1 E.5 F1800
;TYPE:Outer wall
G1 F3000
G2 X171.673 Y166.699 I-22.43 J-10.408 E.0668
G3 X172.102 Y165.324 I16.443 J4.379 E.0507
G1 X173.839 Y160.624 E.17634
G1 X176.494 Y160.624 E.09344
G1 X179.312 Y168.474 E.29354
G1 X176.698 Y168.474 E.092
G1 X175.696 Y165.484 E.11101
G3 X175.413 Y164.534 I9.966 J-3.483 E.03488
G2 X175.204 Y163.704 I-3.109 J.341 E.03023
G1 X175.007 Y163.704 E.00694
G1 X174.887 Y164.061 E.01328
G3 X174.666 Y165.017 I-6.074 J-.899 E.03454
G3 X173.513 Y168.475 I-167.502 J-53.955 E.12829
G3 X170.949 Y168.45 I-.702 J-60.847 E.09024
G1 E-.5 F2400
G1 X168.76 Y168.851 F36000
G1 X168.502 Y168.882
G1 X168.277 Y168.898
G1 X168.058 Y168.91
G1 X167.63 Y168.918
G1 X167.165 Y168.908
G1 X166.924 Y168.892
G1 X166.687 Y168.87
G1 X166.454 Y168.841
G1 X166.217 Y168.804
G1 X165.982 Y168.754
G1 X165.742 Y168.696
G1 X165.485 Y168.584
G1 X165.264 Y168.382
G1 X165.063 Y168.167
G1 X164.87 Y167.939
G1 X164.721 Y167.715
G1 X164.6 Y167.495
G1 X164.508 Y167.271
G1 X164.433 Y167.05
G1 X164.278 Y166.547
G1 X164.238 Y166.292
G1 X163.974 Y162.318
G1 E.5 F1800
G1 F3000
G3 X165.005 Y161.074 I2.051 J.651 E.05828
G3 X167.18 Y160.537 I2.362 J4.887 E.07944
G3 X169.872 Y160.877 I.535 J6.589 E.09617
G3 X171.367 Y162.953 I-.645 J2.041 E.09649
G3 X171.359 Y165.605 I-87.997 J1.059 E.09333
G3 X171.134 Y166.86 I-3.232 J.068 E.04517
G3 X170.117 Y168.088 I-1.998 J-.62 E.05756
G3 X167.631 Y168.582 I-2.258 J-4.856 E.09008
G3 X165.342 Y168.201 I-.19 J-5.921 E.08219
G3 X163.873 Y166.045 I.799 J-2.122 E.09782
G1 X163.873 Y162.952 E.10886
G3 X163.971 Y162.326 I2.151 J.017 E.02239
G1 E-.5 F2400
G1 X163.231 Y160.758 F36000
G1 X162.671 Y160.289
G1 X152.563 Y160.18
G1 X146.651 Y160.289
M73 P5 R17
G1 X145.652 Y160.318
G1 X146.058 Y164.534
G1 E.5 F1800
G1 F3000
G2 X145.973 Y163.332 I-17.52 J.633 E.04241
G3 X145.958 Y160.624 I52.759 J-1.655 E.0953
G1 X148.307 Y160.624 E.08269
G1 X148.307 Y168.474 E.27627
G1 X145.958 Y168.474 E.08267
G1 X144.217 Y166.014 E.10607
G3 X143.697 Y165.202 I8.394 J-5.95 E.03395
G2 X143.307 Y164.561 I-2.999 J1.383 E.02646
G1 X143.116 Y164.622 E.00706
G1 X143.116 Y164.879 E.00903
G3 X143.214 Y166.274 I-13.364 J1.635 E.04924
G1 X143.217 Y168.474 E.07745
G1 X140.867 Y168.474 E.08269
G1 X140.867 Y160.624 E.27627
G1 X143.218 Y160.624 E.08274
G1 X144.959 Y163.123 E.10716
G3 X145.478 Y163.946 I-8.611 J6.008 E.03429
G2 X145.866 Y164.594 I3.058 J-1.389 E.02662
G1 X146.05 Y164.536 E.0068
G1 E-.5 F2400
G1 X145.652 Y160.318 F36000
G1 X146.651 Y160.289
