; HEADER_BLOCK_START
; generated by OrcaSlicer 1.6.2 on 2023-05-17 at 07:20:16
; total layer number: 63
; HEADER_BLOCK_END

; THUMBNAIL_BLOCK_START
; THUMBNAIL_BLOCK_END

; external perimeters extrusion width = 0.40mm
; perimeters extrusion width = 0.45mm
; infill extrusion width = 0.45mm
; solid infill extrusion width = 0.40mm
; top infill extrusion width = 0.40mm
; first layer extrusion width = 0.50mm

; EXECUTABLE_BLOCK_START
EXCLUDE_OBJECT_DEFINE NAME=pip_rotating_hanger(2).STL_id_0_copy_0 CENTER=165,165 POLYGON=[[147.867,136.288],[147.88,136.065],[147.951,134.819],[148.065,134.024],[148.159,133.362],[148.472,132.015],[148.492,131.928],[148.946,130.528],[149.518,129.172],[150.203,127.869],[150.998,126.631],[151.895,125.464],[152.889,124.379],[153.972,123.382],[155.137,122.482],[155.511,122.24],[156.374,121.685],[157.674,120.996],[159.029,120.421],[160.428,119.964],[161.123,119.801],[161.861,119.628],[163.317,119.416],[164.787,119.329],[165.188,119.339],[166.258,119.368],[167.233,119.478],[167.72,119.533],[169.164,119.822],[170.577,120.233],[171.201,120.474],[171.949,120.764],[173.272,121.41],[174.534,122.167],[175.727,123.029],[176.842,123.99],[177.87,125.042],[178.805,126.179],[179.64,127.391],[180.235,128.438],[180.367,128.671],[180.983,130.008],[181.482,131.392],[181.712,132.254],[181.861,132.814],[182.117,134.264],[182.133,134.603],[182.133,195.395],[182.117,195.735],[181.88,197.096],[181.535,198.434],[181.174,199.479],[181.083,199.74],[180.529,201.005],[179.874,202.222],[179.424,202.918],[179.124,203.382],[178.283,204.479],[177.357,205.504],[176.955,205.883],[176.351,206.452],[175.489,207.143],[175.273,207.316],[174.129,208.091],[173.889,208.227],[172.926,208.771],[171.673,209.352],[170.377,209.831],[169.047,210.205],[167.691,210.47],[166.592,210.595],[166.318,210.626],[164.937,210.671],[163.557,210.606],[162.186,210.429],[160.834,210.143],[159.51,209.75],[158.995,209.551],[158.221,209.251],[156.977,208.651],[155.785,207.953],[154.652,207.161],[153.587,206.281],[152.596,205.318],[151.685,204.279],[151.355,203.836],[150.861,203.17],[150.275,202.233],[150.128,201.999],[149.492,200.772],[148.956,199.499],[148.524,198.186],[148.199,196.843],[147.983,195.479],[147.941,194.928],[147.877,194.101],[147.867,136.288]]
M73 P0 R31
;TYPE:Custom
START_PRINT T_BED=70 T_EXTRUDER=240
G90
G21
M83 ; use relative distances for extrusion
; filament start gcode
PRESSURE_ADVANCE_SELECT FILAMENT=PETG
M106 S0
;LAYER_CHANGE
;Z:0.2
;HEIGHT:0.2
SET_VELOCITY_LIMIT ACCEL_TO_DECEL=500
M204 S1000
G1 E-1 F3000
G1 Z.2 F9000
G1 X150.181 Y123.861
G1 E1 F1800
;TYPE:Skirt
;WIDTH:0.5
G1 F3000
G1 X151.318 Y122.635 E.06038
G1 X152.556 Y121.511 E.06038
G1 X153.682 Y120.64 E.05139
G1 X155.082 Y119.725 E.06038
G1 X156.555 Y118.933 E.06038
G1 X158.09 Y118.27 E.06038
G1 X159.676 Y117.74 E.06038
G1 X161.547 Y117.302 E.06938
G1 X163.203 Y117.071 E.06038
G1 X165.085 Y116.989 E.068
G1 X166.545 Y117.038 E.05274
G1 X168.205 Y117.236 E.06038
G1 X169.843 Y117.575 E.06038
G1 X171.446 Y118.053 E.06038
G1 X173.002 Y118.666 E.06038
G1 X174.499 Y119.41 E.06038
G1 X175.928 Y120.279 E.06038
G1 X177.277 Y121.267 E.06038
G1 X178.537 Y122.367 E.06038
G1 X179.699 Y123.57 E.06038
G1 X180.753 Y124.868 E.06038
G1 X181.692 Y126.252 E.06038
G1 X182.509 Y127.711 E.06038
G1 X183.199 Y129.235 E.06038
G1 X183.682 Y130.573 E.05139
G1 X184.122 Y132.187 E.06038
G1 X184.424 Y133.832 E.06038
G1 X184.48 Y134.582 E.02715
G1 X184.48 Y195.417 E2.19651
G1 X184.196 Y197.476 E.07504
G1 X183.813 Y198.998 E.05669
G1 X183.309 Y200.485 E.05669
G1 X182.585 Y202.137 E.06513
G1 X181.833 Y203.515 E.05669
G1 X180.972 Y204.829 E.05669
G1 X180.009 Y206.069 E.05669
G1 X178.95 Y207.228 E.05669
G1 X177.978 Y208.144 E.04824
G1 X176.758 Y209.133 E.05669
G1 X175.464 Y210.021 E.05669
G1 X173.893 Y210.909 E.06513
G1 X172.465 Y211.562 E.05669
G1 X170.989 Y212.097 E.05669
G1 X169.703 Y212.458 E.04824
G1 X168.164 Y212.769 E.05669
G1 X166.605 Y212.956 E.05669
G1 X165.036 Y213.016 E.05669
G1 X163.468 Y212.951 E.05669
G1 X161.909 Y212.76 E.05669
G1 X160.371 Y212.444 E.05669
G1 X158.864 Y212.006 E.05669
G1 X157.396 Y211.448 E.05669
G1 X155.978 Y210.775 E.05669
G1 X154.618 Y209.99 E.05669
G1 X153.326 Y209.098 E.05669
G1 X152.11 Y208.105 E.05669
G1 X150.977 Y207.018 E.05669
G1 X149.788 Y205.661 E.06513
G1 X148.859 Y204.395 E.05669
G1 X148.034 Y203.059 E.05669
G1 X147.32 Y201.661 E.05669
G1 X146.72 Y200.21 E.05669
G1 X146.238 Y198.716 E.05669
G1 X145.878 Y197.188 E.05669
G1 X145.669 Y195.868 E.04824
G1 X145.53 Y194.081 E.06474
G1 X145.521 Y136.296 E2.08636
G1 X145.631 Y134.462 E.06636
G1 X145.879 Y132.808 E.06038
G1 X146.2 Y131.421 E.05139
G1 X146.706 Y129.827 E.06038
G1 X147.346 Y128.282 E.06038
G1 X148.115 Y126.798 E.06038
G1 X149.009 Y125.384 E.06038
G1 X150.144 Y123.909 E.06721
G1 X150.503 Y124.188 F9000
G1 F3000
G1 X150.518 Y124.17 E.00085
G1 X151.627 Y122.971 E.05897
G1 X152.836 Y121.872 E.05897
G1 X153.961 Y121.002 E.05139
G1 X155.329 Y120.109 E.05897
G1 X156.768 Y119.337 E.05897
G1 X158.268 Y118.691 E.05897
G1 X160.02 Y118.118 E.06655
G1 X161.613 Y117.754 E.05897
G1 X163.23 Y117.528 E.05897
G1 X165.073 Y117.446 E.06659
G1 X166.494 Y117.493 E.05133
G1 X168.116 Y117.684 E.05897
G1 X169.715 Y118.014 E.05897
G1 X171.281 Y118.479 E.05897
G1 X172.801 Y119.077 E.05897
G1 X174.264 Y119.802 E.05897
G1 X175.661 Y120.649 E.05897
G1 X176.979 Y121.613 E.05897
G1 X178.21 Y122.686 E.05897
G1 X179.346 Y123.86 E.05897
G1 X180.25 Y124.96 E.05139
G1 X181.183 Y126.3 E.05897
G1 X181.998 Y127.715 E.05897
G1 X182.689 Y129.195 E.05897
G1 X183.252 Y130.728 E.05897
G1 X183.681 Y132.304 E.05897
G1 X183.974 Y133.911 E.05897
G1 X184.022 Y134.582 E.02427
G1 X184.022 Y195.417 E2.19651
G1 X183.746 Y197.397 E.0722
G1 X183.371 Y198.884 E.05536
G1 X182.805 Y200.52 E.06248
G1 X182.182 Y201.921 E.05536
G1 X181.449 Y203.267 E.05536
G1 X180.61 Y204.551 E.05536
G1 X179.67 Y205.763 E.05536
G1 X178.637 Y206.895 E.05536
G1 X177.664 Y207.812 E.04824
G1 X176.473 Y208.776 E.05536
G1 X175.207 Y209.643 E.05536
G1 X173.701 Y210.495 E.06248
G1 X172.307 Y211.133 E.05536
G1 X170.866 Y211.657 E.05536
G1 X169.579 Y212.018 E.04824
G1 X168.076 Y212.321 E.05536
G1 X166.554 Y212.502 E.05536
G1 X165.021 Y212.56 E.05536
G1 X163.489 Y212.494 E.05536
G1 X161.968 Y212.306 E.05536
G1 X160.466 Y211.997 E.05536
G1 X158.994 Y211.568 E.05536
G1 X157.561 Y211.022 E.05536
G1 X156.176 Y210.363 E.05536
G1 X154.849 Y209.595 E.05536
G1 X153.588 Y208.723 E.05536
G1 X152.401 Y207.753 E.05536
G1 X151.295 Y206.69 E.05536
G1 X150.279 Y205.542 E.05536
G1 X149.246 Y204.153 E.06248
G1 X148.44 Y202.849 E.05536
G1 X147.741 Y201.484 E.05536
G1 X147.154 Y200.068 E.05536
G1 X146.682 Y198.609 E.05536
G1 X146.329 Y197.116 E.05536
G1 X146.12 Y195.797 E.04824
G1 X145.987 Y194.081 E.06215
G1 X145.978 Y136.296 E2.08636
G1 X146.083 Y134.527 E.06401
G1 X146.324 Y132.911 E.05897
G1 X146.702 Y131.322 E.05897
G1 X147.14 Y129.968 E.05139
G1 X147.767 Y128.46 E.05897
G1 X148.625 Y126.829 E.06655
G1 X149.515 Y125.459 E.05897
G1 X150.467 Y124.236 E.05596
; printing object pip_rotating_hanger(2).STL id:0 copy 0
EXCLUDE_OBJECT_START NAME=pip_rotating_hanger(2).STL_id_0_copy_0
G1 E-1
G1 Z.4 F9000
G1 X161.856 Y168.227
G1 Z.2
G1 E1 F1800
;TYPE:Inner wall
;WIDTH:0.499999
G1 F3000
G1 X168.276 Y168.228 E.23177
G1 X168.279 Y171.831 E.13009
G1 X168.355 Y173.127 E.04686
G1 X168.473 Y173.913 E.0287
G1 X168.56 Y174.409 E.01818
G1 X168.89 Y175.664 E.04688
G1 X169.344 Y176.881 E.04688
G1 X169.797 Y177.828 E.03789
G1 X169.95 Y178.105 E.01144
G1 X168.36 Y177.711 E.05916
G1 X167.327 Y177.536 E.0378
G1 X166.942 Y177.48 E.01406
G1 X165.518 Y177.377 E.05156
G1 X164.09 Y177.4 E.05156
G1 X162.669 Y177.55 E.05156
G1 X161.268 Y177.825 E.05156
G1 X160.155 Y178.14 E.04176
G1 X160.522 Y177.462 E.02781
G1 X160.92 Y176.565 E.03546
G1 X161.416 Y175.048 E.05761
G1 X161.627 Y174.148 E.03336
G1 X161.808 Y172.803 E.04901
G1 X161.856 Y171.706 E.03964
G1 X161.856 Y168.287 E.12344
G1 X161.399 Y167.77 F9000
G1 F3000
G1 X168.733 Y167.771 E.26478
G1 X168.735 Y171.808 E.14578
G1 X168.791 Y172.921 E.04024
G1 X168.863 Y173.43 E.01856
G1 X169.003 Y174.297 E.03168
G1 X169.32 Y175.509 E.04525
G1 X169.674 Y176.486 E.0375
G1 X170.209 Y177.631 E.04563
G1 X170.686 Y178.445 E.03408
G1 X170.48 Y178.802 E.01487
G1 X169.619 Y178.505 E.0329
G1 X168.495 Y178.209 E.04196
G1 X167.251 Y177.986 E.04564
G1 X166.906 Y177.936 E.0126
G1 X165.618 Y177.835 E.04662
G1 X164.134 Y177.855 E.05358
G1 X162.754 Y177.999 E.0501
G1 X161.392 Y178.265 E.0501
G1 X160.059 Y178.65 E.0501
G1 X159.046 Y179.037 E.03917
G1 X159.438 Y178.466 E.025
G1 X159.732 Y177.959 E.02118
G1 X160.104 Y177.277 E.02804
G1 X160.502 Y176.379 E.03546
G1 X160.971 Y174.943 E.05455
G1 X161.178 Y174.059 E.03276
G1 X161.352 Y172.782 E.04654
G1 X161.399 Y171.706 E.03888
G1 X161.399 Y167.83 E.13995
G1 X160.942 Y167.313 F9000
G1 F3000
G1 X169.19 Y167.314 E.29779
G1 X169.191 Y171.781 E.16128
G1 X169.244 Y172.833 E.03806
G1 X169.446 Y174.184 E.04933
G1 X169.75 Y175.353 E.04361
G1 X170.103 Y176.33 E.0375
G1 X170.621 Y177.433 E.044
G1 X171.212 Y178.448 E.0424
G1 X170.686 Y179.359 E.03798
G1 X169.503 Y178.947 E.04525
G1 X168.204 Y178.612 E.04845
G1 X167.174 Y178.437 E.03769
G1 X166.869 Y178.392 E.01113
G1 X165.668 Y178.296 E.04352
G1 X164.179 Y178.31 E.05375
G1 X162.98 Y178.428 E.04352
G1 X162.351 Y178.54 E.02305
G1 X161.517 Y178.705 E.0307
G1 X160.357 Y179.033 E.04352
G1 X158.81 Y179.639 E.05998
G1 X157.757 Y180.158 E.04239
G1 X157.165 Y180.515 E.02498
G1 X157.786 Y179.888 E.03187
G1 X158.501 Y179.021 E.04058
G1 X159.062 Y178.207 E.03568
G1 X159.686 Y177.092 E.04616
G1 X160.084 Y176.194 E.03546
G1 X160.526 Y174.838 E.0515
G1 X160.73 Y173.97 E.03217
G1 X160.895 Y172.761 E.04408
G1 X160.942 Y171.706 E.03811
G1 X160.942 Y167.373 E.15645
G1 X160.485 Y166.856 F9000
G1 F3000
G1 X169.647 Y166.857 E.33079
G1 X169.648 Y171.759 E.17702
G1 X169.696 Y172.725 E.03491
G1 X169.889 Y174.072 E.04915
G1 X170.18 Y175.198 E.04198
G1 X170.581 Y176.289 E.04198
G1 X171.034 Y177.236 E.03789
G1 X171.383 Y177.829 E.02483
G1 X171.692 Y178.402 E.02352
G1 X171.626 Y178.645 E.00909
G1 X171.062 Y179.623 E.04079
G1 X170.868 Y179.83 E.01023
G1 X170.68 Y179.842 E.00677
G1 X169.387 Y179.389 E.04948
G1 X168.263 Y179.094 E.04196
G1 X166.833 Y178.847 E.05238
G1 X165.632 Y178.752 E.04352
G1 X165.111 Y178.752 E.0188
G1 X164.224 Y178.765 E.03203
G1 X163.024 Y178.883 E.04352
G1 X161.641 Y179.144 E.05083
G1 X161.045 Y179.313 E.02236
G1 X160.018 Y179.644 E.03896
G1 X159.01 Y180.05 E.03923
G1 X157.993 Y180.55 E.04092
G1 X157.188 Y181.034 E.03392
G1 X156.703 Y181.354 E.02098
;WIDTH:0.537963
G1 X156.611 Y181.397 E.00398
;WIDTH:0.575927
G1 X156.519 Y181.441 E.00428
;WIDTH:0.613891
G1 X156.427 Y181.484 E.00459
;WIDTH:0.651854
G1 X156.335 Y181.528 E.00489
G1 X155.779 Y181.951 E.0336
;WIDTH:0.645727
G1 X154.795 Y182.819 E.0625
G1 X153.962 Y183.69 E.05739
;WIDTH:0.645207
G1 X153.628 Y184.092 E.02487
G1 X152.912 Y185.037 E.05642
;WIDTH:0.644162
G1 X152.273 Y186.037 E.05633
;WIDTH:0.642583
G1 X151.779 Y186.955 E.04939
;WIDTH:0.640479
G1 X151.253 Y188.157 E.06196
;WIDTH:0.638926
G1 X151.215 Y188.258 E.00506
;WIDTH:0.64131
G1 X150.808 Y189.506 E.06204
;WIDTH:0.636202
G1 X150.514 Y190.785 E.06151
;WIDTH:0.634833
G1 X150.333 Y192.085 E.06137
;WIDTH:0.645459
G1 X150.269 Y193.396 E.06247
;WIDTH:0.645784
G1 X150.315 Y194.65 E.05977
;WIDTH:0.645582
G1 X150.375 Y195.195 E.02611
G1 X150.559 Y196.367 E.05645
;WIDTH:0.64485
G1 X150.836 Y197.52 E.05639
;WIDTH:0.643589
G1 X151.203 Y198.648 E.05628
;WIDTH:0.641802
G1 X151.621 Y199.658 E.05172
;WIDTH:0.639488
G1 X151.665 Y199.755 E.00503
;WIDTH:0.63991
G1 X152.276 Y200.918 E.06194
;WIDTH:0.64214
G1 X152.987 Y202.021 E.06213
;WIDTH:0.635589
G1 X153.792 Y203.058 E.06145
;WIDTH:0.634433
G1 X154.686 Y204.019 E.06133
;WIDTH:0.645654
G1 X155.662 Y204.897 E.06249
;WIDTH:0.645769
G1 X156.66 Y205.651 E.05957
;WIDTH:0.645353
G1 X157.081 Y205.924 E.02389
G1 X158.104 Y206.524 E.05643
;WIDTH:0.644408
G1 X159.171 Y207.042 E.05635
;WIDTH:0.642935
G1 X160.116 Y207.418 E.04824
;WIDTH:0.640933
G1 X161.371 Y207.803 E.06201
;WIDTH:0.638537
G1 X161.475 Y207.83 E.00506
;WIDTH:0.640868
G1 X162.762 Y208.09 E.062
;WIDTH:0.642883
G1 X164.066 Y208.236 E.06221
;WIDTH:0.635059
G1 X165.378 Y208.266 E.06139
;WIDTH:0.64533
G1 X166.688 Y208.18 E.06246
;WIDTH:0.645661
G1 X167.985 Y207.979 E.06249
G1 X168.488 Y207.862 E.02457
G1 X169.63 Y207.543 E.05646
;WIDTH:0.645036
G1 X170.743 Y207.134 E.0564
;WIDTH:0.643878
G1 X171.82 Y206.637 E.0563
;WIDTH:0.642195
G1 X172.753 Y206.118 E.05058
;WIDTH:0.63998
G1 X173.844 Y205.388 E.06191
;WIDTH:0.639417
G1 X173.93 Y205.323 E.00507
;WIDTH:0.641743
G1 X174.945 Y204.49 E.06209
;WIDTH:0.635879
G1 X175.882 Y203.571 E.06148
;WIDTH:0.634618
G1 X176.734 Y202.573 E.06135
;WIDTH:0.645567
G1 X177.494 Y201.503 E.06248
;WIDTH:0.645783
G1 X178.13 Y200.423 E.05967
;WIDTH:0.645472
G1 X178.362 Y199.953 E.02498
G1 X178.84 Y198.868 E.05644
;WIDTH:0.644637
G1 X179.23 Y197.748 E.05637
;WIDTH:0.643266
G1 X179.53 Y196.598 E.05633
;WIDTH:0.641114
G1 X179.725 Y195.532 E.05122
;WIDTH:0.634819
G1 X179.741 Y195.446 E.00411
G1 X179.847 Y195.31 E.00805
G1 X180.132 Y195.291 E.01334
G1 X180.272 Y195.351 E.00713
G1 X180.328 Y195.522 E.00842
G1 X180.308 Y195.637 E.00543
;WIDTH:0.641114
G1 X180.119 Y196.704 E.05122
G1 X180.062 Y196.941 E.01153
;WIDTH:0.636151
G1 X179.694 Y198.253 E.06385
;WIDTH:0.6348
G1 X179.213 Y199.528 E.0637
;WIDTH:0.645472
G1 X178.9 Y200.225 E.03638
G1 X178.621 Y200.755 E.0285
;WIDTH:0.645783
G1 X178.313 Y201.314 E.03038
G1 X177.924 Y201.926 E.03453
;WIDTH:0.645567
G1 X177.641 Y202.352 E.02435
G1 X177.209 Y202.925 E.03418
;WIDTH:0.64482
G1 X176.888 Y203.333 E.02466
G1 X176.059 Y204.25 E.0588
;WIDTH:0.643545
G1 X175.159 Y205.098 E.05868
;WIDTH:0.641743
G1 X174.304 Y205.786 E.05189
;WIDTH:0.639416
G1 X174.18 Y205.881 E.00737
;WIDTH:0.63998
G1 X173.044 Y206.636 E.06434
;WIDTH:0.642195
G1 X172.112 Y207.16 E.05058
G1 X171.847 Y207.288 E.01395
;WIDTH:0.635547
G1 X170.598 Y207.832 E.06378
;WIDTH:0.645036
G1 X169.808 Y208.118 E.03995
G1 X169.306 Y208.264 E.02488
;WIDTH:0.64576
G1 X168.617 Y208.451 E.03398
G1 X167.981 Y208.581 E.03093
G1 X167.403 Y208.687 E.02796
G1 X166.71 Y208.772 E.03328
;WIDTH:0.64533
G1 X166.174 Y208.826 E.0256
G1 X164.938 Y208.866 E.05885
;WIDTH:0.644374
G1 X163.703 Y208.807 E.05875
;WIDTH:0.642883
G1 X162.69 Y208.679 E.04841
;WIDTH:0.640868
G1 X161.353 Y208.413 E.06437
;WIDTH:0.638537
G1 X161.2 Y208.374 E.00743
;WIDTH:0.640933
G1 X159.899 Y207.971 E.06437
;WIDTH:0.642935
G1 X158.951 Y207.6 E.04824
G1 X158.637 Y207.455 E.01637
;WIDTH:0.635026
G1 X157.427 Y206.83 E.06372
;WIDTH:0.645353
G1 X156.749 Y206.426 E.03756
G1 X156.275 Y206.102 E.02731
;WIDTH:0.645769
G1 X155.736 Y205.716 E.03157
G1 X155.193 Y205.275 E.03334
;WIDTH:0.645654
G1 X154.783 Y204.928 E.02554
G1 X154.282 Y204.449 E.033
;WIDTH:0.645009
G1 X153.897 Y204.066 E.02586
G1 X153.082 Y203.135 E.05882
;WIDTH:0.64384
G1 X152.344 Y202.143 E.0587
;WIDTH:0.64214
G1 X151.774 Y201.235 E.05074
;WIDTH:0.63991
G1 X151.136 Y200.031 E.06427
;WIDTH:0.639488
G1 X151.072 Y199.886 E.00744
;WIDTH:0.641802
G1 X150.65 Y198.878 E.05172
G1 X150.562 Y198.623 E.01276
;WIDTH:0.635836
G1 X150.165 Y197.319 E.06381
;WIDTH:0.64485
G1 X149.97 Y196.489 E.04055
G1 X149.884 Y195.986 E.02426
;WIDTH:0.645582
G1 X149.776 Y195.256 E.03516
G1 X149.722 Y194.634 E.02973
;WIDTH:0.645784
G1 X149.682 Y194.023 E.02915
G1 X149.678 Y193.346 E.03221
;WIDTH:0.645459
G1 X149.687 Y192.786 E.02667
G1 X149.791 Y191.554 E.05886
;WIDTH:0.644603
G1 X149.994 Y190.334 E.05878
;WIDTH:0.643222
G1 X150.293 Y189.134 E.05864
;WIDTH:0.64131
G1 X150.65 Y188.07 E.05307
;WIDTH:0.638926
G1 X150.705 Y187.922 E.00743
;WIDTH:0.640479
G1 X151.255 Y186.675 E.06433
;WIDTH:0.642583
G1 X151.744 Y185.754 E.04939
G1 X151.912 Y185.481 E.01518
;WIDTH:0.635274
G1 X152.672 Y184.35 E.06375
;WIDTH:0.645207
G1 X153.167 Y183.704 E.03873
G1 X153.528 Y183.29 E.02611
;WIDTH:0.645762
G1 X153.99 Y182.781 E.03275
G1 X154.474 Y182.309 E.03215
G1 X154.885 Y181.925 E.0268
G1 X155.5 Y181.415 E.03808
;WIDTH:0.651854
G1 X155.963 Y181.047 E.02844
