; HEADER_BLOCK_START
; generated by OrcaSlicer 1.6.3 on 2023-07-02 at 17:16:50
; total layer number: 63
; HEADER_BLOCK_END

; THUMBNAIL_BLOCK_START
; THUMBNAIL_BLOCK_END

; external perimeters extrusion width = 0.42mm
; perimeters extrusion width = 0.45mm
; infill extrusion width = 0.45mm
; solid infill extrusion width = 0.42mm
; top infill extrusion width = 0.42mm
; first layer extrusion width = 0.50mm

; EXECUTABLE_BLOCK_START
EXCLUDE_OBJECT_DEFINE NAME=pip_rotating_hanger(3).STL_id_0_copy_0 CENTER=170,160 POLYGON=[[152.867,131.288],[152.88,131.065],[152.951,129.818],[153.065,129.024],[153.159,128.362],[153.472,127.015],[153.492,126.928],[153.946,125.528],[154.518,124.172],[155.203,122.869],[155.998,121.63],[156.895,120.464],[157.889,119.379],[158.972,118.382],[160.137,117.482],[160.511,117.24],[161.374,116.684],[162.674,115.996],[164.029,115.421],[165.428,114.963],[166.123,114.801],[166.861,114.628],[168.317,114.415],[169.787,114.329],[170.188,114.339],[171.258,114.368],[172.233,114.478],[172.72,114.532],[174.164,114.822],[175.577,115.233],[176.201,115.474],[176.949,115.764],[178.272,116.41],[179.534,117.167],[180.727,118.029],[181.842,118.99],[182.87,120.042],[183.805,121.179],[184.64,122.391],[185.235,123.438],[185.367,123.671],[185.983,125.007],[186.482,126.392],[186.712,127.254],[186.861,127.814],[187.117,129.264],[187.133,129.603],[187.133,190.395],[187.117,190.735],[186.88,192.096],[186.535,193.434],[186.174,194.479],[186.083,194.74],[185.529,196.005],[184.874,197.222],[184.424,197.918],[184.124,198.382],[183.283,199.479],[182.357,200.504],[181.955,200.883],[181.351,201.452],[180.489,202.143],[180.273,202.316],[179.129,203.09],[178.889,203.226],[177.926,203.771],[176.673,204.352],[175.377,204.831],[174.047,205.205],[172.691,205.47],[171.592,205.595],[171.318,205.626],[169.937,205.671],[168.557,205.605],[167.186,205.429],[165.834,205.143],[164.51,204.75],[163.995,204.55],[163.221,204.251],[161.977,203.651],[160.785,202.953],[159.652,202.161],[158.587,201.281],[157.596,200.318],[156.685,199.279],[156.355,198.836],[155.861,198.17],[155.275,197.233],[155.128,196.999],[154.492,195.772],[153.956,194.499],[153.524,193.186],[153.199,191.843],[152.983,190.478],[152.941,189.927],[152.877,189.101],[152.867,131.288]]
M73 P0 R42
;TYPE:Custom
START_PRINT T_BED=110 T_EXTRUDER=260
G90
G21
M83 ; use relative distances for extrusion
; filament start gcode

    PRESSURE_ADVANCE_SELECT FILAMENT=ABS
M106 S0
;LAYER_CHANGE
;Z:0.2
;HEIGHT:0.2
;BEFORE_LAYER_CHANGE
;0.2
G92 E0

G1 E-.5 F2400
M204 S1000
G1 X154.919 Y119.202 F12000
G1 Z.2
G1 E.5 F1800
;TYPE:Skirt
;WIDTH:0.5
G1 F7200
G1 X155.181 Y118.861 E.01512
G1 X156.318 Y117.635 E.05886
G1 X157.556 Y116.511 E.05886
G1 X158.682 Y115.64 E.05009
G1 X160.082 Y114.725 E.05886
G1 X161.555 Y113.933 E.05886
G1 X163.09 Y113.27 E.05886
G1 X164.676 Y112.74 E.05886
G1 X166.547 Y112.302 E.06762
G1 X168.203 Y112.071 E.05886
G1 X170.085 Y111.989 E.06628
G1 X171.545 Y112.038 E.05141
G1 X173.205 Y112.236 E.05886
G1 X174.843 Y112.575 E.05886
G1 X176.446 Y113.053 E.05886
G1 X178.002 Y113.666 E.05886
G1 X179.499 Y114.41 E.05886
G1 X180.928 Y115.279 E.05886
G1 X182.277 Y116.267 E.05886
G1 X183.537 Y117.367 E.05886
G1 X184.699 Y118.57 E.05886
G1 X185.753 Y119.868 E.05886
G1 X186.692 Y121.252 E.05886
G1 X187.509 Y122.711 E.05886
G1 X188.199 Y124.234 E.05886
G1 X188.682 Y125.573 E.05009
G1 X189.122 Y127.187 E.05886
G1 X189.424 Y128.832 E.05886
G1 X189.48 Y129.582 E.02647
G1 X189.48 Y190.417 E2.14102
G1 X189.196 Y192.476 E.07314
G1 X188.813 Y193.998 E.05526
G1 X188.309 Y195.485 E.05526
G1 X187.585 Y197.137 E.06349
G1 X186.833 Y198.515 E.05526
G1 X185.972 Y199.829 E.05526
G1 X185.009 Y201.069 E.05526
G1 X183.95 Y202.228 E.05526
G1 X182.978 Y203.144 E.04702
G1 X181.758 Y204.133 E.05526
G1 X180.464 Y205.021 E.05526
G1 X178.893 Y205.909 E.06349
G1 X177.465 Y206.561 E.05526
G1 X175.989 Y207.097 E.05526
G1 X174.703 Y207.458 E.04702
G1 X173.164 Y207.769 E.05526
G1 X171.605 Y207.956 E.05526
G1 X170.036 Y208.016 E.05526
G1 X168.468 Y207.951 E.05526
G1 X166.909 Y207.76 E.05526
G1 X165.371 Y207.444 E.05526
G1 X163.864 Y207.006 E.05526
G1 X162.396 Y206.448 E.05526
G1 X160.978 Y205.775 E.05526
G1 X159.618 Y204.989 E.05526
G1 X158.326 Y204.098 E.05526
G1 X157.11 Y203.105 E.05526
G1 X155.977 Y202.018 E.05526
G1 X154.788 Y200.661 E.06349
G1 X153.859 Y199.395 E.05526
G1 X153.034 Y198.059 E.05526
G1 X152.32 Y196.661 E.05526
G1 X151.72 Y195.21 E.05526
G1 X151.238 Y193.716 E.05526
G1 X150.878 Y192.188 E.05526
G1 X150.669 Y190.868 E.04702
G1 X150.53 Y189.08 E.0631
G1 X150.521 Y131.296 E2.03365
G1 X150.631 Y129.462 E.06468
G1 X150.879 Y127.808 E.05886
G1 X151.2 Y126.421 E.05009
G1 X151.706 Y124.827 E.05886
G1 X152.346 Y123.282 E.05886
G1 X153.115 Y121.797 E.05886
G1 X154.009 Y120.384 E.05886
G1 X154.882 Y119.249 E.0504
G1 X155.24 Y119.527 F12000
G1 F7200
G1 X155.518 Y119.17 E.01594
G1 X156.627 Y117.971 E.05748
G1 X157.835 Y116.872 E.05748
G1 X158.961 Y116.002 E.05009
G1 X160.329 Y115.109 E.05748
G1 X161.768 Y114.337 E.05748
G1 X163.268 Y113.69 E.05748
G1 X165.02 Y113.118 E.06487
G1 X166.613 Y112.754 E.05748
G1 X168.23 Y112.527 E.05748
G1 X170.073 Y112.446 E.06491
G1 X171.494 Y112.492 E.05004
G1 X173.116 Y112.684 E.05748
G1 X174.715 Y113.014 E.05748
G1 X176.281 Y113.479 E.05748
G1 X177.801 Y114.076 E.05748
G1 X179.264 Y114.802 E.05748
G1 X180.661 Y115.649 E.05748
G1 X181.979 Y116.613 E.05748
G1 X183.21 Y117.686 E.05748
G1 X184.346 Y118.86 E.05748
G1 X185.25 Y119.96 E.05009
G1 X186.183 Y121.3 E.05748
G1 X186.998 Y122.715 E.05748
G1 X187.689 Y124.195 E.05748
G1 X188.252 Y125.728 E.05748
G1 X188.681 Y127.304 E.05748
G1 X188.974 Y128.911 E.05748
G1 X189.022 Y129.582 E.02366
G1 X189.022 Y190.417 E2.14102
G1 X188.746 Y192.397 E.07038
G1 X188.371 Y193.884 E.05396
G1 X187.805 Y195.519 E.06091
G1 X187.182 Y196.921 E.05396
G1 X186.449 Y198.267 E.05396
G1 X185.61 Y199.551 E.05396
G1 X184.67 Y200.762 E.05396
G1 X183.637 Y201.895 E.05396
G1 X182.664 Y202.811 E.04702
G1 X181.473 Y203.776 E.05397
G1 X180.207 Y204.643 E.05396
G1 X178.701 Y205.495 E.0609
G1 X177.307 Y206.133 E.05396
G1 X175.866 Y206.657 E.05397
G1 X174.579 Y207.018 E.04702
G1 X173.076 Y207.321 E.05396
G1 X171.554 Y207.501 E.05396
G1 X170.021 Y207.559 E.05396
G1 X168.489 Y207.494 E.05396
G1 X166.968 Y207.306 E.05396
G1 X165.466 Y206.997 E.05396
G1 X163.994 Y206.568 E.05397
G1 X162.561 Y206.022 E.05396
G1 X161.176 Y205.363 E.05396
G1 X159.849 Y204.595 E.05396
G1 X158.588 Y203.723 E.05396
G1 X157.401 Y202.752 E.05396
G1 X156.295 Y201.69 E.05396
G1 X155.279 Y200.542 E.05396
G1 X154.246 Y199.153 E.0609
G1 X153.44 Y197.849 E.05397
G1 X152.741 Y196.484 E.05396
G1 X152.154 Y195.067 E.05396
G1 X151.682 Y193.608 E.05396
G1 X151.329 Y192.116 E.05396
G1 X151.12 Y190.797 E.04702
G1 X150.987 Y189.08 E.06058
G1 X150.978 Y131.296 E2.03365
G1 X151.083 Y129.526 E.06239
G1 X151.324 Y127.911 E.05748
G1 X151.702 Y126.322 E.05748
G1 X152.14 Y124.968 E.05009
G1 X152.767 Y123.46 E.05748
G1 X153.625 Y121.829 E.06487
G1 X154.515 Y120.459 E.05748
G1 X155.203 Y119.575 E.03943
; printing object pip_rotating_hanger(3).STL id:0 copy 0
EXCLUDE_OBJECT_START NAME=pip_rotating_hanger(3).STL_id_0_copy_0
G1 E-.35 F2400
;WIPE_START
G1 F7200
G1 X155.518 Y119.17 E-.03654
G1 X156.528 Y118.079 E-.10596
;WIPE_END
G1 E-.0075 F2400
G1 X164.741 Y161.044 F12000
G1 E.5 F1800
;TYPE:Outer wall
G1 F7200
G3 X165.237 Y161.042 I.261 J3.149 E.01747
G1 X175.372 Y161.042 E.35671
G1 X175.434 Y161.065 E.00232
G1 X175.461 Y161.138 E.00273
G1 X175.461 Y166.714 E.19626
G1 X175.514 Y167.786 E.03778
G1 X175.675 Y168.857 E.03808
G1 X175.94 Y169.906 E.03808
G1 X176.308 Y170.923 E.03808
G1 X176.775 Y171.899 E.03808
G3 X177.421 Y172.975 I-17.41 J11.182 E.04416
G3 X177.371 Y173.984 I-.996 J.456 E.03695
G1 X176.711 Y175.126 E.04641
G3 X175.335 Y175.59 I-.95 J-.546 E.05587
G1 X174.194 Y175.18 E.04268
G1 X173 Y174.866 E.04345
G1 X171.783 Y174.66 E.04345
G1 X170.553 Y174.562 E.04345
G1 X169.318 Y174.574 E.04345
G1 X168.09 Y174.694 E.04345
G1 X166.877 Y174.924 E.04345
G1 X165.689 Y175.26 E.04344
G1 X164.535 Y175.699 E.04345
G1 X163.425 Y176.24 E.04345
G1 X162.368 Y176.876 E.04345
G1 X161.371 Y177.604 E.04345
G1 X160.442 Y178.417 E.04345
G1 X159.589 Y179.31 E.04345
G1 X158.818 Y180.274 E.04345
G1 X158.136 Y181.303 E.04345
G1 X157.548 Y182.388 E.04345
G1 X157.058 Y183.521 E.04345
G1 X156.671 Y184.693 E.04345
G1 X156.388 Y185.895 E.04345
G1 X156.214 Y187.117 E.04344
G1 X156.148 Y188.35 E.04345
G1 X156.192 Y189.584 E.04345
G1 X156.346 Y190.808 E.04345
G1 X156.607 Y192.015 E.04345
G1 X156.973 Y193.194 E.04344
G1 X157.443 Y194.335 E.04345
G1 X158.013 Y195.431 E.04345
G1 X158.677 Y196.471 E.04345
G1 X159.43 Y197.449 E.04345
G1 X160.268 Y198.356 E.04345
G1 X161.182 Y199.185 E.04345
G1 X162.166 Y199.93 E.04345
G1 X163.213 Y200.585 E.04345
G1 X164.313 Y201.145 E.04345
G1 X165.459 Y201.605 E.04345
G1 X166.64 Y201.961 E.04345
G1 X167.849 Y202.212 E.04345
G1 X169.075 Y202.354 E.04345
G1 X170.309 Y202.387 E.04345
G1 X171.541 Y202.311 E.04344
G1 X172.762 Y202.126 E.04345
G1 X173.961 Y201.833 E.04345
G1 X175.13 Y201.436 E.04344
G1 X176.259 Y200.936 E.04345
G1 X177.339 Y200.338 E.04345
G1 X178.362 Y199.647 E.04344
G1 X179.319 Y198.868 E.04345
G1 X180.204 Y198.007 E.04345
G1 X181.009 Y197.072 E.04345
G1 X181.728 Y196.068 E.04345
G1 X182.355 Y195.005 E.04345
G1 X182.886 Y193.89 E.04345
G1 X183.316 Y192.733 E.04345
G1 X183.641 Y191.542 E.04345
G3 X183.897 Y190.159 I19.617 J2.915 E.04952
G3 X185.119 Y189.389 I1.072 J.348 E.05517
G3 X186.205 Y190.622 I.007 J1.089 E.0655
G1 X185.983 Y191.903 E.04576
G1 X185.656 Y193.169 E.04603
G1 X185.229 Y194.405 E.04603
G1 X184.703 Y195.603 E.04603
G1 X184.084 Y196.755 E.04603
G1 X183.374 Y197.853 E.04603
G1 X182.578 Y198.891 E.04603
G1 X181.701 Y199.862 E.04603
G1 X180.749 Y200.759 E.04603
G1 X179.728 Y201.577 E.04603
G1 X178.645 Y202.31 E.04603
G1 X177.507 Y202.954 E.04603
G1 X176.32 Y203.505 E.04603
G1 X175.094 Y203.958 E.04603
G1 X173.834 Y204.312 E.04603
G1 X172.551 Y204.563 E.04603
G1 X171.251 Y204.711 E.04603
G1 X169.944 Y204.753 E.04603
G1 X168.637 Y204.691 E.04603
G1 X167.34 Y204.524 E.04603
G1 X166.06 Y204.253 E.04603
G1 X164.806 Y203.881 E.04603
G1 X163.587 Y203.409 E.04603
G1 X162.409 Y202.841 E.04603
G1 X161.28 Y202.18 E.04603
G1 X160.208 Y201.43 E.04603
G1 X159.2 Y200.597 E.04603
G1 X158.261 Y199.686 E.04603
G1 X158.14 Y199.547 E.0065
G1 X157.399 Y198.702 E.03954
G1 X156.619 Y197.653 E.04603
G1 X155.925 Y196.544 E.04603
G1 X155.323 Y195.383 E.04603
G1 X154.816 Y194.177 E.04603
G1 X154.407 Y192.934 E.04603
G1 X154.1 Y191.663 E.04603
G1 X153.895 Y190.371 E.04603
G1 X153.795 Y189.067 E.04603
G1 X153.799 Y187.759 E.04603
G1 X153.909 Y186.456 E.04603
G1 X154.123 Y185.165 E.04603
G1 X154.44 Y183.896 E.04603
G1 X154.857 Y182.657 E.04603
G1 X155.373 Y181.455 E.04603
G1 X155.984 Y180.298 E.04603
G1 X156.685 Y179.194 E.04603
G1 X157.473 Y178.15 E.04603
G1 X158.342 Y177.173 E.04603
G1 X159.287 Y176.268 E.04603
G2 X161.082 Y174.798 I-117.564 J-145.441 E.08166
G2 X162.449 Y173.307 I-7.329 J-8.093 E.07129
G1 X163.023 Y172.474 E.03563
G2 X164.671 Y166.714 I-9.268 J-5.766 E.21358
G1 X164.671 Y161.141 E.19615
G1 X164.688 Y161.076 E.00233
G1 X164.734 Y161.048 E.00191
G1 X164.8 Y161.097
G1 X165.128 Y161.499 F12000
;TYPE:Inner wall
G1 F7200
G1 X175.004 Y161.499 E.34757
G1 X175.004 Y166.726 E.18393
G1 X175.059 Y167.832 E.03897
G1 X175.226 Y168.947 E.03968
M73 P1 R42
G1 X175.502 Y170.04 E.03968
G1 X175.886 Y171.1 E.03968
G1 X176.372 Y172.117 E.03968
G3 X177.005 Y173.168 I-17.014 J10.951 E.04319
G3 X176.966 Y173.771 I-.651 J.26 E.02199
G1 X176.325 Y174.882 E.04512
G3 X175.482 Y175.158 I-.567 J-.307 E.03439
G1 X174.33 Y174.743 E.04311
G1 X173.097 Y174.419 E.04487
G1 X171.84 Y174.206 E.04487
G1 X170.569 Y174.105 E.04487
G1 X169.294 Y174.117 E.04487
G1 X168.025 Y174.242 E.04487
G1 X166.772 Y174.478 E.04487
G1 X165.545 Y174.825 E.04487
G1 X164.354 Y175.28 E.04487
G1 X163.207 Y175.838 E.04487
G1 X162.115 Y176.495 E.04487
G1 X161.085 Y177.247 E.04487
G1 X160.126 Y178.087 E.04487
G1 X159.244 Y179.008 E.04487
G1 X158.448 Y180.004 E.04487
G1 X157.744 Y181.067 E.04487
G1 X157.136 Y182.188 E.04487
G1 X156.63 Y183.358 E.04487
G1 X156.23 Y184.569 E.04487
G1 X155.939 Y185.81 E.04487
G1 X155.759 Y187.073 E.04487
G1 X155.691 Y188.346 E.04487
G1 X155.736 Y189.62 E.04487
G1 X155.894 Y190.885 E.04487
G1 X156.164 Y192.131 E.04487
G1 X156.543 Y193.349 E.04487
G1 X157.028 Y194.528 E.04487
G1 X157.616 Y195.659 E.04487
G1 X158.302 Y196.734 E.04487
G1 X159.081 Y197.744 E.04487
G1 X159.945 Y198.681 E.04487
G1 X160.89 Y199.538 E.04487
G1 X161.906 Y200.307 E.04487
G1 X162.987 Y200.984 E.04487
G1 X164.124 Y201.562 E.04487
G1 X165.307 Y202.037 E.04487
G1 X166.528 Y202.405 E.04487
G1 X167.776 Y202.664 E.04487
G1 X169.043 Y202.811 E.04487
G1 X170.317 Y202.845 E.04487
G1 X171.59 Y202.766 E.04487
G1 X172.851 Y202.575 E.04487
G1 X174.089 Y202.273 E.04487
G1 X175.296 Y201.862 E.04487
G1 X176.462 Y201.346 E.04487
G1 X177.578 Y200.728 E.04487
G1 X178.634 Y200.015 E.04487
G1 X179.623 Y199.21 E.04487
G1 X180.537 Y198.321 E.04487
G1 X181.369 Y197.354 E.04487
G1 X182.111 Y196.318 E.04487
G1 X182.759 Y195.22 E.04487
G1 X183.307 Y194.068 E.04487
G1 X183.751 Y192.873 E.04487
G1 X184.087 Y191.643 E.04487
G3 X184.336 Y190.291 I19.168 J2.828 E.04838
G3 X185.1 Y189.846 I.643 J.226 E.03384
G3 X185.75 Y190.572 I.009 J.646 E.03883
G1 X185.536 Y191.806 E.0441
G1 X185.218 Y193.037 E.04474
G1 X184.803 Y194.239 E.04474
G1 X184.292 Y195.403 E.04474
G1 X183.69 Y196.522 E.04474
G1 X183 Y197.59 E.04474
G1 X182.226 Y198.599 E.04474
G1 X181.374 Y199.542 E.04474
G1 X180.449 Y200.414 E.04474
G1 X179.457 Y201.209 E.04474
G1 X178.404 Y201.921 E.04474
G1 X177.298 Y202.547 E.04474
G1 X176.145 Y203.082 E.04474
G1 X174.952 Y203.523 E.04474
G1 X173.728 Y203.867 E.04474
G1 X172.481 Y204.111 E.04474
G1 X171.218 Y204.254 E.04474
G1 X169.947 Y204.296 E.04474
G1 X168.677 Y204.235 E.04474
G1 X167.417 Y204.073 E.04474
G1 X166.173 Y203.81 E.04474
G1 X164.954 Y203.448 E.04474
G1 X163.769 Y202.989 E.04474
G1 X162.624 Y202.437 E.04474
G1 X161.527 Y201.795 E.04474
G1 X160.485 Y201.066 E.04474
G1 X159.505 Y200.257 E.04474
G1 X158.593 Y199.371 E.04474
G1 X157.755 Y198.415 E.04474
G1 X156.997 Y197.395 E.04474
G1 X156.323 Y196.317 E.04474
G1 X155.737 Y195.188 E.04474
G1 X155.244 Y194.017 E.04474
G1 X154.847 Y192.809 E.04474
G1 X154.548 Y191.573 E.04474
G1 X154.349 Y190.318 E.04474
G1 X154.252 Y189.05 E.04474
G1 X154.256 Y187.779 E.04474
G1 X154.363 Y186.512 E.04474
G1 X154.571 Y185.258 E.04474
G1 X154.879 Y184.025 E.04474
G1 X155.285 Y182.82 E.04474
G1 X155.786 Y181.652 E.04474
G1 X156.379 Y180.528 E.04474
G1 X157.061 Y179.455 E.04474
G1 X157.827 Y178.44 E.04474
G1 X158.671 Y177.49 E.04474
G1 X159.59 Y176.611 E.04474
G2 X161.389 Y175.137 I-117.856 J-145.786 E.08186
G1 X162.138 Y174.394 E.03713
G1 X162.814 Y173.584 E.03712
G1 X163.412 Y172.715 E.03712
G1 X163.927 Y171.795 E.03713
G1 X164.355 Y170.831 E.03712
G1 X164.691 Y169.831 E.03713
G1 X164.934 Y168.804 E.03713
G1 X165.08 Y167.759 E.03712
G1 X165.128 Y166.724 E.03646
G1 X165.128 Y161.507 E.18362
G1 X165.585 Y161.956 F12000
G1 F7200
G1 X174.547 Y161.957 E.3154
G1 X174.547 Y166.737 E.16825
G1 X174.603 Y167.877 E.04017
G1 X174.777 Y169.037 E.04128
G1 X175.065 Y170.174 E.04128
G1 X175.464 Y171.277 E.04128
G1 X175.97 Y172.335 E.04128
G3 X176.589 Y173.362 I-16.619 J10.721 E.04221
G3 X176.561 Y173.559 I-.194 J.072 E.00731
G1 X175.938 Y174.637 E.04384
G3 X175.63 Y174.725 I-.188 J-.076 E.013
G1 X174.466 Y174.306 E.04354
G1 X173.193 Y173.972 E.0463
G1 X171.896 Y173.752 E.0463
G1 X170.585 Y173.647 E.0463
G1 X169.269 Y173.66 E.0463
G1 X167.96 Y173.789 E.0463
G1 X166.667 Y174.033 E.0463
G1 X165.401 Y174.391 E.0463
G1 X164.172 Y174.86 E.0463
G1 X162.989 Y175.436 E.0463
G1 X161.862 Y176.114 E.0463
G1 X160.799 Y176.89 E.0463
G1 X159.809 Y177.756 E.0463
G1 X158.9 Y178.707 E.0463
G1 X158.079 Y179.735 E.0463
G1 X157.352 Y180.831 E.0463
G1 X156.725 Y181.988 E.0463
G1 X156.203 Y183.196 E.0463
G1 X155.79 Y184.445 E.0463
G1 X155.489 Y185.726 E.0463
G1 X155.303 Y187.028 E.0463
