; HEADER_BLOCK_START
; generated by OrcaSlicer 1.6.3 on 2023-07-13 at 12:56:27
; total layer number: 76
; HEADER_BLOCK_END

; THUMBNAIL_BLOCK_START
; THUMBNAIL_BLOCK_END

; external perimeters extrusion width = 0.40mm
; perimeters extrusion width = 0.45mm
; infill extrusion width = 0.45mm
; solid infill extrusion width = 0.40mm
; top infill extrusion width = 0.40mm
; first layer extrusion width = 0.50mm

; EXECUTABLE_BLOCK_START
EXCLUDE_OBJECT_DEFINE NAME=pip_rotating_hanger(3).STL_id_0_copy_0 CENTER=170,160 POLYGON=[[149.441,125.545],[149.456,125.278],[149.541,123.782],[149.677,122.829],[149.791,122.034],[150.166,120.418],[150.19,120.313],[150.735,118.633],[151.421,117.006],[152.244,115.443],[153.197,113.957],[154.274,112.557],[155.467,111.254],[156.767,110.058],[158.164,108.978],[158.614,108.688],[159.648,108.021],[161.209,107.195],[162.835,106.505],[164.514,105.956],[165.347,105.761],[166.233,105.553],[167.981,105.299],[169.744,105.194],[170.225,105.207],[171.509,105.241],[172.68,105.373],[173.265,105.439],[174.996,105.786],[176.692,106.28],[177.441,106.569],[178.339,106.917],[179.926,107.692],[181.441,108.6],[182.872,109.634],[184.21,110.787],[185.445,112.051],[186.566,113.415],[187.568,114.869],[188.282,116.126],[188.441,116.405],[189.18,118.009],[189.778,119.67],[190.054,120.705],[190.233,121.377],[190.54,123.116],[190.559,123.524],[190.559,196.474],[190.54,196.882],[190.256,198.515],[189.842,200.121],[189.408,201.374],[189.3,201.688],[188.634,203.206],[187.849,204.666],[187.309,205.502],[186.949,206.059],[185.94,207.375],[184.828,208.605],[184.346,209.06],[183.622,209.742],[182.587,210.572],[182.328,210.779],[180.955,211.709],[180.666,211.872],[179.512,212.525],[178.008,213.223],[176.452,213.798],[174.856,214.246],[173.229,214.564],[171.911,214.714],[171.581,214.751],[169.924,214.806],[168.268,214.727],[166.624,214.515],[165.001,214.172],[163.412,213.7],[162.793,213.46],[161.866,213.102],[160.372,212.381],[158.941,211.543],[157.583,210.593],[156.304,209.537],[155.115,208.382],[154.022,207.135],[153.627,206.603],[153.033,205.804],[152.33,204.68],[152.154,204.398],[151.39,202.927],[150.747,201.398],[150.229,199.823],[149.839,198.212],[149.58,196.574],[149.529,195.913],[149.453,194.921],[149.441,125.545]]
M73 P0 R33
;TYPE:Custom
START_PRINT T_BED=110 T_EXTRUDER=260
G90
G21
M83 ; use relative distances for extrusion
; Filament gcode

    PRESSURE_ADVANCE_SELECT FILAMENT=ABS
M106 S0
;LAYER_CHANGE
;Z:0.2
;HEIGHT:0.2
;BEFORE_LAYER_CHANGE
;0.2
G92 E0

M204 S1000
G1 E-.5 F2400
G1 X151.484 Y112.599 F9000
G1 Z.2
G1 E.5 F1800
;TYPE:Skirt
;WIDTH:0.5
G1 F3000
G1 X152.684 Y111.058 E.06873
G1 X154.01 Y109.625 E.06873
G1 X155.455 Y108.311 E.06873
G1 X156.803 Y107.268 E.05996
G1 X158.438 Y106.201 E.06873
G1 X160.159 Y105.278 E.06873
G1 X161.952 Y104.505 E.06873
G1 X164.045 Y103.821 E.0775
G1 X165.949 Y103.386 E.06873
G1 X167.883 Y103.115 E.06873
G1 X170.557 Y103.03 E.09416
G1 X171.785 Y103.073 E.04324
G1 X173.724 Y103.302 E.06873
G1 X175.637 Y103.696 E.06873
G1 X177.509 Y104.253 E.06873
G1 X179.327 Y104.967 E.06873
G1 X181.077 Y105.834 E.06873
G1 X182.746 Y106.847 E.06873
G1 X184.323 Y107.999 E.06873
G1 X185.795 Y109.282 E.06873
G1 X187.152 Y110.686 E.06873
G1 X188.384 Y112.201 E.06873
G1 X189.483 Y113.816 E.06873
G1 X190.439 Y115.519 E.06873
G1 X191.246 Y117.297 E.06873
G1 X191.824 Y118.9 E.05996
G1 X192.337 Y120.784 E.06873
G1 X192.687 Y122.706 E.06873
G1 X192.744 Y123.496 E.02789
G1 X192.744 Y196.502 E2.56936
G1 X192.688 Y197.285 E.02763
G1 X192.414 Y198.861 E.05629
G1 X191.965 Y200.638 E.06452
G1 X191.375 Y202.374 E.06452
G1 X190.545 Y204.267 E.07275
G1 X189.299 Y206.448 E.08841
G1 X187.691 Y208.681 E.09682
G1 X186.47 Y210.048 E.06452
G1 X185.142 Y211.312 E.06452
G1 X183.717 Y212.466 E.06452
G1 X182.204 Y213.502 E.06452
G1 X180.405 Y214.519 E.07276
G1 X178.738 Y215.283 E.06452
G1 X177.015 Y215.909 E.06452
G1 X175.247 Y216.396 E.06452
G1 X173.446 Y216.739 E.06452
G1 X171.857 Y216.919 E.05629
G1 X170.025 Y216.989 E.06452
G1 X168.193 Y216.911 E.06452
G1 X166.374 Y216.686 E.06452
G1 X164.578 Y216.316 E.06452
G1 X162.818 Y215.803 E.06452
G1 X161.105 Y215.15 E.06452
G1 X159.449 Y214.362 E.06452
G1 X157.862 Y213.444 E.06452
G1 X156.354 Y212.401 E.06452
G1 X154.935 Y211.24 E.06452
G1 X153.452 Y209.8 E.07275
G1 X152.251 Y208.415 E.06452
G1 X151.165 Y206.938 E.06452
G1 X150.201 Y205.379 E.06452
G1 X149.365 Y203.747 E.06452
G1 X148.663 Y202.053 E.06452
G1 X148.099 Y200.309 E.06452
G1 X147.722 Y198.754 E.05629
G1 X147.426 Y196.945 E.06452
G1 X147.268 Y194.895 E.07237
G1 X147.256 Y125.556 E2.44029
G1 X147.382 Y123.441 E.07455
G1 X147.67 Y121.51 E.06873
G1 X148.054 Y119.85 E.05996
G1 X148.646 Y117.989 E.06873
G1 X149.395 Y116.186 E.06873
G1 X150.296 Y114.453 E.06873
G1 X151.452 Y112.65 E.07538
G1 X151.835 Y112.896 F9000
G1 F3000
G1 X151.847 Y112.878 E.00074
G1 X153.021 Y111.367 E.06735
G1 X154.32 Y109.961 E.06735
G1 X155.734 Y108.672 E.06735
G1 X157.082 Y107.63 E.05996
G1 X158.686 Y106.586 E.06735
G1 X160.373 Y105.682 E.06735
G1 X162.131 Y104.926 E.06735
G1 X163.947 Y104.323 E.06735
G1 X166.015 Y103.838 E.07474
G1 X167.91 Y103.572 E.06735
G1 X170.545 Y103.487 E.09279
G1 X171.734 Y103.527 E.04186
G1 X173.635 Y103.751 E.06735
G1 X175.509 Y104.135 E.06735
G1 X177.344 Y104.679 E.06735
G1 X179.126 Y105.377 E.06735
G1 X180.842 Y106.226 E.06735
G1 X182.478 Y107.218 E.06735
G1 X184.024 Y108.346 E.06735
G1 X185.468 Y109.602 E.06735
G1 X186.799 Y110.977 E.06735
G1 X188.008 Y112.461 E.06735
G1 X189.085 Y114.042 E.06735
G1 X190.024 Y115.71 E.06735
G1 X190.816 Y117.452 E.06735
G1 X191.456 Y119.256 E.06735
G1 X191.895 Y120.902 E.05996
G1 X192.237 Y122.785 E.06735
G1 X192.287 Y123.496 E.02509
G1 X192.287 Y196.502 E2.56936
G1 X191.964 Y198.782 E.08106
G1 X191.523 Y200.524 E.06323
G1 X190.943 Y202.225 E.06323
G1 X190.142 Y204.051 E.07017
G1 X188.915 Y206.2 E.08712
G1 X187.329 Y208.403 E.09553
G1 X186.13 Y209.742 E.06323
G1 X184.828 Y210.98 E.06323
G1 X183.431 Y212.109 E.06323
G1 X181.948 Y213.123 E.06323
G1 X180.212 Y214.105 E.07017
G1 X178.579 Y214.854 E.06323
G1 X176.891 Y215.469 E.06323
G1 X175.159 Y215.947 E.06323
G1 X173.59 Y216.255 E.05629
G1 X171.805 Y216.465 E.06323
G1 X170.01 Y216.532 E.06323
G1 X168.215 Y216.454 E.06323
G1 X166.432 Y216.233 E.06323
G1 X164.673 Y215.869 E.06323
G1 X162.948 Y215.365 E.06323
G1 X161.269 Y214.724 E.06323
G1 X159.648 Y213.95 E.06323
G1 X158.093 Y213.049 E.06323
G1 X156.616 Y212.026 E.06323
G1 X155.226 Y210.888 E.06323
G1 X153.796 Y209.499 E.07017
G1 X152.618 Y208.142 E.06323
G1 X151.552 Y206.696 E.06323
G1 X150.606 Y205.168 E.06323
G1 X149.786 Y203.57 E.06323
G1 X149.097 Y201.91 E.06323
G1 X148.543 Y200.201 E.06323
G1 X148.166 Y198.647 E.05629
G1 X147.878 Y196.873 E.06323
G1 X147.725 Y194.895 E.06985
G1 X147.713 Y125.556 E2.44029
G1 X147.835 Y123.506 E.07226
G1 X148.115 Y121.613 E.06735
G1 X148.5 Y119.953 E.05996
G1 X149.081 Y118.13 E.06735
G1 X149.817 Y116.363 E.06735
G1 X150.7 Y114.666 E.06735
G1 X151.803 Y112.946 E.0719
; printing object pip_rotating_hanger(3).STL id:0 copy 0
EXCLUDE_OBJECT_START NAME=pip_rotating_hanger(3).STL_id_0_copy_0
G1 E-.5 F2400
G1 X163.704 Y161.233 F9000
G1 E.5 F1800
;TYPE:Outer wall
;WIDTH:0.499999
G1 F3000
G1 X176.417 Y161.233 E.44742
G1 X176.487 Y161.25 E.00252
G1 X176.57 Y161.349 E.00458
G1 X176.575 Y167.724 E.22435
G2 X176.834 Y170.635 I14.831 J.147 E.103
G2 X178.759 Y175.274 I13.247 J-2.778 E.1778
G1 X178.996 Y175.759 E.01901
G1 X179.044 Y176.175 E.01475
G3 X178.865 Y176.789 I-2.4 J-.368 E.02258
G1 X178.135 Y178.054 E.0514
G1 X177.797 Y178.5 E.01969
G1 X177.444 Y178.725 E.01474
G1 X177.038 Y178.828 E.01474
G3 X176.398 Y178.73 I.037 J-2.375 E.02284
G2 X173.655 Y177.876 I-7.215 J18.347 E.1012
G1 X173.587 Y177.859 E.00248
G2 X170.652 Y177.496 I-3.78 J18.51 E.10416
G2 X169.173 Y177.511 I7.232 J797.311 E.05207
G2 X167.701 Y177.657 I48.108 J493.251 E.05206
G2 X166.247 Y177.933 I124.766 J661.766 E.05206
G1 X164.843 Y178.33 E.05135
G2 X163.442 Y178.864 I97.439 J257.648 E.05278
G2 X162.112 Y179.512 I28.241 J59.615 E.05207
G2 X160.845 Y180.276 I143.626 J239.772 E.05206
G2 X159.651 Y181.148 I396.136 J543.353 E.05206
G2 X158.538 Y182.124 I364.674 J417.086 E.05207
G2 X157.517 Y183.194 I488.586 J467.535 E.05206
G2 X156.594 Y184.35 I626.68 J501.078 E.05206
G1 X155.788 Y185.566 E.05135
G1 X155.082 Y186.866 E.05206
G1 X154.487 Y188.242 E.05273
G2 X154.024 Y189.645 I134.938 J45.323 E.052
G2 X153.478 Y192.553 I18.882 J5.051 E.10424
G2 X153.427 Y194.777 I17.337 J1.51 E.07835
G2 X153.528 Y196.1 I7.59 J.087 E.04674
G1 X153.638 Y196.976 E.0311
G1 X153.952 Y198.422 E.05207
G1 X154.393 Y199.834 E.05206
G1 X154.956 Y201.201 E.05201
G2 X155.638 Y202.513 I30.057 J-14.804 E.05205
G2 X156.436 Y203.761 I129.711 J-81.999 E.05214
G2 X158.344 Y206.019 I15.016 J-10.755 E.10414
G2 X159.44 Y207.012 I355.224 J-391.028 E.05206
G2 X160.62 Y207.904 I394.595 J-520.721 E.05207
G2 X161.875 Y208.688 I413.269 J-659.818 E.05206
G1 X163.194 Y209.358 E.05207
G1 X164.548 Y209.901 E.05135
G1 X165.983 Y210.334 E.05274
G2 X167.43 Y210.634 I21.637 J-101.007 E.052
G2 X170.381 Y210.843 I2.828 J-19.002 E.10423
G2 X172.626 Y210.634 I-.468 J-17.195 E.0794
G1 X173.32 Y210.527 E.02471
G1 X174.738 Y210.182 E.05135
G2 X176.157 Y209.698 I-88.392 J-262.06 E.05278
G1 X177.51 Y209.099 E.05206
G1 X178.786 Y208.392 E.05135
G1 X180.027 Y207.554 E.05272
G2 X181.173 Y206.621 I-116.969 J-144.835 E.052
G2 X183.2 Y204.464 I-13.442 J-14.66 E.10425
G2 X184.061 Y203.261 I-408.856 J-293.477 E.05206
G2 X184.812 Y201.986 I-541.383 J-319.799 E.05207
G2 X185.447 Y200.65 I-679.869 J-323.929 E.05206
G1 X185.961 Y199.263 E.05207
G1 X186.345 Y197.856 E.05135
G1 X186.59 Y196.501 E.04845
G1 X186.734 Y195.989 E.01871
G1 X186.975 Y195.647 E.01474
G1 X187.311 Y195.397 E.01474
G1 X187.714 Y195.264 E.01491
G1 X187.992 Y195.252 E.0098
G1 X188.601 Y195.325 E.02159
G1 X188.99 Y195.543 E.0157
G1 X189.284 Y195.879 E.0157
G1 X189.449 Y196.293 E.0157
G1 X189.467 Y196.757 E.01633
G1 X189.201 Y198.288 E.05468
G1 X188.808 Y199.809 E.0553
G1 X188.295 Y201.294 E.0553
G1 X187.664 Y202.733 E.0553
G1 X186.919 Y204.117 E.0553
G1 X186.066 Y205.437 E.0553
G1 X185.11 Y206.683 E.0553
G1 X184.057 Y207.85 E.0553
G1 X182.913 Y208.927 E.0553
G1 X181.687 Y209.91 E.0553
G1 X180.386 Y210.791 E.0553
G1 X179.018 Y211.564 E.0553
G1 X177.593 Y212.226 E.0553
G1 X176.119 Y212.771 E.0553
G1 X174.606 Y213.195 E.0553
G1 X173.064 Y213.497 E.0553
G1 X171.503 Y213.674 E.0553
G1 X169.932 Y213.726 E.0553
G1 X168.363 Y213.651 E.0553
G1 X166.804 Y213.45 E.0553
G1 X165.267 Y213.125 E.0553
G1 X163.761 Y212.678 E.0553
G1 X162.295 Y212.111 E.0553
G1 X160.88 Y211.428 E.0553
G1 X159.524 Y210.634 E.0553
G1 X158.236 Y209.734 E.0553
G1 X157.025 Y208.733 E.0553
G1 X155.898 Y207.638 E.0553
G1 X154.862 Y206.456 E.0553
G1 X153.925 Y205.195 E.0553
G1 X153.092 Y203.863 E.0553
G1 X152.368 Y202.468 E.0553
G1 X151.759 Y201.02 E.0553
G1 X151.268 Y199.527 E.0553
G1 X150.898 Y198 E.0553
G1 X150.652 Y196.448 E.0553
G1 X150.532 Y194.881 E.0553
G1 X150.537 Y193.31 E.0553
G1 X150.669 Y191.744 E.0553
G1 X150.926 Y190.194 E.0553
G1 X151.307 Y188.67 E.0553
G1 X151.808 Y187.181 E.0553
G1 X152.428 Y185.737 E.0553
G1 X153.162 Y184.347 E.0553
G1 X154.004 Y183.021 E.0553
G1 X154.951 Y181.766 E.0553
G1 X155.995 Y180.592 E.0553
G1 X157.13 Y179.505 E.05531
G1 X158.219 Y178.614 E.04954
G2 X159.292 Y177.734 I-408.029 J-498.762 E.04881
G2 X160.915 Y175.964 I-9.197 J-10.062 E.08465
G2 X161.615 Y174.948 I-94.657 J-65.92 E.04343
G1 X162.197 Y173.908 E.04194
G2 X162.697 Y172.78 I-166.322 J-74.439 E.04343
G2 X163.361 Y170.449 I-14.961 J-5.521 E.08536
G2 X163.582 Y168.082 I-16.054 J-2.695 E.08375
G1 X163.588 Y161.386 E.23566
G1 X163.605 Y161.317 E.00251
G1 X163.658 Y161.272 E.00246
G1 X163.763 Y161.287
G1 X164.045 Y161.69 F9000
;TYPE:Inner wall
G1 F3000
G1 X176.113 Y161.69 E.42474
G2 X176.119 Y168.082 I1597.382 J1.914 E.22494
G2 X176.183 Y169.375 I234.987 J-11.073 E.04556
G2 X176.39 Y170.747 I99.417 J-14.326 E.04884
G2 X177.764 Y174.516 I14.006 J-2.971 E.14165
G3 X178.55 Y175.885 I-15.608 J9.869 E.05559
G1 X178.582 Y176.155 E.00955
G1 X178.46 Y176.577 E.01545
G1 X177.739 Y177.826 E.05076
G1 X177.488 Y178.154 E.01454
G3 X176.996 Y178.367 I-.568 J-.637 E.01919
G1 X176.545 Y178.297 E.01607
G2 X173.771 Y177.434 I-7.385 J18.847 E.10234
G1 X173.665 Y177.409 E.00385
G2 X170.648 Y177.039 I-3.849 J18.915 E.10707
G2 X169.128 Y177.056 I2.418 J284.615 E.05349
G2 X167.616 Y177.208 I17.323 J180.47 E.05349
G2 X166.123 Y177.493 I44.667 J238.055 E.05349
G1 X164.719 Y177.89 E.05135
G2 X163.242 Y178.453 I36.101 J96.896 E.05563
G2 X161.877 Y179.12 I14.259 J30.892 E.0535
G2 X160.576 Y179.906 I54.666 J91.945 E.05349
G2 X159.35 Y180.805 I142.312 J195.559 E.05349
G2 X158.208 Y181.808 I132.255 J151.653 E.05349
G2 X157.16 Y182.908 I175.596 J168.321 E.05349
G2 X156.213 Y184.097 I223.313 J178.764 E.05349
G1 X155.407 Y185.314 E.05135
G1 X154.68 Y186.648 E.05349
G1 X154.054 Y188.096 E.05549
G2 X153.578 Y189.543 I44.356 J15.379 E.05363
G2 X153.021 Y192.529 I19.241 J5.134 E.10698
G2 X152.943 Y194.046 I174.723 J9.737 E.05349
G2 X153 Y195.565 I217.581 J-7.379 E.05349
G2 X153.191 Y197.073 I258.691 J-32.033 E.05349
G1 X153.516 Y198.558 E.05349
G1 X153.949 Y199.951 E.05135
G1 X154.549 Y201.409 E.05547
G2 X155.251 Y202.755 I21.768 J-10.495 E.05344
G2 X156.074 Y204.04 I54.412 J-33.948 E.05371
G2 X157.004 Y205.242 I84.861 J-64.691 E.05349
G2 X158.658 Y206.92 I13.227 J-11.381 E.08297
G2 X159.712 Y207.79 I5.649 J-5.768 E.04817
G2 X161.668 Y209.095 I10.719 J-13.948 E.08281
G1 X163.024 Y209.782 E.05349
G1 X164.378 Y210.326 E.05135
G1 X165.888 Y210.782 E.05553
G2 X167.38 Y211.088 I8.48 J-37.507 E.05359
G2 X170.409 Y211.299 I2.87 J-19.378 E.10698
G2 X172.694 Y211.086 I-.509 J-17.812 E.08083
G2 X174.036 Y210.823 I-.867 J-7.996 E.04817
G2 X176.342 Y210.116 I-3.878 J-16.768 E.08496
G1 X177.731 Y209.499 E.05349
G1 X179.008 Y208.792 E.05135
G1 X180.313 Y207.91 E.05545
G2 X181.495 Y206.946 I-34.615 J-43.605 E.05367
G2 X183.571 Y204.73 I-13.693 J-14.915 E.10698
G2 X184.454 Y203.493 I-149.067 J-107.339 E.05349
G2 X185.224 Y202.183 I-194.903 J-115.397 E.05349
G2 X185.875 Y200.809 I-242.82 J-115.895 E.05349
G1 X186.402 Y199.384 E.05349
G1 X186.786 Y197.976 E.05135
G1 X187.04 Y196.582 E.04987
G3 X187.229 Y196.08 I1.536 J.292 E.01895
G3 X187.982 Y195.71 I.773 J.622 E.03049
G1 X188.446 Y195.762 E.01643
G1 X188.698 Y195.903 E.01016
G1 X188.888 Y196.121 E.01017
G1 X188.995 Y196.389 E.01017
G1 X189.008 Y196.726 E.01187
G1 X188.753 Y198.191 E.05234
G1 X188.37 Y199.677 E.05401
M73 P1 R33
G1 X187.869 Y201.128 E.05401
G1 X187.252 Y202.533 E.05401
G1 X186.525 Y203.884 E.05401
G1 X185.692 Y205.173 E.05401
G1 X184.758 Y206.391 E.05401
G1 X183.73 Y207.53 E.05401
G1 X182.613 Y208.582 E.05401
G1 X181.416 Y209.542 E.05401
G1 X180.145 Y210.402 E.05401
G1 X178.809 Y211.157 E.05401
G1 X177.417 Y211.803 E.05401
G1 X175.978 Y212.335 E.05401
G1 X174.5 Y212.75 E.05401
G1 X172.994 Y213.045 E.05401
G1 X171.47 Y213.218 E.05401
G1 X169.936 Y213.268 E.05401
G1 X168.403 Y213.195 E.05401
G1 X166.881 Y212.999 E.05401
G1 X165.38 Y212.682 E.05401
G1 X163.909 Y212.245 E.05401
G1 X162.477 Y211.691 E.05401
G1 X161.095 Y211.025 E.05401
G1 X159.771 Y210.249 E.05401
G1 X158.513 Y209.37 E.05401
G1 X157.33 Y208.392 E.05401
G1 X156.229 Y207.323 E.05401
G1 X155.218 Y206.169 E.05401
G1 X154.303 Y204.937 E.05401
G1 X153.489 Y203.636 E.05401
G1 X152.782 Y202.274 E.05401
G1 X152.187 Y200.86 E.05401
G1 X151.708 Y199.402 E.05401
G1 X151.347 Y197.91 E.05401
G1 X151.107 Y196.395 E.05401
G1 X150.989 Y194.865 E.05401
G1 X150.994 Y193.33 E.05401
G1 X151.123 Y191.801 E.05401
G1 X151.374 Y190.287 E.05401
G1 X151.746 Y188.798 E.05401
G1 X152.236 Y187.344 E.05401
G1 X152.841 Y185.934 E.05401
G1 X153.557 Y184.577 E.05401
G1 X154.38 Y183.281 E.05401
G1 X155.304 Y182.056 E.05401
G1 X156.324 Y180.91 E.05401
G1 X157.433 Y179.848 E.05404
G1 X158.509 Y178.967 E.04891
G2 X159.614 Y178.059 I-146.775 J-179.615 E.05036
G2 X161.266 Y176.257 I-9.519 J-10.387 E.08614
G2 X162.014 Y175.171 I-38.845 J-27.545 E.04641
G1 X162.596 Y174.131 E.04194
