; HEADER_BLOCK_START
; generated by OrcaSlicer 1.6.3 on 2023-07-02 at 18:20:54
; total layer number: 76
; HEADER_BLOCK_END

; THUMBNAIL_BLOCK_START
; THUMBNAIL_BLOCK_END

; external perimeters extrusion width = 0.42mm
; perimeters extrusion width = 0.45mm
; infill extrusion width = 0.45mm
; solid infill extrusion width = 0.42mm
; top infill extrusion width = 0.42mm
; first layer extrusion width = 0.50mm

; EXECUTABLE_BLOCK_START
EXCLUDE_OBJECT_DEFINE NAME=pip_rotating_hanger(3).STL_id_0_copy_0 CENTER=170,160 POLYGON=[[149.441,125.545],[149.456,125.278],[149.541,123.782],[149.677,122.829],[149.791,122.034],[150.166,120.418],[150.19,120.313],[150.735,118.633],[151.421,117.006],[152.244,115.443],[153.197,113.957],[154.274,112.557],[155.467,111.254],[156.767,110.058],[158.164,108.978],[158.614,108.688],[159.648,108.021],[161.209,107.195],[162.835,106.505],[164.514,105.956],[165.347,105.761],[166.233,105.553],[167.981,105.299],[169.744,105.194],[170.225,105.207],[171.509,105.241],[172.68,105.373],[173.265,105.439],[174.996,105.786],[176.692,106.28],[177.441,106.569],[178.339,106.917],[179.926,107.692],[181.441,108.6],[182.872,109.634],[184.21,110.787],[185.445,112.051],[186.566,113.415],[187.568,114.869],[188.282,116.126],[188.441,116.405],[189.18,118.009],[189.778,119.67],[190.054,120.705],[190.233,121.377],[190.54,123.116],[190.559,123.524],[190.559,196.474],[190.54,196.882],[190.256,198.515],[189.842,200.121],[189.408,201.374],[189.3,201.688],[188.634,203.206],[187.849,204.666],[187.309,205.502],[186.949,206.059],[185.94,207.375],[184.828,208.605],[184.346,209.06],[183.622,209.742],[182.587,210.572],[182.328,210.779],[180.955,211.709],[180.666,211.872],[179.512,212.525],[178.008,213.223],[176.452,213.798],[174.856,214.246],[173.229,214.564],[171.911,214.714],[171.581,214.751],[169.924,214.806],[168.268,214.727],[166.624,214.515],[165.001,214.172],[163.412,213.7],[162.793,213.46],[161.866,213.102],[160.372,212.381],[158.941,211.543],[157.583,210.593],[156.304,209.537],[155.115,208.382],[154.022,207.135],[153.627,206.603],[153.033,205.804],[152.33,204.68],[152.154,204.398],[151.39,202.927],[150.747,201.398],[150.229,199.823],[149.839,198.212],[149.58,196.574],[149.529,195.913],[149.453,194.921],[149.441,125.545]]
M73 P0 R60
;TYPE:Custom
START_PRINT T_BED=110 T_EXTRUDER=260
G90
G21
M83 ; use relative distances for extrusion
; filament start gcode

    PRESSURE_ADVANCE_SELECT FILAMENT=ABS
M106 S0
;LAYER_CHANGE
;Z:0.2
;HEIGHT:0.2
;BEFORE_LAYER_CHANGE
;0.2
G92 E0

G1 E-.5 F2400
M204 S1000
G1 X151.484 Y112.599 F12000
G1 Z.2
G1 E.5 F1800
;TYPE:Skirt
;WIDTH:0.5
G1 F7200
G1 X152.684 Y111.058 E.06873
G1 X154.01 Y109.625 E.06873
G1 X155.455 Y108.311 E.06873
G1 X156.803 Y107.268 E.05996
G1 X158.438 Y106.201 E.06873
G1 X160.159 Y105.278 E.06873
G1 X161.952 Y104.505 E.06873
G1 X164.045 Y103.821 E.0775
G1 X165.949 Y103.386 E.06873
G1 X167.883 Y103.115 E.06873
G1 X170.557 Y103.03 E.09416
G1 X171.785 Y103.073 E.04324
G1 X173.724 Y103.302 E.06873
G1 X175.637 Y103.696 E.06873
G1 X177.509 Y104.253 E.06873
G1 X179.327 Y104.967 E.06873
G1 X181.077 Y105.834 E.06873
G1 X182.746 Y106.847 E.06873
G1 X184.323 Y107.999 E.06873
G1 X185.795 Y109.282 E.06873
G1 X187.152 Y110.686 E.06873
G1 X188.384 Y112.201 E.06873
G1 X189.483 Y113.816 E.06873
G1 X190.439 Y115.519 E.06873
G1 X191.246 Y117.297 E.06873
G1 X191.824 Y118.9 E.05996
G1 X192.337 Y120.784 E.06873
G1 X192.687 Y122.706 E.06873
G1 X192.744 Y123.496 E.02789
G1 X192.744 Y196.502 E2.56936
G1 X192.688 Y197.285 E.02763
G1 X192.414 Y198.861 E.05629
G1 X191.965 Y200.638 E.06452
G1 X191.375 Y202.374 E.06452
G1 X190.545 Y204.267 E.07275
G1 X189.299 Y206.448 E.08841
G1 X187.691 Y208.681 E.09682
G1 X186.47 Y210.048 E.06452
G1 X185.142 Y211.312 E.06452
G1 X183.717 Y212.466 E.06452
G1 X182.204 Y213.502 E.06452
G1 X180.405 Y214.519 E.07276
G1 X178.738 Y215.283 E.06452
G1 X177.015 Y215.909 E.06452
G1 X175.247 Y216.396 E.06452
G1 X173.446 Y216.739 E.06452
G1 X171.857 Y216.919 E.05629
G1 X170.025 Y216.989 E.06452
G1 X168.193 Y216.911 E.06452
G1 X166.374 Y216.686 E.06452
G1 X164.578 Y216.316 E.06452
G1 X162.818 Y215.803 E.06452
G1 X161.105 Y215.15 E.06452
G1 X159.449 Y214.362 E.06452
G1 X157.862 Y213.444 E.06452
G1 X156.354 Y212.401 E.06452
G1 X154.935 Y211.24 E.06452
G1 X153.452 Y209.8 E.07275
G1 X152.251 Y208.415 E.06452
G1 X151.165 Y206.938 E.06452
G1 X150.201 Y205.379 E.06452
G1 X149.365 Y203.747 E.06452
G1 X148.663 Y202.053 E.06452
G1 X148.099 Y200.309 E.06452
G1 X147.722 Y198.754 E.05629
G1 X147.426 Y196.945 E.06452
G1 X147.268 Y194.895 E.07237
G1 X147.256 Y125.556 E2.44029
G1 X147.382 Y123.441 E.07455
G1 X147.67 Y121.51 E.06873
G1 X148.054 Y119.85 E.05996
G1 X148.646 Y117.989 E.06873
G1 X149.395 Y116.186 E.06873
G1 X150.296 Y114.453 E.06873
G1 X151.452 Y112.65 E.07538
G1 X151.835 Y112.896 F12000
G1 F7200
G1 X151.847 Y112.878 E.00074
G1 X153.021 Y111.367 E.06735
G1 X154.32 Y109.961 E.06735
G1 X155.734 Y108.672 E.06735
G1 X157.082 Y107.63 E.05996
G1 X158.686 Y106.586 E.06735
G1 X160.373 Y105.682 E.06735
G1 X162.131 Y104.926 E.06735
G1 X163.947 Y104.323 E.06735
G1 X166.015 Y103.838 E.07474
G1 X167.91 Y103.572 E.06735
G1 X170.545 Y103.487 E.09279
G1 X171.734 Y103.527 E.04186
G1 X173.635 Y103.751 E.06735
G1 X175.509 Y104.135 E.06735
G1 X177.344 Y104.679 E.06735
G1 X179.126 Y105.377 E.06735
G1 X180.842 Y106.226 E.06735
G1 X182.478 Y107.218 E.06735
G1 X184.024 Y108.346 E.06735
G1 X185.468 Y109.602 E.06735
G1 X186.799 Y110.977 E.06735
G1 X188.008 Y112.461 E.06735
G1 X189.085 Y114.042 E.06735
G1 X190.024 Y115.71 E.06735
G1 X190.816 Y117.452 E.06735
G1 X191.456 Y119.256 E.06735
G1 X191.895 Y120.902 E.05996
G1 X192.237 Y122.785 E.06735
G1 X192.287 Y123.496 E.02509
G1 X192.287 Y196.502 E2.56936
G1 X191.964 Y198.782 E.08106
G1 X191.523 Y200.524 E.06323
G1 X190.943 Y202.225 E.06323
G1 X190.142 Y204.051 E.07017
G1 X188.915 Y206.2 E.08712
G1 X187.329 Y208.403 E.09553
G1 X186.13 Y209.742 E.06323
G1 X184.828 Y210.98 E.06323
G1 X183.431 Y212.109 E.06323
G1 X181.948 Y213.123 E.06323
G1 X180.212 Y214.105 E.07017
G1 X178.579 Y214.854 E.06323
G1 X176.891 Y215.469 E.06323
G1 X175.159 Y215.947 E.06323
G1 X173.59 Y216.255 E.05629
G1 X171.805 Y216.465 E.06323
G1 X170.01 Y216.532 E.06323
G1 X168.215 Y216.454 E.06323
G1 X166.432 Y216.233 E.06323
G1 X164.673 Y215.869 E.06323
G1 X162.948 Y215.365 E.06323
G1 X161.269 Y214.724 E.06323
G1 X159.648 Y213.95 E.06323
G1 X158.093 Y213.049 E.06323
G1 X156.616 Y212.026 E.06323
G1 X155.226 Y210.888 E.06323
G1 X153.796 Y209.499 E.07017
G1 X152.618 Y208.142 E.06323
G1 X151.552 Y206.696 E.06323
G1 X150.606 Y205.168 E.06323
G1 X149.786 Y203.57 E.06323
G1 X149.097 Y201.91 E.06323
G1 X148.543 Y200.201 E.06323
G1 X148.166 Y198.647 E.05629
G1 X147.878 Y196.873 E.06323
G1 X147.725 Y194.895 E.06985
G1 X147.713 Y125.556 E2.44029
G1 X147.835 Y123.506 E.07226
G1 X148.115 Y121.613 E.06735
G1 X148.5 Y119.953 E.05996
G1 X149.081 Y118.13 E.06735
G1 X149.817 Y116.363 E.06735
G1 X150.7 Y114.666 E.06735
G1 X151.803 Y112.946 E.0719
; printing object pip_rotating_hanger(3).STL id:0 copy 0
EXCLUDE_OBJECT_START NAME=pip_rotating_hanger(3).STL_id_0_copy_0
G1 E-.35 F2400
;WIPE_START
G1 F7200
G1 X151.847 Y112.878 E-.00577
G1 X153.021 Y111.367 E-.13636
G1 X153.024 Y111.363 E-.00038
;WIPE_END
G1 E-.0075 F2400
G1 X163.685 Y161.231 F12000
G1 E.5 F1800
;TYPE:Outer wall
G1 F7200
G1 X164.195 Y161.229 E.01795
G1 X176.465 Y161.23 E.43184
G1 X176.535 Y161.262 E.0027
G1 X176.575 Y161.363 E.00382
G1 X176.575 Y168.056 E.23555
G1 X176.639 Y169.342 E.04532
G1 X176.831 Y170.624 E.04562
G1 X177.149 Y171.88 E.04562
G1 X177.59 Y173.099 E.04562
G1 X178.149 Y174.269 E.04562
G1 X178.925 Y175.561 E.05303
G3 X178.865 Y176.789 I-1.212 J.557 E.04499
G1 X178.071 Y178.165 E.05589
G3 X176.398 Y178.73 I-1.158 J-.67 E.06787
G1 X175.027 Y178.237 E.0513
G1 X173.596 Y177.861 E.05207
G1 X172.137 Y177.613 E.05207
G1 X170.662 Y177.496 E.05207
G1 X169.183 Y177.51 E.05207
G1 X167.711 Y177.655 E.05207
G1 X166.257 Y177.93 E.05207
G1 X164.833 Y178.332 E.05207
G1 X163.451 Y178.859 E.05207
G1 X162.121 Y179.507 E.05207
G1 X160.853 Y180.27 E.05207
G1 X159.658 Y181.142 E.05207
G1 X158.545 Y182.116 E.05207
G1 X157.523 Y183.186 E.05207
G1 X156.599 Y184.342 E.05207
G1 X155.782 Y185.575 E.05207
G1 X155.077 Y186.875 E.05207
G1 X154.49 Y188.233 E.05207
G1 X154.026 Y189.638 E.05207
G1 X153.688 Y191.078 E.05207
G1 X153.478 Y192.543 E.05207
G1 X153.4 Y194.02 E.05207
G1 X153.453 Y195.498 E.05207
G1 X153.636 Y196.966 E.05207
G1 X153.949 Y198.412 E.05207
G1 X154.389 Y199.825 E.05207
G1 X154.952 Y201.193 E.05207
G1 X155.634 Y202.506 E.05207
G1 X156.43 Y203.753 E.05207
G1 X157.333 Y204.925 E.05207
G1 X158.336 Y206.012 E.05207
G1 X159.432 Y207.006 E.05207
G1 X160.612 Y207.899 E.05207
G1 X161.866 Y208.683 E.05207
G1 X163.185 Y209.354 E.05207
G1 X164.557 Y209.905 E.05207
G1 X165.974 Y210.333 E.05207
G1 X167.422 Y210.633 E.05207
G1 X168.892 Y210.803 E.05207
G1 X170.371 Y210.843 E.05207
G1 X171.847 Y210.752 E.05207
G1 X173.31 Y210.53 E.05207
G1 X174.747 Y210.179 E.05207
G1 X176.148 Y209.703 E.05207
G1 X177.501 Y209.104 E.05207
G1 X178.795 Y208.387 E.05207
G1 X180.021 Y207.559 E.05207
G1 X181.169 Y206.626 E.05207
G1 X182.229 Y205.594 E.05207
G1 X183.194 Y204.472 E.05207
G1 X184.055 Y203.27 E.05207
G1 X184.807 Y201.996 E.05207
G1 X185.443 Y200.66 E.05207
G1 X185.958 Y199.273 E.05207
G1 X186.348 Y197.846 E.05207
G1 X186.656 Y196.184 E.05947
G3 X187.932 Y195.245 I1.271 J.39 E.05976
G1 X188.385 Y195.266 E.01593
G3 X189.468 Y196.747 I-.238 J1.311 E.07126
G1 X189.201 Y198.288 E.05502
G1 X188.808 Y199.809 E.0553
G1 X188.295 Y201.294 E.0553
G1 X187.664 Y202.733 E.0553
G1 X186.919 Y204.117 E.0553
G1 X186.066 Y205.437 E.0553
G1 X185.11 Y206.683 E.0553
G1 X184.057 Y207.85 E.0553
G1 X182.913 Y208.927 E.0553
G1 X181.687 Y209.91 E.0553
G1 X180.386 Y210.791 E.0553
G1 X179.018 Y211.564 E.0553
G1 X177.593 Y212.226 E.0553
G1 X176.119 Y212.771 E.0553
G1 X174.606 Y213.195 E.0553
G1 X173.064 Y213.497 E.0553
G1 X171.503 Y213.674 E.0553
G1 X169.932 Y213.726 E.0553
G1 X168.363 Y213.651 E.0553
G1 X166.804 Y213.45 E.0553
G1 X165.267 Y213.125 E.0553
G1 X163.761 Y212.678 E.0553
G1 X162.295 Y212.111 E.0553
G1 X160.88 Y211.428 E.0553
G1 X159.524 Y210.634 E.0553
G1 X158.236 Y209.734 E.0553
G1 X157.025 Y208.733 E.0553
G1 X155.898 Y207.638 E.0553
G1 X154.862 Y206.456 E.0553
G1 X153.925 Y205.195 E.0553
G1 X153.092 Y203.863 E.0553
G1 X152.368 Y202.468 E.0553
G1 X151.759 Y201.02 E.0553
G1 X151.268 Y199.527 E.0553
G1 X150.898 Y198 E.0553
G1 X150.652 Y196.448 E.0553
G1 X150.532 Y194.881 E.0553
G1 X150.537 Y193.31 E.0553
G1 X150.669 Y191.744 E.0553
G1 X150.926 Y190.194 E.0553
G1 X151.307 Y188.67 E.0553
G1 X151.808 Y187.181 E.0553
G1 X152.428 Y185.737 E.0553
G1 X153.162 Y184.347 E.0553
G1 X154.004 Y183.021 E.0553
G1 X154.951 Y181.766 E.0553
G1 X155.995 Y180.592 E.0553
G1 X157.13 Y179.505 E.0553
G1 X159.284 Y177.742 E.09799
G1 X160.144 Y176.887 E.04269
G1 X160.922 Y175.956 E.04269
G1 X161.61 Y174.957 E.04269
G1 X162.202 Y173.898 E.04269
G1 X162.694 Y172.79 E.04269
G1 X163.081 Y171.64 E.04269
G1 X163.359 Y170.46 E.04269
G1 X163.528 Y169.258 E.04269
G1 X163.583 Y168.055 E.0424
G1 X163.583 Y161.363 E.23553
G3 X163.678 Y161.233 I.122 J-.011 E.00617
G1 X163.744 Y161.285
G1 X164.041 Y161.686 F12000
;TYPE:Inner wall
G1 F7200
G1 X164.195 Y161.686 E.00544
G1 X176.118 Y161.687 E.41961
G1 X176.118 Y168.067 E.22452
G1 X176.183 Y169.387 E.04651
G1 X176.382 Y170.714 E.04722
G1 X176.711 Y172.015 E.04722
G1 X177.168 Y173.276 E.04722
G1 X177.747 Y174.487 E.04722
G1 X178.509 Y175.754 E.05206
G3 X178.46 Y176.577 I-.816 J.364 E.03014
G1 X177.684 Y177.92 E.0546
G3 X176.545 Y178.297 I-.784 J-.458 E.04612
G1 X175.162 Y177.8 E.05173
G1 X173.692 Y177.414 E.05349
G1 X172.194 Y177.159 E.05349
G1 X170.678 Y177.039 E.05349
G1 X169.158 Y177.053 E.05349
G1 X167.646 Y177.202 E.05349
G1 X166.152 Y177.484 E.05349
G1 X164.69 Y177.898 E.05349
G1 X163.269 Y178.439 E.05349
G1 X161.903 Y179.105 E.0535
G1 X160.6 Y179.888 E.05349
G1 X159.373 Y180.785 E.05349
G1 X158.229 Y181.786 E.0535
G1 X157.179 Y182.885 E.05349
G1 X156.23 Y184.072 E.05349
G1 X155.39 Y185.339 E.05349
G1 X154.665 Y186.675 E.05349
G1 X154.062 Y188.07 E.05349
G1 X153.585 Y189.514 E.0535
G1 X153.238 Y190.993 E.05349
G1 X153.023 Y192.498 E.05349
G1 X152.942 Y194.016 E.05349
G1 X152.997 Y195.535 E.05349
G1 X153.185 Y197.043 E.05349
G1 X153.506 Y198.529 E.05349
G1 X153.958 Y199.98 E.05349
G1 X154.537 Y201.386 E.05349
G1 X155.238 Y202.735 E.05349
G1 X156.055 Y204.016 E.05349
G1 X156.983 Y205.22 E.05349
G1 X158.014 Y206.337 E.05349
G1 X159.14 Y207.358 E.05349
G1 X160.352 Y208.275 E.05349
G1 X161.641 Y209.082 E.0535
G1 X162.995 Y209.771 E.05349
G1 X164.406 Y210.337 E.05349
G1 X165.861 Y210.776 E.05349
G1 X167.35 Y211.084 E.05349
G1 X168.859 Y211.26 E.05349
G1 X170.379 Y211.301 E.05349
G1 X171.896 Y211.207 E.05349
G1 X173.399 Y210.979 E.0535
G1 X174.875 Y210.618 E.05349
G1 X176.314 Y210.129 E.05349
G1 X177.704 Y209.513 E.05349
G1 X179.034 Y208.777 E.05349
G1 X180.294 Y207.926 E.05349
G1 X181.473 Y206.967 E.05349
G1 X182.562 Y205.907 E.05349
G1 X183.554 Y204.755 E.05349
G1 X184.439 Y203.52 E.0535
G1 X185.211 Y202.21 E.05349
G1 X185.864 Y200.838 E.05349
G1 X186.394 Y199.413 E.05349
G1 X186.794 Y197.947 E.05349
G1 X187.094 Y196.317 E.05833
G3 X187.951 Y195.702 I.867 J.304 E.0395
G1 X188.307 Y195.718 E.01254
G3 X189.013 Y196.697 I-.156 J.857 E.04695
G1 X188.753 Y198.191 E.05337
G1 X188.37 Y199.677 E.05401
G1 X187.869 Y201.128 E.05401
G1 X187.252 Y202.533 E.05401
G1 X186.525 Y203.884 E.05401
G1 X185.692 Y205.173 E.05401
G1 X184.758 Y206.391 E.05401
G1 X183.73 Y207.53 E.05401
G1 X182.613 Y208.582 E.05401
G1 X181.416 Y209.542 E.05401
G1 X180.145 Y210.402 E.05401
G1 X178.809 Y211.158 E.05401
G1 X177.417 Y211.803 E.05401
G1 X175.978 Y212.335 E.05401
G1 X174.5 Y212.75 E.05401
G1 X172.994 Y213.045 E.05401
G1 X171.47 Y213.218 E.05401
G1 X169.936 Y213.268 E.05401
G1 X168.403 Y213.195 E.05401
G1 X166.881 Y212.999 E.05401
G1 X165.38 Y212.682 E.05401
G1 X163.909 Y212.245 E.05401
G1 X162.477 Y211.691 E.05401
G1 X161.095 Y211.025 E.05401
G1 X159.771 Y210.249 E.05401
G1 X158.513 Y209.37 E.05401
G1 X157.33 Y208.392 E.05401
G1 X156.229 Y207.323 E.05401
G1 X155.218 Y206.169 E.05401
G1 X154.303 Y204.937 E.05401
G1 X153.489 Y203.636 E.05401
G1 X152.782 Y202.274 E.05401
G1 X152.187 Y200.86 E.05401
G1 X151.708 Y199.402 E.05401
G1 X151.347 Y197.91 E.05401
G1 X151.107 Y196.395 E.05401
G1 X150.989 Y194.865 E.05401
G1 X150.994 Y193.33 E.05401
G1 X151.123 Y191.801 E.05401
G1 X151.374 Y190.287 E.05401
G1 X151.746 Y188.798 E.05401
M73 P1 R60
G1 X152.236 Y187.344 E.05401
G1 X152.841 Y185.934 E.05401
G1 X153.557 Y184.577 E.05401
G1 X154.38 Y183.281 E.05401
G1 X155.304 Y182.056 E.05401
G1 X156.324 Y180.91 E.05401
G1 X157.433 Y179.848 E.05401
G1 X159.591 Y178.081 E.09819
G1 X160.482 Y177.196 E.04418
G1 X161.286 Y176.232 E.04418
G1 X161.998 Y175.199 E.04418
G1 X162.611 Y174.103 E.04418
G1 X163.12 Y172.956 E.04418
G1 X163.521 Y171.766 E.04418
G1 X163.809 Y170.544 E.04418
G1 X163.983 Y169.301 E.04418
G1 X164.041 Y168.066 E.04352
G1 X164.041 Y161.694 E.22425
G1 X164.498 Y162.143 F12000
G1 F7200
G1 X175.661 Y162.144 E.39287
G1 X175.661 Y168.078 E.20883
G1 X175.728 Y169.432 E.04771
G1 X175.933 Y170.804 E.04882
G1 X176.274 Y172.149 E.04882
G1 X176.746 Y173.453 E.04882
G1 X177.344 Y174.704 E.04882
G1 X178.093 Y175.947 E.05108
G3 X178.055 Y176.364 I-.445 J.169 E.01524
G1 X177.297 Y177.676 E.05332
G3 X176.892 Y177.918 I-.422 J-.246 E.01734
G1 X176.692 Y177.865 E.00727
G1 X175.298 Y177.363 E.05216
G1 X173.789 Y176.966 E.05492
G1 X172.25 Y176.705 E.05492
G1 X170.694 Y176.582 E.05492
G1 X169.134 Y176.596 E.05492
G1 X167.581 Y176.749 E.05492
G1 X166.047 Y177.039 E.05492
G1 X164.546 Y177.464 E.05492
G1 X163.088 Y178.02 E.05492
G1 X161.684 Y178.703 E.05492
G1 X160.347 Y179.507 E.05492
G1 X159.087 Y180.427 E.05492
G1 X157.913 Y181.455 E.05492
G1 X156.834 Y182.583 E.05492
G1 X155.86 Y183.803 E.05492
G1 X154.998 Y185.103 E.05492
G1 X154.254 Y186.475 E.05492
G1 X153.635 Y187.908 E.05492
G1 X153.145 Y189.389 E.05492
