; generated by SuperSlicer 2.5.59 on 2023-04-23 at 23:15:41 UTC


;
;

;
;
; 

; external perimeters extrusion width = 0.40mm
; perimeters extrusion width = 0.46mm
; infill extrusion width = 0.64mm
; solid infill extrusion width = 0.56mm
; top infill extrusion width = 0.40mm
; support material extrusion width = 0.46mm
; first layer extrusion width = 0.50mm

; external perimeters extrusion width = 0.40mm
; perimeters extrusion width = 0.46mm
; infill extrusion width = 0.64mm
; solid infill extrusion width = 0.56mm
; top infill extrusion width = 0.40mm
; support material extrusion width = 0.46mm
; first layer extrusion width = 0.50mm

; external perimeters extrusion width = 0.40mm
; perimeters extrusion width = 0.46mm
; infill extrusion width = 0.64mm
; solid infill extrusion width = 0.56mm
; top infill extrusion width = 0.40mm
; support material extrusion width = 0.46mm
; first layer extrusion width = 0.50mm

; external perimeters extrusion width = 0.40mm
; perimeters extrusion width = 0.46mm
; infill extrusion width = 0.64mm
; solid infill extrusion width = 0.56mm
; top infill extrusion width = 0.40mm
; support material extrusion width = 0.46mm
; first layer extrusion width = 0.50mm

; object:{"name":"Portable_Laptop_Stand_-_Base","id":"Portable_Laptop_Stand_-_Base.stl id:0 copy 0","object_center":[170.500000,165.000000,0.000000],"boundingbox_center":[170.500000,165.000000,10.000000],"boundingbox_size":[20.000000,190.000000,20.000000]}
EXCLUDE_OBJECT_DEFINE NAME=Portable_Laptop_Stand___Base_stl_id_0_copy_0 CENTER=170.500000,165.000000 POLYGON=[[160.500000,71.762248],[161.385520,70.854504],[162.219104,70.000000],[178.690048,70.000000],[180.500000,71.731488],[180.500000,257.781744],[178.579936,260.000000],[162.550992,260.000000],[160.500000,257.853520],[160.500000,71.762248]]
; object:{"name":"Portable_Laptop_Stand_-_Arm","id":"Portable_Laptop_Stand_-_Arm.stl id:1 copy 0","object_center":[196.500000,165.000000,0.000000],"boundingbox_center":[196.500000,165.000000,6.839567],"boundingbox_size":[20.000000,149.922607,13.679134]}
EXCLUDE_OBJECT_DEFINE NAME=Portable_Laptop_Stand___Arm_stl_id_1_copy_0 CENTER=196.500000,165.000000 POLYGON=[[186.500000,109.742016],[192.000000,90.038696],[201.000000,90.038696],[206.500000,109.740512],[206.500000,237.846464],[204.438736,239.961312],[188.531264,239.961312],[186.500000,237.877248],[186.500000,109.742016]]
; object:{"name":"Portable_Laptop_Stand_-_Support","id":"Portable_Laptop_Stand_-_Support.stl id:2 copy 0","object_center":[139.000000,205.613619,0.000000],"boundingbox_center":[139.000000,205.613619,6.250000],"boundingbox_size":[31.000000,78.250000,12.500000]}
EXCLUDE_OBJECT_DEFINE NAME=Portable_Laptop_Stand___Support_stl_id_2_copy_0 CENTER=139.000000,205.613619 POLYGON=[[123.500000,168.050608],[124.125000,166.488624],[153.875008,166.488624],[154.500000,168.050608],[154.500000,243.176624],[153.875008,244.738624],[124.125000,244.738624],[123.500000,243.176624],[123.500000,168.050608]]
; object:{"name":"Portable_Laptop_Stand_-_Pin","id":"Portable_Laptop_Stand_-_Pin.stl id:3 copy 0","object_center":[151.250000,157.238618,0.000000],"boundingbox_center":[151.250000,157.238618,10.000000],"boundingbox_size":[6.500000,6.500000,20.000000]}
EXCLUDE_OBJECT_DEFINE NAME=Portable_Laptop_Stand___Pin_stl_id_3_copy_0 CENTER=151.250000,157.238618 POLYGON=[[148.000000,157.238624],[148.158992,156.234624],[148.621008,155.328608],[149.340000,154.609616],[150.246000,154.147616],[151.250000,153.988624],[152.254000,154.147616],[153.160000,154.609616],[153.878992,155.328608],[154.341008,156.234624],[154.500000,157.238624],[154.341008,158.242608],[153.878992,159.148624],[153.160000,159.867616],[152.254000,160.329616],[151.250000,160.488624],[150.246000,160.329616],[149.340000,159.867616],[148.621008,159.148624],[148.158992,158.242608],[148.000000,157.238624]]
; plater:{"center":[165.000000,165.000000,0.000000],"boundingbox_center":[165.000000,165.000000,10.000000],"boundingbox_size":[83.000000,190.000000,20.000000]}

M73 P0 R163
;TYPE:Custom
; custom gcode: start_gcode
START_PRINT T_BED=60 T_EXTRUDER=200
; custom gcode end: start_gcode
M107
G21 ; set units to millimeters
G90 ; use absolute coordinates
M82 ; use absolute distances for extrusion
G92 E0
; custom gcode: start_filament_gcode
; Filament gcode

    PRESSURE_ADVANCE_SELECT FILAMENT=PLA
; custom gcode end: start_filament_gcode
;_TOOLCHANGE 0
M104 S200 ; set temperature
M109 S200 ; set temperature and wait for it to be reached
M190 S60 ; set bed temperature and wait for it to be reached
;LAYER_CHANGE
;Z:0.2
;HEIGHT:0.2
G1 Z0.2 F9000
G1 E-0.8 F3000
M204 S1000
G1 X157.187 Y70.334 F9000
G1 E0 F1800
;TYPE:Skirt
;WIDTH:0.52
G1 X117.304 Y162.968 E4.00086
G1 X116.093 Y167.086 E4.17116
G1 X115.337 Y171.108 E4.33347
G1 X115.276 Y171.778 E4.36017
G1 X115.275 Y239.45 E7.04466
G1 X116.011 Y243.791 E7.21935
G1 X117.144 Y247.813 E7.38509
G1 X118.137 Y249.465 E7.46156
G1 X119.611 Y250.337 E7.5295
G1 X161.683 Y263.447 E9.27761
G1 X162.788 Y263.616 E9.32197
G1 X178.343 Y263.616 E9.939
G1 X180.608 Y262.845 E10.03393
G1 X206.662 Y242.802 E11.33791
G1 X209.061 Y240.395 E11.47271
G1 X209.721 Y239.468 E11.51786
G1 X210.116 Y237.802 E11.58579
G1 X210.116 Y109.944 E16.65782
M73 P0 R162
G1 X207.203 Y88.458 E17.51796
G1 X206.856 Y87.324 E17.56501
G1 X205.767 Y86.002 E17.63294
G1 X180.893 Y67.139 E18.8713
G1 X178.648 Y66.384 E18.96526
G1 X162.261 Y66.384 E19.61531
G1 X161.048 Y66.588 E19.66413
G1 X159.602 Y67.505 E19.73206
G1 X157.94 Y69.208 E19.82643
G1 X157.187 Y70.334 E19.88015
G1 X157.625 Y70.522 F9000
G1 F1800
G1 X117.742 Y163.156 E23.88101
G1 X116.552 Y167.218 E24.04889
G1 X115.807 Y171.194 E24.20936
G1 X115.754 Y171.778 E24.23264
G1 X115.752 Y239.45 E26.91712
G1 X116.48 Y243.705 E27.08838
G1 X117.603 Y247.681 E27.2523
G1 X118.392 Y249.046 E27.31482
G1 X119.753 Y249.882 E27.37817
G1 X161.825 Y262.992 E29.12629
G1 X162.788 Y263.139 E29.16495
G1 X178.343 Y263.139 E29.78198
G1 X180.317 Y262.467 E29.86472
G1 X206.371 Y242.424 E31.1687
G1 X208.719 Y240.062 E31.30082
G1 X209.245 Y239.349 E31.33594
G1 X209.639 Y237.802 E31.3993
G1 X209.639 Y109.944 E36.47133
G1 X206.73 Y88.523 E37.32889
G1 X206.474 Y87.632 E37.36568
G1 X205.478 Y86.382 E37.42904
G1 X180.605 Y67.52 E38.66739
G1 X178.648 Y66.861 E38.74929
G1 X162.261 Y66.861 E39.39934
G1 X161.306 Y67.006 E39.43767
G1 X159.943 Y67.839 E39.50103
G1 X158.282 Y69.542 E39.59541
G1 X157.625 Y70.522 E39.64222
G92 E0
G1 E-0.8 F3000
; acceleration to travel
M204 S3000
G1 X156.442 Y141.093 F9000
; decel to extrusion
M204 S1000
G1 X156.048 Y164.616
; end travel
G1 E0 F1800
;WIDTH:0.5
G1 X156.293 Y164.668 E0.00953
G1 X156.597 Y164.788 E0.02195
G1 X157.039 Y165.099 E0.04247
G1 X157.331 Y165.447 E0.05976
G1 X157.482 Y165.752 E0.07268
G1 X158.076 Y167.827 E0.15469
G1 X158.126 Y167.947 E0.15967
G1 X158.22 Y168.344 E0.17517
G1 X158.228 Y168.476 E0.18017
G1 X158.786 Y171.538 E0.29847
G1 X158.781 Y171.812 E0.3089
G1 X158.72 Y172.113 E0.32058
G1 X158.577 Y172.445 E0.33433
G1 X158.284 Y172.861 E0.35363
G1 X158.053 Y173.076 E0.36565
G1 X157.743 Y173.264 E0.37941
G1 X157.497 Y173.352 E0.38936
G1 X155.362 Y173.744 E0.47183
G1 X155.362 Y237.442 E2.89275
G1 X157.262 Y237.439 E2.96494
G1 X157.6 Y237.506 E2.97806
G1 X157.925 Y237.651 E2.99157
G1 X158.247 Y237.898 E3.00701
G1 X158.606 Y238.337 E3.02854
G1 X158.761 Y238.651 E3.04185
G1 X158.838 Y238.943 E3.05335
G1 X158.856 Y239.294 E3.06667
G1 X158.164 Y243.084 E3.21313
G1 X157.476 Y245.495 E3.3084
G1 X157.257 Y245.887 E3.32546
G1 X157.044 Y246.121 E3.33749
G1 X156.619 Y246.427 E3.3574
G1 X156.433 Y246.513 E3.36519
G1 X155.986 Y246.619 E3.38267
G1 X147.996 Y246.615 E3.68633
G1 X147.709 Y246.56 E3.69744
G1 X147.401 Y246.438 E3.71003
G1 X146.866 Y246.035 E3.73546
G1 X146.666 Y245.775 E3.74797
G1 X146.548 Y245.553 E3.75749
G1 X146.334 Y244.828 E3.78625
G1 X131.667 Y244.828 E4.34369
G1 X131.468 Y245.512 E4.37078
G1 X131.331 Y245.78 E4.38221
G1 X131.084 Y246.085 E4.39712
G1 X130.726 Y246.364 E4.41439
G1 X130.473 Y246.497 E4.42523
G1 X130.05 Y246.61 E4.44189
G1 X122.013 Y246.619 E4.74734
G1 X121.524 Y246.496 E4.76652
G1 X121.269 Y246.36 E4.77747
G1 X120.941 Y246.109 E4.79319
G1 X120.769 Y245.923 E4.80282
G1 X120.524 Y245.494 E4.8216
G1 X119.823 Y243.03 E4.91895
G1 X119.141 Y239.29 E5.06343
G1 X119.161 Y238.941 E5.07672
G1 X119.255 Y238.605 E5.09
G1 X119.422 Y238.293 E5.10345
G1 X119.831 Y237.822 E5.12714
G1 X120.07 Y237.653 E5.13828
G1 X120.342 Y237.526 E5.14966
G1 X120.733 Y237.439 E5.16491
G1 X122.625 Y237.442 E5.2368
G1 X122.614 Y173.786 E7.65614
G1 X120.738 Y173.788 E7.72744
G1 X120.4 Y173.721 E7.74055
G1 X120.075 Y173.576 E7.75406
G1 X119.753 Y173.329 E7.7695
G1 X119.394 Y172.89 E7.79103
G1 X119.239 Y172.576 E7.80434
G1 X119.162 Y172.284 E7.81584
G1 X119.147 Y171.884 E7.83104
G1 X119.828 Y168.176 E7.97434
G1 X120.532 Y165.715 E8.0716
G1 X120.67 Y165.446 E8.08312
G1 X120.917 Y165.141 E8.09803
G1 X121.353 Y164.816 E8.11868
G1 X121.707 Y164.668 E8.13326
G1 X121.996 Y164.612 E8.14446
G1 X130.004 Y164.612 E8.44882
G1 X130.291 Y164.667 E8.45994
G1 X130.599 Y164.789 E8.47253
G1 X131.134 Y165.192 E8.49796
G1 X131.334 Y165.453 E8.51046
G1 X131.452 Y165.674 E8.51999
G1 X131.666 Y166.4 E8.54875
G1 X146.333 Y166.4 E9.10619
G1 X146.532 Y165.715 E9.13328
G1 X146.669 Y165.447 E9.14471
G1 X146.916 Y165.142 E9.15962
G1 X147.344 Y164.82 E9.18
G1 X147.757 Y164.653 E9.19691
G1 X148.039 Y164.609 E9.20776
G1 X156.048 Y164.616 E9.51216
G1 X155.982 Y165.069 F9000
G1 F1800
G1 X156.145 Y165.101 E9.51847
G1 X156.403 Y165.203 E9.52901
G1 X156.746 Y165.451 E9.54513
G1 X156.959 Y165.715 E9.55799
G1 X157.048 Y165.897 E9.5657
G1 X157.646 Y167.987 E9.64831
G1 X157.687 Y168.075 E9.652
G1 X157.769 Y168.426 E9.66572
G1 X157.772 Y168.523 E9.6694
G1 X158.332 Y171.595 E9.7881
G1 X158.325 Y171.775 E9.79493
G1 X158.278 Y171.996 E9.80351
G1 X158.189 Y172.202 E9.81204
G1 X157.924 Y172.578 E9.82952
G1 X157.793 Y172.7 E9.83635
G1 X157.563 Y172.843 E9.84663
G1 X157.395 Y172.906 E9.85346
G1 X154.905 Y173.363 E9.94965
G1 X154.905 Y237.9 E12.40244
G1 X157.241 Y237.896 E12.49119
G1 X157.438 Y237.934 E12.49884
G1 X157.714 Y238.057 E12.51032
G1 X157.912 Y238.21 E12.51983
G1 X158.211 Y238.569 E12.53757
G1 X158.325 Y238.791 E12.54708
G1 X158.389 Y239.035 E12.55667
G1 X158.399 Y239.286 E12.56619
G1 X157.716 Y242.991 E12.70938
G1 X157.044 Y245.342 E12.80232
G1 X156.875 Y245.635 E12.81519
G1 X156.728 Y245.79 E12.8233
G1 X156.372 Y246.042 E12.83989
G1 X156.3 Y246.075 E12.84289
G1 X155.957 Y246.161 E12.85632
G1 X148.055 Y246.161 E13.15666
G1 X147.855 Y246.127 E13.16437
G1 X147.597 Y246.025 E13.17491
G1 X147.21 Y245.732 E13.19335
G1 X147.041 Y245.513 E13.20389
G1 X146.965 Y245.365 E13.2102
G1 X146.678 Y244.37 E13.24954
G1 X131.323 Y244.37 E13.83313
G1 X131.048 Y245.33 E13.87107
G1 X130.959 Y245.513 E13.87878
G1 X130.746 Y245.776 E13.89164
G1 X130.466 Y245.987 E13.90497
G1 X130.286 Y246.079 E13.91268
G1 X130.019 Y246.153 E13.92322
G1 X122.043 Y246.161 E14.22636
G1 X121.669 Y246.061 E14.24107
G1 X121.534 Y245.987 E14.24692
G1 X121.236 Y245.759 E14.26119
G1 X121.125 Y245.635 E14.2675
G1 X120.956 Y245.342 E14.28038
G1 X120.271 Y242.937 E14.37539
G1 X119.596 Y239.236 E14.51839
G1 X119.609 Y239.036 E14.52601
G1 X119.673 Y238.791 E14.5356
G1 X119.787 Y238.569 E14.54512
G1 X120.122 Y238.176 E14.56475
G1 X120.284 Y238.057 E14.57237
G1 X120.513 Y237.95 E14.58197
G1 X120.758 Y237.896 E14.5915
G1 X123.082 Y237.9 E14.67984
G1 X123.071 Y173.328 E17.13397
G1 X120.759 Y173.331 E17.22183
G1 X120.562 Y173.293 E17.22947
G1 X120.286 Y173.17 E17.24095
G1 X120.088 Y173.017 E17.25046
G1 X119.789 Y172.659 E17.2682
G1 X119.675 Y172.436 E17.27771
G1 X119.611 Y172.192 E17.2873
G1 X119.601 Y171.942 E17.29681
G1 X120.276 Y168.269 E17.43873
G1 X120.965 Y165.863 E17.53388
G1 X121.041 Y165.715 E17.5402
G1 X121.254 Y165.451 E17.55306
G1 X121.597 Y165.203 E17.56919
G1 X121.855 Y165.101 E17.57972
G1 X122.018 Y165.069 E17.58603
G1 X129.945 Y165.066 E17.88731
G1 X130.145 Y165.101 E17.89501
G1 X130.403 Y165.203 E17.90555
G1 X130.79 Y165.495 E17.924
G1 X130.959 Y165.715 E17.93453
G1 X131.035 Y165.862 E17.94084
G1 X131.322 Y166.857 E17.98019
G1 X146.678 Y166.857 E18.56378
G1 X146.952 Y165.897 E18.60172
G1 X147.041 Y165.715 E18.60943
G1 X147.254 Y165.451 E18.62229
G1 X147.544 Y165.233 E18.63609
G1 X147.903 Y165.088 E18.65081
G1 X148.055 Y165.066 E18.65666
G1 X155.982 Y165.069 E18.95793
G1 X155.927 Y165.523 F9000
G1 F1800
G1 X156 Y165.535 E18.96074
G1 X156.206 Y165.616 E18.96917
G1 X156.447 Y165.798 E18.98063
G1 X156.582 Y165.974 E18.98906
G1 X156.613 Y166.041 E18.99187
G1 X157.225 Y168.178 E19.07637
G1 X157.251 Y168.217 E19.07815
G1 X157.315 Y168.492 E19.08887
G1 X157.31 Y168.539 E19.09066
G1 X157.875 Y171.611 E19.20939
G1 X157.874 Y171.701 E19.21281
G1 X157.836 Y171.878 E19.21969
G1 X157.8 Y171.961 E19.22311
G1 X157.59 Y172.266 E19.23719
G1 X157.525 Y172.328 E19.24061
G1 X157.373 Y172.427 E19.24749
G1 X157.29 Y172.46 E19.25091
G1 X154.724 Y172.932 E19.35006
G1 X154.558 Y172.929 E19.35637
G1 X154.448 Y172.897 E19.36071
G1 X154.448 Y238.365 E21.84889
G1 X154.481 Y238.357 E21.85017
G1 X157.216 Y238.353 E21.95412
G1 X157.314 Y238.375 E21.95794
G1 X157.497 Y238.461 E21.96563
G1 X157.577 Y238.522 E21.96945
G1 X157.844 Y238.842 E21.98528
G1 X157.89 Y238.931 E21.9891
G1 X157.941 Y239.127 E21.99679
G1 X157.945 Y239.227 E22.00061
G1 X157.269 Y242.897 E22.14242
G1 X156.613 Y245.187 E22.23294
G1 X156.498 Y245.376 E22.24136
G1 X156.447 Y245.429 E22.24418
G1 X156.14 Y245.645 E22.25842
G1 X155.927 Y245.704 E22.26685
G1 X148.073 Y245.704 E22.56532
G1 X148 Y245.692 E22.56813
G1 X147.794 Y245.611 E22.57656
G1 X147.553 Y245.429 E22.58802
G1 X147.418 Y245.254 E22.59645
G1 X147.387 Y245.187 E22.59926
G1 X147.022 Y243.913 E22.6496
G1 X130.978 Y243.913 E23.25938
G1 X130.613 Y245.187 E23.30971
G1 X130.582 Y245.254 E23.31253
G1 X130.447 Y245.429 E23.32095
G1 X130.206 Y245.611 E23.33241
G1 X130.14 Y245.645 E23.33523
G1 X129.927 Y245.704 E23.34365
G1 X122.073 Y245.704 E23.64213
G1 X121.86 Y245.645 E23.65056
G1 X121.794 Y245.611 E23.65337
G1 X121.553 Y245.429 E23.66483
G1 X121.502 Y245.376 E23.66764
G1 X121.387 Y245.187 E23.67607
G1 X120.719 Y242.844 E23.76867
G1 X120.054 Y239.228 E23.9084
G1 X120.057 Y239.127 E23.91222
G1 X120.109 Y238.932 E23.91991
G1 X120.155 Y238.842 E23.92373
G1 X120.421 Y238.522 E23.93956
G1 X120.501 Y238.461 E23.94338
G1 X120.684 Y238.375 E23.95107
G1 X120.782 Y238.353 E23.95489
G1 X123.507 Y238.357 E24.05844
G1 X123.539 Y238.365 E24.05971
G1 X123.528 Y172.858 E26.54938
G1 X123.475 Y172.87 E26.55145
G1 X120.784 Y172.874 E26.65372
G1 X120.686 Y172.852 E26.65754
G1 X120.503 Y172.767 E26.66522
G1 X120.423 Y172.705 E26.66904
G1 X120.156 Y172.385 E26.68487
G1 X120.11 Y172.296 E26.68869
G1 X120.059 Y172.1 E26.69638
G1 X120.055 Y172 E26.7002
G1 X120.723 Y168.363 E26.84075
G1 X121.387 Y166.041 E26.93253
G1 X121.418 Y165.974 E26.93534
G1 X121.553 Y165.798 E26.94377
G1 X121.794 Y165.616 E26.95523
G1 X122 Y165.535 E26.96366
G1 X122.073 Y165.523 E26.96647
G1 X129.927 Y165.523 E27.26494
G1 X130 Y165.535 E27.26776
G1 X130.206 Y165.616 E27.27619
G1 X130.447 Y165.798 E27.28764
G1 X130.582 Y165.974 E27.29607
G1 X130.613 Y166.041 E27.29888
G1 X130.978 Y167.314 E27.34922
G1 X147.022 Y167.314 E27.959
G1 X147.387 Y166.041 E28.00934
G1 X147.418 Y165.974 E28.01215
G1 X147.553 Y165.798 E28.02058
G1 X147.794 Y165.616 E28.03204
G1 X148 Y165.535 E28.04047
G1 X148.073 Y165.523 E28.04328
G1 X155.927 Y165.523 E28.34175
G1 X155.89 Y165.98 F9000
G1 F1800
G1 X155.96 Y166.004 E28.34458
G1 X156.142 Y166.141 E28.35323
G1 X156.184 Y166.202 E28.35606
G1 X156.809 Y168.383 E28.44229
G1 X156.818 Y168.389 E28.44271
G1 X156.831 Y168.461 E28.44547
G1 X156.851 Y168.53 E28.44822
G1 X156.845 Y168.54 E28.44864
G1 X157.417 Y171.65 E28.5688
G1 X157.398 Y171.738 E28.57226
G1 X157.239 Y171.969 E28.58291
G1 X157.163 Y172.019 E28.58637
G1 X154.669 Y172.477 E28.68276
G1 X154.613 Y172.474 E28.68487
G1 X154.452 Y172.424 E28.69127
G1 X154.405 Y172.395 E28.69338
G1 X153.919 Y171.91 E28.71947
G1 X153.892 Y171.866 E28.72145
