; generated by SuperSlicer 2.5.59 on 2023-04-15 at 16:36:29 UTC


;
;

;
;
; 

; external perimeters extrusion width = 0.40mm
; perimeters extrusion width = 0.46mm
; infill extrusion width = 0.64mm
; solid infill extrusion width = 0.56mm
; top infill extrusion width = 0.40mm
; support material extrusion width = 0.46mm
; first layer extrusion width = 0.50mm

; external perimeters extrusion width = 0.40mm
; perimeters extrusion width = 0.46mm
; infill extrusion width = 0.64mm
; solid infill extrusion width = 0.56mm
; top infill extrusion width = 0.40mm
; support material extrusion width = 0.46mm
; first layer extrusion width = 0.50mm

; external perimeters extrusion width = 0.40mm
; perimeters extrusion width = 0.46mm
; infill extrusion width = 0.64mm
; solid infill extrusion width = 0.56mm
; top infill extrusion width = 0.40mm
; support material extrusion width = 0.46mm
; first layer extrusion width = 0.50mm

; external perimeters extrusion width = 0.40mm
; perimeters extrusion width = 0.46mm
; infill extrusion width = 0.64mm
; solid infill extrusion width = 0.56mm
; top infill extrusion width = 0.40mm
; support material extrusion width = 0.46mm
; first layer extrusion width = 0.50mm

; external perimeters extrusion width = 0.40mm
; perimeters extrusion width = 0.46mm
; infill extrusion width = 0.64mm
; solid infill extrusion width = 0.56mm
; top infill extrusion width = 0.40mm
; support material extrusion width = 0.46mm
; first layer extrusion width = 0.50mm

; external perimeters extrusion width = 0.40mm
; perimeters extrusion width = 0.46mm
; infill extrusion width = 0.64mm
; solid infill extrusion width = 0.56mm
; top infill extrusion width = 0.40mm
; support material extrusion width = 0.46mm
; first layer extrusion width = 0.50mm

; external perimeters extrusion width = 0.40mm
; perimeters extrusion width = 0.46mm
; infill extrusion width = 0.64mm
; solid infill extrusion width = 0.56mm
; top infill extrusion width = 0.40mm
; support material extrusion width = 0.46mm
; first layer extrusion width = 0.50mm

; external perimeters extrusion width = 0.40mm
; perimeters extrusion width = 0.46mm
; infill extrusion width = 0.64mm
; solid infill extrusion width = 0.56mm
; top infill extrusion width = 0.40mm
; support material extrusion width = 0.46mm
; first layer extrusion width = 0.50mm

; object:{"name":"Base X100","id":"Base X100.5 Y98.5.stl id:0 copy 0","object_center":[165.000001,131.322173,0.000000],"boundingbox_center":[165.000001,131.322173,4.875000],"boundingbox_size":[173.410309,61.355653,9.750000]}
EXCLUDE_OBJECT_DEFINE NAME=Base_X100_5_Y98_5_stl_id_0_copy_0 CENTER=165.000001,131.322173 POLYGON=[[78.294848,101.222624],[78.302520,101.132168],[78.325376,101.043928],[78.362856,100.960088],[78.414016,100.882720],[78.477616,100.813720],[78.552064,100.754784],[78.635560,100.707376],[78.726016,100.672648],[78.821232,100.651464],[78.918840,100.644352],[251.081184,100.644352],[251.178768,100.651464],[251.273984,100.672648],[251.364464,100.707376],[251.447952,100.754784],[251.522400,100.813720],[251.585984,100.882720],[251.637152,100.960088],[251.674624,101.043928],[251.697472,101.132168],[251.705152,101.222624],[251.705152,161.421728],[251.697472,161.512192],[251.674624,161.600416],[251.637152,161.684256],[251.585984,161.761632],[251.522400,161.830624],[251.447952,161.889552],[251.364464,161.936976],[251.273984,161.971696],[251.178768,161.992896],[251.081184,162.000000],[78.918840,162.000000],[78.821232,161.992896],[78.726016,161.971696],[78.635560,161.936976],[78.552064,161.889552],[78.477616,161.830624],[78.414016,161.761632],[78.362856,161.684256],[78.325376,161.600416],[78.302520,161.512192],[78.294848,161.421728],[78.294848,101.222624]]
; object:{"name":"Base X100","id":"Base X100.5 Y98.5.stl id:1 copy 0","object_center":[165.000001,198.677829,0.000000],"boundingbox_center":[165.000001,198.677829,4.875000],"boundingbox_size":[173.410309,61.355653,9.750000]}
EXCLUDE_OBJECT_DEFINE NAME=Base_X100_5_Y98_5_stl_id_1_copy_0 CENTER=165.000001,198.677829 POLYGON=[[78.294848,168.578272],[78.302520,168.487824],[78.325376,168.399584],[78.362856,168.315744],[78.414016,168.238368],[78.477616,168.169376],[78.552064,168.110448],[78.635560,168.063040],[78.726016,168.028304],[78.821232,168.007104],[78.918840,168.000000],[251.081184,168.000000],[251.178768,168.007104],[251.273984,168.028304],[251.364464,168.063040],[251.447952,168.110448],[251.522400,168.169376],[251.585984,168.238368],[251.637152,168.315744],[251.674624,168.399584],[251.697472,168.487824],[251.705152,168.578272],[251.705152,228.777376],[251.697472,228.867840],[251.674624,228.956064],[251.637152,229.039904],[251.585984,229.117280],[251.522400,229.186272],[251.447952,229.245216],[251.364464,229.292640],[251.273984,229.327344],[251.178768,229.348544],[251.081184,229.355648],[78.918840,229.355648],[78.821232,229.348544],[78.726016,229.327344],[78.635560,229.292640],[78.552064,229.245216],[78.477616,229.186272],[78.414016,229.117280],[78.362856,229.039904],[78.325376,228.956064],[78.302520,228.867840],[78.294848,228.777376],[78.294848,168.578272]]
; object:{"name":"Post","id":"Post.stl id:2 copy 0","object_center":[164.999288,241.436459,0.000000],"boundingbox_center":[164.999288,241.436459,10.875000],"boundingbox_size":[110.969398,12.161605,21.750000]}
EXCLUDE_OBJECT_DEFINE NAME=Post_stl_id_2_copy_0 CENTER=164.999288,241.436459 POLYGON=[[109.514584,235.567776],[109.518128,235.530944],[109.528688,235.495232],[109.545912,235.461712],[109.569296,235.431424],[109.598128,235.405296],[109.631512,235.384080],[109.668456,235.368448],[109.707840,235.358880],[109.748448,235.355664],[220.483984,235.355664],[220.483984,235.357840],[220.483856,235.472672],[220.470160,247.421120],[220.470096,247.474576],[220.470032,247.517264],[109.748448,247.517264],[109.730120,247.516624],[109.711896,247.514512],[109.707840,247.514032],[109.691896,247.510976],[109.676272,247.506640],[109.668456,247.504464],[109.642288,247.494144],[109.631512,247.488848],[109.611000,247.476768],[109.598128,247.467632],[109.583080,247.455136],[109.569296,247.441504],[109.559248,247.429824],[109.545912,247.411216],[109.540072,247.401440],[109.528688,247.377696],[109.526016,247.370704],[109.518128,247.341984],[109.517456,247.338336],[109.514584,247.305152],[109.514584,235.567776]]
; object:{"name":"Post","id":"Post.stl id:3 copy 0","object_center":[164.999289,88.563542,0.000000],"boundingbox_center":[164.999289,88.563542,10.875000],"boundingbox_size":[110.969398,12.161605,21.750000]}
EXCLUDE_OBJECT_DEFINE NAME=Post_stl_id_3_copy_0 CENTER=164.999289,88.563542 POLYGON=[[109.514584,82.694864],[109.518128,82.658032],[109.528688,82.622312],[109.545912,82.588808],[109.569296,82.558520],[109.598128,82.532368],[109.631512,82.511160],[109.668456,82.495536],[109.707840,82.485960],[109.748448,82.482744],[220.483984,82.482744],[220.483984,82.484912],[220.483856,82.599760],[220.470160,94.548192],[220.470096,94.601656],[220.470032,94.644352],[109.748448,94.644352],[109.730120,94.643696],[109.707840,94.641128],[109.691896,94.638048],[109.676272,94.633720],[109.668456,94.631552],[109.642288,94.621232],[109.631512,94.615928],[109.611000,94.603840],[109.598128,94.594720],[109.583080,94.582224],[109.569296,94.568576],[109.559248,94.556904],[109.545912,94.538288],[109.540072,94.528528],[109.528688,94.504776],[109.526016,94.497776],[109.518128,94.469064],[109.517456,94.465408],[109.514584,94.432232],[109.514584,82.694864]]
; object:{"name":"Post","id":"Post.stl id:4 copy 0","object_center":[164.999289,259.598064,0.000000],"boundingbox_center":[164.999289,259.598064,10.875000],"boundingbox_size":[110.969398,12.161605,21.750000]}
EXCLUDE_OBJECT_DEFINE NAME=Post_stl_id_4_copy_0 CENTER=164.999289,259.598064 POLYGON=[[109.514584,253.729376],[109.518128,253.692544],[109.528688,253.656832],[109.545912,253.623312],[109.569296,253.593024],[109.598128,253.566880],[109.631512,253.545664],[109.668456,253.530048],[109.707840,253.520480],[109.748448,253.517264],[220.483984,253.517264],[220.483984,253.519424],[220.483856,253.634256],[220.470160,265.582704],[220.470096,265.636176],[220.470032,265.678864],[109.748448,265.678864],[109.730120,265.678192],[109.707840,265.675632],[109.691896,265.672544],[109.668456,265.666080],[109.642288,265.655728],[109.631512,265.650416],[109.611000,265.638336],[109.598128,265.629248],[109.583080,265.616736],[109.569296,265.603088],[109.559248,265.591424],[109.545912,265.572784],[109.540072,265.563056],[109.528688,265.539280],[109.526016,265.532288],[109.518128,265.503568],[109.517456,265.499904],[109.514584,265.466736],[109.514584,253.729376]]
; object:{"name":"Post","id":"Post.stl id:5 copy 0","object_center":[164.999288,70.401937,0.000000],"boundingbox_center":[164.999288,70.401937,10.875000],"boundingbox_size":[110.969398,12.161605,21.750000]}
EXCLUDE_OBJECT_DEFINE NAME=Post_stl_id_5_copy_0 CENTER=164.999288,70.401937 POLYGON=[[109.514584,64.533256],[109.518128,64.496428],[109.528688,64.460708],[109.545912,64.427200],[109.569296,64.396912],[109.598128,64.370764],[109.631512,64.349556],[109.668456,64.333932],[109.707840,64.324356],[109.748448,64.321136],[220.483984,64.321136],[220.483984,64.323304],[220.483856,64.438156],[220.470160,76.386592],[220.470096,76.440048],[220.470032,76.482744],[109.748448,76.482744],[109.730120,76.482088],[109.711896,76.479992],[109.707840,76.479520],[109.691896,76.476440],[109.668456,76.469952],[109.642288,76.459624],[109.631512,76.454320],[109.611000,76.442232],[109.598128,76.433112],[109.583080,76.420616],[109.569296,76.406968],[109.559248,76.395304],[109.545912,76.376680],[109.540072,76.366920],[109.528688,76.343168],[109.526016,76.336168],[109.518128,76.307456],[109.517456,76.303800],[109.514584,76.270624],[109.514584,64.533256]]
; object:{"name":"Post","id":"Post.stl id:6 copy 0","object_center":[164.999289,277.759669,0.000000],"boundingbox_center":[164.999289,277.759669,10.875000],"boundingbox_size":[110.969398,12.161605,21.750000]}
EXCLUDE_OBJECT_DEFINE NAME=Post_stl_id_6_copy_0 CENTER=164.999289,277.759669 POLYGON=[[109.514584,271.890976],[109.518128,271.854144],[109.528688,271.818464],[109.545912,271.784928],[109.569296,271.754624],[109.598128,271.728512],[109.631512,271.707296],[109.668456,271.691680],[109.707840,271.682112],[109.748448,271.678880],[220.483984,271.678880],[220.483984,271.681024],[220.483856,271.795904],[220.470160,283.744320],[220.470096,283.797792],[220.470032,283.840480],[109.748448,283.840480],[109.730120,283.839808],[109.707840,283.837248],[109.691896,283.834176],[109.668456,283.827712],[109.642288,283.817344],[109.631512,283.812032],[109.611000,283.799968],[109.598128,283.790848],[109.583080,283.778336],[109.569296,283.764704],[109.559248,283.753056],[109.545912,283.734400],[109.540072,283.724672],[109.528688,283.700896],[109.526016,283.693920],[109.518128,283.665184],[109.517456,283.661536],[109.514584,283.628352],[109.514584,271.890976]]
; object:{"name":"Post","id":"Post.stl id:7 copy 0","object_center":[164.999290,52.240332,0.000000],"boundingbox_center":[164.999290,52.240332,10.875000],"boundingbox_size":[110.969398,12.161605,21.750000]}
EXCLUDE_OBJECT_DEFINE NAME=Post_stl_id_7_copy_0 CENTER=164.999290,52.240332 POLYGON=[[109.514584,46.371656],[109.518128,46.334820],[109.528688,46.299104],[109.545912,46.265596],[109.569296,46.235304],[109.598128,46.209160],[109.631512,46.187952],[109.668456,46.172324],[109.707840,46.162756],[109.748448,46.159532],[220.483984,46.159532],[220.483984,46.161700],[220.483856,46.276552],[220.470160,58.224980],[220.470096,58.278448],[220.470032,58.321136],[109.748448,58.321136],[109.730120,58.320484],[109.711896,58.318384],[109.707840,58.317916],[109.691896,58.314836],[109.668456,58.308344],[109.642288,58.298016],[109.631512,58.292716],[109.611000,58.280624],[109.598128,58.271508],[109.583080,58.259008],[109.569296,58.245364],[109.559248,58.233700],[109.545912,58.215076],[109.540072,58.205316],[109.528688,58.181564],[109.526016,58.174564],[109.518128,58.145848],[109.517456,58.142200],[109.514584,58.109016],[109.514584,46.371656]]
; plater:{"center":[165.000001,165.000000,0.000000],"boundingbox_center":[165.000001,165.000000,10.875000],"boundingbox_size":[173.410309,237.680942,21.750000]}

M73 P0 R333
;TYPE:Custom
; custom gcode: start_gcode
START_PRINT T_BED=60 T_EXTRUDER=200
; custom gcode end: start_gcode
M107
G21 ; set units to millimeters
G90 ; use absolute coordinates
M82 ; use absolute distances for extrusion
G92 E0
; custom gcode: start_filament_gcode
; Filament gcode

    PRESSURE_ADVANCE_SELECT FILAMENT=PLA
; custom gcode end: start_filament_gcode
;_TOOLCHANGE 0
M109 S200 ; set temperature and wait for it to be reached
M190 S60 ; set bed temperature and wait for it to be reached
;LAYER_CHANGE
;Z:0.2
;HEIGHT:0.2
G1 Z0.2 F9000
G1 E-0.8 F3000
M204 S1000
G1 X99.448 Y56.761 F9000
G1 E0 F1800
;TYPE:Skirt
;WIDTH:0.52
G1 X75.174 Y99.29 E1.90371
G1 X74.767 Y100.454 E1.95164
G1 X74.688 Y101.231 E1.98201
G1 X74.688 Y228.769 E6.94016
G1 X74.767 Y229.546 E6.97053
G1 X75.274 Y230.892 E7.02644
G1 X106.431 Y285.472 E9.46966
G1 X106.555 Y285.674 E9.47889
G1 X108.524 Y287.207 E9.57592
G1 X109.765 Y287.419 E9.62483
G1 X220.37 Y287.419 E13.92473
G1 X222.431 Y286.795 E14.00845
G1 X223.599 Y285.543 E14.07502
G1 X254.826 Y230.71 E16.52814
G1 X255.233 Y229.546 E16.57607
G1 X255.312 Y228.769 E16.60644
G1 X255.312 Y101.231 E21.56459
G1 X255.233 Y100.454 E21.59496
G1 X254.728 Y99.112 E21.65071
G1 X223.613 Y44.458 E24.09562
G1 X222.05 Y42.975 E24.17937
G1 X220.384 Y42.581 E24.24594
G1 X109.739 Y42.583 E28.54735
G1 X108.016 Y43.007 E28.61635
G1 X106.452 Y44.488 E28.70007
G1 X99.448 Y56.761 E29.24942
G1 X99.862 Y56.997 F9000
G1 F1800
G1 X75.592 Y99.52 E31.15284
G1 X75.238 Y100.534 E31.19461
G1 X75.166 Y101.231 E31.22184
G1 X75.166 Y228.769 E36.18
G1 X75.238 Y229.466 E36.20723
G1 X75.689 Y230.655 E36.2567
G1 X106.845 Y285.235 E38.69991
G1 X106.957 Y285.418 E38.70825
G1 X108.674 Y286.754 E38.79282
G1 X109.765 Y286.942 E38.83584
G1 X220.37 Y286.942 E43.13574
M73 P0 R332
G1 X222.076 Y286.457 E43.20469
G1 X223.184 Y285.307 E43.26678
G1 X254.408 Y230.48 E45.71962
G1 X254.762 Y229.466 E45.7614
G1 X254.834 Y228.769 E45.78863
G1 X254.834 Y101.231 E50.74678
G1 X254.762 Y100.534 E50.77402
G1 X254.313 Y99.348 E50.82334
G1 X223.198 Y44.694 E53.26826
G1 X221.932 Y43.451 E53.33723
G1 X220.384 Y43.058 E53.39932
G1 X109.739 Y43.06 E57.70073
G1 X108.237 Y43.43 E57.76087
G1 X106.867 Y44.725 E57.83417
G1 X99.862 Y56.997 E58.38352
G92 E0
G1 E-0.8 F3000
; printing object Base X100.5 Y98.5.stl id:0 copy 0
EXCLUDE_OBJECT_START NAME=Base_X100_5_Y98_5_stl_id_0_copy_0
; acceleration to travel
M204 S3000
G1 X84.642 Y90.687 F9000
; decel to extrusion
M204 S1000
G1 X79.568 Y101.917
; end travel
G1 E0 F1800
;TYPE:Internal perimeter
;WIDTH:0.5
G1 X250.432 Y101.928 E6.36402
G1 X250.432 Y160.727 E8.55407
G1 X79.568 Y160.727 E14.91809
G1 X79.568 Y101.917 E17.10854
G1 X79.111 Y101.46 F9000
G1 F1800
G1 X79.418 Y101.46 E17.11998
G1 X250.889 Y101.471 E23.50661
G1 X250.889 Y161.184 E25.73071
G1 X79.111 Y161.184 E32.12878
G1 X79.111 Y101.46 E34.35328
G1 X78.831 Y101.019 F9000
;TYPE:External perimeter
G1 F1800
G1 X78.944 Y101.003 E34.35754
G1 X79.418 Y101.003 E34.37519
G1 X251.157 Y101.014 E40.77181
G1 X251.244 Y101.055 E40.7754
G1 X251.299 Y101.106 E40.77819
G1 X251.331 Y101.164 E40.78064
G1 X251.346 Y101.252 E40.78399
G1 X251.346 Y161.392 E43.02397
G1 X251.331 Y161.481 E43.02732
G1 X251.244 Y161.589 E43.03249
G1 X251.169 Y161.625 E43.0356
G1 X251.056 Y161.641 E43.03986
G1 X78.944 Y161.641 E49.45034
M73 P0 R331
G1 X78.831 Y161.625 E49.4546
G1 X78.701 Y161.538 E49.46043
G1 X78.669 Y161.481 E49.46288
G1 X78.654 Y161.392 E49.46623
G1 X78.654 Y101.252 E51.70621
G1 X78.669 Y101.164 E51.70956
G1 X78.701 Y101.106 E51.71201
G1 X78.831 Y101.019 E51.71783
;WIPE_START
M204 S4000
G1 X79.123 Y101.294 F9000
;WIPE_END
G92 E0
G1 E-0.8 F3000
; acceleration to travel
M204 S3000
G1 X203.075 Y102.521 F9000
; decel to extrusion
M204 S1000
G1 X250.295 Y102.989
; end travel
