; HEADER_BLOCK_START
; generated by OrcaSlicer 1.6.4-beta3 on 2023-08-19 at 16:29:06
; total layer number: 109
; HEADER_BLOCK_END

; THUMBNAIL_BLOCK_START
; THUMBNAIL_BLOCK_END

; external perimeters extrusion width = 0.40mm
; perimeters extrusion width = 0.46mm
; infill extrusion width = 0.64mm
; solid infill extrusion width = 0.56mm
; top infill extrusion width = 0.40mm
; support material extrusion width = 0.46mm
; first layer extrusion width = 0.50mm

; EXECUTABLE_BLOCK_START
EXCLUDE_OBJECT_DEFINE NAME=Post.stl_id_0_copy_0 CENTER=165,164.999 POLYGON=[[158.919,109.748],[158.92,109.73],[158.922,109.707],[158.925,109.691],[158.93,109.676],[158.932,109.668],[158.942,109.642],[158.948,109.631],[158.96,109.611],[158.969,109.598],[158.981,109.583],[158.995,109.569],[159.007,109.559],[159.025,109.545],[159.035,109.54],[159.059,109.528],[159.066,109.526],[159.094,109.518],[159.098,109.517],[159.131,109.514],[170.869,109.514],[170.906,109.518],[170.941,109.528],[170.975,109.545],[171.005,109.569],[171.031,109.598],[171.052,109.631],[171.068,109.668],[171.078,109.707],[171.081,109.748],[171.081,220.484],[171.079,220.484],[159.025,220.47],[158.948,220.47],[158.922,220.47],[158.919,220.47],[158.919,109.748]]
M73 P0 R24
M73 C5
;TYPE:Custom
START_PRINT T_BED=60 T_EXTRUDER=220
G90
G21
M83 ; use relative distances for extrusion
; filament start gcode

    PRESSURE_ADVANCE_SELECT FILAMENT=PLA
M106 S0
;LAYER_CHANGE
;Z:0.2
;HEIGHT:0.2
;BEFORE_LAYER_CHANGE
;0.2
G92 E0

SET_VELOCITY_LIMIT ACCEL=1000 ACCEL_TO_DECEL=500
G1 E-.8 F3000
G1 X156.86 Y107.642 F12000
G1 Z.2
G1 E.8 F1800
;TYPE:Skirt
;WIDTH:0.5
G1 F3000
G1 X157.738 Y106.975 E.04109
G1 X158.276 Y106.763 E.02152
G1 X158.821 Y106.657 E.02069
G1 X170.88 Y106.641 E.44915
G1 X171.545 Y106.718 E.02492
G1 X172.262 Y106.975 E.02836
G1 X173.14 Y107.642 E.0411
G1 X173.717 Y108.547 E.03996
G1 X173.873 Y109.026 E.01879
G1 X173.958 Y109.748 E.02706
G1 X173.958 Y220.483 E4.12448
G1 X173.565 Y221.945 E.05638
G1 X172.492 Y223.013 E.05638
G1 X171.041 Y223.398 E.05592
G1 X158.953 Y223.384 E.45024
G1 X157.491 Y222.989 E.05638
G1 X156.425 Y221.914 E.05638
G1 X156.042 Y220.47 E.05567
G1 X156.054 Y109.484 E4.1338
G1 X156.295 Y108.516 E.03716
G1 X156.838 Y107.676 E.03726
G1 X157.198 Y107.949 F12000
G1 F3000
G1 X157.948 Y107.381 E.03501
G1 X158.865 Y107.112 E.03561
G1 X170.88 Y107.099 E.44751
G1 X171.448 Y107.165 E.02131
G1 X172.052 Y107.381 E.02391
G1 X172.802 Y107.949 E.03502
G1 X173.297 Y108.725 E.03426
G1 X173.501 Y109.748 E.03887
G1 X173.501 Y220.483 E4.12448
G1 X173.109 Y221.815 E.05169
G1 X172.059 Y222.721 E.05169
G1 X171.041 Y222.941 E.03877
G1 X158.953 Y222.927 E.45024
G1 X157.622 Y222.533 E.05169
G1 X156.717 Y221.482 E.05169
G1 X156.499 Y220.47 E.03856
G1 X156.509 Y109.52 E4.13245
G1 X156.716 Y108.694 E.03172
G1 X157.177 Y107.983 E.03156
; printing object Post.stl id:0 copy 0
G1 E-.8
EXCLUDE_OBJECT_START NAME=Post.stl_id_0_copy_0
G1 X170.692 Y109.906 F12000
G1 E.8 F1800
;TYPE:Outer wall
G1 F3000
G1 X170.694 Y220.133 E4.10555
G1 X159.306 Y220.12 E.42417
M73 P1 R24
G1 X159.306 Y109.906 E4.10507
G3 X170.652 Y109.905 I5.686 J1829.54 E.42262
G1 X170.235 Y110.363 F12000
;TYPE:Inner wall
G1 F3000
G1 X170.237 Y219.675 E4.07149
M73 C4
G1 X159.763 Y219.663 E.39012
G1 X159.763 Y110.362 E4.07108
G1 X170.195 Y110.363 E.38857
G1 X169.778 Y110.82 F12000
G1 F3000
G1 X169.78 Y219.218 E4.03742
G1 X160.22 Y219.207 E.35607
G1 X160.22 Y110.819 E4.03704
G1 X169.738 Y110.82 E.35452
G1 X169.321 Y111.277 F12000
G1 F3000
G1 X169.323 Y218.76 E4.00335
G1 X160.677 Y218.75 E.32202
G1 X160.677 Y111.276 E4.00301
M73 P2 R24
G1 X169.281 Y111.277 E.32047
G1 X169.184 Y112.343 F12000
;TYPE:Internal solid infill
;WIDTH:0.502383
G1 F3000
G1 X168.461 Y111.619 E.0383
G1 X167.811 Y111.619 E.02433
G1 X168.978 Y112.787 E.06182
G1 X168.978 Y113.437 E.02433
G1 X167.161 Y111.619 E.09623
G1 X166.511 Y111.619 E.02433
G1 X168.978 Y114.087 E.13064
G1 X168.978 Y114.736 E.02433
G1 X165.861 Y111.619 E.16505
G1 X165.211 Y111.619 E.02433
G1 X168.978 Y115.386 E.19946
G1 X168.978 Y116.036 E.02433
G1 X164.562 Y111.619 E.23387
G1 X163.912 Y111.619 E.02433
G1 X168.978 Y116.686 E.26827
G1 X168.978 Y117.335 E.02433
G1 X163.262 Y111.619 E.30268
G1 X162.612 Y111.619 E.02433
G1 X168.979 Y117.985 E.33709
G1 X168.979 Y118.635 E.02433
G1 X161.962 Y111.619 E.3715
G1 X161.312 Y111.619 E.02433
G1 X168.979 Y119.285 E.40591
G1 X168.979 Y119.935 E.02433
G1 X161.02 Y111.976 E.4214
G1 X161.02 Y112.626 E.02433
G1 X168.979 Y120.584 E.4214
G1 X168.979 Y121.234 E.02433
G1 X161.02 Y113.276 E.4214
G1 X161.02 Y113.925 E.02433
G1 X168.979 Y121.884 E.4214
G1 X168.979 Y122.534 E.02433
G1 X161.02 Y114.575 E.4214
G1 X161.02 Y115.225 E.02433
G1 X168.979 Y123.184 E.4214
G1 X168.979 Y123.833 E.02433
G1 X161.02 Y115.875 E.4214
G1 X161.02 Y116.524 E.02433
G1 X168.979 Y124.483 E.4214
G1 X168.979 Y125.133 E.02433
G1 X161.02 Y117.174 E.4214
G1 X161.02 Y117.824 E.02433
G1 X168.979 Y125.783 E.4214
G1 X168.979 Y126.433 E.02433
G1 X161.02 Y118.474 E.4214
G1 X161.02 Y119.124 E.02433
G1 X168.979 Y127.082 E.42141
G1 X168.979 Y127.732 E.02433
G1 X161.02 Y119.773 E.42141
G1 X161.02 Y120.423 E.02433
G1 X168.979 Y128.382 E.42141
G1 X168.979 Y129.032 E.02433
G1 X161.02 Y121.073 E.42141
G1 X161.02 Y121.723 E.02433
G1 X168.979 Y129.681 E.42141
G1 X168.979 Y130.331 E.02433
G1 X161.02 Y122.372 E.42141
G1 X161.02 Y123.022 E.02433
G1 X168.979 Y130.981 E.42141
G1 X168.979 Y131.631 E.02433
G1 X161.02 Y123.672 E.42141
G1 X161.02 Y124.322 E.02433
G1 X168.979 Y132.281 E.42141
G1 X168.979 Y132.93 E.02433
G1 X161.02 Y124.972 E.42141
G1 X161.02 Y125.621 E.02433
G1 X168.979 Y133.58 E.42141
G1 X168.979 Y134.23 E.02433
G1 X161.02 Y126.271 E.42141
G1 X161.02 Y126.921 E.02433
G1 X168.979 Y134.88 E.42141
G1 X168.979 Y135.53 E.02433
G1 X161.02 Y127.571 E.42141
G1 X161.02 Y128.22 E.02433
G1 X168.979 Y136.179 E.42141
G1 X168.979 Y136.829 E.02433
G1 X161.02 Y128.87 E.42141
G1 X161.02 Y129.52 E.02433
G1 X168.979 Y137.479 E.42141
G1 X168.979 Y138.129 E.02433
G1 X161.02 Y130.17 E.42141
G1 X161.02 Y130.82 E.02433
G1 X168.979 Y138.779 E.42141
G1 X168.979 Y139.428 E.02433
G1 X161.02 Y131.469 E.42142
G1 X161.02 Y132.119 E.02433
G1 X168.979 Y140.078 E.42142
G1 X168.979 Y140.728 E.02433
G1 X161.02 Y132.769 E.42142
G1 X161.02 Y133.419 E.02433
G1 X168.979 Y141.378 E.42142
G1 X168.979 Y142.027 E.02433
G1 X161.02 Y134.068 E.42142
G1 X161.02 Y134.718 E.02433
G1 X168.979 Y142.677 E.42142
G1 X168.979 Y143.327 E.02433
G1 X161.02 Y135.368 E.42142
M73 P3 R23
G1 X161.02 Y136.018 E.02433
G1 X168.979 Y143.977 E.42142
G1 X168.979 Y144.627 E.02433
G1 X161.02 Y136.668 E.42142
G1 X161.02 Y137.317 E.02433
G1 X168.979 Y145.276 E.42142
G1 X168.979 Y145.926 E.02433
G1 X161.02 Y137.967 E.42142
G1 X161.02 Y138.617 E.02433
G1 X168.979 Y146.576 E.42142
G1 X168.979 Y147.226 E.02433
G1 X161.02 Y139.267 E.42142
G1 X161.02 Y139.916 E.02433
G1 X168.979 Y147.876 E.42142
G1 X168.979 Y148.525 E.02433
G1 X161.02 Y140.566 E.42142
G1 X161.02 Y141.216 E.02433
G1 X168.979 Y149.175 E.42142
G1 X168.979 Y149.825 E.02433
G1 X161.02 Y141.866 E.42142
G1 X161.02 Y142.516 E.02433
G1 X168.979 Y150.475 E.42142
G1 X168.979 Y151.124 E.02433
G1 X161.02 Y143.165 E.42143
G1 X161.02 Y143.815 E.02433
G1 X168.979 Y151.774 E.42143
G1 X168.979 Y152.424 E.02433
G1 X161.02 Y144.465 E.42143
G1 X161.02 Y145.115 E.02433
G1 X168.979 Y153.074 E.42143
G1 X168.979 Y153.724 E.02433
G1 X161.02 Y145.764 E.42143
G1 X161.02 Y146.414 E.02433
G1 X168.979 Y154.373 E.42143
G1 X168.979 Y155.023 E.02433
G1 X161.02 Y147.064 E.42143
G1 X161.02 Y147.714 E.02433
G1 X168.979 Y155.673 E.42143
G1 X168.979 Y156.323 E.02433
G1 X161.02 Y148.364 E.42143
G1 X161.02 Y149.013 E.02433
G1 X168.979 Y156.973 E.42143
G1 X168.979 Y157.622 E.02433
G1 X161.02 Y149.663 E.42143
G1 X161.02 Y150.313 E.02433
G1 X168.979 Y158.272 E.42143
G1 X168.979 Y158.922 E.02433
G1 X161.02 Y150.963 E.42143
G1 X161.02 Y151.613 E.02433
G1 X168.979 Y159.572 E.42143
G1 X168.979 Y160.222 E.02433
G1 X161.02 Y152.262 E.42143
G1 X161.02 Y152.912 E.02433
G1 X168.979 Y160.871 E.42143
G1 X168.979 Y161.521 E.02433
G1 X161.02 Y153.562 E.42143
G1 X161.02 Y154.212 E.02433
G1 X168.979 Y162.171 E.42143
G1 X168.979 Y162.821 E.02433
G1 X161.02 Y154.861 E.42143
G1 X161.02 Y155.511 E.02433
G1 X168.979 Y163.47 E.42144
G1 X168.979 Y164.12 E.02433
G1 X161.02 Y156.161 E.42144
G1 X161.02 Y156.811 E.02433
G1 X168.979 Y164.77 E.42144
G1 X168.979 Y165.42 E.02433
G1 X161.02 Y157.461 E.42144
G1 X161.02 Y158.11 E.02433
G1 X168.979 Y166.07 E.42144
G1 X168.979 Y166.719 E.02433
G1 X161.02 Y158.76 E.42144
G1 X161.02 Y159.41 E.02433
G1 X168.979 Y167.369 E.42144
G1 X168.979 Y168.019 E.02433
G1 X161.02 Y160.06 E.42144
G1 X161.02 Y160.709 E.02433
G1 X168.979 Y168.669 E.42144
G1 X168.979 Y169.319 E.02433
G1 X161.02 Y161.359 E.42144
G1 X161.02 Y162.009 E.02433
G1 X168.979 Y169.968 E.42144
G1 X168.979 Y170.618 E.02433
G1 X161.02 Y162.659 E.42144
G1 X161.02 Y163.309 E.02433
G1 X168.979 Y171.268 E.42144
G1 X168.979 Y171.918 E.02433
G1 X161.02 Y163.958 E.42144
G1 X161.02 Y164.608 E.02433
G1 X168.979 Y172.568 E.42144
G1 X168.979 Y173.217 E.02433
G1 X161.02 Y165.258 E.42144
G1 X161.02 Y165.908 E.02433
G1 X168.979 Y173.867 E.42144
G1 X168.979 Y174.517 E.02433
G1 X161.02 Y166.557 E.42144
G1 X161.02 Y167.207 E.02433
G1 X168.979 Y175.167 E.42144
G1 X168.979 Y175.816 E.02433
G1 X161.02 Y167.857 E.42145
G1 X161.02 Y168.507 E.02433
G1 X168.979 Y176.466 E.42145
G1 X168.979 Y177.116 E.02433
M73 P4 R23
G1 X161.02 Y169.157 E.42145
G1 X161.02 Y169.806 E.02433
G1 X168.979 Y177.766 E.42145
G1 X168.979 Y178.416 E.02433
G1 X161.02 Y170.456 E.42145
G1 X161.02 Y171.106 E.02433
G1 X168.979 Y179.065 E.42145
G1 X168.979 Y179.715 E.02433
G1 X161.02 Y171.756 E.42145
G1 X161.02 Y172.405 E.02433
G1 X168.979 Y180.365 E.42145
G1 X168.979 Y181.015 E.02433
G1 X161.02 Y173.055 E.42145
G1 X161.02 Y173.705 E.02433
G1 X168.979 Y181.665 E.42145
G1 X168.98 Y182.314 E.02433
G1 X161.02 Y174.355 E.42145
G1 X161.02 Y175.005 E.02433
G1 X168.98 Y182.964 E.42145
G1 X168.98 Y183.614 E.02433
G1 X161.02 Y175.654 E.42145
G1 X161.02 Y176.304 E.02433
G1 X168.98 Y184.264 E.42145
G1 X168.98 Y184.914 E.02433
G1 X161.02 Y176.954 E.42145
G1 X161.02 Y177.604 E.02433
G1 X168.98 Y185.563 E.42145
G1 X168.98 Y186.213 E.02433
G1 X161.02 Y178.253 E.42145
G1 X161.02 Y178.903 E.02433
G1 X168.98 Y186.863 E.42145
G1 X168.98 Y187.513 E.02433
G1 X161.02 Y179.553 E.42145
G1 X161.02 Y180.203 E.02433
G1 X168.98 Y188.162 E.42146
G1 X168.98 Y188.812 E.02433
G1 X161.02 Y180.853 E.42146
G1 X161.02 Y181.502 E.02433
G1 X168.98 Y189.462 E.42146
G1 X168.98 Y190.112 E.02433
G1 X161.02 Y182.152 E.42146
G1 X161.02 Y182.802 E.02433
G1 X168.98 Y190.762 E.42146
G1 X168.98 Y191.411 E.02433
G1 X161.02 Y183.452 E.42146
G1 X161.02 Y184.101 E.02433
G1 X168.98 Y192.061 E.42146
G1 X168.98 Y192.711 E.02433
G1 X161.02 Y184.751 E.42146
G1 X161.02 Y185.401 E.02433
G1 X168.98 Y193.361 E.42146
G1 X168.98 Y194.011 E.02433
G1 X161.02 Y186.051 E.42146
G1 X161.02 Y186.701 E.02433
G1 X168.98 Y194.66 E.42146
G1 X168.98 Y195.31 E.02433
G1 X161.02 Y187.35 E.42146
G1 X161.02 Y188 E.02433
G1 X168.98 Y195.96 E.42146
G1 X168.98 Y196.61 E.02433
G1 X161.02 Y188.65 E.42146
G1 X161.02 Y189.3 E.02433
G1 X168.98 Y197.26 E.42146
G1 X168.98 Y197.909 E.02433
G1 X161.02 Y189.949 E.42146
G1 X161.02 Y190.599 E.02433
G1 X168.98 Y198.559 E.42146
G1 X168.98 Y199.209 E.02433
G1 X161.02 Y191.249 E.42146
G1 X161.02 Y191.899 E.02433
G1 X168.98 Y199.859 E.42147
G1 X168.98 Y200.508 E.02433
G1 X161.02 Y192.549 E.42147
G1 X161.02 Y193.198 E.02433
G1 X168.98 Y201.158 E.42147
G1 X168.98 Y201.808 E.02433
G1 X161.02 Y193.848 E.42147
G1 X161.02 Y194.498 E.02433
G1 X168.98 Y202.458 E.42147
G1 X168.98 Y203.108 E.02433
G1 X161.02 Y195.148 E.42147
G1 X161.02 Y195.797 E.02433
G1 X168.98 Y203.757 E.42147
G1 X168.98 Y204.407 E.02433
G1 X161.02 Y196.447 E.42147
G1 X161.02 Y197.097 E.02433
G1 X168.98 Y205.057 E.42147
G1 X168.98 Y205.707 E.02433
G1 X161.02 Y197.747 E.42147
G1 X161.02 Y198.397 E.02433
G1 X168.98 Y206.357 E.42147
G1 X168.98 Y207.006 E.02433
G1 X161.02 Y199.046 E.42147
G1 X161.02 Y199.696 E.02433
G1 X168.98 Y207.656 E.42147
G1 X168.98 Y208.306 E.02433
G1 X161.02 Y200.346 E.42147
G1 X161.02 Y200.996 E.02433
G1 X168.98 Y208.956 E.42147
G1 X168.98 Y209.605 E.02433
G1 X161.02 Y201.645 E.42147
G1 X161.02 Y202.295 E.02433
G1 X168.98 Y210.255 E.42147
M73 P5 R23
G1 X168.98 Y210.905 E.02433
G1 X161.02 Y202.945 E.42147
G1 X161.02 Y203.595 E.02433
G1 X168.98 Y211.555 E.42147
G1 X168.98 Y212.205 E.02433
G1 X161.02 Y204.245 E.42148
G1 X161.02 Y204.894 E.02433
G1 X168.98 Y212.854 E.42148
G1 X168.98 Y213.504 E.02433
G1 X161.02 Y205.544 E.42148
G1 X161.02 Y206.194 E.02433
G1 X168.98 Y214.154 E.42148
G1 X168.98 Y214.804 E.02433
G1 X161.02 Y206.844 E.42148
G1 X161.02 Y207.493 E.02433
G1 X168.98 Y215.454 E.42148
G1 X168.98 Y216.103 E.02433
G1 X161.02 Y208.143 E.42148
G1 X161.02 Y208.793 E.02433
G1 X168.98 Y216.753 E.42148
G1 X168.98 Y217.403 E.02433
G1 X161.02 Y209.443 E.42148
G1 X161.02 Y210.093 E.02433
G1 X168.98 Y218.053 E.42148
G1 X168.98 Y218.417 E.01364
G1 X168.694 Y218.417 E.0107
G1 X161.02 Y210.742 E.40635
G1 X161.02 Y211.392 E.02433
G1 X168.044 Y218.416 E.3719
G1 X167.393 Y218.415 E.02436
G1 X161.02 Y212.042 E.33746
G1 X161.02 Y212.692 E.02433
G1 X166.743 Y218.414 E.30301
M73 C3
G1 X166.092 Y218.414 E.02436
G1 X161.02 Y213.341 E.26857
G1 X161.02 Y213.991 E.02433
G1 X165.442 Y218.413 E.23413
G1 X164.791 Y218.412 E.02436
G1 X161.02 Y214.641 E.19968
G1 X161.02 Y215.291 E.02433
G1 X164.141 Y218.412 E.16524
G1 X163.49 Y218.411 E.02436
G1 X161.02 Y215.941 E.13079
G1 X161.02 Y216.59 E.02433
G1 X162.84 Y218.41 E.09635
G1 X162.189 Y218.409 E.02436
G1 X161.02 Y217.24 E.0619
G1 X161.02 Y217.89 E.02433
G1 X161.744 Y218.614 E.03836
; stop printing object Post.stl id:0 copy 0
M106 S255
;LAYER_CHANGE
;Z:0.4
;HEIGHT:0.2
;BEFORE_LAYER_CHANGE
;0.4
G92 E0

EXCLUDE_OBJECT_END NAME=Post.stl_id_0_copy_0
SET_VELOCITY_LIMIT ACCEL=6000 ACCEL_TO_DECEL=3000
M140 S60 ; set bed temperature
; printing object Post.stl id:0 copy 0
G1 E-.8 F3000
EXCLUDE_OBJECT_START NAME=Post.stl_id_0_copy_0
G1 X170.869 Y109.717 Z.4 F12000
G1 E.8 F1800
;TYPE:Outer wall
;WIDTH:0.4
G1 F10081.784
G1 X170.881 Y220.283 E3.2172
G1 X159.119 Y220.27 E.34223
G1 X159.119 Y109.756 E3.21567
G1 X159.133 Y109.715 E.00125
G1 X170.829 Y109.717 E.34035
G1 X170.494 Y110.101 F12000
;TYPE:Inner wall
;WIDTH:0.46
G1 F8631.445
G1 X170.494 Y219.896 E3.73156
G1 X159.506 Y219.883 E.37343
G1 X159.506 Y110.101 E3.73113
G1 X170.454 Y110.101 E.37207
G1 X170.077 Y110.518 F12000
G1 F8631.445
G1 X170.077 Y219.478 E3.70319
G1 X159.923 Y219.467 E.34508
G1 X159.923 Y110.518 E3.70279
G1 X170.037 Y110.518 E.34372
G1 X169.66 Y110.935 F12000
G1 F8631.445
G1 X169.66 Y219.061 E3.67482
G1 X160.34 Y219.05 E.31673
G1 X160.34 Y110.935 E3.67446
G1 X169.62 Y110.935 E.31537
G1 X160.458 Y112.099 F12000
;TYPE:Internal solid infill
;WIDTH:0.560333
G1 F6957.691
G1 X161.271 Y111.286 E.04849
G1 X162.003 Y111.286 E.03085
G1 X160.691 Y112.598 E.07824
G1 X160.691 Y113.33 E.03085
G1 X162.735 Y111.286 E.12188
G1 X163.466 Y111.286 E.03085
G1 X160.691 Y114.061 E.16551
G1 X160.691 Y114.793 E.03085
G1 X164.198 Y111.286 E.20914
G1 X164.93 Y111.286 E.03085
G1 X160.691 Y115.525 E.25277
G1 X160.691 Y116.257 E.03085
G1 X165.662 Y111.286 E.2964
G1 X166.393 Y111.286 E.03085
G1 X160.691 Y116.988 E.34003
G1 X160.691 Y117.72 E.03085
G1 X167.125 Y111.286 E.38366
G1 X167.857 Y111.286 E.03085
G1 X160.691 Y118.452 E.42729
G1 X160.691 Y119.183 E.03085
G1 X168.589 Y111.286 E.47092
G1 X169.309 Y111.286 E.03039
G1 X160.691 Y119.915 E.51423
G1 X160.691 Y120.647 E.03085
G1 X169.309 Y112.028 E.5139
G1 X169.309 Y112.76 E.03085
G1 X160.691 Y121.379 E.5139
G1 X160.691 Y122.11 E.03085
G1 X169.309 Y113.492 E.5139
M73 P6 R23
G1 X169.309 Y114.224 E.03085
G1 X160.691 Y122.842 E.5139
G1 X160.691 Y123.574 E.03085
G1 X169.309 Y114.955 E.5139
G1 X169.309 Y115.687 E.03085
G1 X160.691 Y124.306 E.5139
G1 X160.691 Y125.037 E.03085
G1 X169.309 Y116.419 E.5139
G1 X169.309 Y117.151 E.03085
G1 X160.691 Y125.769 E.5139
G1 X160.691 Y126.501 E.03085
