; HEADER_BLOCK_START
; generated by OrcaSlicer 1.6.3 on 2023-06-27 at 14:42:16
; total layer number: 109
; HEADER_BLOCK_END

; THUMBNAIL_BLOCK_START
; THUMBNAIL_BLOCK_END

; external perimeters extrusion width = 0.40mm
; perimeters extrusion width = 0.45mm
; infill extrusion width = 0.45mm
; solid infill extrusion width = 0.40mm
; top infill extrusion width = 0.40mm
; first layer extrusion width = 0.50mm

; external perimeters extrusion width = 0.40mm
; perimeters extrusion width = 0.45mm
; infill extrusion width = 0.45mm
; solid infill extrusion width = 0.40mm
; top infill extrusion width = 0.40mm
; first layer extrusion width = 0.50mm

; external perimeters extrusion width = 0.40mm
; perimeters extrusion width = 0.45mm
; infill extrusion width = 0.45mm
; solid infill extrusion width = 0.40mm
; top infill extrusion width = 0.40mm
; first layer extrusion width = 0.50mm

; external perimeters extrusion width = 0.40mm
; perimeters extrusion width = 0.45mm
; infill extrusion width = 0.45mm
; solid infill extrusion width = 0.40mm
; top infill extrusion width = 0.40mm
; first layer extrusion width = 0.50mm

; EXECUTABLE_BLOCK_START
EXCLUDE_OBJECT_DEFINE NAME=Post.stl_id_0_copy_0 CENTER=190.742,164.999 POLYGON=[[184.662,109.749],[184.662,109.73],[184.665,109.708],[184.668,109.692],[184.672,109.676],[184.674,109.669],[184.685,109.642],[184.69,109.632],[184.702,109.611],[184.711,109.598],[184.724,109.583],[184.737,109.569],[184.749,109.559],[184.768,109.546],[184.777,109.54],[184.801,109.529],[184.808,109.526],[184.837,109.518],[184.841,109.518],[184.874,109.515],[196.611,109.515],[196.648,109.518],[196.684,109.529],[196.717,109.546],[196.747,109.569],[196.774,109.598],[196.795,109.632],[196.81,109.669],[196.82,109.708],[196.823,109.749],[196.823,220.484],[196.821,220.484],[184.768,220.47],[184.69,220.47],[184.665,220.47],[184.662,220.47],[184.662,109.749]]
EXCLUDE_OBJECT_DEFINE NAME=Post.stl_id_1_copy_0 CENTER=173.581,164.999 POLYGON=[[167.5,109.749],[167.501,109.73],[167.503,109.708],[167.506,109.692],[167.511,109.676],[167.513,109.669],[167.523,109.642],[167.528,109.632],[167.541,109.611],[167.55,109.598],[167.562,109.583],[167.576,109.569],[167.587,109.559],[167.606,109.546],[167.616,109.54],[167.64,109.529],[167.647,109.526],[167.675,109.518],[167.679,109.518],[167.712,109.515],[179.449,109.515],[179.486,109.518],[179.522,109.529],[179.556,109.546],[179.586,109.569],[179.612,109.598],[179.633,109.632],[179.649,109.669],[179.658,109.708],[179.662,109.749],[179.662,220.484],[179.659,220.484],[167.606,220.47],[167.528,220.47],[167.503,220.47],[167.5,220.47],[167.5,109.749]]
EXCLUDE_OBJECT_DEFINE NAME=Post.stl_id_2_copy_0 CENTER=156.419,164.999 POLYGON=[[150.338,109.749],[150.339,109.73],[150.342,109.708],[150.345,109.692],[150.349,109.676],[150.351,109.669],[150.362,109.642],[150.367,109.632],[150.379,109.611],[150.388,109.598],[150.401,109.583],[150.414,109.569],[150.426,109.559],[150.444,109.546],[150.454,109.54],[150.478,109.529],[150.485,109.526],[150.514,109.518],[150.517,109.518],[150.551,109.515],[162.288,109.515],[162.325,109.518],[162.36,109.529],[162.394,109.546],[162.424,109.569],[162.45,109.598],[162.472,109.632],[162.487,109.669],[162.497,109.708],[162.5,109.749],[162.5,220.484],[162.498,220.484],[150.444,220.47],[150.367,220.47],[150.342,220.47],[150.338,220.47],[150.338,109.749]]
EXCLUDE_OBJECT_DEFINE NAME=Post.stl_id_3_copy_0 CENTER=139.258,164.999 POLYGON=[[133.177,109.749],[133.177,109.73],[133.18,109.708],[133.183,109.692],[133.187,109.676],[133.19,109.669],[133.2,109.642],[133.205,109.632],[133.217,109.611],[133.226,109.598],[133.239,109.583],[133.253,109.569],[133.264,109.559],[133.283,109.546],[133.293,109.54],[133.316,109.529],[133.323,109.526],[133.352,109.518],[133.356,109.518],[133.389,109.515],[145.126,109.515],[145.163,109.518],[145.199,109.529],[145.232,109.546],[145.263,109.569],[145.289,109.598],[145.31,109.632],[145.326,109.669],[145.335,109.708],[145.338,109.749],[145.338,220.484],[145.336,220.484],[133.283,220.47],[133.205,220.47],[133.18,220.47],[133.177,220.47],[133.177,109.749]]
M73 P0 R80
M73 C18
;TYPE:Custom
START_PRINT T_BED=60 T_EXTRUDER=200
G90
G21
M83 ; use relative distances for extrusion
; filament start gcode

    PRESSURE_ADVANCE_SELECT FILAMENT=PLA
M106 S0
;LAYER_CHANGE
;Z:0.2
;HEIGHT:0.2
M204 S1000
G1 E-.8 F3600
G1 X130.777 Y108.09 F9000
G1 Z.2
G1 E.8 F3600
;TYPE:Skirt
;WIDTH:0.5
G1 F3000
G1 X131.495 Y107.294 E.03995
G1 X131.968 Y106.99 E.02095
G1 X132.533 Y106.763 E.02267
G1 X133.389 Y106.641 E.03219
G1 X196.622 Y106.642 E2.3552
G1 X197.287 Y106.718 E.02492
G1 X198.004 Y106.975 E.02836
G1 X198.883 Y107.643 E.0411
G1 X199.46 Y108.547 E.03996
G1 X199.616 Y109.027 E.01879
G1 X199.701 Y109.749 E.02706
G1 X199.701 Y220.484 E4.12448
G1 X199.308 Y221.946 E.05638
G1 X198.234 Y223.013 E.05638
G1 X196.787 Y223.398 E.0558
G1 X133.21 Y223.384 E2.36798
G1 X131.749 Y222.99 E.05638
G1 X130.683 Y221.915 E.05638
G1 X130.299 Y220.47 E.05567
G1 X130.299 Y109.749 E4.12396
G1 X130.392 Y108.994 E.02831
G1 X130.753 Y108.145 E.03437
G1 X131.163 Y108.335 F9000
G1 F3000
G1 X131.456 Y107.95 E.01803
G1 X132.177 Y107.396 E.03387
G1 X132.663 Y107.202 E.01948
G1 X133.389 Y107.098 E.02732
G1 X196.622 Y107.099 E2.3552
G1 X197.19 Y107.165 E.02131
G1 X197.795 Y107.382 E.02391
G1 X198.544 Y107.95 E.03502
G1 X199.039 Y108.725 E.03426
G1 X199.244 Y109.749 E.03887
G1 X199.244 Y220.484 E4.12448
G1 X198.852 Y221.815 E.05169
G1 X197.801 Y222.722 E.05169
G1 X196.787 Y222.941 E.03866
G1 X133.211 Y222.927 E2.36796
G1 X131.88 Y222.534 E.05169
G1 X130.974 Y221.482 E.05169
G1 X130.756 Y220.47 E.03856
G1 X130.756 Y109.749 E4.12396
G1 X130.836 Y109.102 E.02426
G1 X131.139 Y108.39 E.02882
; printing object Post.stl id:0 copy 0
EXCLUDE_OBJECT_START NAME=Post.stl_id_0_copy_0
G1 E-.8 F3600
G1 X196.435 Y109.906 F9000
G1 E.8 F3600
;TYPE:Outer wall
G1 F3000
G1 X196.437 Y220.134 E4.10555
M73 P0 R79
G1 X185.048 Y220.121 E.42417
G1 X185.048 Y109.906 E4.10507
G1 X196.375 Y109.906 E.42187
G1 X196.432 Y109.986
G1 X195.978 Y110.363 F9000
;TYPE:Inner wall
G1 F3000
G1 X195.979 Y219.676 E4.07149
G1 X185.505 Y219.664 E.39012
G1 X185.505 Y110.362 E4.07108
G1 X195.918 Y110.363 E.38782
G1 X195.521 Y110.82 F9000
G1 F3000
G1 X195.522 Y219.218 E4.03742
G1 X185.962 Y219.207 E.35607
G1 X185.962 Y110.819 E4.03704
G1 X195.461 Y110.82 E.35377
G1 X195.064 Y111.277 F9000
G1 F3000
G1 X195.065 Y218.761 E4.00335
G1 X186.42 Y218.751 E.32202
G1 X186.42 Y111.277 E4.00301
G1 X195.004 Y111.277 E.31972
G1 X194.927 Y112.343 F9000
;TYPE:Bottom surface
;WIDTH:0.502383
G1 F6300
G1 X194.203 Y111.62 E.0383
G1 X193.553 Y111.62 E.02433
G1 X194.721 Y112.788 E.06182
G1 X194.721 Y113.437 E.02433
G1 X192.903 Y111.62 E.09623
G1 X192.254 Y111.62 E.02433
G1 X194.721 Y114.087 E.13064
G1 X194.721 Y114.737 E.02433
G1 X191.604 Y111.62 E.16505
G1 X190.954 Y111.62 E.02433
G1 X194.721 Y115.387 E.19946
G1 X194.721 Y116.036 E.02433
G1 X190.304 Y111.62 E.23387
G1 X189.654 Y111.62 E.02433
G1 X194.721 Y116.686 E.26827
G1 X194.721 Y117.336 E.02433
G1 X189.004 Y111.62 E.30268
G1 X188.355 Y111.619 E.02433
G1 X194.721 Y117.986 E.33709
G1 X194.721 Y118.636 E.02433
G1 X187.705 Y111.619 E.3715
G1 X187.055 Y111.619 E.02433
G1 X194.721 Y119.285 E.40591
G1 X194.721 Y119.935 E.02433
G1 X186.762 Y111.977 E.4214
G1 X186.762 Y112.626 E.02433
G1 X194.721 Y120.585 E.4214
G1 X194.721 Y121.235 E.02433
G1 X186.762 Y113.276 E.4214
G1 X186.762 Y113.926 E.02433
G1 X194.721 Y121.885 E.4214
G1 X194.721 Y122.534 E.02433
G1 X186.762 Y114.576 E.4214
G1 X186.762 Y115.225 E.02433
G1 X194.721 Y123.184 E.4214
G1 X194.721 Y123.834 E.02433
G1 X186.762 Y115.875 E.4214
G1 X186.762 Y116.525 E.02433
G1 X194.721 Y124.484 E.4214
G1 X194.721 Y125.134 E.02433
G1 X186.762 Y117.175 E.4214
G1 X186.762 Y117.825 E.02433
G1 X194.721 Y125.783 E.4214
G1 X194.721 Y126.433 E.02433
G1 X186.762 Y118.474 E.4214
G1 X186.762 Y119.124 E.02433
G1 X194.721 Y127.083 E.42141
G1 X194.721 Y127.733 E.02433
G1 X186.762 Y119.774 E.42141
G1 X186.762 Y120.424 E.02433
G1 X194.721 Y128.382 E.42141
G1 X194.721 Y129.032 E.02433
G1 X186.762 Y121.073 E.42141
G1 X186.762 Y121.723 E.02433
G1 X194.721 Y129.682 E.42141
G1 X194.721 Y130.332 E.02433
G1 X186.762 Y122.373 E.42141
G1 X186.762 Y123.023 E.02433
G1 X194.721 Y130.982 E.42141
G1 X194.721 Y131.631 E.02433
G1 X186.762 Y123.673 E.42141
G1 X186.762 Y124.322 E.02433
G1 X194.721 Y132.281 E.42141
G1 X194.721 Y132.931 E.02433
G1 X186.762 Y124.972 E.42141
G1 X186.762 Y125.622 E.02433
G1 X194.721 Y133.581 E.42141
G1 X194.721 Y134.231 E.02433
G1 X186.762 Y126.272 E.42141
G1 X186.762 Y126.921 E.02433
G1 X194.721 Y134.88 E.42141
G1 X194.721 Y135.53 E.02433
G1 X186.762 Y127.571 E.42141
G1 X186.762 Y128.221 E.02433
G1 X194.721 Y136.18 E.42141
G1 X194.721 Y136.83 E.02433
G1 X186.762 Y128.871 E.42141
G1 X186.762 Y129.521 E.02433
G1 X194.721 Y137.48 E.42141
G1 X194.721 Y138.129 E.02433
G1 X186.762 Y130.17 E.42141
G1 X186.762 Y130.82 E.02433
G1 X194.721 Y138.779 E.42141
G1 X194.721 Y139.429 E.02433
G1 X186.762 Y131.47 E.42142
G1 X186.762 Y132.12 E.02433
G1 X194.721 Y140.079 E.42142
G1 X194.721 Y140.728 E.02433
G1 X186.762 Y132.77 E.42142
G1 X186.762 Y133.419 E.02433
G1 X194.721 Y141.378 E.42142
G1 X194.721 Y142.028 E.02433
G1 X186.762 Y134.069 E.42142
G1 X186.762 Y134.719 E.02433
G1 X194.721 Y142.678 E.42142
G1 X194.721 Y143.328 E.02433
G1 X186.762 Y135.369 E.42142
G1 X186.762 Y136.018 E.02433
G1 X194.721 Y143.977 E.42142
G1 X194.721 Y144.627 E.02433
G1 X186.762 Y136.668 E.42142
G1 X186.762 Y137.318 E.02433
G1 X194.721 Y145.277 E.42142
G1 X194.721 Y145.927 E.02433
G1 X186.762 Y137.968 E.42142
G1 X186.762 Y138.618 E.02433
G1 X194.721 Y146.577 E.42142
G1 X194.721 Y147.226 E.02433
M73 P1 R79
G1 X186.762 Y139.267 E.42142
G1 X186.762 Y139.917 E.02433
G1 X194.721 Y147.876 E.42142
G1 X194.721 Y148.526 E.02433
G1 X186.762 Y140.567 E.42142
G1 X186.762 Y141.217 E.02433
G1 X194.721 Y149.176 E.42142
G1 X194.721 Y149.826 E.02433
G1 X186.762 Y141.866 E.42142
G1 X186.762 Y142.516 E.02433
G1 X194.721 Y150.475 E.42142
G1 X194.721 Y151.125 E.02433
G1 X186.762 Y143.166 E.42143
G1 X186.762 Y143.816 E.02433
G1 X194.721 Y151.775 E.42143
G1 X194.721 Y152.425 E.02433
G1 X186.762 Y144.466 E.42143
G1 X186.762 Y145.115 E.02433
G1 X194.721 Y153.074 E.42143
G1 X194.721 Y153.724 E.02433
G1 X186.762 Y145.765 E.42143
G1 X186.762 Y146.415 E.02433
G1 X194.721 Y154.374 E.42143
G1 X194.721 Y155.024 E.02433
G1 X186.762 Y147.065 E.42143
G1 X186.762 Y147.714 E.02433
G1 X194.721 Y155.674 E.42143
G1 X194.722 Y156.323 E.02433
G1 X186.762 Y148.364 E.42143
G1 X186.762 Y149.014 E.02433
G1 X194.722 Y156.973 E.42143
G1 X194.722 Y157.623 E.02433
G1 X186.762 Y149.664 E.42143
G1 X186.762 Y150.314 E.02433
G1 X194.722 Y158.273 E.42143
G1 X194.722 Y158.923 E.02433
G1 X186.762 Y150.963 E.42143
G1 X186.762 Y151.613 E.02433
G1 X194.722 Y159.572 E.42143
G1 X194.722 Y160.222 E.02433
G1 X186.762 Y152.263 E.42143
G1 X186.762 Y152.913 E.02433
G1 X194.722 Y160.872 E.42143
G1 X194.722 Y161.522 E.02433
G1 X186.762 Y153.562 E.42143
G1 X186.762 Y154.212 E.02433
G1 X194.722 Y162.171 E.42143
M73 C17
G1 X194.722 Y162.821 E.02433
G1 X186.762 Y154.862 E.42143
G1 X186.762 Y155.512 E.02433
G1 X194.722 Y163.471 E.42144
G1 X194.722 Y164.121 E.02433
G1 X186.762 Y156.162 E.42144
G1 X186.762 Y156.811 E.02433
G1 X194.722 Y164.771 E.42144
G1 X194.722 Y165.42 E.02433
G1 X186.762 Y157.461 E.42144
G1 X186.762 Y158.111 E.02433
G1 X194.722 Y166.07 E.42144
G1 X194.722 Y166.72 E.02433
G1 X186.762 Y158.761 E.42144
G1 X186.762 Y159.41 E.02433
G1 X194.722 Y167.37 E.42144
G1 X194.722 Y168.02 E.02433
G1 X186.762 Y160.06 E.42144
G1 X186.762 Y160.71 E.02433
G1 X194.722 Y168.669 E.42144
G1 X194.722 Y169.319 E.02433
G1 X186.762 Y161.36 E.42144
G1 X186.762 Y162.01 E.02433
G1 X194.722 Y169.969 E.42144
G1 X194.722 Y170.619 E.02433
G1 X186.762 Y162.659 E.42144
G1 X186.762 Y163.309 E.02433
G1 X194.722 Y171.269 E.42144
G1 X194.722 Y171.918 E.02433
G1 X186.762 Y163.959 E.42144
G1 X186.762 Y164.609 E.02433
G1 X194.722 Y172.568 E.42144
G1 X194.722 Y173.218 E.02433
G1 X186.762 Y165.258 E.42144
G1 X186.762 Y165.908 E.02433
G1 X194.722 Y173.868 E.42144
G1 X194.722 Y174.517 E.02433
G1 X186.762 Y166.558 E.42144
G1 X186.762 Y167.208 E.02433
G1 X194.722 Y175.167 E.42144
G1 X194.722 Y175.817 E.02433
G1 X186.762 Y167.858 E.42145
G1 X186.762 Y168.507 E.02433
G1 X194.722 Y176.467 E.42145
G1 X194.722 Y177.117 E.02433
G1 X186.762 Y169.157 E.42145
G1 X186.762 Y169.807 E.02433
G1 X194.722 Y177.766 E.42145
G1 X194.722 Y178.416 E.02433
G1 X186.762 Y170.457 E.42145
G1 X186.762 Y171.106 E.02433
G1 X194.722 Y179.066 E.42145
G1 X194.722 Y179.716 E.02433
G1 X186.762 Y171.756 E.42145
G1 X186.762 Y172.406 E.02433
G1 X194.722 Y180.366 E.42145
G1 X194.722 Y181.015 E.02433
G1 X186.762 Y173.056 E.42145
G1 X186.762 Y173.706 E.02433
G1 X194.722 Y181.665 E.42145
G1 X194.722 Y182.315 E.02433
G1 X186.762 Y174.355 E.42145
G1 X186.762 Y175.005 E.02433
G1 X194.722 Y182.965 E.42145
G1 X194.722 Y183.615 E.02433
G1 X186.762 Y175.655 E.42145
G1 X186.762 Y176.305 E.02433
G1 X194.722 Y184.264 E.42145
G1 X194.722 Y184.914 E.02433
G1 X186.762 Y176.954 E.42145
G1 X186.762 Y177.604 E.02433
G1 X194.722 Y185.564 E.42145
G1 X194.722 Y186.214 E.02433
G1 X186.762 Y178.254 E.42145
G1 X186.762 Y178.904 E.02433
G1 X194.722 Y186.863 E.42145
G1 X194.722 Y187.513 E.02433
G1 X186.762 Y179.554 E.42145
G1 X186.762 Y180.203 E.02433
G1 X194.722 Y188.163 E.42146
G1 X194.722 Y188.813 E.02433
G1 X186.762 Y180.853 E.42146
G1 X186.762 Y181.503 E.02433
G1 X194.722 Y189.463 E.42146
G1 X194.722 Y190.112 E.02433
G1 X186.762 Y182.153 E.42146
G1 X186.762 Y182.802 E.02433
G1 X194.722 Y190.762 E.42146
G1 X194.722 Y191.412 E.02433
G1 X186.762 Y183.452 E.42146
G1 X186.762 Y184.102 E.02433
G1 X194.722 Y192.062 E.42146
G1 X194.722 Y192.712 E.02433
G1 X186.762 Y184.752 E.42146
G1 X186.762 Y185.402 E.02433
G1 X194.722 Y193.361 E.42146
G1 X194.722 Y194.011 E.02433
G1 X186.762 Y186.051 E.42146
G1 X186.762 Y186.701 E.02433
G1 X194.722 Y194.661 E.42146
G1 X194.722 Y195.311 E.02433
G1 X186.762 Y187.351 E.42146
G1 X186.762 Y188.001 E.02433
G1 X194.722 Y195.961 E.42146
G1 X194.722 Y196.61 E.02433
G1 X186.762 Y188.65 E.42146
G1 X186.762 Y189.3 E.02433
G1 X194.722 Y197.26 E.42146
G1 X194.722 Y197.91 E.02433
G1 X186.762 Y189.95 E.42146
G1 X186.762 Y190.6 E.02433
G1 X194.722 Y198.56 E.42146
G1 X194.722 Y199.209 E.02433
G1 X186.762 Y191.25 E.42146
G1 X186.762 Y191.899 E.02433
G1 X194.722 Y199.859 E.42147
G1 X194.722 Y200.509 E.02433
G1 X186.762 Y192.549 E.42147
G1 X186.762 Y193.199 E.02433
G1 X194.722 Y201.159 E.42147
G1 X194.722 Y201.809 E.02433
G1 X186.762 Y193.849 E.42147
G1 X186.762 Y194.498 E.02433
G1 X194.722 Y202.458 E.42147
G1 X194.722 Y203.108 E.02433
G1 X186.762 Y195.148 E.42147
G1 X186.762 Y195.798 E.02433
G1 X194.722 Y203.758 E.42147
G1 X194.722 Y204.408 E.02433
G1 X186.762 Y196.448 E.42147
G1 X186.762 Y197.098 E.02433
G1 X194.722 Y205.058 E.42147
G1 X194.722 Y205.707 E.02433
G1 X186.762 Y197.747 E.42147
G1 X186.762 Y198.397 E.02433
G1 X194.722 Y206.357 E.42147
G1 X194.722 Y207.007 E.02433
G1 X186.762 Y199.047 E.42147
G1 X186.762 Y199.697 E.02433
G1 X194.722 Y207.657 E.42147
G1 X194.722 Y208.307 E.02433
G1 X186.762 Y200.347 E.42147
G1 X186.762 Y200.996 E.02433
G1 X194.722 Y208.956 E.42147
G1 X194.722 Y209.606 E.02433
G1 X186.762 Y201.646 E.42147
G1 X186.762 Y202.296 E.02433
G1 X194.722 Y210.256 E.42147
G1 X194.722 Y210.906 E.02433
G1 X186.762 Y202.946 E.42147
G1 X186.762 Y203.595 E.02433
G1 X194.722 Y211.555 E.42147
G1 X194.722 Y212.205 E.02433
G1 X186.762 Y204.245 E.42148
G1 X186.762 Y204.895 E.02433
G1 X194.722 Y212.855 E.42148
G1 X194.722 Y213.505 E.02433
G1 X186.762 Y205.545 E.42148
G1 X186.762 Y206.195 E.02433
G1 X194.722 Y214.155 E.42148
G1 X194.722 Y214.804 E.02433
G1 X186.762 Y206.844 E.42148
G1 X186.762 Y207.494 E.02433
G1 X194.722 Y215.454 E.42148
G1 X194.722 Y216.104 E.02433
G1 X186.762 Y208.144 E.42148
G1 X186.762 Y208.794 E.02433
G1 X194.722 Y216.754 E.42148
G1 X194.722 Y217.404 E.02433
G1 X186.762 Y209.443 E.42148
G1 X186.762 Y210.093 E.02433
