; generated by SuperSlicer 2.5.59 on 2023-09-01 at 06:19:35 UTC


;
;

;
;
; 

; external perimeters extrusion width = 0.40mm
; perimeters extrusion width = 0.46mm
; infill extrusion width = 0.64mm
; solid infill extrusion width = 0.56mm
; top infill extrusion width = 0.40mm
; support material extrusion width = 0.46mm
; first layer extrusion width = 0.50mm

; external perimeters extrusion width = 0.40mm
; perimeters extrusion width = 0.46mm
; infill extrusion width = 0.64mm
; solid infill extrusion width = 0.56mm
; top infill extrusion width = 0.40mm
; support material extrusion width = 0.46mm
; first layer extrusion width = 0.50mm

; external perimeters extrusion width = 0.40mm
; perimeters extrusion width = 0.46mm
; infill extrusion width = 0.64mm
; solid infill extrusion width = 0.56mm
; top infill extrusion width = 0.40mm
; support material extrusion width = 0.46mm
; first layer extrusion width = 0.50mm

; object:{"name":"Post","id":"Post.stl id:0 copy 0","object_center":[146.838395,165.000713,0.000000],"boundingbox_center":[146.838395,165.000713,10.875000],"boundingbox_size":[12.161605,110.969398,21.750000]}
EXCLUDE_OBJECT_DEFINE NAME=Post_stl_id_0_copy_0 CENTER=146.838395,165.000713 POLYGON=[[140.757600,109.516024],[140.759760,109.516024],[140.824816,109.516096],[140.874608,109.516152],[141.456288,109.516816],[152.890784,109.529928],[152.915968,109.529960],[152.919184,109.529976],[152.919184,220.251552],[152.918544,220.269888],[152.916448,220.288096],[152.915968,220.292160],[152.912896,220.308112],[152.908576,220.323728],[152.906400,220.331536],[152.896080,220.357712],[152.890784,220.368480],[152.878688,220.389008],[152.869568,220.401872],[152.857072,220.416928],[152.843424,220.430688],[152.831760,220.440752],[152.813136,220.454080],[152.803376,220.459936],[152.779632,220.471312],[152.772624,220.473984],[152.743920,220.481872],[152.740272,220.482544],[152.707072,220.485408],[140.969712,220.485408],[140.932880,220.481872],[140.897168,220.471312],[140.863648,220.454080],[140.833360,220.430688],[140.807216,220.401872],[140.786016,220.368480],[140.770384,220.331536],[140.760816,220.292160],[140.757600,220.251552],[140.757600,109.516024]]
; object:{"name":"Post","id":"Post.stl id:1 copy 0","object_center":[165.000000,165.000713,0.000000],"boundingbox_center":[165.000000,165.000713,10.875000],"boundingbox_size":[12.161605,110.969398,21.750000]}
EXCLUDE_OBJECT_DEFINE NAME=Post_stl_id_1_copy_0 CENTER=165.000000,165.000713 POLYGON=[[158.919200,109.516024],[158.921376,109.516024],[158.986416,109.516096],[159.036208,109.516152],[159.617888,109.516816],[171.052384,109.529928],[171.077584,109.529960],[171.080800,109.529976],[171.080800,220.251552],[171.080160,220.269888],[171.077584,220.292160],[171.074512,220.308112],[171.068016,220.331536],[171.057680,220.357712],[171.052384,220.368480],[171.040304,220.389008],[171.031168,220.401872],[171.018672,220.416928],[171.005040,220.430688],[170.993360,220.440752],[170.974752,220.454080],[170.964976,220.459936],[170.941232,220.471312],[170.934240,220.473984],[170.905520,220.481872],[170.901872,220.482544],[170.868688,220.485408],[159.131312,220.485408],[159.094480,220.481872],[159.058784,220.471312],[159.025248,220.454080],[158.994960,220.430688],[158.968832,220.401872],[158.947616,220.368480],[158.931984,220.331536],[158.922432,220.292160],[158.919200,220.251552],[158.919200,109.516024]]
; object:{"name":"Post","id":"Post.stl id:2 copy 0","object_center":[183.161605,165.000712,0.000000],"boundingbox_center":[183.161605,165.000712,10.875000],"boundingbox_size":[12.161605,110.969398,21.750000]}
EXCLUDE_OBJECT_DEFINE NAME=Post_stl_id_2_copy_0 CENTER=183.161605,165.000712 POLYGON=[[177.080816,109.516024],[177.082976,109.516024],[177.148032,109.516096],[177.197808,109.516152],[177.779488,109.516816],[189.213984,109.529928],[189.239184,109.529960],[189.242400,109.529976],[189.242400,220.251552],[189.241760,220.269888],[189.239184,220.292160],[189.236112,220.308112],[189.229616,220.331536],[189.219280,220.357712],[189.213984,220.368480],[189.201904,220.389008],[189.192784,220.401872],[189.180288,220.416928],[189.166640,220.430688],[189.154976,220.440752],[189.136352,220.454080],[189.126592,220.459936],[189.102848,220.471312],[189.095840,220.473984],[189.067120,220.481872],[189.063472,220.482544],[189.030288,220.485408],[177.292928,220.485408],[177.256096,220.481872],[177.220384,220.471312],[177.186864,220.454080],[177.156576,220.430688],[177.130432,220.401872],[177.109216,220.368480],[177.093600,220.331536],[177.084032,220.292160],[177.080816,220.251552],[177.080816,109.516024]]
; plater:{"center":[165.000000,165.000712,0.000000],"boundingbox_center":[165.000000,165.000712,10.875000],"boundingbox_size":[48.484815,110.969399,21.750000]}

M73 P0 R90
;TYPE:Custom
; custom gcode: start_gcode
START_PRINT T_BED=60 T_EXTRUDER=210
; custom gcode end: start_gcode
M107
G21 ; set units to millimeters
G90 ; use absolute coordinates
M82 ; use absolute distances for extrusion
G92 E0
; custom gcode: start_filament_gcode
; Filament gcode

    PRESSURE_ADVANCE_SELECT FILAMENT=PLA
; custom gcode end: start_filament_gcode
;_TOOLCHANGE 0
M109 S210 ; set temperature and wait for it to be reached
M190 S60 ; set bed temperature and wait for it to be reached
;LAYER_CHANGE
;Z:0.2
;HEIGHT:0.2
G1 Z0.2 F9000
G1 E-0.8 F2400
M204 S1000
G1 X137.573 Y107.95 F9000
G1 E0 F1800
;TYPE:Skirt
;WIDTH:0.52
G1 X137.179 Y109.616 E0.06793
G1 X137.179 Y220.235 E4.45613
G1 X137.391 Y221.476 E4.50603
G1 X138.973 Y223.476 E4.60723
G1 X140.967 Y224.058 E4.68963
G1 X189.011 Y224.061 E6.59549
G1 X190.395 Y223.793 E6.65139
G1 X191.241 Y223.337 E6.68952
G1 X192.395 Y221.984 E6.76008
G1 X192.819 Y220.261 E6.83048
G1 X192.821 Y109.63 E11.21913
G1 X192.087 Y107.412 E11.3118
G1 X190.776 Y106.311 E11.37973
G1 X189.11 Y105.914 E11.44766
G1 X177.222 Y105.901 E11.91926
G1 X140.894 Y105.901 E13.36035
G1 X138.673 Y106.637 E13.45317
G1 X137.573 Y107.95 E13.5211
G1 X138.049 Y108.071 F9000
G1 F1800
G1 X137.656 Y109.616 E13.58436
G1 X137.656 Y220.235 E17.97255
G1 X137.844 Y221.326 E18.01645
G1 X139.229 Y223.074 E18.10493
G1 X140.968 Y223.581 E18.17676
G1 X189.011 Y223.584 E20.08261
G1 X190.278 Y223.326 E20.13388
G1 X191.972 Y221.763 E20.22535
G1 X192.342 Y220.261 E20.28671
G1 X192.344 Y109.63 E24.67536
G1 X191.827 Y107.874 E24.74798
G1 X190.657 Y106.787 E24.81133
G1 X189.109 Y106.391 E24.87469
G1 X177.221 Y106.378 E25.34629
G1 X140.894 Y106.378 E26.78735
G1 X139.135 Y106.897 E26.86011
G1 X138.049 Y108.071 E26.92356
G92 E0
G1 E-0.8 F2400
; printing object Post.stl id:0 copy 0
EXCLUDE_OBJECT_START NAME=Post_stl_id_0_copy_0
; acceleration to travel
M204 S3000
G1 X140.37 Y109.418 F9000
; decel to extrusion
M204 S1000
G1 X141.144 Y109.866
; end travel
G1 E0 F1800
;TYPE:External perimeter
;WIDTH:0.5
G1 X141.277 Y109.867 E0.00506
G1 X152.533 Y109.88 E0.43283
G1 X152.53 Y220.095 E4.62171
G1 X141.144 Y220.092 E5.05443
G1 X141.144 Y109.866 E9.24371
;WIPE_START
M204 S4000
G1 X141.491 Y110.067 F9000
;WIPE_END
M204 S1000
G1 X141.601 Y110.324
;TYPE:Internal perimeter
G1 F1800
G1 X152.075 Y110.336 E9.64179
M73 P1 R90
G1 X152.073 Y219.638 E13.79594
M73 P1 R90
G1 X141.601 Y219.635 E14.19392
G1 X141.601 Y110.324 E18.34844
G1 X142.058 Y110.782 F9000
G1 F1800
G1 X151.618 Y110.793 E18.71177
G1 X151.616 Y219.181 E22.8312
G1 X142.058 Y219.178 E23.19444
G1 X142.058 Y110.782 E27.31419
G92 E0
G1 E-0.8 F2400
; acceleration to travel
M204 S3000
G1 X148.882 Y111.558 F9000
; decel to extrusion
M204 S1000
G1 X151.481 Y111.854
; end travel
G1 E0 F1800
;TYPE:Solid infill
;WIDTH:0.501942
G1 F3600
G1 X150.556 Y110.929 E0.04991
G1 X149.909 Y110.928 F9000
G1 F3600
G1 X151.481 Y112.5 E0.13474
G1 X151.481 Y113.146 F9000
G1 F3600
G1 X149.262 Y110.927 E0.25449
G1 X148.615 Y110.926 F9000
G1 F3600
G1 X151.481 Y113.793 E0.40916
G1 X151.481 Y114.439 F9000
G1 F3600
G1 X147.968 Y110.926 E0.59874
G1 X147.32 Y110.925 F9000
G1 F3600
G1 X151.481 Y115.086 E0.82325
G1 X151.481 Y115.732 F9000
G1 F3600
G1 X146.673 Y110.924 E1.08267
G1 X146.026 Y110.923 F9000
G1 F3600
G1 X151.481 Y116.378 E1.37701
G1 X151.481 Y117.025 F9000
G1 F3600
G1 X145.379 Y110.923 E1.70626
G1 X144.732 Y110.922 F9000
G1 F3600
G1 X151.481 Y117.671 E2.07044
G1 X151.481 Y118.317 F9000
G1 F3600
G1 X144.085 Y110.921 E2.46953
G1 X143.438 Y110.92 F9000
G1 F3600
G1 X151.481 Y118.964 E2.90354
G1 X151.481 Y119.61 F9000
G1 F3600
G1 X142.79 Y110.92 E3.37247
G1 X142.196 Y110.971 F9000
G1 F3600
G1 X151.481 Y120.257 E3.87349
G1 X151.481 Y120.903 F9000
G1 F3600
G1 X142.196 Y111.618 E4.37452
G1 X142.196 Y112.264 F9000
G1 F3600
G1 X151.481 Y121.549 E4.87554
G1 X151.481 Y122.196 F9000
G1 F3600
G1 X142.196 Y112.91 E5.37656
G1 X142.196 Y113.557 F9000
G1 F3600
G1 X151.481 Y122.842 E5.87758
G1 X151.481 Y123.489 F9000
G1 F3600
G1 X142.196 Y114.203 E6.3786
G1 X142.196 Y114.85 F9000
G1 F3600
G1 X151.481 Y124.135 E6.87962
G1 X151.481 Y124.781 F9000
G1 F3600
G1 X142.196 Y115.496 E7.38064
G1 X142.196 Y116.142 F9000
G1 F3600
G1 X151.481 Y125.428 E7.88166
G1 X151.481 Y126.074 F9000
G1 F3600
G1 X142.196 Y116.789 E8.38267
G1 X142.196 Y117.435 F9000
G1 F3600
G1 X151.481 Y126.721 E8.88369
G1 X151.481 Y127.367 F9000
G1 F3600
G1 X142.196 Y118.082 E9.38471
G1 X142.196 Y118.728 F9000
G1 F3600
G1 X151.481 Y128.013 E9.88572
G1 X151.481 Y128.66 F9000
G1 F3600
G1 X142.196 Y119.374 E10.38673
G1 X142.196 Y120.021 F9000
G1 F3600
G1 X151.481 Y129.306 E10.88775
G1 X151.481 Y129.953 F9000
G1 F3600
G1 X142.196 Y120.667 E11.38876
G1 X142.196 Y121.314 F9000
G1 F3600
G1 X151.481 Y130.599 E11.88977
G1 X151.481 Y131.245 F9000
G1 F3600
G1 X142.196 Y121.96 E12.39078
G1 X142.196 Y122.606 F9000
G1 F3600
G1 X151.481 Y131.892 E12.89179
G1 X151.481 Y132.538 F9000
G1 F3600
G1 X142.196 Y123.253 E13.3928
G1 X142.196 Y123.899 F9000
G1 F3600
G1 X151.481 Y133.184 E13.8938
G1 X151.481 Y133.831 F9000
G1 F3600
G1 X142.196 Y124.546 E14.39481
G1 X142.196 Y125.192 F9000
G1 F3600
G1 X151.481 Y134.477 E14.89582
G1 X151.481 Y135.124 F9000
G1 F3600
G1 X142.196 Y125.839 E15.39682
G1 X142.196 Y126.485 F9000
G1 F3600
G1 X151.481 Y135.77 E15.89783
G1 X151.481 Y136.416 F9000
G1 F3600
G1 X142.196 Y127.131 E16.39883
G1 X142.196 Y127.778 F9000
G1 F3600
G1 X151.481 Y137.063 E16.89983
G1 X151.481 Y137.709 F9000
G1 F3600
G1 X142.196 Y128.424 E17.40083
G1 X142.196 Y129.071 F9000
G1 F3600
G1 X151.481 Y138.356 E17.90183
G1 X151.481 Y139.002 F9000
G1 F3600
G1 X142.196 Y129.717 E18.40284
G1 X142.196 Y130.363 F9000
G1 F3600
G1 X151.481 Y139.648 E18.90383
G1 X151.481 Y140.295 F9000
G1 F3600
G1 X142.196 Y131.01 E19.40483
G1 X142.196 Y131.656 F9000
G1 F3600
G1 X151.481 Y140.941 E19.90583
G1 X151.48 Y141.588 F9000
G1 F3600
G1 X142.196 Y132.303 E20.40683
G1 X142.196 Y132.949 F9000
G1 F3600
G1 X151.48 Y142.234 E20.90782
G1 X151.48 Y142.88 F9000
G1 F3600
G1 X142.196 Y133.595 E21.40882
G1 X142.196 Y134.242 F9000
G1 F3600
G1 X151.48 Y143.527 E21.90981
G1 X151.48 Y144.173 F9000
G1 F3600
G1 X142.196 Y134.888 E22.41081
G1 X142.196 Y135.535 F9000
G1 F3600
G1 X151.48 Y144.82 E22.9118
G1 X151.48 Y145.466 F9000
G1 F3600
G1 X142.196 Y136.181 E23.41279
G1 X142.196 Y136.827 F9000
G1 F3600
G1 X151.48 Y146.112 E23.91378
G1 X151.48 Y146.759 F9000
G1 F3600
G1 X142.196 Y137.474 E24.41477
G1 X142.196 Y138.12 F9000
G1 F3600
G1 X151.48 Y147.405 E24.91576
G1 X151.48 Y148.051 F9000
G1 F3600
G1 X142.196 Y138.767 E25.41675
G1 X142.196 Y139.413 F9000
G1 F3600
G1 X151.48 Y148.698 E25.91774
G1 X151.48 Y149.344 F9000
G1 F3600
G1 X142.196 Y140.059 E26.41872
G1 X142.196 Y140.706 F9000
G1 F3600
G1 X151.48 Y149.991 E26.91971
G1 X151.48 Y150.637 F9000
G1 F3600
G1 X142.196 Y141.352 E27.42069
G1 X142.196 Y141.999 F9000
G1 F3600
G1 X151.48 Y151.283 E27.92168
G1 X151.48 Y151.93 F9000
G1 F3600
G1 X142.196 Y142.645 E28.42266
G1 X142.196 Y143.292 F9000
G1 F3600
G1 X151.48 Y152.576 E28.92364
G1 X151.48 Y153.223 F9000
G1 F3600
G1 X142.196 Y143.938 E29.42462
G1 X142.196 Y144.584 F9000
G1 F3600
G1 X151.48 Y153.869 E29.92561
G1 X151.48 Y154.515 F9000
G1 F3600
G1 X142.196 Y145.231 E30.42659
G1 X142.196 Y145.877 F9000
G1 F3600
G1 X151.48 Y155.162 E30.92756
G1 X151.48 Y155.808 F9000
G1 F3600
G1 X142.196 Y146.524 E31.42854
G1 X142.196 Y147.17 F9000
G1 F3600
G1 X151.48 Y156.455 E31.92952
G1 X151.48 Y157.101 F9000
G1 F3600
G1 X142.196 Y147.816 E32.4305
G1 X142.196 Y148.463 F9000
G1 F3600
G1 X151.48 Y157.747 E32.93147
G1 X151.48 Y158.394 F9000
G1 F3600
G1 X142.196 Y149.109 E33.43245
G1 X142.196 Y149.756 F9000
G1 F3600
G1 X151.48 Y159.04 E33.93342
G1 X151.48 Y159.687 F9000
G1 F3600
G1 X142.196 Y150.402 E34.43439
G1 X142.196 Y151.048 F9000
G1 F3600
G1 X151.48 Y160.333 E34.93537
G1 X151.48 Y160.979 F9000
G1 F3600
G1 X142.196 Y151.695 E35.43634
G1 X142.196 Y152.341 F9000
G1 F3600
G1 X151.48 Y161.626 E35.93731
G1 X151.48 Y162.272 F9000
G1 F3600
G1 X142.196 Y152.988 E36.43828
G1 X142.196 Y153.634 F9000
G1 F3600
G1 X151.48 Y162.919 E36.93925
G1 X151.48 Y163.565 F9000
G1 F3600
G1 X142.196 Y154.28 E37.44022
G1 X142.196 Y154.927 F9000
G1 F3600
G1 X151.48 Y164.211 E37.94118
G1 X151.48 Y164.858 F9000
G1 F3600
G1 X142.196 Y155.573 E38.44215
G1 X142.196 Y156.22 F9000
G1 F3600
G1 X151.48 Y165.504 E38.94312
G1 X151.48 Y166.15 F9000
G1 F3600
G1 X142.196 Y156.866 E39.44408
G1 X142.196 Y157.512 F9000
G1 F3600
G1 X151.48 Y166.797 E39.94505
G1 X151.48 Y167.443 F9000
G1 F3600
G1 X142.196 Y158.159 E40.44601
G1 X142.196 Y158.805 F9000
G1 F3600
G1 X151.48 Y168.09 E40.94697
G1 X151.48 Y168.736 F9000
G1 F3600
G1 X142.196 Y159.452 E41.44793
G1 X142.196 Y160.098 F9000
G1 F3600
G1 X151.48 Y169.382 E41.94889
G1 X151.48 Y170.029 F9000
G1 F3600
G1 X142.196 Y160.745 E42.44985
G1 X142.196 Y161.391 F9000
G1 F3600
G1 X151.48 Y170.675 E42.95081
G1 X151.48 Y171.322 F9000
G1 F3600
G1 X142.196 Y162.037 E43.45177
G1 X142.196 Y162.684 F9000
G1 F3600
G1 X151.48 Y171.968 E43.95273
G1 X151.48 Y172.614 F9000
G1 F3600
G1 X142.196 Y163.33 E44.45368
G1 X142.196 Y163.977 F9000
G1 F3600
G1 X151.48 Y173.261 E44.95464
G1 X151.48 Y173.907 F9000
G1 F3600
G1 X142.196 Y164.623 E45.45559
G1 X142.196 Y165.269 F9000
G1 F3600
G1 X151.48 Y174.554 E45.95655
G1 X151.48 Y175.2 F9000
G1 F3600
G1 X142.196 Y165.916 E46.4575
G1 X142.196 Y166.562 F9000
G1 F3600
G1 X151.48 Y175.846 E46.95845
G1 X151.48 Y176.493 F9000
G1 F3600
G1 X142.196 Y167.209 E47.45941
G1 X142.196 Y167.855 F9000
G1 F3600
G1 X151.48 Y177.139 E47.96036
G1 X151.48 Y177.786 F9000
G1 F3600
G1 X142.196 Y168.501 E48.46131
G1 X142.196 Y169.148 F9000
G1 F3600
G1 X151.48 Y178.432 E48.96226
G1 X151.48 Y179.078 F9000
G1 F3600
G1 X142.196 Y169.794 E49.4632
G1 X142.196 Y170.441 F9000
G1 F3600
G1 X151.48 Y179.725 E49.96415
G1 X151.48 Y180.371 F9000
G1 F3600
G1 X142.196 Y171.087 E50.4651
G1 X142.196 Y171.733 F9000
G1 F3600
G1 X151.48 Y181.017 E50.96604
G1 X151.48 Y181.664 F9000
G1 F3600
G1 X142.196 Y172.38 E51.46699
G1 X142.196 Y173.026 F9000
G1 F3600
G1 X151.48 Y182.31 E51.96793
G1 X151.479 Y182.957 F9000
G1 F3600
G1 X142.196 Y173.673 E52.46887
G1 X142.196 Y174.319 F9000
G1 F3600
G1 X151.479 Y183.603 E52.96982
G1 X151.479 Y184.249 F9000
G1 F3600
G1 X142.196 Y174.965 E53.47076
G1 X142.196 Y175.612 F9000
G1 F3600
G1 X151.479 Y184.896 E53.9717
G1 X151.479 Y185.542 F9000
G1 F3600
G1 X142.196 Y176.258 E54.47264
G1 X142.196 Y176.905 F9000
G1 F3600
G1 X151.479 Y186.189 E54.97358
G1 X151.479 Y186.835 F9000
G1 F3600
G1 X142.196 Y177.551 E55.47452
G1 X142.196 Y178.198 F9000
G1 F3600
G1 X151.479 Y187.481 E55.97545
G1 X151.479 Y188.128 F9000
G1 F3600
G1 X142.196 Y178.844 E56.47639
G1 X142.196 Y179.49 F9000
G1 F3600
G1 X151.479 Y188.774 E56.97732
G1 X151.479 Y189.421 F9000
G1 F3600
G1 X142.196 Y180.137 E57.47826
G1 X142.196 Y180.783 F9000
G1 F3600
G1 X151.479 Y190.067 E57.97919
G1 X151.479 Y190.713 F9000
G1 F3600
G1 X142.196 Y181.43 E58.48013
G1 X142.196 Y182.076 F9000
G1 F3600
G1 X151.479 Y191.36 E58.98106
G1 X151.479 Y192.006 F9000
G1 F3600
G1 X142.196 Y182.722 E59.48199
G1 X142.196 Y183.369 F9000
G1 F3600
G1 X151.479 Y192.653 E59.98292
G1 X151.479 Y193.299 F9000
G1 F3600
G1 X142.196 Y184.015 E60.48385
G1 X142.196 Y184.662 F9000
G1 F3600
G1 X151.479 Y193.945 E60.98478
