; HEADER_BLOCK_START
; generated by OrcaSlicer 1.6.6 on 2023-08-25 at 20:36:56
; total layer number: 109
; HEADER_BLOCK_END

; THUMBNAIL_BLOCK_START
; THUMBNAIL_BLOCK_END

; external perimeters extrusion width = 0.40mm
; perimeters extrusion width = 0.46mm
; infill extrusion width = 0.64mm
; solid infill extrusion width = 0.56mm
; top infill extrusion width = 0.40mm
; support material extrusion width = 0.46mm
; first layer extrusion width = 0.50mm

; external perimeters extrusion width = 0.40mm
; perimeters extrusion width = 0.46mm
; infill extrusion width = 0.64mm
; solid infill extrusion width = 0.56mm
; top infill extrusion width = 0.40mm
; support material extrusion width = 0.46mm
; first layer extrusion width = 0.50mm

; EXECUTABLE_BLOCK_START
EXCLUDE_OBJECT_DEFINE NAME=Post.stl_id_0_copy_0 CENTER=164.999,176.081 POLYGON=[[109.514,170.212],[109.518,170.175],[109.528,170.14],[109.545,170.106],[109.569,170.076],[109.598,170.05],[109.631,170.028],[109.668,170.013],[109.707,170.003],[109.748,170],[220.484,170],[220.484,170.002],[220.47,182.056],[220.47,182.133],[220.47,182.158],[220.47,182.162],[109.748,182.162],[109.73,182.161],[109.707,182.158],[109.691,182.155],[109.676,182.151],[109.668,182.149],[109.642,182.138],[109.631,182.133],[109.611,182.121],[109.598,182.112],[109.583,182.099],[109.569,182.086],[109.559,182.074],[109.545,182.056],[109.54,182.046],[109.528,182.022],[109.526,182.015],[109.518,181.986],[109.517,181.983],[109.514,181.949],[109.514,170.212]]
EXCLUDE_OBJECT_DEFINE NAME=Post.stl_id_1_copy_0 CENTER=164.999,153.919 POLYGON=[[109.514,148.051],[109.518,148.014],[109.528,147.978],[109.545,147.944],[109.569,147.914],[109.598,147.888],[109.631,147.867],[109.668,147.851],[109.707,147.842],[109.748,147.838],[220.484,147.838],[220.484,147.841],[220.47,159.894],[220.47,159.972],[220.47,159.997],[220.47,160],[109.748,160],[109.73,159.999],[109.707,159.997],[109.691,159.994],[109.676,159.989],[109.668,159.987],[109.642,159.977],[109.631,159.972],[109.611,159.959],[109.598,159.95],[109.583,159.938],[109.569,159.924],[109.559,159.913],[109.545,159.894],[109.54,159.884],[109.528,159.86],[109.526,159.853],[109.518,159.825],[109.517,159.821],[109.514,159.788],[109.514,148.051]]
M73 P0 R38
;TYPE:Custom
START_PRINT T_BED=60 T_EXTRUDER=220
G90
G21
M83 ; use relative distances for extrusion
; filament start gcode

    PRESSURE_ADVANCE_SELECT FILAMENT=PLA
M106 S0
;LAYER_CHANGE
;Z:0.2
;HEIGHT:0.2
;BEFORE_LAYER_CHANGE
;0.2
G92 E0

SET_VELOCITY_LIMIT ACCEL=5000 ACCEL_TO_DECEL=2500
G1 E-.8 F3000
G1 X107.666 Y145.757 F12000
G1 Z.2
G1 E.8 F1800
;TYPE:Skirt
;WIDTH:0.5
G1 F3000
G1 X108.546 Y145.202 E.03878
G1 X109.026 Y145.046 E.01879
G1 X109.748 Y144.961 E.02706
G1 X220.483 Y144.961 E4.12448
G1 X221.945 Y145.354 E.05638
G1 X223.013 Y146.427 E.05638
G1 X223.398 Y147.875 E.0558
G1 X223.384 Y182.128 E1.2758
G1 X222.989 Y183.59 E.05638
G1 X221.914 Y184.656 E.05638
G1 X220.47 Y185.039 E.05567
G1 X109.748 Y185.039 E4.12396
G1 X108.994 Y184.946 E.02831
G1 X108.062 Y184.544 E.03781
G1 X107.274 Y183.818 E.03991
G1 X106.771 Y182.835 E.04114
G1 X106.64 Y181.949 E.03333
G1 X106.64 Y148.051 E1.26261
G1 X106.771 Y147.165 E.03333
G1 X107.274 Y146.182 E.04113
G1 X107.639 Y145.787 E.02004
G1 X107.97 Y146.149 F12000
G1 F3000
G1 X108.307 Y145.842 E.017
G1 X109.102 Y145.498 E.03226
G1 X109.748 Y145.418 E.02425
G1 X220.483 Y145.418 E4.12448
G1 X221.815 Y145.81 E.05169
G1 X222.721 Y146.86 E.05169
G1 X222.941 Y147.875 E.03866
G1 X222.927 Y182.128 E1.27578
G1 X222.533 Y183.459 E.05169
G1 X221.482 Y184.364 E.05169
G1 X220.47 Y184.582 E.03856
G1 X109.748 Y184.582 E4.12396
G1 X109.102 Y184.502 E.02426
G1 X108.307 Y184.158 E.03226
G1 X107.636 Y183.539 E.03402
G1 X107.21 Y182.705 E.03487
G1 X107.097 Y181.949 E.02845
G1 X107.109 Y147.815 E1.27139
G1 X107.21 Y147.295 E.01972
G1 X107.655 Y146.436 E.03602
G1 X107.94 Y146.176 E.01437
; printing object Post.stl id:0 copy 0
G1 E-.8
EXCLUDE_OBJECT_START NAME=Post.stl_id_0_copy_0
G1 X109.905 Y170.388 F12000
G1 E.8 F1800
;TYPE:Outer wall
G1 F3000
G1 X220.133 Y170.387 E4.10559
G1 X220.12 Y181.775 E.42417
G1 X109.905 Y181.773 E4.10511
G1 X109.905 Y170.428 E.42257
G1 X110.362 Y170.844 F12000
;TYPE:Inner wall
G1 F3000
G1 X219.675 Y170.844 E4.07152
G1 X219.663 Y181.318 E.39012
G1 X110.362 Y181.316 E4.07108
M73 P1 R37
G1 X110.362 Y170.884 E.38857
G1 X110.819 Y171.301 F12000
G1 F3000
G1 X219.218 Y171.301 E4.03746
G1 X219.207 Y180.861 E.35607
G1 X110.819 Y180.859 E4.03705
G1 X110.819 Y171.341 E.35452
G1 X111.276 Y171.758 F12000
G1 F3000
G1 X218.76 Y171.758 E4.00339
G1 X218.75 Y180.404 E.32202
G1 X111.276 Y180.402 E4.00302
G1 X111.276 Y171.798 E.32047
G1 E-.8
G1 X217.694 Y171.895 F12000
G1 E.8 F1800
;TYPE:Bottom surface
;WIDTH:0.502425
G1 F6300
G1 X218.416 Y172.618 E.03826
G1 X218.416 Y173.267 E.0243
G1 X217.25 Y172.101 E.06174
G1 X216.6 Y172.101 E.02433
G1 X218.415 Y173.916 E.09612
G1 X218.414 Y174.565 E.0243
G1 X215.95 Y172.101 E.13049
G1 X215.3 Y172.101 E.02433
G1 X218.413 Y175.214 E.16486
G1 X218.413 Y175.863 E.0243
G1 X214.65 Y172.101 E.19923
G1 X214.001 Y172.101 E.02433
G1 X218.412 Y176.512 E.2336
G1 X218.411 Y177.161 E.0243
G1 X213.351 Y172.101 E.26797
G1 X212.701 Y172.101 E.02433
G1 X218.411 Y177.81 E.30235
G1 X218.41 Y178.459 E.0243
G1 X212.051 Y172.101 E.33672
G1 X211.401 Y172.101 E.02433
G1 X218.409 Y179.109 E.37109
G1 X218.408 Y179.758 E.0243
G1 X210.751 Y172.101 E.40546
G1 X210.102 Y172.101 E.02433
G1 X218.062 Y180.061 E.42152
G1 X217.412 Y180.061 E.02433
G1 X209.452 Y172.101 E.42152
G1 X208.802 Y172.101 E.02433
G1 X216.762 Y180.061 E.42152
G1 X216.112 Y180.061 E.02433
G1 X208.152 Y172.101 E.42152
G1 X207.502 Y172.101 E.02433
G1 X215.462 Y180.061 E.42152
G1 X214.812 Y180.061 E.02433
G1 X206.852 Y172.101 E.42152
G1 X206.202 Y172.101 E.02433
G1 X214.163 Y180.061 E.42152
G1 X213.513 Y180.061 E.02433
G1 X205.553 Y172.101 E.42151
G1 X204.903 Y172.101 E.02433
G1 X212.863 Y180.061 E.42151
G1 X212.213 Y180.061 E.02433
G1 X204.253 Y172.101 E.42151
G1 X203.603 Y172.101 E.02433
G1 X211.563 Y180.061 E.42151
G1 X210.913 Y180.061 E.02433
G1 X202.953 Y172.101 E.42151
G1 X202.303 Y172.101 E.02433
G1 X210.263 Y180.061 E.42151
G1 X209.614 Y180.061 E.02433
G1 X201.654 Y172.101 E.42151
G1 X201.004 Y172.101 E.02433
G1 X208.964 Y180.061 E.42151
G1 X208.314 Y180.061 E.02433
G1 X200.354 Y172.101 E.42151
G1 X199.704 Y172.101 E.02433
G1 X207.664 Y180.061 E.42151
G1 X207.014 Y180.061 E.02433
G1 X199.054 Y172.101 E.42151
G1 X198.404 Y172.101 E.02433
G1 X206.364 Y180.061 E.42151
G1 X205.715 Y180.061 E.02433
G1 X197.755 Y172.101 E.42151
G1 X197.105 Y172.101 E.02433
G1 X205.065 Y180.061 E.42151
G1 X204.415 Y180.061 E.02433
G1 X196.455 Y172.101 E.42151
G1 X195.805 Y172.101 E.02433
G1 X203.765 Y180.061 E.42151
G1 X203.115 Y180.061 E.02433
G1 X195.155 Y172.101 E.42151
G1 X194.505 Y172.101 E.02433
G1 X202.465 Y180.061 E.42151
G1 X201.815 Y180.061 E.02433
G1 X193.856 Y172.101 E.42151
G1 X193.206 Y172.101 E.02433
G1 X201.166 Y180.061 E.4215
G1 X200.516 Y180.061 E.02433
G1 X192.556 Y172.101 E.4215
G1 X191.906 Y172.101 E.02433
G1 X199.866 Y180.061 E.4215
G1 X199.216 Y180.061 E.02433
G1 X191.256 Y172.101 E.4215
G1 X190.606 Y172.101 E.02433
G1 X198.566 Y180.061 E.4215
G1 X197.916 Y180.061 E.02433
G1 X189.957 Y172.101 E.4215
G1 X189.307 Y172.101 E.02433
G1 X197.267 Y180.061 E.4215
G1 X196.617 Y180.061 E.02433
G1 X188.657 Y172.101 E.4215
G1 X188.007 Y172.101 E.02433
G1 X195.967 Y180.061 E.4215
G1 X195.317 Y180.061 E.02433
G1 X187.357 Y172.101 E.4215
G1 X186.707 Y172.101 E.02433
G1 X194.667 Y180.061 E.4215
G1 X194.017 Y180.06 E.02433
G1 X186.057 Y172.101 E.4215
G1 X185.408 Y172.101 E.02433
G1 X193.367 Y180.06 E.4215
G1 X192.718 Y180.06 E.02433
G1 X184.758 Y172.101 E.4215
G1 X184.108 Y172.101 E.02433
G1 X192.068 Y180.06 E.4215
G1 X191.418 Y180.06 E.02433
G1 X183.458 Y172.101 E.4215
G1 X182.808 Y172.101 E.02433
G1 X190.768 Y180.06 E.4215
G1 X190.118 Y180.06 E.02433
G1 X182.158 Y172.101 E.4215
G1 X181.509 Y172.101 E.02433
G1 X189.468 Y180.06 E.42149
G1 X188.818 Y180.06 E.02433
G1 X180.859 Y172.101 E.42149
G1 X180.209 Y172.101 E.02433
G1 X188.169 Y180.06 E.42149
G1 X187.519 Y180.06 E.02433
G1 X179.559 Y172.101 E.42149
G1 X178.909 Y172.101 E.02433
G1 X186.869 Y180.06 E.42149
G1 X186.219 Y180.06 E.02433
G1 X178.259 Y172.101 E.42149
G1 X177.61 Y172.101 E.02433
G1 X185.569 Y180.06 E.42149
G1 X184.919 Y180.06 E.02433
G1 X176.96 Y172.101 E.42149
G1 X176.31 Y172.101 E.02433
G1 X184.27 Y180.06 E.42149
G1 X183.62 Y180.06 E.02433
G1 X175.66 Y172.101 E.42149
G1 X175.01 Y172.101 E.02433
G1 X182.97 Y180.06 E.42149
G1 X182.32 Y180.06 E.02433
G1 X174.36 Y172.101 E.42149
G1 X173.711 Y172.101 E.02433
G1 X181.67 Y180.06 E.42149
G1 X181.02 Y180.06 E.02433
G1 X173.061 Y172.101 E.42149
G1 X172.411 Y172.101 E.02433
G1 X180.37 Y180.06 E.42149
G1 X179.721 Y180.06 E.02433
G1 X171.761 Y172.101 E.42149
G1 X171.111 Y172.101 E.02433
G1 X179.071 Y180.06 E.42149
G1 X178.421 Y180.06 E.02433
G1 X170.461 Y172.101 E.42149
G1 X169.812 Y172.101 E.02433
G1 X177.771 Y180.06 E.42149
G1 X177.121 Y180.06 E.02433
G1 X169.162 Y172.101 E.42148
G1 X168.512 Y172.101 E.02433
G1 X176.471 Y180.06 E.42148
G1 X175.822 Y180.06 E.02433
G1 X167.862 Y172.101 E.42148
G1 X167.212 Y172.101 E.02433
G1 X175.172 Y180.06 E.42148
G1 X174.522 Y180.06 E.02433
G1 X166.562 Y172.101 E.42148
G1 X165.913 Y172.101 E.02433
G1 X173.872 Y180.06 E.42148
G1 X173.222 Y180.06 E.02433
G1 X165.263 Y172.101 E.42148
G1 X164.613 Y172.101 E.02433
G1 X172.572 Y180.06 E.42148
G1 X171.922 Y180.06 E.02433
G1 X163.963 Y172.101 E.42148
G1 X163.313 Y172.101 E.02433
G1 X171.273 Y180.06 E.42148
G1 X170.623 Y180.06 E.02433
G1 X162.663 Y172.101 E.42148
G1 X162.013 Y172.101 E.02433
G1 X169.973 Y180.06 E.42148
G1 X169.323 Y180.06 E.02433
G1 X161.364 Y172.101 E.42148
G1 X160.714 Y172.101 E.02433
G1 X168.673 Y180.06 E.42148
G1 X168.023 Y180.06 E.02433
G1 X160.064 Y172.101 E.42148
G1 X159.414 Y172.101 E.02433
G1 X167.373 Y180.06 E.42148
M73 P2 R37
G1 X166.724 Y180.06 E.02433
G1 X158.764 Y172.101 E.42148
G1 X158.114 Y172.101 E.02433
G1 X166.074 Y180.06 E.42148
G1 X165.424 Y180.06 E.02433
G1 X157.465 Y172.101 E.42148
G1 X156.815 Y172.101 E.02433
G1 X164.774 Y180.06 E.42147
G1 X164.124 Y180.06 E.02433
G1 X156.165 Y172.101 E.42147
G1 X155.515 Y172.101 E.02433
G1 X163.474 Y180.06 E.42147
G1 X162.825 Y180.06 E.02433
G1 X154.865 Y172.101 E.42147
G1 X154.215 Y172.101 E.02433
G1 X162.175 Y180.06 E.42147
G1 X161.525 Y180.06 E.02433
G1 X153.566 Y172.101 E.42147
G1 X152.916 Y172.101 E.02433
G1 X160.875 Y180.06 E.42147
G1 X160.225 Y180.06 E.02433
G1 X152.266 Y172.101 E.42147
G1 X151.616 Y172.101 E.02433
G1 X159.575 Y180.06 E.42147
G1 X158.925 Y180.06 E.02433
G1 X150.966 Y172.101 E.42147
G1 X150.316 Y172.101 E.02433
G1 X158.276 Y180.06 E.42147
G1 X157.626 Y180.06 E.02433
G1 X149.667 Y172.101 E.42147
G1 X149.017 Y172.101 E.02433
G1 X156.976 Y180.06 E.42147
G1 X156.326 Y180.06 E.02433
G1 X148.367 Y172.101 E.42147
G1 X147.717 Y172.101 E.02433
G1 X155.676 Y180.06 E.42147
G1 X155.026 Y180.06 E.02433
G1 X147.067 Y172.101 E.42147
G1 X146.417 Y172.101 E.02433
G1 X154.377 Y180.06 E.42147
G1 X153.727 Y180.06 E.02433
G1 X145.768 Y172.101 E.42147
G1 X145.118 Y172.101 E.02433
G1 X153.077 Y180.06 E.42147
G1 X152.427 Y180.06 E.02433
G1 X144.468 Y172.101 E.42146
G1 X143.818 Y172.101 E.02433
G1 X151.777 Y180.06 E.42146
G1 X151.127 Y180.06 E.02433
G1 X143.168 Y172.101 E.42146
G1 X142.518 Y172.101 E.02433
G1 X150.477 Y180.06 E.42146
G1 X149.828 Y180.06 E.02433
G1 X141.868 Y172.101 E.42146
G1 X141.219 Y172.101 E.02433
G1 X149.178 Y180.06 E.42146
G1 X148.528 Y180.06 E.02433
G1 X140.569 Y172.101 E.42146
G1 X139.919 Y172.101 E.02433
G1 X147.878 Y180.06 E.42146
G1 X147.228 Y180.06 E.02433
G1 X139.269 Y172.101 E.42146
G1 X138.619 Y172.101 E.02433
G1 X146.578 Y180.06 E.42146
G1 X145.929 Y180.06 E.02433
G1 X137.969 Y172.101 E.42146
G1 X137.32 Y172.101 E.02433
G1 X145.279 Y180.06 E.42146
G1 X144.629 Y180.06 E.02433
G1 X136.67 Y172.101 E.42146
G1 X136.02 Y172.101 E.02433
G1 X143.979 Y180.06 E.42146
G1 X143.329 Y180.06 E.02433
G1 X135.37 Y172.101 E.42146
G1 X134.72 Y172.101 E.02433
G1 X142.679 Y180.06 E.42146
G1 X142.029 Y180.06 E.02433
G1 X134.07 Y172.101 E.42146
G1 X133.421 Y172.101 E.02433
G1 X141.38 Y180.06 E.42146
G1 X140.73 Y180.06 E.02433
G1 X132.771 Y172.101 E.42146
G1 X132.121 Y172.101 E.02433
G1 X140.08 Y180.06 E.42145
G1 X139.43 Y180.06 E.02433
G1 X131.471 Y172.101 E.42145
G1 X130.821 Y172.101 E.02433
G1 X138.78 Y180.06 E.42145
G1 X138.13 Y180.06 E.02433
G1 X130.171 Y172.101 E.42145
G1 X129.522 Y172.101 E.02433
G1 X137.48 Y180.06 E.42145
G1 X136.831 Y180.06 E.02433
G1 X128.872 Y172.101 E.42145
G1 X128.222 Y172.101 E.02433
G1 X136.181 Y180.06 E.42145
G1 X135.531 Y180.06 E.02433
G1 X127.572 Y172.101 E.42145
G1 X126.922 Y172.101 E.02433
G1 X134.881 Y180.06 E.42145
G1 X134.231 Y180.06 E.02433
G1 X126.272 Y172.101 E.42145
G1 X125.623 Y172.101 E.02433
G1 X133.581 Y180.06 E.42145
G1 X132.932 Y180.06 E.02433
G1 X124.973 Y172.101 E.42145
G1 X124.323 Y172.101 E.02433
G1 X132.282 Y180.06 E.42145
G1 X131.632 Y180.06 E.02433
G1 X123.673 Y172.101 E.42145
G1 X123.023 Y172.101 E.02433
G1 X130.982 Y180.06 E.42145
G1 X130.332 Y180.06 E.02433
G1 X122.373 Y172.101 E.42145
G1 X121.724 Y172.101 E.02433
G1 X129.682 Y180.059 E.42145
G1 X129.032 Y180.059 E.02433
G1 X121.074 Y172.101 E.42145
G1 X120.424 Y172.101 E.02433
G1 X128.383 Y180.059 E.42144
G1 X127.733 Y180.059 E.02433
G1 X119.774 Y172.101 E.42144
G1 X119.124 Y172.101 E.02433
G1 X127.083 Y180.059 E.42144
G1 X126.433 Y180.059 E.02433
G1 X118.474 Y172.101 E.42144
G1 X117.824 Y172.101 E.02433
G1 X125.783 Y180.059 E.42144
G1 X125.133 Y180.059 E.02433
G1 X117.175 Y172.101 E.42144
G1 X116.525 Y172.101 E.02433
G1 X124.484 Y180.059 E.42144
G1 X123.834 Y180.059 E.02433
G1 X115.875 Y172.101 E.42144
G1 X115.225 Y172.101 E.02433
G1 X123.184 Y180.059 E.42144
G1 X122.534 Y180.059 E.02433
G1 X114.575 Y172.101 E.42144
G1 X113.925 Y172.101 E.02433
G1 X121.884 Y180.059 E.42144
G1 X121.234 Y180.059 E.02433
G1 X113.276 Y172.101 E.42144
G1 X112.626 Y172.101 E.02433
G1 X120.584 Y180.059 E.42144
G1 X119.935 Y180.059 E.02433
G1 X111.976 Y172.101 E.42144
G1 X111.619 Y172.101 E.01338
G1 X111.619 Y172.393 E.01095
G1 X119.285 Y180.059 E.40595
G1 X118.635 Y180.059 E.02433
G1 X111.619 Y173.043 E.37154
G1 X111.619 Y173.693 E.02433
G1 X117.985 Y180.059 E.33713
G1 X117.335 Y180.059 E.02433
G1 X111.619 Y174.343 E.30271
G1 X111.619 Y174.993 E.02433
G1 X116.685 Y180.059 E.2683
G1 X116.035 Y180.059 E.02433
G1 X111.619 Y175.642 E.23389
G1 X111.619 Y176.292 E.02433
G1 X115.386 Y180.059 E.19948
G1 X114.736 Y180.059 E.02433
G1 X111.619 Y176.942 E.16507
G1 X111.619 Y177.592 E.02433
G1 X114.086 Y180.059 E.13066
G1 X113.436 Y180.059 E.02433
G1 X111.619 Y178.242 E.09624
G1 X111.619 Y178.892 E.02433
G1 X112.786 Y180.059 E.06183
G1 X112.136 Y180.059 E.02433
G1 X111.413 Y179.336 E.03831
; stop printing object Post.stl id:0 copy 0
; printing object Post.stl id:1 copy 0
G1 E-.8 F3000
EXCLUDE_OBJECT_END NAME=Post.stl_id_0_copy_0
EXCLUDE_OBJECT_START NAME=Post.stl_id_1_copy_0
G1 X109.905 Y148.226 F12000
G1 E.8 F1800
;TYPE:Outer wall
;WIDTH:0.5
G1 F3000
G1 X220.133 Y148.225 E4.10559
G1 X220.12 Y159.613 E.42417
G1 X109.905 Y159.612 E4.10511
G1 X109.905 Y148.266 E.42257
G1 X110.362 Y148.682 F12000
;TYPE:Inner wall
G1 F3000
G1 X219.675 Y148.682 E4.07152
G1 X219.663 Y159.156 E.39012
G1 X110.362 Y159.155 E4.07108
G1 X110.362 Y148.722 E.38857
G1 X110.819 Y149.139 F12000
G1 F3000
G1 X219.218 Y149.139 E4.03746
M73 P3 R37
G1 X219.207 Y158.699 E.35607
G1 X110.819 Y158.697 E4.03705
G1 X110.819 Y149.179 E.35452
G1 X111.276 Y149.596 F12000
G1 F3000
G1 X218.76 Y149.596 E4.00339
G1 X218.75 Y158.242 E.32202
G1 X111.276 Y158.24 E4.00302
G1 X111.276 Y149.636 E.32047
G1 E-.8
G1 X217.694 Y149.733 F12000
G1 E.8 F1800
;TYPE:Bottom surface
;WIDTH:0.502425
G1 F6300
G1 X218.416 Y150.456 E.03826
G1 X218.416 Y151.105 E.0243
G1 X217.25 Y149.939 E.06174
G1 X216.6 Y149.939 E.02433
G1 X218.415 Y151.754 E.09612
G1 X218.414 Y152.403 E.0243
G1 X215.95 Y149.939 E.13049
G1 X215.3 Y149.939 E.02433
