; HEADER_BLOCK_START
; generated by OrcaSlicer 1.6.3 on 2023-06-28 at 11:23:59
; total layer number: 109
; HEADER_BLOCK_END

; THUMBNAIL_BLOCK_START
; THUMBNAIL_BLOCK_END

; external perimeters extrusion width = 0.40mm
; perimeters extrusion width = 0.45mm
; infill extrusion width = 0.45mm
; solid infill extrusion width = 0.40mm
; top infill extrusion width = 0.40mm
; first layer extrusion width = 0.50mm

; EXECUTABLE_BLOCK_START
EXCLUDE_OBJECT_DEFINE NAME=Post.stl_id_0_copy_0 CENTER=170,160 POLYGON=[[114.515,154.131],[114.519,154.094],[114.529,154.059],[114.547,154.025],[114.57,153.995],[114.599,153.969],[114.632,153.948],[114.669,153.932],[114.709,153.922],[114.749,153.919],[225.485,153.919],[225.485,153.921],[225.471,165.975],[225.471,166.052],[225.471,166.078],[225.471,166.081],[114.749,166.081],[114.731,166.08],[114.709,166.078],[114.693,166.075],[114.677,166.07],[114.669,166.068],[114.643,166.058],[114.632,166.052],[114.612,166.04],[114.599,166.031],[114.584,166.019],[114.57,166.005],[114.56,165.993],[114.547,165.975],[114.541,165.965],[114.529,165.941],[114.527,165.934],[114.519,165.906],[114.518,165.902],[114.515,165.869],[114.515,154.131]]
M73 P0 R21
;TYPE:Custom
START_PRINT T_BED=60 T_EXTRUDER=220
G90
G21
M83 ; use relative distances for extrusion
; filament start gcode

    PRESSURE_ADVANCE_SELECT FILAMENT=PLA
M106 S0
;LAYER_CHANGE
;Z:0.2
;HEIGHT:0.2
;BEFORE_LAYER_CHANGE
;0.2
G92 E0

M204 S1000
G1 E-.8 F3600
G1 X112.643 Y151.86 F9000
G1 Z.2
G1 E.8 F3600
;TYPE:Skirt
;WIDTH:0.5
G1 F3000
G1 X113.517 Y151.295 E.03874
G1 X114.485 Y151.054 E.03716
G1 X225.485 Y151.042 E4.13432
G1 X226.946 Y151.435 E.05638
G1 X228.014 Y152.508 E.05638
G1 X228.399 Y153.959 E.05592
G1 X228.385 Y166.047 E.45024
G1 X227.99 Y167.509 E.05638
G1 X226.916 Y168.575 E.05638
G1 X225.471 Y168.958 E.05567
G1 X114.749 Y168.958 E4.12396
G1 X114.027 Y168.873 E.02707
G1 X113.548 Y168.717 E.01879
G1 X112.667 Y168.162 E.03879
G1 X112.275 Y167.737 E.02153
G1 X111.976 Y167.262 E.02093
G1 X111.764 Y166.724 E.02152
G1 X111.658 Y166.179 E.02069
G1 X111.658 Y153.821 E.46029
G1 X111.764 Y153.276 E.02069
G1 X111.976 Y152.738 E.02152
G1 X112.607 Y151.908 E.03886
G1 X112.95 Y152.198 F9000
G1 F3000
G1 X113.695 Y151.716 E.03304
G1 X114.521 Y151.509 E.03172
G1 X225.485 Y151.499 E4.13297
G1 X226.816 Y151.891 E.05169
G1 X227.722 Y152.941 E.05169
G1 X227.942 Y153.959 E.03877
G1 X227.928 Y166.047 E.45024
G1 X227.534 Y167.378 E.05169
G1 X226.483 Y168.283 E.05169
G1 X225.471 Y168.501 E.03856
G1 X114.749 Y168.501 E4.12396
G1 X113.726 Y168.297 E.03887
G1 X112.974 Y167.823 E.03308
G1 X112.382 Y167.052 E.03619
G1 X112.113 Y166.135 E.03561
G1 X112.113 Y153.865 E.45702
G1 X112.382 Y152.948 E.03561
G1 X112.914 Y152.246 E.03278
; printing object Post.stl id:0 copy 0
EXCLUDE_OBJECT_START NAME=Post.stl_id_0_copy_0
G1 E-.8 F3600
G1 X114.906 Y154.308 F9000
G1 E.8 F3600
;TYPE:Outer wall
;WIDTH:0.499999
G1 F3000
G1 X225.134 Y154.306 E4.10559
M73 P1 R21
G1 X225.128 Y160.007 E.21233
G1 X225.121 Y165.694 E.21184
G1 X114.906 Y165.692 E4.1051
M73 P1 R20
G1 X114.906 Y154.368 E.42181
G1 X114.986 Y154.31
G1 X115.363 Y154.765 F9000
;TYPE:Inner wall
G1 F3000
G1 X224.677 Y154.763 E4.07152
G1 X224.671 Y160.006 E.19528
G1 X224.665 Y165.237 E.19484
G1 X115.363 Y165.235 E4.07107
G1 X115.363 Y154.825 E.38776
G1 X115.82 Y155.222 F9000
G1 F3000
G1 X224.219 Y155.22 E4.03745
G1 X224.214 Y160.005 E.17824
G1 X224.208 Y164.78 E.17783
G1 X115.82 Y164.778 E4.03704
M73 P2 R20
G1 X115.82 Y155.282 E.35371
G1 E-.8 F3600
G1 X223.154 Y155.357 F9000
G1 E.8 F3600
;TYPE:Bottom surface
;WIDTH:0.501954
G1 F6300
G1 X223.875 Y156.079 E.03817
G1 X223.875 Y156.727 E.02425
G1 X222.71 Y155.563 E.06159
G1 X222.061 Y155.563 E.02428
G1 X223.874 Y157.376 E.09589
G1 X223.873 Y158.024 E.02425
G1 X221.412 Y155.563 E.13019
G1 X220.763 Y155.563 E.02428
G1 X223.872 Y158.672 E.16449
G1 X223.872 Y159.321 E.02425
G1 X220.114 Y155.563 E.19879
G1 X219.464 Y155.563 E.02428
G1 X223.871 Y159.969 E.2331
G1 X223.87 Y160.618 E.02425
G1 X218.815 Y155.563 E.2674
G1 X218.166 Y155.563 E.02428
G1 X223.869 Y161.266 E.3017
G1 X223.869 Y161.915 E.02425
G1 X217.517 Y155.563 E.336
G1 X216.868 Y155.563 E.02428
G1 X223.868 Y162.563 E.3703
G1 X223.867 Y163.211 E.02425
G1 X216.219 Y155.563 E.4046
G1 X215.569 Y155.563 E.02428
G1 X223.866 Y163.86 E.4389
G1 X223.866 Y164.437 E.02159
G1 X223.794 Y164.437 E.00267
G1 X214.92 Y155.563 E.46944
G1 X214.271 Y155.563 E.02428
G1 X223.145 Y164.437 E.46944
G1 X222.496 Y164.437 E.02428
G1 X213.622 Y155.563 E.46943
G1 X212.973 Y155.563 E.02428
G1 X221.847 Y164.437 E.46943
G1 X221.198 Y164.437 E.02428
G1 X212.324 Y155.563 E.46943
G1 X211.674 Y155.563 E.02428
G1 X220.549 Y164.437 E.46943
G1 X219.899 Y164.437 E.02428
G1 X211.025 Y155.563 E.46943
G1 X210.376 Y155.563 E.02428
G1 X219.25 Y164.437 E.46943
G1 X218.601 Y164.437 E.02428
G1 X209.727 Y155.563 E.46943
G1 X209.078 Y155.563 E.02428
G1 X217.952 Y164.437 E.46943
G1 X217.303 Y164.437 E.02428
G1 X208.429 Y155.563 E.46943
G1 X207.779 Y155.563 E.02428
G1 X216.653 Y164.437 E.46942
G1 X216.004 Y164.437 E.02428
G1 X207.13 Y155.563 E.46942
G1 X206.481 Y155.563 E.02428
G1 X215.355 Y164.437 E.46942
G1 X214.706 Y164.437 E.02428
G1 X205.832 Y155.563 E.46942
G1 X205.183 Y155.563 E.02428
G1 X214.057 Y164.437 E.46942
G1 X213.408 Y164.437 E.02428
G1 X204.534 Y155.563 E.46942
G1 X203.885 Y155.563 E.02428
G1 X212.758 Y164.437 E.46942
G1 X212.109 Y164.437 E.02428
G1 X203.235 Y155.563 E.46942
G1 X202.586 Y155.563 E.02428
G1 X211.46 Y164.437 E.46942
G1 X210.811 Y164.437 E.02428
G1 X201.937 Y155.563 E.46942
G1 X201.288 Y155.563 E.02428
G1 X210.162 Y164.437 E.46941
G1 X209.512 Y164.437 E.02428
G1 X200.639 Y155.563 E.46941
G1 X199.99 Y155.563 E.02428
G1 X208.863 Y164.437 E.46941
G1 X208.214 Y164.437 E.02428
G1 X199.34 Y155.563 E.46941
G1 X198.691 Y155.563 E.02428
G1 X207.565 Y164.437 E.46941
G1 X206.916 Y164.437 E.02428
G1 X198.042 Y155.563 E.46941
G1 X197.393 Y155.563 E.02428
G1 X206.267 Y164.437 E.46941
G1 X205.617 Y164.437 E.02428
G1 X196.744 Y155.563 E.46941
G1 X196.095 Y155.563 E.02428
G1 X204.968 Y164.437 E.46941
G1 X204.319 Y164.437 E.02428
G1 X195.445 Y155.563 E.4694
G1 X194.796 Y155.563 E.02428
G1 X203.67 Y164.437 E.4694
G1 X203.021 Y164.437 E.02428
G1 X194.147 Y155.563 E.4694
M73 P3 R20
G1 X193.498 Y155.563 E.02428
G1 X202.371 Y164.437 E.4694
G1 X201.722 Y164.437 E.02428
G1 X192.849 Y155.563 E.4694
G1 X192.2 Y155.563 E.02428
G1 X201.073 Y164.437 E.4694
G1 X200.424 Y164.437 E.02428
G1 X191.55 Y155.563 E.4694
G1 X190.901 Y155.563 E.02428
G1 X199.775 Y164.437 E.4694
G1 X199.125 Y164.437 E.02428
G1 X190.252 Y155.563 E.4694
G1 X189.603 Y155.563 E.02428
G1 X198.476 Y164.437 E.4694
G1 X197.827 Y164.437 E.02428
G1 X188.954 Y155.563 E.46939
G1 X188.305 Y155.563 E.02428
G1 X197.178 Y164.437 E.46939
G1 X196.529 Y164.437 E.02428
G1 X187.655 Y155.563 E.46939
G1 X187.006 Y155.563 E.02428
G1 X195.88 Y164.437 E.46939
G1 X195.23 Y164.437 E.02428
G1 X186.357 Y155.563 E.46939
G1 X185.708 Y155.563 E.02428
G1 X194.581 Y164.437 E.46939
G1 X193.932 Y164.437 E.02428
G1 X185.059 Y155.563 E.46939
G1 X184.41 Y155.563 E.02428
G1 X193.283 Y164.437 E.46939
G1 X192.634 Y164.437 E.02428
G1 X183.76 Y155.563 E.46939
G1 X183.111 Y155.563 E.02428
G1 X191.984 Y164.437 E.46938
G1 X191.335 Y164.437 E.02428
G1 X182.462 Y155.563 E.46938
G1 X181.813 Y155.564 E.02428
G1 X190.686 Y164.437 E.46938
G1 X190.037 Y164.437 E.02428
G1 X181.164 Y155.564 E.46938
G1 X180.515 Y155.564 E.02428
G1 X189.388 Y164.437 E.46938
G1 X188.739 Y164.437 E.02428
G1 X179.866 Y155.564 E.46938
G1 X179.216 Y155.564 E.02428
G1 X188.089 Y164.437 E.46938
G1 X187.44 Y164.437 E.02428
G1 X178.567 Y155.564 E.46938
G1 X177.918 Y155.564 E.02428
G1 X186.791 Y164.437 E.46938
G1 X186.142 Y164.437 E.02428
G1 X177.269 Y155.564 E.46938
G1 X176.62 Y155.564 E.02428
G1 X185.493 Y164.437 E.46937
G1 X184.843 Y164.437 E.02428
G1 X175.971 Y155.564 E.46937
G1 X175.321 Y155.564 E.02428
G1 X184.194 Y164.437 E.46937
G1 X183.545 Y164.437 E.02428
G1 X174.672 Y155.564 E.46937
G1 X174.023 Y155.564 E.02428
G1 X182.896 Y164.437 E.46937
G1 X182.247 Y164.437 E.02428
G1 X173.374 Y155.564 E.46937
G1 X172.725 Y155.564 E.02428
G1 X181.598 Y164.436 E.46937
G1 X180.948 Y164.436 E.02428
G1 X172.076 Y155.564 E.46937
G1 X171.426 Y155.564 E.02428
G1 X180.299 Y164.436 E.46937
G1 X179.65 Y164.436 E.02428
G1 X170.777 Y155.564 E.46936
G1 X170.128 Y155.564 E.02428
G1 X179.001 Y164.436 E.46936
G1 X178.352 Y164.436 E.02428
G1 X169.479 Y155.564 E.46936
G1 X168.83 Y155.564 E.02428
G1 X177.702 Y164.436 E.46936
G1 X177.053 Y164.436 E.02428
G1 X168.181 Y155.564 E.46936
G1 X167.531 Y155.564 E.02428
G1 X176.404 Y164.436 E.46936
G1 X175.755 Y164.436 E.02428
G1 X166.882 Y155.564 E.46936
G1 X166.233 Y155.564 E.02428
G1 X175.106 Y164.436 E.46936
G1 X174.457 Y164.436 E.02428
G1 X165.584 Y155.564 E.46936
G1 X164.935 Y155.564 E.02428
G1 X173.807 Y164.436 E.46935
G1 X173.158 Y164.436 E.02428
G1 X164.286 Y155.564 E.46935
G1 X163.636 Y155.564 E.02428
G1 X172.509 Y164.436 E.46935
G1 X171.86 Y164.436 E.02428
G1 X162.987 Y155.564 E.46935
G1 X162.338 Y155.564 E.02428
G1 X171.211 Y164.436 E.46935
G1 X170.561 Y164.436 E.02428
G1 X161.689 Y155.564 E.46935
G1 X161.04 Y155.564 E.02428
G1 X169.912 Y164.436 E.46935
G1 X169.263 Y164.436 E.02428
G1 X160.391 Y155.564 E.46935
G1 X159.741 Y155.564 E.02428
G1 X168.614 Y164.436 E.46935
M73 P4 R20
G1 X167.965 Y164.436 E.02428
G1 X159.092 Y155.564 E.46935
G1 X158.443 Y155.564 E.02428
G1 X167.316 Y164.436 E.46934
G1 X166.666 Y164.436 E.02428
G1 X157.794 Y155.564 E.46934
G1 X157.145 Y155.564 E.02428
G1 X166.017 Y164.436 E.46934
G1 X165.368 Y164.436 E.02428
G1 X156.496 Y155.564 E.46934
G1 X155.847 Y155.564 E.02428
G1 X164.719 Y164.436 E.46934
G1 X164.07 Y164.436 E.02428
G1 X155.197 Y155.564 E.46934
G1 X154.548 Y155.564 E.02428
G1 X163.42 Y164.436 E.46934
G1 X162.771 Y164.436 E.02428
G1 X153.899 Y155.564 E.46934
G1 X153.25 Y155.564 E.02428
G1 X162.122 Y164.436 E.46934
G1 X161.473 Y164.436 E.02428
G1 X152.601 Y155.564 E.46933
G1 X151.952 Y155.564 E.02428
G1 X160.824 Y164.436 E.46933
G1 X160.175 Y164.436 E.02428
G1 X151.302 Y155.564 E.46933
G1 X150.653 Y155.564 E.02428
G1 X159.525 Y164.436 E.46933
G1 X158.876 Y164.436 E.02428
G1 X150.004 Y155.564 E.46933
G1 X149.355 Y155.564 E.02428
G1 X158.227 Y164.436 E.46933
G1 X157.578 Y164.436 E.02428
G1 X148.706 Y155.564 E.46933
G1 X148.057 Y155.564 E.02428
G1 X156.929 Y164.436 E.46933
G1 X156.279 Y164.436 E.02428
G1 X147.407 Y155.564 E.46933
G1 X146.758 Y155.564 E.02428
G1 X155.63 Y164.436 E.46933
G1 X154.981 Y164.436 E.02428
G1 X146.109 Y155.564 E.46932
G1 X145.46 Y155.564 E.02428
G1 X154.332 Y164.436 E.46932
G1 X153.683 Y164.436 E.02428
G1 X144.811 Y155.564 E.46932
G1 X144.162 Y155.564 E.02428
G1 X153.034 Y164.436 E.46932
G1 X152.384 Y164.436 E.02428
G1 X143.512 Y155.564 E.46932
G1 X142.863 Y155.564 E.02428
G1 X151.735 Y164.436 E.46932
G1 X151.086 Y164.436 E.02428
G1 X142.214 Y155.564 E.46932
G1 X141.565 Y155.564 E.02428
G1 X150.437 Y164.436 E.46932
G1 X149.788 Y164.436 E.02428
G1 X140.916 Y155.564 E.46932
G1 X140.267 Y155.564 E.02428
G1 X149.138 Y164.436 E.46931
G1 X148.489 Y164.436 E.02428
G1 X139.617 Y155.564 E.46931
G1 X138.968 Y155.564 E.02428
G1 X147.84 Y164.436 E.46931
G1 X147.191 Y164.436 E.02428
G1 X138.319 Y155.564 E.46931
G1 X137.67 Y155.564 E.02428
G1 X146.542 Y164.436 E.46931
G1 X145.893 Y164.436 E.02428
G1 X137.021 Y155.564 E.46931
G1 X136.372 Y155.564 E.02428
G1 X145.243 Y164.436 E.46931
G1 X144.594 Y164.436 E.02428
G1 X135.722 Y155.564 E.46931
G1 X135.073 Y155.564 E.02428
G1 X143.945 Y164.436 E.46931
G1 X143.296 Y164.436 E.02428
G1 X134.424 Y155.564 E.46931
G1 X133.775 Y155.564 E.02428
G1 X142.647 Y164.436 E.4693
G1 X141.997 Y164.436 E.02428
G1 X133.126 Y155.564 E.4693
G1 X132.477 Y155.564 E.02428
G1 X141.348 Y164.436 E.4693
G1 X140.699 Y164.436 E.02428
G1 X131.828 Y155.564 E.4693
G1 X131.178 Y155.564 E.02428
G1 X140.05 Y164.436 E.4693
G1 X139.401 Y164.436 E.02428
G1 X130.529 Y155.564 E.4693
G1 X129.88 Y155.564 E.02428
G1 X138.752 Y164.436 E.4693
G1 X138.102 Y164.436 E.02428
G1 X129.231 Y155.564 E.4693
G1 X128.582 Y155.564 E.02428
G1 X137.453 Y164.436 E.4693
G1 X136.804 Y164.436 E.02428
G1 X127.933 Y155.564 E.46929
G1 X127.283 Y155.564 E.02428
G1 X136.155 Y164.436 E.46929
G1 X135.506 Y164.436 E.02428
G1 X126.634 Y155.564 E.46929
G1 X125.985 Y155.564 E.02428
G1 X134.856 Y164.436 E.46929
G1 X134.207 Y164.436 E.02428
G1 X125.336 Y155.564 E.46929
M73 P5 R20
G1 X124.687 Y155.564 E.02428
G1 X133.558 Y164.436 E.46929
G1 X132.909 Y164.436 E.02428
G1 X124.038 Y155.564 E.46929
G1 X123.388 Y155.564 E.02428
G1 X132.26 Y164.436 E.46929
G1 X131.611 Y164.436 E.02428
G1 X122.739 Y155.564 E.46929
G1 X122.09 Y155.564 E.02428
G1 X130.961 Y164.436 E.46929
G1 X130.312 Y164.436 E.02428
G1 X121.441 Y155.564 E.46928
G1 X120.792 Y155.564 E.02428
G1 X129.663 Y164.436 E.46928
G1 X129.014 Y164.436 E.02428
G1 X120.143 Y155.564 E.46928
G1 X119.493 Y155.564 E.02428
G1 X128.365 Y164.436 E.46928
G1 X127.715 Y164.436 E.02428
G1 X118.844 Y155.564 E.46928
G1 X118.195 Y155.564 E.02428
G1 X127.066 Y164.436 E.46928
G1 X126.417 Y164.436 E.02428
G1 X117.546 Y155.564 E.46928
G1 X116.897 Y155.564 E.02428
G1 X125.768 Y164.436 E.46928
G1 X125.119 Y164.436 E.02428
G1 X116.248 Y155.565 E.46928
G1 X116.163 Y155.565 E.00318
G1 X116.163 Y156.129 E.02111
G1 X124.47 Y164.436 E.43943
G1 X123.82 Y164.436 E.02428
G1 X116.163 Y156.778 E.40509
G1 X116.163 Y157.427 E.02428
G1 X123.171 Y164.436 E.37074
G1 X122.522 Y164.436 E.02428
G1 X116.163 Y158.076 E.3364
G1 X116.163 Y158.725 E.02428
G1 X121.873 Y164.436 E.30206
G1 X121.224 Y164.436 E.02428
G1 X116.163 Y159.375 E.26772
G1 X116.163 Y160.024 E.02428
G1 X120.574 Y164.436 E.23338
G1 X119.925 Y164.436 E.02428
G1 X116.163 Y160.673 E.19904
G1 X116.163 Y161.322 E.02428
G1 X119.276 Y164.436 E.1647
G1 X118.627 Y164.436 E.02428
G1 X116.163 Y161.971 E.13036
G1 X116.163 Y162.62 E.02428
G1 X117.978 Y164.436 E.09601
G1 X117.329 Y164.435 E.02428
G1 X116.163 Y163.27 E.06167
G1 X116.163 Y163.919 E.02428
G1 X116.885 Y164.641 E.03821
; stop printing object Post.stl id:0 copy 0
EXCLUDE_OBJECT_END NAME=Post.stl_id_0_copy_0
M106 S255
;LAYER_CHANGE
;Z:0.4
;HEIGHT:0.2
;BEFORE_LAYER_CHANGE
;0.4
G92 E0

M204 S6000
; printing object Post.stl id:0 copy 0
EXCLUDE_OBJECT_START NAME=Post.stl_id_0_copy_0
G1 E-.8 F3600
G1 X114.716 Y154.178 Z.4 F9000
G1 E.8 F3600
;TYPE:Outer wall
;WIDTH:0.399999
G1 F10081.802
G1 X114.756 Y154.122 E.002
G1 X115.189 Y154.122 E.0126
G1 X224.848 Y154.119 E3.19079
G1 X225.284 Y154.119 E.01269
G1 X225.284 Y154.556 E.01272
G1 X225.278 Y159.607 E.14697
G1 X225.278 Y160.007 E.01164
G1 X225.277 Y160.407 E.01164
G1 X225.271 Y165.444 E.14656
G1 X225.271 Y165.881 E.01272
G1 X224.834 Y165.881 E.01272
G1 X115.228 Y165.881 E3.18925
G1 X114.791 Y165.881 E.01272
G1 X114.719 Y165.849 E.00229
G1 X114.719 Y165.412 E.01272
G1 X114.716 Y155.986 E.27427
G1 X114.716 Y155.546 E.0128
G1 X114.716 Y154.238 E.03806
G1 X115.097 Y154.504 F9000
;TYPE:Inner wall
;WIDTH:0.449999
G1 F8843.492
G1 X224.902 Y154.501 E3.64243
G1 X224.896 Y160.006 E.18261
G1 X224.889 Y165.499 E.18221
G1 X115.101 Y165.499 E3.64186
G1 X115.098 Y154.564 E.36273
G1 X115.505 Y154.912 F9000
G1 F8843.492
G1 X224.494 Y154.908 E3.61536
G1 X224.489 Y160.006 E.16911
G1 X224.483 Y165.092 E.16871
G1 X115.508 Y165.092 E3.6149
G1 X115.505 Y154.972 E.3357
G1 X224.364 Y164.249 F9000
;TYPE:Internal solid infill
;WIDTH:0.400237
G1 F10075.087
G1 X223.802 Y164.811 E.02316
G1 X223.296 Y164.811 E.01471
G1 X224.204 Y163.904 E.03737
G1 X224.204 Y163.398 E.01473
G1 X222.791 Y164.811 E.0582
G1 X222.286 Y164.811 E.01471
G1 X224.205 Y162.892 E.07903
G1 X224.206 Y162.386 E.01473
G1 X221.78 Y164.811 E.09987
G1 X221.275 Y164.811 E.01471
G1 X224.206 Y161.88 E.1207
G1 X224.207 Y161.374 E.01473
G1 X220.77 Y164.811 E.14153
G1 X220.264 Y164.811 E.01471
G1 X224.207 Y160.868 E.16236
G1 X224.208 Y160.362 E.01473
G1 X219.759 Y164.811 E.18319
G1 X219.254 Y164.811 E.01471
G1 X224.208 Y159.857 E.20402
G1 X224.209 Y159.351 E.01473
G1 X218.748 Y164.811 E.22486
G1 X218.243 Y164.811 E.01471
G1 X224.21 Y158.845 E.24569
