; HEADER_BLOCK_START
; generated by OrcaSlicer 1.6.6 on 2023-08-31 at 23:12:35
; total layer number: 109
; HEADER_BLOCK_END

; THUMBNAIL_BLOCK_START
; THUMBNAIL_BLOCK_END

; external perimeters extrusion width = 0.40mm
; perimeters extrusion width = 0.46mm
; infill extrusion width = 0.64mm
; solid infill extrusion width = 0.56mm
; top infill extrusion width = 0.40mm
; support material extrusion width = 0.46mm
; first layer extrusion width = 0.50mm

; external perimeters extrusion width = 0.40mm
; perimeters extrusion width = 0.46mm
; infill extrusion width = 0.64mm
; solid infill extrusion width = 0.56mm
; top infill extrusion width = 0.40mm
; support material extrusion width = 0.46mm
; first layer extrusion width = 0.50mm

; external perimeters extrusion width = 0.40mm
; perimeters extrusion width = 0.46mm
; infill extrusion width = 0.64mm
; solid infill extrusion width = 0.56mm
; top infill extrusion width = 0.40mm
; support material extrusion width = 0.46mm
; first layer extrusion width = 0.50mm

; EXECUTABLE_BLOCK_START
EXCLUDE_OBJECT_DEFINE NAME=Post.stl_id_0_copy_0 CENTER=187.096,164.999 POLYGON=[[181.048,109.748],[181.049,109.73],[181.051,109.707],[181.054,109.691],[181.061,109.668],[181.071,109.642],[181.076,109.631],[181.088,109.611],[181.097,109.598],[181.11,109.583],[181.123,109.569],[181.135,109.559],[181.153,109.545],[181.163,109.54],[181.187,109.528],[181.194,109.526],[181.222,109.518],[181.226,109.517],[181.259,109.514],[192.933,109.514],[192.969,109.518],[193.005,109.528],[193.038,109.545],[193.068,109.569],[193.094,109.598],[193.116,109.631],[193.131,109.668],[193.141,109.707],[193.144,109.748],[193.144,220.484],[193.142,220.484],[181.153,220.47],[181.076,220.47],[181.051,220.47],[181.048,220.47],[181.048,109.748]]
EXCLUDE_OBJECT_DEFINE NAME=Post.stl_id_1_copy_0 CENTER=165,164.999 POLYGON=[[158.952,109.748],[158.953,109.73],[158.955,109.707],[158.958,109.691],[158.965,109.668],[158.975,109.642],[158.98,109.631],[158.992,109.611],[159.001,109.598],[159.014,109.583],[159.027,109.569],[159.039,109.559],[159.058,109.545],[159.067,109.54],[159.091,109.528],[159.098,109.526],[159.126,109.518],[159.13,109.517],[159.163,109.514],[170.837,109.514],[170.874,109.518],[170.909,109.528],[170.942,109.545],[170.973,109.569],[170.999,109.598],[171.02,109.631],[171.035,109.668],[171.045,109.707],[171.048,109.748],[171.048,220.484],[171.046,220.484],[159.058,220.47],[158.98,220.47],[158.955,220.47],[158.952,220.47],[158.952,109.748]]
EXCLUDE_OBJECT_DEFINE NAME=Post.stl_id_2_copy_0 CENTER=142.904,164.999 POLYGON=[[136.856,109.748],[136.857,109.73],[136.859,109.707],[136.862,109.691],[136.869,109.668],[136.879,109.642],[136.884,109.631],[136.896,109.611],[136.906,109.598],[136.918,109.583],[136.932,109.569],[136.943,109.559],[136.962,109.545],[136.971,109.54],[136.995,109.528],[137.002,109.526],[137.031,109.518],[137.034,109.517],[137.067,109.514],[148.741,109.514],[148.778,109.518],[148.813,109.528],[148.847,109.545],[148.877,109.569],[148.903,109.598],[148.924,109.631],[148.939,109.668],[148.949,109.707],[148.952,109.748],[148.952,220.484],[148.95,220.484],[136.962,220.47],[136.884,220.47],[136.859,220.47],[136.856,220.47],[136.856,109.748]]
M73 P0 R57
;TYPE:Custom
START_PRINT T_BED=60 T_EXTRUDER=220
G90
G21
M83 ; use relative distances for extrusion
; filament start gcode

    PRESSURE_ADVANCE_SELECT FILAMENT=PLA
M106 S0
;LAYER_CHANGE
;Z:0.2
;HEIGHT:0.2
;BEFORE_LAYER_CHANGE
;0.2
G92 E0

SET_VELOCITY_LIMIT ACCEL=5000 ACCEL_TO_DECEL=2500
G1 E-.8 F1800
G1 X135.428 Y222.989 F12000
G1 Z.2
G1 E.8 F1800
;TYPE:Skirt
;WIDTH:0.5
G1 F3000
G1 X134.362 Y221.914 E.05638
G1 X133.979 Y220.47 E.05567
G1 X133.979 Y109.748 E4.12396
G1 X134.063 Y109.03 E.02693
G1 X134.23 Y108.521 E.01994
G1 X134.77 Y107.672 E.03748
G1 X135.193 Y107.278 E.02153
G1 X135.669 Y106.978 E.02097
G1 X136.178 Y106.773 E.02045
G1 X137.067 Y106.64 E.03347
G1 X192.944 Y106.641 E2.0812
G1 X193.612 Y106.719 E.02503
G1 X194.331 Y106.978 E.02848
G1 X195.209 Y107.648 E.04114
G1 X195.783 Y108.552 E.03987
G1 X195.937 Y109.03 E.01871
G1 X196.021 Y109.748 E.02693
G1 X196.021 Y220.483 E4.12448
G1 X195.628 Y221.945 E.05638
G1 X194.555 Y223.013 E.05638
G1 X193.107 Y223.398 E.0558
G1 X136.889 Y223.384 E2.09391
G1 X135.467 Y222.999 E.05489
G1 X135.601 Y222.546 F12000
G1 F3000
G1 X135.559 Y222.533 E.00162
G1 X134.654 Y221.482 E.05169
G1 X134.436 Y220.47 E.03856
G1 X134.436 Y109.748 E4.12396
G1 X134.638 Y108.729 E.03869
G1 X135.109 Y107.978 E.03301
G1 X135.473 Y107.639 E.01852
G1 X136.308 Y107.211 E.03496
G1 X137.067 Y107.097 E.02858
G1 X181.259 Y107.097 E1.64598
G1 X192.944 Y107.099 E.43522
G1 X193.466 Y107.155 E.01955
G1 X194.149 Y107.398 E.027
G1 X194.891 Y107.978 E.03509
G1 X195.349 Y108.698 E.03179
G1 X195.554 Y109.521 E.03158
G1 X195.564 Y220.483 E4.13293
G1 X195.173 Y221.815 E.05169
G1 X194.122 Y222.721 E.05169
G1 X193.107 Y222.941 E.03866
G1 X136.89 Y222.927 E2.09389
G1 X135.639 Y222.557 E.04858
; printing object Post.stl id:2 copy 0
G1 E-.8 F1800
EXCLUDE_OBJECT_START NAME=Post.stl_id_2_copy_0
G1 X148.564 Y109.906 F12000
G1 E.8 F1800
;TYPE:Outer wall
G1 F3000
G1 X148.566 Y220.133 E4.10555
G1 X137.243 Y220.12 E.42174
G1 X137.243 Y109.906 E4.10507
G3 X148.524 Y109.905 I5.651 J1826.575 E.42018
G1 X148.107 Y110.363 F12000
;TYPE:Inner wall
G1 F3000
G1 X148.108 Y219.675 E4.07149
G1 X137.7 Y219.663 E.38769
G1 X137.7 Y110.362 E4.07108
G1 X148.067 Y110.363 E.38613
G1 X147.65 Y110.82 F12000
G1 F3000
G1 X147.651 Y219.218 E4.03742
G1 X138.157 Y219.207 E.35364
G1 X138.157 Y110.819 E4.03705
G1 X147.61 Y110.82 E.35208
G1 X147.193 Y111.277 F12000
G1 F3000
G1 X147.194 Y218.76 E4.00335
G1 X138.614 Y218.75 E.31959
G1 X138.614 Y111.276 E4.00301
M73 P1 R57
G1 X147.153 Y111.277 E.31804
G1 X147.056 Y112.342 F12000
;TYPE:Bottom surface
;WIDTH:0.502124
G1 F6300
G1 X146.333 Y111.619 E.03825
G1 X145.683 Y111.619 E.0243
G1 X146.85 Y112.786 E.06174
G1 X146.85 Y113.435 E.0243
G1 X145.034 Y111.619 E.09611
G1 X144.384 Y111.619 E.0243
G1 X146.85 Y114.085 E.13048
G1 X146.85 Y114.734 E.0243
G1 X143.735 Y111.619 E.16485
G1 X143.085 Y111.619 E.0243
G1 X146.85 Y115.384 E.19922
G1 X146.85 Y116.033 E.0243
G1 X142.436 Y111.619 E.23359
G1 X141.786 Y111.619 E.0243
G1 X146.85 Y116.683 E.26796
G1 X146.85 Y117.332 E.0243
G1 X141.137 Y111.619 E.30233
G1 X140.487 Y111.619 E.0243
G1 X146.85 Y117.981 E.3367
G1 X146.85 Y118.631 E.0243
G1 X139.838 Y111.619 E.37107
G1 X139.189 Y111.619 E.0243
G1 X146.85 Y119.28 E.40544
G1 X146.85 Y119.93 E.0243
G1 X138.957 Y112.036 E.4177
G1 X138.957 Y112.686 E.0243
G1 X146.85 Y120.579 E.4177
G1 X146.85 Y121.229 E.0243
G1 X138.957 Y113.335 E.41771
G1 X138.957 Y113.985 E.0243
G1 X146.85 Y121.878 E.41771
G1 X146.85 Y122.527 E.0243
G1 X138.957 Y114.634 E.41771
G1 X138.957 Y115.283 E.0243
G1 X146.85 Y123.177 E.41771
G1 X146.85 Y123.826 E.0243
G1 X138.957 Y115.933 E.41771
G1 X138.957 Y116.582 E.0243
G1 X146.85 Y124.476 E.41771
G1 X146.85 Y125.125 E.0243
G1 X138.957 Y117.232 E.41771
G1 X138.957 Y117.881 E.0243
G1 X146.85 Y125.774 E.41771
G1 X146.85 Y126.424 E.0243
G1 X138.957 Y118.531 E.41771
G1 X138.957 Y119.18 E.0243
G1 X146.85 Y127.073 E.41771
M73 P1 R56
G1 X146.85 Y127.723 E.0243
G1 X138.957 Y119.829 E.41771
G1 X138.957 Y120.479 E.0243
G1 X146.85 Y128.372 E.41771
G1 X146.85 Y129.022 E.0243
G1 X138.957 Y121.128 E.41771
G1 X138.957 Y121.778 E.0243
G1 X146.85 Y129.671 E.41771
G1 X146.85 Y130.32 E.0243
G1 X138.957 Y122.427 E.41771
G1 X138.957 Y123.076 E.0243
G1 X146.85 Y130.97 E.41771
G1 X146.85 Y131.619 E.0243
G1 X138.957 Y123.726 E.41771
G1 X138.957 Y124.375 E.0243
G1 X146.85 Y132.269 E.41771
G1 X146.85 Y132.918 E.0243
G1 X138.957 Y125.025 E.41771
G1 X138.957 Y125.674 E.0243
G1 X146.85 Y133.568 E.41772
G1 X146.85 Y134.217 E.0243
G1 X138.957 Y126.323 E.41772
G1 X138.957 Y126.973 E.0243
G1 X146.85 Y134.866 E.41772
G1 X146.85 Y135.516 E.0243
G1 X138.957 Y127.622 E.41772
G1 X138.957 Y128.272 E.0243
G1 X146.85 Y136.165 E.41772
G1 X146.85 Y136.815 E.0243
G1 X138.957 Y128.921 E.41772
G1 X138.957 Y129.571 E.0243
G1 X146.85 Y137.464 E.41772
G1 X146.85 Y138.114 E.0243
G1 X138.957 Y130.22 E.41772
G1 X138.957 Y130.869 E.0243
G1 X146.85 Y138.763 E.41772
G1 X146.85 Y139.412 E.0243
G1 X138.957 Y131.519 E.41772
G1 X138.957 Y132.168 E.0243
G1 X146.85 Y140.062 E.41772
G1 X146.85 Y140.711 E.0243
G1 X138.957 Y132.818 E.41772
G1 X138.957 Y133.467 E.0243
G1 X146.85 Y141.361 E.41772
G1 X146.85 Y142.01 E.0243
G1 X138.957 Y134.116 E.41772
G1 X138.957 Y134.766 E.0243
G1 X146.85 Y142.659 E.41772
G1 X146.85 Y143.309 E.0243
G1 X138.957 Y135.415 E.41772
G1 X138.957 Y136.065 E.0243
G1 X146.85 Y143.958 E.41772
G1 X146.85 Y144.608 E.0243
G1 X138.957 Y136.714 E.41772
G1 X138.957 Y137.363 E.0243
G1 X146.85 Y145.257 E.41772
G1 X146.85 Y145.907 E.0243
G1 X138.957 Y138.013 E.41773
G1 X138.957 Y138.662 E.0243
G1 X146.85 Y146.556 E.41773
G1 X146.85 Y147.205 E.0243
G1 X138.957 Y139.312 E.41773
G1 X138.957 Y139.961 E.0243
G1 X146.85 Y147.855 E.41773
G1 X146.85 Y148.504 E.0243
G1 X138.957 Y140.611 E.41773
G1 X138.957 Y141.26 E.0243
G1 X146.85 Y149.154 E.41773
G1 X146.85 Y149.803 E.0243
G1 X138.957 Y141.909 E.41773
G1 X138.957 Y142.559 E.0243
G1 X146.85 Y150.453 E.41773
G1 X146.85 Y151.102 E.0243
G1 X138.957 Y143.208 E.41773
G1 X138.957 Y143.858 E.0243
G1 X146.85 Y151.751 E.41773
G1 X146.85 Y152.401 E.0243
G1 X138.957 Y144.507 E.41773
G1 X138.957 Y145.156 E.0243
G1 X146.851 Y153.05 E.41773
G1 X146.851 Y153.7 E.0243
G1 X138.957 Y145.806 E.41773
G1 X138.957 Y146.455 E.0243
G1 X146.851 Y154.349 E.41773
G1 X146.851 Y154.998 E.0243
G1 X138.957 Y147.105 E.41773
G1 X138.957 Y147.754 E.0243
G1 X146.851 Y155.648 E.41773
G1 X146.851 Y156.297 E.0243
G1 X138.957 Y148.403 E.41773
G1 X138.957 Y149.053 E.0243
G1 X146.851 Y156.947 E.41773
G1 X146.851 Y157.596 E.0243
G1 X138.957 Y149.702 E.41774
G1 X138.957 Y150.352 E.0243
G1 X146.851 Y158.246 E.41774
G1 X146.851 Y158.895 E.0243
G1 X138.957 Y151.001 E.41774
G1 X138.957 Y151.651 E.0243
G1 X146.851 Y159.544 E.41774
G1 X146.851 Y160.194 E.0243
G1 X138.957 Y152.3 E.41774
G1 X138.957 Y152.949 E.0243
G1 X146.851 Y160.843 E.41774
G1 X146.851 Y161.493 E.0243
G1 X138.957 Y153.599 E.41774
G1 X138.957 Y154.248 E.0243
G1 X146.851 Y162.142 E.41774
G1 X146.851 Y162.792 E.0243
G1 X138.957 Y154.898 E.41774
G1 X138.957 Y155.547 E.0243
G1 X146.851 Y163.441 E.41774
G1 X146.851 Y164.09 E.0243
G1 X138.957 Y156.196 E.41774
G1 X138.957 Y156.846 E.0243
G1 X146.851 Y164.74 E.41774
G1 X146.851 Y165.389 E.0243
G1 X138.957 Y157.495 E.41774
G1 X138.957 Y158.145 E.0243
G1 X146.851 Y166.039 E.41774
G1 X146.851 Y166.688 E.0243
G1 X138.957 Y158.794 E.41774
G1 X138.957 Y159.443 E.0243
G1 X146.851 Y167.338 E.41774
G1 X146.851 Y167.987 E.0243
G1 X138.957 Y160.093 E.41774
G1 X138.957 Y160.742 E.0243
G1 X146.851 Y168.636 E.41774
G1 X146.851 Y169.286 E.0243
G1 X138.957 Y161.392 E.41774
G1 X138.957 Y162.041 E.0243
G1 X146.851 Y169.935 E.41775
G1 X146.851 Y170.585 E.0243
G1 X138.957 Y162.691 E.41775
G1 X138.957 Y163.34 E.0243
G1 X146.851 Y171.234 E.41775
G1 X146.851 Y171.883 E.0243
G1 X138.957 Y163.989 E.41775
G1 X138.957 Y164.639 E.0243
G1 X146.851 Y172.533 E.41775
G1 X146.851 Y173.182 E.0243
G1 X138.957 Y165.288 E.41775
G1 X138.957 Y165.938 E.0243
G1 X146.851 Y173.832 E.41775
G1 X146.851 Y174.481 E.0243
G1 X138.957 Y166.587 E.41775
G1 X138.957 Y167.236 E.0243
G1 X146.851 Y175.131 E.41775
G1 X146.851 Y175.78 E.0243
G1 X138.957 Y167.886 E.41775
G1 X138.957 Y168.535 E.0243
G1 X146.851 Y176.429 E.41775
G1 X146.851 Y177.079 E.0243
G1 X138.957 Y169.185 E.41775
G1 X138.957 Y169.834 E.0243
G1 X146.851 Y177.728 E.41775
G1 X146.851 Y178.378 E.0243
G1 X138.957 Y170.484 E.41775
G1 X138.957 Y171.133 E.0243
G1 X146.851 Y179.027 E.41775
G1 X146.851 Y179.677 E.0243
G1 X138.957 Y171.782 E.41775
G1 X138.957 Y172.432 E.0243
G1 X146.851 Y180.326 E.41775
G1 X146.851 Y180.975 E.0243
G1 X138.957 Y173.081 E.41775
G1 X138.957 Y173.731 E.0243
G1 X146.851 Y181.625 E.41775
G1 X146.851 Y182.274 E.0243
G1 X138.957 Y174.38 E.41776
G1 X138.957 Y175.029 E.0243
G1 X146.851 Y182.924 E.41776
G1 X146.851 Y183.573 E.0243
G1 X138.957 Y175.679 E.41776
G1 X138.957 Y176.328 E.0243
G1 X146.851 Y184.223 E.41776
G1 X146.851 Y184.872 E.0243
G1 X138.957 Y176.978 E.41776
G1 X138.957 Y177.627 E.0243
G1 X146.851 Y185.521 E.41776
G1 X146.851 Y186.171 E.0243
G1 X138.957 Y178.276 E.41776
G1 X138.957 Y178.926 E.0243
G1 X146.851 Y186.82 E.41776
G1 X146.851 Y187.47 E.0243
G1 X138.957 Y179.575 E.41776
G1 X138.957 Y180.225 E.0243
G1 X146.851 Y188.119 E.41776
G1 X146.851 Y188.768 E.0243
G1 X138.957 Y180.874 E.41776
G1 X138.957 Y181.524 E.0243
G1 X146.851 Y189.418 E.41776
G1 X146.851 Y190.067 E.0243
G1 X138.957 Y182.173 E.41776
G1 X138.957 Y182.822 E.0243
G1 X146.851 Y190.717 E.41776
G1 X146.851 Y191.366 E.0243
G1 X138.957 Y183.472 E.41776
G1 X138.957 Y184.121 E.0243
G1 X146.851 Y192.016 E.41776
G1 X146.851 Y192.665 E.0243
G1 X138.957 Y184.771 E.41776
G1 X138.957 Y185.42 E.0243
G1 X146.851 Y193.314 E.41776
G1 X146.851 Y193.964 E.0243
G1 X138.957 Y186.069 E.41776
G1 X138.957 Y186.719 E.0243
G1 X146.851 Y194.613 E.41777
G1 X146.851 Y195.263 E.0243
G1 X138.957 Y187.368 E.41777
G1 X138.957 Y188.018 E.0243
G1 X146.851 Y195.912 E.41777
G1 X146.851 Y196.562 E.0243
G1 X138.957 Y188.667 E.41777
G1 X138.957 Y189.316 E.0243
G1 X146.851 Y197.211 E.41777
G1 X146.851 Y197.86 E.0243
G1 X138.957 Y189.966 E.41777
G1 X138.957 Y190.615 E.0243
G1 X146.851 Y198.51 E.41777
G1 X146.851 Y199.159 E.0243
G1 X138.957 Y191.265 E.41777
G1 X138.957 Y191.914 E.0243
G1 X146.851 Y199.809 E.41777
G1 X146.851 Y200.458 E.0243
G1 X138.957 Y192.564 E.41777
G1 X138.957 Y193.213 E.0243
G1 X146.851 Y201.107 E.41777
G1 X146.851 Y201.757 E.0243
G1 X138.957 Y193.862 E.41777
G1 X138.957 Y194.512 E.0243
G1 X146.851 Y202.406 E.41777
G1 X146.851 Y203.056 E.0243
G1 X138.957 Y195.161 E.41777
G1 X138.957 Y195.811 E.0243
G1 X146.851 Y203.705 E.41777
G1 X146.851 Y204.355 E.0243
G1 X138.957 Y196.46 E.41777
G1 X138.957 Y197.109 E.0243
G1 X146.851 Y205.004 E.41777
G1 X146.851 Y205.653 E.0243
G1 X138.957 Y197.759 E.41777
G1 X138.957 Y198.408 E.0243
G1 X146.851 Y206.303 E.41777
G1 X146.851 Y206.952 E.0243
G1 X138.957 Y199.058 E.41778
G1 X138.957 Y199.707 E.0243
G1 X146.851 Y207.602 E.41778
G1 X146.851 Y208.251 E.0243
G1 X138.957 Y200.356 E.41778
G1 X138.957 Y201.006 E.0243
G1 X146.851 Y208.901 E.41778
G1 X146.851 Y209.55 E.0243
G1 X138.957 Y201.655 E.41778
G1 X138.957 Y202.305 E.0243
G1 X146.851 Y210.199 E.41778
G1 X146.851 Y210.849 E.0243
G1 X138.957 Y202.954 E.41778
G1 X138.957 Y203.604 E.0243
G1 X146.851 Y211.498 E.41778
G1 X146.851 Y212.148 E.0243
G1 X138.957 Y204.253 E.41778
G1 X138.957 Y204.902 E.0243
G1 X146.851 Y212.797 E.41778
G1 X146.851 Y213.447 E.0243
G1 X138.957 Y205.552 E.41778
G1 X138.957 Y206.201 E.0243
G1 X146.851 Y214.096 E.41778
G1 X146.851 Y214.745 E.0243
G1 X138.957 Y206.851 E.41778
G1 X138.957 Y207.5 E.0243
G1 X146.851 Y215.395 E.41778
G1 X146.851 Y216.044 E.0243
G1 X138.957 Y208.149 E.41778
G1 X138.957 Y208.799 E.0243
G1 X146.851 Y216.694 E.41778
G1 X146.852 Y217.343 E.0243
G1 X138.957 Y209.448 E.41778
G1 X138.957 Y210.098 E.0243
G1 X146.852 Y217.992 E.41778
G1 X146.852 Y218.417 E.01589
G1 X146.626 Y218.417 E.00842
G1 X138.957 Y210.747 E.40587
G1 X138.957 Y211.396 E.0243
G1 X145.976 Y218.416 E.37147
G1 X145.326 Y218.415 E.02433
G1 X138.957 Y212.046 E.33706
G1 X138.957 Y212.695 E.0243
G1 X144.676 Y218.415 E.30265
G1 X144.026 Y218.414 E.02433
G1 X138.957 Y213.345 E.26825
G1 X138.957 Y213.994 E.0243
G1 X143.376 Y218.413 E.23384
G1 X142.725 Y218.412 E.02433
G1 X138.957 Y214.644 E.19944
G1 X138.957 Y215.293 E.0243
G1 X142.075 Y218.412 E.16503
G1 X141.425 Y218.411 E.02433
G1 X138.957 Y215.942 E.13063
G1 X138.957 Y216.592 E.0243
G1 X140.775 Y218.41 E.09622
G1 X140.125 Y218.409 E.02433
G1 X138.957 Y217.241 E.06181
G1 X138.957 Y217.891 E.0243
G1 X139.681 Y218.614 E.0383
; stop printing object Post.stl id:2 copy 0
; printing object Post.stl id:1 copy 0
G1 E-.8 F1800
EXCLUDE_OBJECT_END NAME=Post.stl_id_2_copy_0
EXCLUDE_OBJECT_START NAME=Post.stl_id_1_copy_0
G1 X170.66 Y109.906 F12000
G1 E.8 F1800
;TYPE:Outer wall
