; generated by SuperSlicer 2.5.59 on 2023-08-29 at 21:22:45 UTC


;
;

;
;
; 

; external perimeters extrusion width = 0.40mm
; perimeters extrusion width = 0.46mm
; infill extrusion width = 0.64mm
; solid infill extrusion width = 0.56mm
; top infill extrusion width = 0.40mm
; support material extrusion width = 0.46mm
; first layer extrusion width = 0.50mm

; external perimeters extrusion width = 0.40mm
; perimeters extrusion width = 0.46mm
; infill extrusion width = 0.64mm
; solid infill extrusion width = 0.56mm
; top infill extrusion width = 0.40mm
; support material extrusion width = 0.46mm
; first layer extrusion width = 0.50mm

; external perimeters extrusion width = 0.40mm
; perimeters extrusion width = 0.46mm
; infill extrusion width = 0.64mm
; solid infill extrusion width = 0.56mm
; top infill extrusion width = 0.40mm
; support material extrusion width = 0.46mm
; first layer extrusion width = 0.50mm

; external perimeters extrusion width = 0.40mm
; perimeters extrusion width = 0.46mm
; infill extrusion width = 0.64mm
; solid infill extrusion width = 0.56mm
; top infill extrusion width = 0.40mm
; support material extrusion width = 0.46mm
; first layer extrusion width = 0.50mm

; external perimeters extrusion width = 0.40mm
; perimeters extrusion width = 0.46mm
; infill extrusion width = 0.64mm
; solid infill extrusion width = 0.56mm
; top infill extrusion width = 0.40mm
; support material extrusion width = 0.46mm
; first layer extrusion width = 0.50mm

; object:{"name":"Post","id":"Post.stl id:0 copy 0","object_center":[115.595845,165.000713,0.000000],"boundingbox_center":[115.595845,165.000713,10.875000],"boundingbox_size":[12.161605,110.969398,21.750000]}
EXCLUDE_OBJECT_DEFINE NAME=Post_stl_id_0_copy_0 CENTER=115.595845,165.000713 POLYGON=[[109.515048,109.516024],[109.517216,109.516024],[109.582272,109.516096],[109.632064,109.516152],[110.213728,109.516816],[121.648232,109.529928],[121.673432,109.529960],[121.676648,109.529976],[121.676648,220.251552],[121.675992,220.269888],[121.673432,220.292160],[121.670352,220.308112],[121.666024,220.323728],[121.663856,220.331536],[121.653536,220.357712],[121.648232,220.368480],[121.636136,220.389008],[121.627024,220.401872],[121.614528,220.416928],[121.600880,220.430688],[121.589208,220.440752],[121.570584,220.454080],[121.560832,220.459936],[121.537080,220.471312],[121.530072,220.473984],[121.501368,220.481872],[121.497712,220.482544],[121.464528,220.485408],[109.727168,220.485408],[109.690336,220.481872],[109.654616,220.471312],[109.621112,220.454080],[109.590824,220.430688],[109.564672,220.401872],[109.543464,220.368480],[109.527840,220.331536],[109.518264,220.292160],[109.515048,220.251552],[109.515048,109.516024]]
; object:{"name":"Post","id":"Post.stl id:1 copy 0","object_center":[183.159912,165.000000,0.000000],"boundingbox_center":[183.159912,165.000000,10.875000],"boundingbox_size":[110.969398,12.161605,21.750000]}
EXCLUDE_OBJECT_DEFINE NAME=Post_stl_id_1_copy_0 CENTER=183.159912,165.000000 POLYGON=[[127.675216,159.131312],[127.678760,159.094480],[127.689320,159.058784],[127.706544,159.025248],[127.729928,158.994960],[127.758760,158.968832],[127.792144,158.947616],[127.829088,158.931984],[127.868472,158.922432],[127.909080,158.919200],[238.644608,158.919200],[238.644608,158.921376],[238.644448,159.070448],[238.630800,170.974752],[238.630704,171.052384],[238.630672,171.077584],[238.630640,171.080800],[127.909080,171.080800],[127.890744,171.080160],[127.868472,171.077584],[127.852528,171.074512],[127.829088,171.068016],[127.802920,171.057680],[127.792144,171.052384],[127.771632,171.040304],[127.758760,171.031168],[127.743704,171.018672],[127.729928,171.005040],[127.719880,170.993360],[127.706544,170.974752],[127.700696,170.964976],[127.689320,170.941232],[127.686648,170.934240],[127.678760,170.905520],[127.678088,170.901872],[127.675216,170.868688],[127.675216,159.131312]]
; object:{"name":"Post","id":"Post.stl id:2 copy 0","object_center":[97.434240,165.000713,0.000000],"boundingbox_center":[97.434240,165.000713,10.875000],"boundingbox_size":[12.161605,110.969398,21.750000]}
EXCLUDE_OBJECT_DEFINE NAME=Post_stl_id_2_copy_0 CENTER=97.434240,165.000713 POLYGON=[[91.353440,109.516024],[91.355608,109.516024],[91.420664,109.516096],[91.470456,109.516152],[92.052128,109.516816],[103.486624,109.529928],[103.511824,109.529960],[103.515048,109.529976],[103.515048,220.251552],[103.514392,220.269888],[103.511824,220.292160],[103.508744,220.308112],[103.504416,220.323728],[103.502248,220.331536],[103.491928,220.357712],[103.486624,220.368480],[103.474536,220.389008],[103.465416,220.401872],[103.452920,220.416928],[103.439272,220.430688],[103.427608,220.440752],[103.408984,220.454080],[103.399224,220.459936],[103.375472,220.471312],[103.368472,220.473984],[103.339760,220.481872],[103.336104,220.482544],[103.302928,220.485408],[91.565560,220.485408],[91.528736,220.481872],[91.493008,220.471312],[91.459504,220.454080],[91.429216,220.430688],[91.403072,220.401872],[91.381856,220.368480],[91.366232,220.331536],[91.356656,220.292160],[91.353440,220.251552],[91.353440,109.516024]]
; object:{"name":"Post","id":"Post.stl id:3 copy 0","object_center":[183.159912,146.838395,0.000000],"boundingbox_center":[183.159912,146.838395,10.875000],"boundingbox_size":[110.969398,12.161605,21.750000]}
EXCLUDE_OBJECT_DEFINE NAME=Post_stl_id_3_copy_0 CENTER=183.159912,146.838395 POLYGON=[[127.675216,140.969712],[127.678760,140.932880],[127.689320,140.897168],[127.706544,140.863648],[127.729928,140.833360],[127.758760,140.807216],[127.792144,140.786016],[127.829088,140.770384],[127.868472,140.760816],[127.909080,140.757600],[238.644608,140.757600],[238.644608,140.759760],[238.644448,140.908848],[238.630800,152.813136],[238.630704,152.890784],[238.630672,152.915968],[238.630640,152.919184],[127.909080,152.919184],[127.890744,152.918544],[127.872528,152.916448],[127.868472,152.915968],[127.852528,152.912896],[127.836896,152.908576],[127.829088,152.906400],[127.802920,152.896080],[127.792144,152.890784],[127.771632,152.878688],[127.758760,152.869568],[127.743704,152.857072],[127.729928,152.843424],[127.719880,152.831760],[127.706544,152.813136],[127.700696,152.803376],[127.689320,152.779632],[127.686648,152.772624],[127.678760,152.743920],[127.678088,152.740272],[127.675216,152.707072],[127.675216,140.969712]]
; object:{"name":"Post","id":"Post.stl id:4 copy 0","object_center":[183.160440,183.161605,0.000000],"boundingbox_center":[183.160440,183.161605,10.875000],"boundingbox_size":[110.969398,12.161605,21.750000]}
EXCLUDE_OBJECT_DEFINE NAME=Post_stl_id_4_copy_0 CENTER=183.160440,183.161605 POLYGON=[[127.675752,177.292928],[127.679288,177.256096],[127.689848,177.220384],[127.707080,177.186864],[127.730464,177.156576],[127.759296,177.130432],[127.792680,177.109216],[127.829624,177.093600],[127.869000,177.084032],[127.909616,177.080816],[238.645136,177.080816],[238.645136,177.082976],[238.645104,177.116160],[238.645024,177.197808],[238.631264,189.199728],[238.631200,189.242400],[127.909616,189.242400],[127.891280,189.241760],[127.869000,189.239184],[127.853056,189.236112],[127.829624,189.229616],[127.803448,189.219280],[127.792680,189.213984],[127.772160,189.201904],[127.759296,189.192784],[127.744240,189.180288],[127.730464,189.166640],[127.720416,189.154976],[127.707080,189.136352],[127.701232,189.126592],[127.689848,189.102848],[127.687176,189.095840],[127.679288,189.067120],[127.678616,189.063472],[127.675752,189.030288],[127.675752,177.292928]]
; plater:{"center":[164.999288,165.000713,0.000000],"boundingbox_center":[164.999288,165.000713,10.875000],"boundingbox_size":[147.291702,110.969398,21.750000]}

M73 P0 R81
;TYPE:Custom
; custom gcode: start_gcode
START_PRINT T_BED=60 T_EXTRUDER=210
; custom gcode end: start_gcode
M107
G21 ; set units to millimeters
G90 ; use absolute coordinates
M82 ; use absolute distances for extrusion
G92 E0
; custom gcode: start_filament_gcode
; Filament gcode

    PRESSURE_ADVANCE_SELECT FILAMENT=PLA
; custom gcode end: start_filament_gcode
;_TOOLCHANGE 0
M109 S210 ; set temperature and wait for it to be reached
M190 S60 ; set bed temperature and wait for it to be reached
;LAYER_CHANGE
;Z:0.2
;HEIGHT:0.2
G1 Z0.2 F18000
G1 E-0.8 F2400
M204 S1000
G1 X89.269 Y106.637 F18000
G1 E0 F1800
;TYPE:Skirt
;WIDTH:0.52
G1 F3000
G1 X88.169 Y107.95 E0.06793
G1 X87.774 Y109.616 E0.13586
G1 X87.774 Y220.235 E4.52406
G1 X87.987 Y221.476 E4.57396
G1 X89.52 Y223.445 E4.67297
G1 X91.563 Y224.058 E4.75761
G1 X121.445 Y224.061 E5.943
G1 X122.403 Y223.935 E5.98133
G1 X239.489 Y192.696 E10.78853
G1 X240.749 Y192.087 E10.84403
G1 X241.85 Y190.776 E10.91196
G1 X242.247 Y189.11 E10.97989
G1 X242.26 Y140.894 E12.89258
G1 X241.996 Y139.518 E12.94819
G1 X241.012 Y138.116 E13.01612
G1 X239.504 Y137.305 E13.08406
G1 X122.499 Y106.04 E17.88839
G1 X121.544 Y105.914 E17.9266
G1 X109.656 Y105.901 E18.3982
G1 X91.49 Y105.901 E19.11883
G1 X89.269 Y106.637 E19.21165
G1 X89.647 Y106.988 F18000
G1 F3000
G1 X88.645 Y108.068 E19.2701
G1 X88.252 Y109.616 E19.33346
G1 X88.252 Y220.235 E23.72166
G1 X88.44 Y221.326 E23.76555
G1 X89.776 Y223.043 E23.85185
G1 X91.563 Y223.581 E23.9259
G1 X121.445 Y223.584 E25.11129
G1 X122.28 Y223.474 E25.1447
G1 X239.366 Y192.235 E29.9519
G1 X240.287 Y191.827 E29.99186
G1 X241.374 Y190.657 E30.05522
G1 X241.77 Y189.109 E30.11858
G1 X241.783 Y140.894 E32.03124
G1 X241.626 Y139.897 E32.0713
G1 X240.774 Y138.546 E32.13465
G1 X239.38 Y137.766 E32.19801
G1 X122.376 Y106.501 E37.00234
G1 X121.544 Y106.391 E37.03565
G1 X109.655 Y106.378 E37.50725
G1 X91.49 Y106.378 E38.22785
G1 X89.731 Y106.897 E38.30061
G1 X89.647 Y106.988 E38.30552
G92 E0
G1 E-0.8 F2400
; printing object Post.stl id:0 copy 0
EXCLUDE_OBJECT_START NAME=Post_stl_id_0_copy_0
; acceleration to travel
M204 S15000
G1 X119.312 Y109.699 F18000
; decel to extrusion
M204 S1000
G1 X121.29 Y109.88
; end travel
G1 E0 F1800
;TYPE:External perimeter
;WIDTH:0.5
G1 F3000
G1 X121.287 Y220.095 E4.18888
M73 P0 R80
G1 X109.902 Y220.092 E4.62161
G1 X109.902 Y109.866 E8.81088
G1 X110.035 Y109.867 E8.81594
G1 X121.29 Y109.88 E9.24371
;WIPE_START
M204 S15000
G1 X121.09 Y110.226 F18000
;WIPE_END
M204 S1000
G1 X120.833 Y110.336
;TYPE:Internal perimeter
G1 F3000
G1 X120.83 Y219.638 E13.39786
M73 P1 R80
G1 X110.359 Y219.635 E13.79584
G1 X110.359 Y110.324 E17.95035
G1 X120.833 Y110.336 E18.34844
G1 X120.376 Y110.793 F18000
G1 F3000
G1 X120.373 Y219.181 E22.46786
G1 X110.816 Y219.178 E22.8311
G1 X110.816 Y110.782 E26.95085
G1 X120.376 Y110.793 E27.31419
G1 X120.239 Y111.854 F18000
;TYPE:Solid infill
;WIDTH:0.501942
G1 F3600
G1 X119.314 Y110.929 E27.3641
G1 X118.666 Y110.928 F18000
G1 F3600
G1 X120.239 Y112.5 E27.44893
G1 X120.239 Y113.146 F18000
G1 F3600
G1 X118.019 Y110.927 E27.56868
G1 X117.372 Y110.926 F18000
G1 F3600
G1 X120.239 Y113.793 E27.72335
G1 X120.239 Y114.439 F18000
G1 F3600
G1 X116.725 Y110.926 E27.91293
G1 X116.078 Y110.925 F18000
G1 F3600
G1 X120.239 Y115.086 E28.13744
G1 X120.239 Y115.732 F18000
G1 F3600
G1 X115.431 Y110.924 E28.39686
G1 X114.784 Y110.923 F18000
G1 F3600
G1 X120.239 Y116.378 E28.6912
G1 X120.239 Y117.025 F18000
G1 F3600
G1 X114.136 Y110.923 E29.02045
G1 X113.489 Y110.922 F18000
G1 F3600
G1 X120.239 Y117.671 E29.38463
G1 X120.239 Y118.317 F18000
G1 F3600
G1 X112.842 Y110.921 E29.78372
G1 X112.195 Y110.92 F18000
G1 F3600
G1 X120.238 Y118.964 E30.21773
G1 X120.238 Y119.61 F18000
G1 F3600
G1 X111.548 Y110.92 E30.68666
G1 X110.953 Y110.971 F18000
G1 F3600
G1 X120.238 Y120.257 E31.18768
G1 X120.238 Y120.903 F18000
G1 F3600
G1 X110.953 Y111.618 E31.68871
G1 X110.953 Y112.264 F18000
G1 F3600
G1 X120.238 Y121.549 E32.18973
G1 X120.238 Y122.196 F18000
G1 F3600
G1 X110.953 Y112.91 E32.69075
G1 X110.953 Y113.557 F18000
G1 F3600
G1 X120.238 Y122.842 E33.19177
G1 X120.238 Y123.489 F18000
G1 F3600
G1 X110.953 Y114.203 E33.69279
G1 X110.953 Y114.85 F18000
G1 F3600
G1 X120.238 Y124.135 E34.19381
G1 X120.238 Y124.781 F18000
G1 F3600
G1 X110.953 Y115.496 E34.69483
G1 X110.953 Y116.142 F18000
G1 F3600
G1 X120.238 Y125.428 E35.19585
G1 X120.238 Y126.074 F18000
G1 F3600
G1 X110.953 Y116.789 E35.69686
G1 X110.953 Y117.435 F18000
G1 F3600
G1 X120.238 Y126.721 E36.19788
G1 X120.238 Y127.367 F18000
G1 F3600
G1 X110.953 Y118.082 E36.6989
G1 X110.953 Y118.728 F18000
G1 F3600
G1 X120.238 Y128.013 E37.19991
G1 X120.238 Y128.66 F18000
G1 F3600
G1 X110.953 Y119.374 E37.70092
G1 X110.953 Y120.021 F18000
G1 F3600
G1 X120.238 Y129.306 E38.20194
G1 X120.238 Y129.953 F18000
G1 F3600
G1 X110.953 Y120.667 E38.70295
G1 X110.953 Y121.314 F18000
G1 F3600
G1 X120.238 Y130.599 E39.20396
G1 X120.238 Y131.245 F18000
G1 F3600
G1 X110.953 Y121.96 E39.70497
G1 X110.953 Y122.606 F18000
G1 F3600
G1 X120.238 Y131.892 E40.20598
G1 X120.238 Y132.538 F18000
G1 F3600
G1 X110.953 Y123.253 E40.70699
G1 X110.953 Y123.899 F18000
G1 F3600
G1 X120.238 Y133.184 E41.20799
G1 X120.238 Y133.831 F18000
G1 F3600
G1 X110.953 Y124.546 E41.709
G1 X110.953 Y125.192 F18000
G1 F3600
G1 X120.238 Y134.477 E42.21001
G1 X120.238 Y135.124 F18000
G1 F3600
G1 X110.953 Y125.839 E42.71101
G1 X110.953 Y126.485 F18000
G1 F3600
G1 X120.238 Y135.77 E43.21202
G1 X120.238 Y136.416 F18000
G1 F3600
G1 X110.953 Y127.131 E43.71302
G1 X110.953 Y127.778 F18000
G1 F3600
G1 X120.238 Y137.063 E44.21402
G1 X120.238 Y137.709 F18000
G1 F3600
G1 X110.953 Y128.424 E44.71502
G1 X110.953 Y129.071 F18000
G1 F3600
G1 X120.238 Y138.356 E45.21603
G1 X120.238 Y139.002 F18000
G1 F3600
G1 X110.953 Y129.717 E45.71703
G1 X110.953 Y130.363 F18000
G1 F3600
G1 X120.238 Y139.648 E46.21802
G1 X120.238 Y140.295 F18000
G1 F3600
G1 X110.953 Y131.01 E46.71902
G1 X110.953 Y131.656 F18000
G1 F3600
G1 X120.238 Y140.941 E47.22002
G1 X120.238 Y141.588 F18000
G1 F3600
G1 X110.953 Y132.303 E47.72102
G1 X110.953 Y132.949 F18000
G1 F3600
G1 X120.238 Y142.234 E48.22201
G1 X120.238 Y142.88 F18000
G1 F3600
G1 X110.953 Y133.595 E48.72301
G1 X110.953 Y134.242 F18000
G1 F3600
G1 X120.238 Y143.527 E49.224
G1 X120.238 Y144.173 F18000
G1 F3600
G1 X110.953 Y134.888 E49.725
G1 X110.953 Y135.535 F18000
G1 F3600
G1 X120.238 Y144.82 E50.22599
G1 X120.238 Y145.466 F18000
G1 F3600
G1 X110.953 Y136.181 E50.72698
G1 X110.953 Y136.827 F18000
G1 F3600
G1 X120.238 Y146.112 E51.22797
G1 X120.238 Y146.759 F18000
G1 F3600
G1 X110.953 Y137.474 E51.72896
G1 X110.953 Y138.12 F18000
G1 F3600
G1 X120.238 Y147.405 E52.22995
G1 X120.238 Y148.051 F18000
G1 F3600
G1 X110.953 Y138.767 E52.73094
G1 X110.953 Y139.413 F18000
G1 F3600
G1 X120.238 Y148.698 E53.23193
G1 X120.238 Y149.344 F18000
G1 F3600
G1 X110.953 Y140.059 E53.73291
G1 X110.953 Y140.706 F18000
G1 F3600
G1 X120.238 Y149.991 E54.2339
G1 X120.238 Y150.637 F18000
G1 F3600
G1 X110.953 Y141.352 E54.73488
G1 X110.953 Y141.999 F18000
G1 F3600
G1 X120.238 Y151.283 E55.23587
G1 X120.238 Y151.93 F18000
G1 F3600
G1 X110.953 Y142.645 E55.73685
G1 X110.953 Y143.292 F18000
G1 F3600
G1 X120.238 Y152.576 E56.23783
G1 X120.238 Y153.223 F18000
G1 F3600
G1 X110.953 Y143.938 E56.73881
G1 X110.953 Y144.584 F18000
G1 F3600
G1 X120.238 Y153.869 E57.2398
G1 X120.238 Y154.515 F18000
G1 F3600
G1 X110.953 Y145.231 E57.74078
G1 X110.953 Y145.877 F18000
G1 F3600
G1 X120.238 Y155.162 E58.24175
G1 X120.238 Y155.808 F18000
G1 F3600
G1 X110.953 Y146.524 E58.74273
G1 X110.953 Y147.17 F18000
G1 F3600
G1 X120.238 Y156.455 E59.24371
G1 X120.238 Y157.101 F18000
G1 F3600
G1 X110.953 Y147.816 E59.74469
G1 X110.953 Y148.463 F18000
G1 F3600
G1 X120.238 Y157.747 E60.24566
G1 X120.238 Y158.394 F18000
G1 F3600
G1 X110.953 Y149.109 E60.74664
G1 X110.953 Y149.756 F18000
G1 F3600
G1 X120.238 Y159.04 E61.24761
G1 X120.238 Y159.687 F18000
G1 F3600
G1 X110.953 Y150.402 E61.74858
G1 X110.953 Y151.048 F18000
G1 F3600
G1 X120.237 Y160.333 E62.24956
G1 X120.237 Y160.979 F18000
G1 F3600
G1 X110.953 Y151.695 E62.75053
G1 X110.953 Y152.341 F18000
G1 F3600
G1 X120.237 Y161.626 E63.2515
G1 X120.237 Y162.272 F18000
G1 F3600
G1 X110.953 Y152.988 E63.75247
G1 X110.953 Y153.634 F18000
G1 F3600
G1 X120.237 Y162.919 E64.25344
G1 X120.237 Y163.565 F18000
