; generated by PrusaSlicer 2.6.0+win64 on 2023-06-28 at 17:39:04 UTC


;
;

;
;
; 

; external perimeters extrusion width = 0.40mm
; perimeters extrusion width = 0.46mm
; infill extrusion width = 0.64mm
; solid infill extrusion width = 0.56mm
; top infill extrusion width = 0.40mm
; support material extrusion width = 0.46mm
; first layer extrusion width = 0.50mm

; external perimeters extrusion width = 0.40mm
; perimeters extrusion width = 0.46mm
; infill extrusion width = 0.64mm
; solid infill extrusion width = 0.56mm
; top infill extrusion width = 0.40mm
; support material extrusion width = 0.46mm
; first layer extrusion width = 0.50mm

; external perimeters extrusion width = 0.40mm
; perimeters extrusion width = 0.46mm
; infill extrusion width = 0.64mm
; solid infill extrusion width = 0.56mm
; top infill extrusion width = 0.40mm
; support material extrusion width = 0.46mm
; first layer extrusion width = 0.50mm

; external perimeters extrusion width = 0.40mm
; perimeters extrusion width = 0.46mm
; infill extrusion width = 0.64mm
; solid infill extrusion width = 0.56mm
; top infill extrusion width = 0.40mm
; support material extrusion width = 0.46mm
; first layer extrusion width = 0.50mm

M190 S60 ; set bed temperature and wait for it to be reached


; Pre-Processed for Cancel-Object support by preprocess_cancellation v0.2.0
; 4 known objects
EXCLUDE_OBJECT_DEFINE NAME=Post_stl_id_2_copy_0 CENTER=152.331,137.821 POLYGON=[[109.715,131.877],[109.715,143.638],[220.284,143.638],[220.284,131.877]]
EXCLUDE_OBJECT_DEFINE NAME=Post_stl_id_1_copy_0 CENTER=152.319,156.000 POLYGON=[[109.715,150.038],[109.715,161.8],[220.284,161.8],[220.284,150.038]]
EXCLUDE_OBJECT_DEFINE NAME=Post_stl_id_0_copy_0 CENTER=152.325,174.190 POLYGON=[[109.715,168.2],[109.715,179.962],[220.284,179.962],[220.284,168.2]]
EXCLUDE_OBJECT_DEFINE NAME=Post_stl_id_3_copy_0 CENTER=152.320,192.325 POLYGON=[[109.715,186.362],[109.715,198.123],[220.284,198.123],[220.284,186.362]]
M104 S200 ; set temperature
;TYPE:Custom
START_PRINT T_BED=60 T_EXTRUDER=200
M109 S200 ; set temperature and wait for it to be reached
G21 ; set units to millimeters
G90 ; use absolute coordinates
M83 ; use relative distances for extrusion
; Filament gcode

    PRESSURE_ADVANCE_SELECT FILAMENT=PLA
M107
;LAYER_CHANGE
;Z:0.2
;HEIGHT:0.2
;BEFORE_LAYER_CHANGE
;0.2
G92 E0

G1 Z.2 F9000
;AFTER_LAYER_CHANGE
;0.2
G1 E-.8 F3000
G1 Z.4 F9000
M204 S7000
G1 X106.972 Y128.876
G1 Z.2
G1 E.8 F1800
M204 S1000
;TYPE:Skirt/Brim
;WIDTH:0.5
G1 X107.785 Y128.309 E.03692
G1 X109.715 Y127.802 E.07432
G1 X220.484 Y127.799 E4.12572
G1 X222.197 Y128.194 E.06548
G1 X223.565 Y129.299 E.0655
G1 X224.398 Y131.713 E.09511
G1 X224.384 Y198.291 E2.47978
G1 X223.988 Y200.004 E.06549
G1 X222.881 Y201.37 E.06549
G1 X220.47 Y202.201 E.09498
G1 X109.749 Y202.201 E4.12394
G1 X108.397 Y201.962 E.05114
G1 X106.894 Y201.05 E.06548
G1 X106.256 Y200.243 E.03832
G1 X105.644 Y198.143 E.08147
G1 X105.641 Y131.889 E2.46771
G1 X105.968 Y130.319 E.05973
G1 X106.938 Y128.925 E.06325
M204 S4000
M204 S7000
G1 X107.416 Y129.357 F9000
M204 S1000
G1 F1800
G1 X107.997 Y128.713 E.03231
G1 X109.715 Y128.259 E.06619
G1 X220.484 Y128.256 E4.12572
G1 X222.087 Y128.651 E.06149
G1 X223.325 Y129.743 E.06149
G1 X223.941 Y131.713 E.07688
G1 X223.927 Y198.29 E2.47974
G1 X223.531 Y199.893 E.0615
G1 X222.437 Y201.13 E.06151
G1 X220.47 Y201.744 E.07675
G1 X109.749 Y201.744 E4.12394
G1 X108.54 Y201.528 E.04574
G1 X106.642 Y199.998 E.0908
G1 X106.101 Y198.142 E.07201
G1 X106.098 Y131.889 E2.46767
G1 X106.392 Y130.489 E.05328
G1 X107.375 Y129.401 E.05461
M204 S4000
; printing object Post.stl id:2 copy 0
EXCLUDE_OBJECT_START NAME=Post_stl_id_2_copy_0
G1 E-.8 F3000
G1 Z.4 F9000
M204 S7000
G1 X109.905 Y132.066
G1 Z.2
G1 E.8 F1800
M204 S1000
;TYPE:External perimeter
;WIDTH:0.499999
G1 X220.134 Y132.064 E4.10561
G1 X220.121 Y143.452 E.42416
G1 X109.908 Y143.452 E4.10501
G1 X109.905 Y132.126 E.42185
M204 S4000
G1 X110.305 Y132.08 F9000
M204 S7000
G1 X110.362 Y132.523
M204 S1000
;TYPE:Perimeter
G1 F1800
G1 X219.676 Y132.521 E4.07153
G1 X219.664 Y142.995 E.39012
G1 X110.365 Y142.995 E4.07097
G1 X110.362 Y132.583 E.38781
M204 S4000
M204 S7000
G1 X110.82 Y132.98 F9000
M204 S1000
G1 F1800
G1 X219.218 Y132.978 E4.03741
G1 X219.207 Y142.538 E.35607
G1 X110.822 Y142.538 E4.03692
G1 X110.82 Y133.04 E.35376
M204 S4000
G1 E-.8 F3000
G1 Z.4 F9000
M204 S7000
G1 X218.153 Y133.115
G1 Z.2
G1 E.8 F1800
M204 S1000
;TYPE:Solid infill
;WIDTH:0.50195
G1 X218.875 Y133.836 E.03817
G1 X218.874 Y134.485 E.02428
G1 X217.71 Y133.321 E.06157
G1 X217.06 Y133.321 E.02431
G1 X218.873 Y135.133 E.09588
G1 X218.872 Y135.782 E.02428
G1 X216.411 Y133.321 E.13018
G1 X215.762 Y133.321 E.02428
G1 X218.872 Y136.43 E.16449
G1 X218.871 Y137.078 E.02424
G1 X215.113 Y133.321 E.19877
G1 X214.464 Y133.321 E.02428
G1 X218.87 Y137.727 E.23307
G1 X218.869 Y138.375 E.02424
G1 X213.815 Y133.321 E.26735
G1 X213.166 Y133.321 E.02428
G1 X218.869 Y139.024 E.30168
G1 X218.868 Y139.672 E.02424
G1 X212.516 Y133.321 E.33599
G1 X211.867 Y133.321 E.02428
G1 X218.867 Y140.321 E.37029
G1 X218.866 Y140.969 E.02424
G1 X211.218 Y133.321 E.40457
G1 X210.569 Y133.321 E.02428
G1 X218.866 Y141.617 E.43888
G1 X218.865 Y142.195 E.02162
G1 X218.794 Y142.195 E.00266
G1 X209.92 Y133.321 E.46942
G1 X209.271 Y133.321 E.02428
G1 X218.145 Y142.195 E.46942
G1 X217.496 Y142.195 E.02428
G1 X208.622 Y133.321 E.46942
G1 X207.972 Y133.321 E.02431
G1 X216.846 Y142.195 E.46942
G1 X216.197 Y142.195 E.02428
G1 X207.323 Y133.321 E.46942
G1 X206.674 Y133.321 E.02428
G1 X215.548 Y142.195 E.46942
G1 X214.899 Y142.195 E.02428
G1 X206.025 Y133.321 E.46942
G1 X205.376 Y133.321 E.02428
G1 X214.25 Y142.195 E.46942
G1 X213.601 Y142.195 E.02428
G1 X204.727 Y133.321 E.46942
G1 X204.077 Y133.321 E.02431
G1 X212.951 Y142.195 E.46942
G1 X212.302 Y142.195 E.02428
G1 X203.428 Y133.321 E.46942
G1 X202.779 Y133.321 E.02428
G1 X211.653 Y142.195 E.46942
G1 X211.004 Y142.195 E.02428
G1 X202.13 Y133.321 E.46942
G1 X201.481 Y133.321 E.02428
G1 X210.355 Y142.195 E.46942
G1 X209.706 Y142.195 E.02428
G1 X200.832 Y133.321 E.46942
G1 X200.183 Y133.321 E.02428
G1 X209.056 Y142.195 E.4694
G1 X208.407 Y142.195 E.02428
G1 X199.533 Y133.321 E.46942
G1 X198.884 Y133.321 E.02428
G1 X207.758 Y142.195 E.46942
G1 X207.109 Y142.195 E.02428
G1 X198.235 Y133.321 E.46942
G1 X197.586 Y133.321 E.02428
G1 X206.46 Y142.195 E.46942
G1 X205.811 Y142.195 E.02428
G1 X196.937 Y133.321 E.46942
G1 X196.288 Y133.321 E.02428
G1 X205.161 Y142.195 E.4694
G1 X204.512 Y142.195 E.02428
G1 X195.639 Y133.321 E.4694
G1 X194.989 Y133.321 E.02431
G1 X203.863 Y142.195 E.46942
G1 X203.214 Y142.195 E.02428
G1 X194.34 Y133.321 E.46942
G1 X193.691 Y133.321 E.02428
G1 X202.565 Y142.195 E.46942
G1 X201.916 Y142.195 E.02428
G1 X193.042 Y133.321 E.46942
G1 X192.393 Y133.321 E.02428
G1 X201.266 Y142.195 E.4694
G1 X200.617 Y142.195 E.02428
G1 X191.744 Y133.321 E.4694
G1 X191.094 Y133.321 E.02431
G1 X199.968 Y142.195 E.46942
G1 X199.319 Y142.195 E.02428
G1 X190.445 Y133.321 E.46942
G1 X189.796 Y133.321 E.02428
G1 X198.67 Y142.195 E.46942
G1 X198.021 Y142.195 E.02428
G1 X189.147 Y133.321 E.46942
G1 X188.498 Y133.321 E.02428
G1 X197.371 Y142.195 E.4694
G1 X196.722 Y142.195 E.02428
G1 X187.849 Y133.321 E.4694
G1 X187.2 Y133.321 E.02428
G1 X196.073 Y142.195 E.4694
G1 X195.424 Y142.195 E.02428
G1 X186.55 Y133.321 E.46942
G1 X185.901 Y133.321 E.02428
G1 X194.775 Y142.195 E.46942
G1 X194.126 Y142.195 E.02428
G1 X185.252 Y133.321 E.46942
G1 X184.603 Y133.321 E.02428
G1 X193.476 Y142.195 E.4694
G1 X192.827 Y142.195 E.02428
G1 X183.954 Y133.321 E.4694
G1 X183.305 Y133.321 E.02428
G1 X192.178 Y142.195 E.4694
G1 X191.529 Y142.195 E.02428
G1 X182.655 Y133.321 E.46942
G1 X182.006 Y133.321 E.02428
G1 X190.88 Y142.195 E.46942
G1 X190.231 Y142.195 E.02428
G1 X181.357 Y133.321 E.46942
G1 X180.708 Y133.321 E.02428
G1 X189.581 Y142.195 E.4694
G1 X188.932 Y142.195 E.02428
G1 X180.059 Y133.321 E.4694
G1 X179.41 Y133.321 E.02428
G1 X188.283 Y142.195 E.4694
G1 X187.634 Y142.195 E.02428
G1 X178.761 Y133.321 E.4694
G1 X178.111 Y133.321 E.02431
G1 X186.985 Y142.195 E.46942
G1 X186.336 Y142.195 E.02428
G1 X177.462 Y133.321 E.46942
G1 X176.813 Y133.322 E.02428
G1 X185.686 Y142.195 E.46937
G1 X185.037 Y142.195 E.02428
G1 X176.164 Y133.322 E.46937
G1 X175.515 Y133.322 E.02428
G1 X184.388 Y142.195 E.46937
G1 X183.739 Y142.195 E.02428
G1 X174.866 Y133.322 E.46937
G1 X174.217 Y133.322 E.02428
G1 X183.09 Y142.195 E.46937
G1 X182.441 Y142.195 E.02428
G1 X173.567 Y133.322 E.4694
G1 X172.918 Y133.322 E.02428
G1 X181.791 Y142.195 E.46937
G1 X181.142 Y142.195 E.02428
G1 X172.269 Y133.322 E.46937
G1 X171.62 Y133.322 E.02428
G1 X180.493 Y142.195 E.46937
G1 X179.844 Y142.195 E.02428
G1 X170.971 Y133.322 E.46937
G1 X170.322 Y133.322 E.02428
G1 X179.195 Y142.195 E.46937
G1 X178.546 Y142.195 E.02428
G1 X169.672 Y133.322 E.4694
G1 X169.023 Y133.322 E.02428
G1 X177.896 Y142.195 E.46937
G1 X177.247 Y142.195 E.02428
G1 X168.374 Y133.322 E.46937
G1 X167.725 Y133.322 E.02428
G1 X176.598 Y142.195 E.46937
G1 X175.949 Y142.195 E.02428
G1 X167.076 Y133.322 E.46937
G1 X166.427 Y133.322 E.02428
G1 X175.3 Y142.195 E.46937
G1 X174.651 Y142.195 E.02428
G1 X165.778 Y133.322 E.46937
G1 X165.128 Y133.322 E.02431
G1 X174.001 Y142.195 E.46937
G1 X173.352 Y142.195 E.02428
G1 X164.479 Y133.322 E.46937
G1 X163.83 Y133.322 E.02428
G1 X172.703 Y142.195 E.46937
G1 X172.054 Y142.195 E.02428
G1 X163.181 Y133.322 E.46937
G1 X162.532 Y133.322 E.02428
G1 X171.405 Y142.195 E.46937
G1 X170.756 Y142.195 E.02428
G1 X161.883 Y133.322 E.46937
G1 X161.234 Y133.322 E.02428
G1 X170.106 Y142.195 E.46934
G1 X169.457 Y142.195 E.02428
G1 X160.584 Y133.322 E.46937
G1 X159.935 Y133.322 E.02428
G1 X168.808 Y142.195 E.46937
G1 X168.159 Y142.195 E.02428
G1 X159.286 Y133.322 E.46937
G1 X158.637 Y133.322 E.02428
G1 X167.51 Y142.195 E.46937
G1 X166.861 Y142.195 E.02428
G1 X157.988 Y133.322 E.46937
G1 X157.339 Y133.322 E.02428
G1 X166.211 Y142.195 E.46934
G1 X165.562 Y142.195 E.02428
G1 X156.689 Y133.322 E.46937
G1 X156.04 Y133.322 E.02428
G1 X164.913 Y142.195 E.46937
G1 X164.264 Y142.195 E.02428
G1 X155.391 Y133.322 E.46937
G1 X154.742 Y133.322 E.02428
G1 X163.615 Y142.195 E.46937
G1 X162.966 Y142.195 E.02428
G1 X154.093 Y133.322 E.46937
G1 X153.444 Y133.322 E.02428
G1 X162.316 Y142.195 E.46934
G1 X161.667 Y142.195 E.02428
G1 X152.795 Y133.322 E.46934
G1 X152.145 Y133.322 E.02431
G1 X161.018 Y142.195 E.46937
G1 X160.369 Y142.195 E.02428
G1 X151.496 Y133.322 E.46937
G1 X150.847 Y133.322 E.02428
G1 X159.72 Y142.195 E.46937
G1 X159.071 Y142.195 E.02428
G1 X150.198 Y133.322 E.46937
G1 X149.549 Y133.322 E.02428
G1 X158.421 Y142.195 E.46934
G1 X157.772 Y142.195 E.02428
G1 X148.9 Y133.322 E.46934
G1 X148.251 Y133.322 E.02428
G1 X157.123 Y142.195 E.46934
G1 X156.474 Y142.195 E.02428
G1 X147.601 Y133.322 E.46937
G1 X146.952 Y133.322 E.02428
G1 X155.825 Y142.195 E.46937
G1 X155.176 Y142.195 E.02428
G1 X146.303 Y133.322 E.46937
G1 X145.654 Y133.322 E.02428
G1 X154.526 Y142.195 E.46934
G1 X153.877 Y142.195 E.02428
G1 X145.005 Y133.322 E.46934
G1 X144.356 Y133.322 E.02428
G1 X153.228 Y142.195 E.46934
G1 X152.579 Y142.195 E.02428
G1 X143.706 Y133.322 E.46937
G1 X143.057 Y133.322 E.02428
G1 X151.93 Y142.195 E.46937
G1 X151.281 Y142.195 E.02428
G1 X142.408 Y133.322 E.46937
G1 X141.759 Y133.322 E.02428
G1 X150.631 Y142.195 E.46934
G1 X149.982 Y142.195 E.02428
G1 X141.11 Y133.322 E.46934
G1 X140.461 Y133.322 E.02428
G1 X149.333 Y142.195 E.46934
G1 X148.684 Y142.195 E.02428
G1 X139.812 Y133.322 E.46934
G1 X139.162 Y133.322 E.02431
G1 X148.035 Y142.195 E.46937
G1 X147.386 Y142.195 E.02428
G1 X138.513 Y133.322 E.46937
G1 X137.864 Y133.322 E.02428
G1 X146.736 Y142.195 E.46934
G1 X146.087 Y142.195 E.02428
G1 X137.215 Y133.322 E.46934
G1 X136.566 Y133.322 E.02428
G1 X145.438 Y142.195 E.46934
G1 X144.789 Y142.195 E.02428
G1 X135.917 Y133.322 E.46934
G1 X135.267 Y133.323 E.02431
G1 X144.14 Y142.195 E.46934
G1 X143.491 Y142.195 E.02428
G1 X134.618 Y133.323 E.46934
G1 X133.969 Y133.323 E.02428
G1 X142.841 Y142.195 E.46932
G1 X142.192 Y142.195 E.02428
G1 X133.32 Y133.323 E.46932
G1 X132.671 Y133.323 E.02428
G1 X141.543 Y142.195 E.46932
G1 X140.894 Y142.195 E.02428
G1 X132.022 Y133.323 E.46932
G1 X131.373 Y133.323 E.02428
G1 X140.245 Y142.195 E.46932
G1 X139.596 Y142.195 E.02428
G1 X130.723 Y133.323 E.46934
G1 X130.074 Y133.323 E.02428
G1 X138.946 Y142.195 E.46932
G1 X138.297 Y142.195 E.02428
G1 X129.425 Y133.323 E.46932
G1 X128.776 Y133.323 E.02428
G1 X137.648 Y142.195 E.46932
G1 X136.999 Y142.195 E.02428
G1 X128.127 Y133.323 E.46932
G1 X127.478 Y133.323 E.02428
G1 X136.35 Y142.195 E.46932
G1 X135.701 Y142.195 E.02428
G1 X126.829 Y133.323 E.46932
G1 X126.179 Y133.323 E.02431
G1 X135.051 Y142.195 E.46932
G1 X134.402 Y142.195 E.02428
G1 X125.53 Y133.323 E.46932
G1 X124.881 Y133.323 E.02428
G1 X133.753 Y142.195 E.46932
G1 X133.104 Y142.195 E.02428
G1 X124.232 Y133.323 E.46932
G1 X123.583 Y133.323 E.02428
G1 X132.455 Y142.195 E.46932
G1 X131.806 Y142.195 E.02428
G1 X122.934 Y133.323 E.46932
G1 X122.284 Y133.323 E.02431
G1 X131.156 Y142.195 E.46932
G1 X130.507 Y142.195 E.02428
G1 X121.635 Y133.323 E.46932
G1 X120.986 Y133.323 E.02428
G1 X129.858 Y142.195 E.46932
G1 X129.209 Y142.195 E.02428
G1 X120.337 Y133.323 E.46932
G1 X119.688 Y133.323 E.02428
G1 X128.56 Y142.195 E.46932
G1 X127.911 Y142.195 E.02428
G1 X119.039 Y133.323 E.46932
G1 X118.39 Y133.323 E.02428
G1 X127.261 Y142.195 E.46929
G1 X126.612 Y142.195 E.02428
G1 X117.74 Y133.323 E.46932
G1 X117.091 Y133.323 E.02428
G1 X125.963 Y142.195 E.46932
G1 X125.314 Y142.195 E.02428
G1 X116.442 Y133.323 E.46932
G1 X115.793 Y133.323 E.02428
G1 X124.665 Y142.195 E.46932
G1 X124.016 Y142.195 E.02428
G1 X115.144 Y133.323 E.46932
G1 X114.495 Y133.323 E.02428
G1 X123.366 Y142.195 E.46929
G1 X122.717 Y142.195 E.02428
G1 X113.846 Y133.323 E.46929
G1 X113.196 Y133.323 E.02431
G1 X122.068 Y142.195 E.46932
G1 X121.419 Y142.195 E.02428
G1 X112.547 Y133.323 E.46932
G1 X111.898 Y133.323 E.02428
G1 X120.77 Y142.195 E.46932
G1 X120.121 Y142.195 E.02428
G1 X111.249 Y133.323 E.46932
G1 X111.162 Y133.323 E.00325
G1 X111.163 Y133.886 E.02106
G1 X119.471 Y142.195 E.43951
G1 X118.822 Y142.195 E.02428
G1 X111.163 Y134.535 E.40518
G1 X111.163 Y135.185 E.02431
G1 X118.173 Y142.195 E.37082
G1 X117.524 Y142.195 E.02428
G1 X111.163 Y135.834 E.33649
G1 X111.163 Y136.483 E.02428
G1 X116.875 Y142.195 E.30216
G1 X116.226 Y142.195 E.02428
G1 X111.163 Y137.133 E.2678
G1 X111.164 Y137.782 E.02428
G1 X115.576 Y142.195 E.23342
G1 X114.927 Y142.195 E.02428
G1 X111.164 Y138.431 E.19908
G1 X111.164 Y139.081 E.02431
G1 X114.278 Y142.195 E.16473
G1 X113.629 Y142.195 E.02428
G1 X111.164 Y139.73 E.1304
G1 X111.164 Y140.379 E.02428
G1 X112.98 Y142.195 E.09606
G1 X112.331 Y142.195 E.02428
G1 X111.164 Y141.029 E.06171
G1 X111.165 Y141.678 E.02428
G1 X111.887 Y142.4 E.03819
M204 S4000
; stop printing object Post.stl id:2 copy 0
EXCLUDE_OBJECT_END NAME=Post_stl_id_2_copy_0
; printing object Post.stl id:1 copy 0
EXCLUDE_OBJECT_START NAME=Post_stl_id_1_copy_0
G1 E-.8 F3000
G1 Z.4 F9000
M204 S7000
G1 X109.905 Y150.228
G1 Z.2
G1 E.8 F1800
M204 S1000
;TYPE:External perimeter
;WIDTH:0.499999
G1 X220.134 Y150.225 E4.10561
G1 X220.121 Y161.613 E.42416
G1 X109.908 Y161.613 E4.10501
G1 X109.905 Y150.288 E.42181
M204 S4000
G1 X110.305 Y150.241 F9000
M204 S7000
G1 X110.362 Y150.685
M204 S1000
;TYPE:Perimeter
G1 F1800
G1 X219.676 Y150.682 E4.07153
G1 X219.664 Y161.156 E.39012
G1 X110.365 Y161.156 E4.07097
G1 X110.362 Y150.745 E.38777
M204 S4000
M204 S7000
G1 X110.819 Y151.142 F9000
M204 S1000
G1 F1800
G1 X219.218 Y151.139 E4.03745
G1 X219.207 Y160.699 E.35607
G1 X110.822 Y160.699 E4.03692
G1 X110.819 Y151.202 E.35373
M204 S4000
G1 E-.8 F3000
G1 Z.4 F9000
M204 S7000
G1 X218.153 Y151.276
G1 Z.2
G1 E.8 F1800
M204 S1000
;TYPE:Solid infill
;WIDTH:0.50195
G1 X218.875 Y151.998 E.03819
G1 X218.874 Y152.646 E.02424
G1 X217.71 Y151.482 E.06157
G1 X217.06 Y151.482 E.02431
G1 X218.873 Y153.295 E.09591
G1 X218.872 Y153.943 E.02424
G1 X216.411 Y151.482 E.13018
