; HEADER_BLOCK_START
; generated by OrcaSlicer 1.7.0-beta on 2023-09-30 at 21:56:33
; total layer number: 109
; HEADER_BLOCK_END

; THUMBNAIL_BLOCK_START
; THUMBNAIL_BLOCK_END

; external perimeters extrusion width = 0.40mm
; perimeters extrusion width = 0.46mm
; infill extrusion width = 0.64mm
; solid infill extrusion width = 0.56mm
; top infill extrusion width = 0.40mm
; support material extrusion width = 0.46mm
; first layer extrusion width = 0.50mm

; external perimeters extrusion width = 0.40mm
; perimeters extrusion width = 0.46mm
; infill extrusion width = 0.64mm
; solid infill extrusion width = 0.56mm
; top infill extrusion width = 0.40mm
; support material extrusion width = 0.46mm
; first layer extrusion width = 0.50mm

; EXECUTABLE_BLOCK_START
EXCLUDE_OBJECT_DEFINE NAME=Post.stl_id_0_copy_0 CENTER=160.999,168.081 POLYGON=[[105.514,162.212],[105.518,162.175],[105.528,162.14],[105.545,162.106],[105.569,162.076],[105.598,162.05],[105.631,162.028],[105.668,162.013],[105.707,162.003],[105.748,162],[216.484,162],[216.484,162.002],[216.47,174.056],[216.47,174.133],[216.47,174.158],[216.47,174.162],[105.748,174.162],[105.73,174.161],[105.707,174.158],[105.691,174.155],[105.676,174.151],[105.668,174.149],[105.642,174.138],[105.631,174.133],[105.611,174.121],[105.598,174.112],[105.583,174.099],[105.569,174.086],[105.559,174.074],[105.545,174.056],[105.54,174.046],[105.528,174.022],[105.526,174.015],[105.518,173.986],[105.517,173.983],[105.514,173.949],[105.514,162.212]]
EXCLUDE_OBJECT_DEFINE NAME=Post.stl_id_1_copy_0 CENTER=160.999,145.919 POLYGON=[[105.514,140.051],[105.518,140.014],[105.528,139.978],[105.545,139.944],[105.569,139.914],[105.598,139.888],[105.631,139.867],[105.668,139.851],[105.707,139.842],[105.748,139.838],[216.484,139.838],[216.484,139.841],[216.47,151.894],[216.47,151.972],[216.47,151.997],[216.47,152],[105.748,152],[105.73,151.999],[105.707,151.997],[105.691,151.994],[105.676,151.989],[105.668,151.987],[105.642,151.977],[105.631,151.972],[105.611,151.959],[105.598,151.95],[105.583,151.938],[105.569,151.924],[105.559,151.913],[105.545,151.894],[105.54,151.884],[105.528,151.86],[105.526,151.853],[105.518,151.825],[105.517,151.821],[105.514,151.788],[105.514,140.051]]
M73 P0 R39
M73 C32
;TYPE:Custom
START_PRINT T_BED=60 T_EXTRUDER=220
G90
G21
M83 ; use relative distances for extrusion
; filament start gcode

    PRESSURE_ADVANCE_SELECT FILAMENT=PLA
M106 S0
;LAYER_CHANGE
;Z:0.2
;HEIGHT:0.2
;BEFORE_LAYER_CHANGE
;0.2
G92 E0

;_SET_FAN_SPEED_CHANGING_LAYER
SET_VELOCITY_LIMIT ACCEL=5000 ACCEL_TO_DECEL=2500
G1 E-.8 F1800
G1 X103.666 Y137.757 F12000
G1 Z.2
G1 E.8 F1800
;TYPE:Skirt
;WIDTH:0.5
G1 F3000
G1 X104.546 Y137.202 E.03877
G1 X105.026 Y137.046 E.01879
G1 X105.748 Y136.961 E.02706
G1 X216.483 Y136.961 E4.12448
G1 X217.945 Y137.354 E.05638
G1 X219.013 Y138.427 E.05638
G1 X219.398 Y139.875 E.0558
G1 X219.384 Y174.128 E1.2758
G1 X218.989 Y175.59 E.05638
G1 X217.914 Y176.656 E.05638
G1 X216.47 Y177.039 E.05567
G1 X105.748 Y177.039 E4.12396
G1 X104.994 Y176.946 E.02831
G1 X104.062 Y176.544 E.0378
G1 X103.274 Y175.818 E.03992
G1 X102.771 Y174.834 E.04113
G1 X102.64 Y173.949 E.03332
G1 X102.64 Y140.051 E1.26261
G1 X102.771 Y139.165 E.03332
G1 X103.274 Y138.182 E.04113
G1 X103.639 Y137.787 E.02005
G1 X103.97 Y138.149 F12000
G1 F3000
G1 X104.307 Y137.842 E.017
G1 X105.102 Y137.498 E.03225
G1 X105.748 Y137.418 E.02426
G1 X216.483 Y137.418 E4.12448
G1 X217.815 Y137.81 E.05169
G1 X218.721 Y138.86 E.05169
G1 X218.941 Y139.875 E.03866
G1 X218.927 Y174.128 E1.27578
G1 X218.533 Y175.459 E.05169
G1 X217.482 Y176.364 E.05169
G1 X216.47 Y176.582 E.03856
G1 X105.748 Y176.582 E4.12396
G1 X105.102 Y176.502 E.02426
G1 X104.307 Y176.158 E.03225
G1 X103.635 Y175.539 E.03403
G1 X103.21 Y174.705 E.03486
G1 X103.097 Y173.949 E.02845
G1 X103.109 Y139.815 E1.27139
G1 X103.21 Y139.295 E.01972
G1 X103.655 Y138.436 E.03602
G1 X103.94 Y138.176 E.01438
; printing object Post.stl id:0 copy 0
G1 E-.8 F1800
EXCLUDE_OBJECT_START NAME=Post.stl_id_0_copy_0
G1 X105.905 Y162.388 F12000
G1 E.8 F1800
;TYPE:Outer wall
G1 F3000
G1 X216.133 Y162.387 E4.10559
G1 X216.12 Y173.775 E.42417
G1 X105.905 Y173.773 E4.10511
M73 P0 R38
G1 X105.905 Y162.428 E.42257
G1 X106.362 Y162.844 F12000
;TYPE:Inner wall
G1 F3000
G1 X215.675 Y162.844 E4.07153
G1 X215.663 Y173.318 E.39012
G1 X106.362 Y173.316 E4.07108
M73 P1 R38
G1 X106.362 Y162.884 E.38857
G1 X106.819 Y163.301 F12000
G1 F3000
G1 X215.218 Y163.301 E4.03746
G1 X215.207 Y172.861 E.35607
G1 X106.819 Y172.859 E4.03705
G1 X106.819 Y163.341 E.35452
G1 X107.276 Y163.758 F12000
G1 F3000
G1 X214.76 Y163.758 E4.00339
G1 X214.75 Y172.404 E.32202
G1 X107.276 Y172.402 E4.00302
G1 X107.276 Y163.798 E.32047
G1 E-.8 F1800
G1 X213.694 Y163.895 F12000
G1 E.8 F1800
;TYPE:Bottom surface
;WIDTH:0.502425
G1 F6300
G1 X214.416 Y164.618 E.03826
G1 X214.416 Y165.267 E.0243
G1 X213.25 Y164.101 E.06174
G1 X212.6 Y164.101 E.02433
G1 X214.415 Y165.916 E.09612
G1 X214.414 Y166.565 E.0243
G1 X211.95 Y164.101 E.13049
G1 X211.3 Y164.101 E.02433
G1 X214.413 Y167.214 E.16486
G1 X214.413 Y167.863 E.0243
G1 X210.65 Y164.101 E.19923
G1 X210.001 Y164.101 E.02433
G1 X214.412 Y168.512 E.2336
G1 X214.411 Y169.161 E.0243
G1 X209.351 Y164.101 E.26797
G1 X208.701 Y164.101 E.02433
G1 X214.411 Y169.81 E.30235
G1 X214.41 Y170.459 E.0243
G1 X208.051 Y164.101 E.33672
G1 X207.401 Y164.101 E.02433
G1 X214.409 Y171.109 E.37109
G1 X214.408 Y171.758 E.0243
G1 X206.751 Y164.101 E.40546
G1 X206.102 Y164.101 E.02433
G1 X214.062 Y172.061 E.42152
G1 X213.412 Y172.061 E.02433
G1 X205.452 Y164.101 E.42152
G1 X204.802 Y164.101 E.02433
G1 X212.762 Y172.061 E.42152
G1 X212.112 Y172.061 E.02433
G1 X204.152 Y164.101 E.42152
G1 X203.502 Y164.101 E.02433
G1 X211.462 Y172.061 E.42152
G1 X210.812 Y172.061 E.02433
G1 X202.852 Y164.101 E.42152
G1 X202.202 Y164.101 E.02433
G1 X210.163 Y172.061 E.42152
G1 X209.513 Y172.061 E.02433
G1 X201.553 Y164.101 E.42151
G1 X200.903 Y164.101 E.02433
G1 X208.863 Y172.061 E.42151
G1 X208.213 Y172.061 E.02433
G1 X200.253 Y164.101 E.42151
G1 X199.603 Y164.101 E.02433
G1 X207.563 Y172.061 E.42151
G1 X206.913 Y172.061 E.02433
G1 X198.953 Y164.101 E.42151
G1 X198.303 Y164.101 E.02433
G1 X206.263 Y172.061 E.42151
G1 X205.614 Y172.061 E.02433
G1 X197.654 Y164.101 E.42151
G1 X197.004 Y164.101 E.02433
G1 X204.964 Y172.061 E.42151
G1 X204.314 Y172.061 E.02433
G1 X196.354 Y164.101 E.42151
G1 X195.704 Y164.101 E.02433
G1 X203.664 Y172.061 E.42151
G1 X203.014 Y172.061 E.02433
G1 X195.054 Y164.101 E.42151
G1 X194.404 Y164.101 E.02433
G1 X202.364 Y172.061 E.42151
G1 X201.715 Y172.061 E.02433
G1 X193.755 Y164.101 E.42151
G1 X193.105 Y164.101 E.02433
G1 X201.065 Y172.061 E.42151
G1 X200.415 Y172.061 E.02433
G1 X192.455 Y164.101 E.42151
G1 X191.805 Y164.101 E.02433
G1 X199.765 Y172.061 E.42151
G1 X199.115 Y172.061 E.02433
G1 X191.155 Y164.101 E.42151
G1 X190.505 Y164.101 E.02433
G1 X198.465 Y172.061 E.42151
G1 X197.815 Y172.061 E.02433
G1 X189.856 Y164.101 E.42151
G1 X189.206 Y164.101 E.02433
G1 X197.166 Y172.061 E.4215
G1 X196.516 Y172.061 E.02433
G1 X188.556 Y164.101 E.4215
G1 X187.906 Y164.101 E.02433
G1 X195.866 Y172.061 E.4215
G1 X195.216 Y172.061 E.02433
G1 X187.256 Y164.101 E.4215
G1 X186.606 Y164.101 E.02433
G1 X194.566 Y172.061 E.4215
G1 X193.916 Y172.061 E.02433
G1 X185.957 Y164.101 E.4215
G1 X185.307 Y164.101 E.02433
G1 X193.267 Y172.061 E.4215
G1 X192.617 Y172.061 E.02433
G1 X184.657 Y164.101 E.4215
G1 X184.007 Y164.101 E.02433
G1 X191.967 Y172.061 E.4215
G1 X191.317 Y172.061 E.02433
G1 X183.357 Y164.101 E.4215
G1 X182.707 Y164.101 E.02433
G1 X190.667 Y172.061 E.4215
G1 X190.017 Y172.06 E.02433
G1 X182.057 Y164.101 E.4215
G1 X181.408 Y164.101 E.02433
G1 X189.367 Y172.06 E.4215
G1 X188.718 Y172.06 E.02433
G1 X180.758 Y164.101 E.4215
G1 X180.108 Y164.101 E.02433
G1 X188.068 Y172.06 E.4215
G1 X187.418 Y172.06 E.02433
G1 X179.458 Y164.101 E.4215
G1 X178.808 Y164.101 E.02433
G1 X186.768 Y172.06 E.4215
G1 X186.118 Y172.06 E.02433
G1 X178.158 Y164.101 E.4215
G1 X177.509 Y164.101 E.02433
G1 X185.468 Y172.06 E.4215
G1 X184.818 Y172.06 E.02433
G1 X176.859 Y164.101 E.42149
G1 X176.209 Y164.101 E.02433
G1 X184.169 Y172.06 E.42149
G1 X183.519 Y172.06 E.02433
G1 X175.559 Y164.101 E.42149
G1 X174.909 Y164.101 E.02433
G1 X182.869 Y172.06 E.42149
G1 X182.219 Y172.06 E.02433
G1 X174.259 Y164.101 E.42149
G1 X173.61 Y164.101 E.02433
G1 X181.569 Y172.06 E.42149
G1 X180.919 Y172.06 E.02433
G1 X172.96 Y164.101 E.42149
G1 X172.31 Y164.101 E.02433
G1 X180.27 Y172.06 E.42149
G1 X179.62 Y172.06 E.02433
G1 X171.66 Y164.101 E.42149
G1 X171.01 Y164.101 E.02433
G1 X178.97 Y172.06 E.42149
G1 X178.32 Y172.06 E.02433
G1 X170.36 Y164.101 E.42149
G1 X169.711 Y164.101 E.02433
G1 X177.67 Y172.06 E.42149
G1 X177.02 Y172.06 E.02433
G1 X169.061 Y164.101 E.42149
G1 X168.411 Y164.101 E.02433
G1 X176.37 Y172.06 E.42149
G1 X175.721 Y172.06 E.02433
G1 X167.761 Y164.101 E.42149
G1 X167.111 Y164.101 E.02433
G1 X175.071 Y172.06 E.42149
G1 X174.421 Y172.06 E.02433
G1 X166.461 Y164.101 E.42149
G1 X165.812 Y164.101 E.02433
G1 X173.771 Y172.06 E.42149
G1 X173.121 Y172.06 E.02433
G1 X165.162 Y164.101 E.42148
G1 X164.512 Y164.101 E.02433
G1 X172.471 Y172.06 E.42148
G1 X171.822 Y172.06 E.02433
G1 X163.862 Y164.101 E.42148
G1 X163.212 Y164.101 E.02433
G1 X171.172 Y172.06 E.42148
G1 X170.522 Y172.06 E.02433
G1 X162.562 Y164.101 E.42148
G1 X161.913 Y164.101 E.02433
G1 X169.872 Y172.06 E.42148
G1 X169.222 Y172.06 E.02433
G1 X161.263 Y164.101 E.42148
G1 X160.613 Y164.101 E.02433
G1 X168.572 Y172.06 E.42148
G1 X167.922 Y172.06 E.02433
G1 X159.963 Y164.101 E.42148
G1 X159.313 Y164.101 E.02433
G1 X167.273 Y172.06 E.42148
G1 X166.623 Y172.06 E.02433
G1 X158.663 Y164.101 E.42148
G1 X158.013 Y164.101 E.02433
G1 X165.973 Y172.06 E.42148
G1 X165.323 Y172.06 E.02433
G1 X157.364 Y164.101 E.42148
G1 X156.714 Y164.101 E.02433
G1 X164.673 Y172.06 E.42148
G1 X164.023 Y172.06 E.02433
G1 X156.064 Y164.101 E.42148
G1 X155.414 Y164.101 E.02433
G1 X163.373 Y172.06 E.42148
M73 P2 R38
G1 X162.724 Y172.06 E.02433
G1 X154.764 Y164.101 E.42148
G1 X154.114 Y164.101 E.02433
G1 X162.074 Y172.06 E.42148
G1 X161.424 Y172.06 E.02433
G1 X153.465 Y164.101 E.42148
G1 X152.815 Y164.101 E.02433
G1 X160.774 Y172.06 E.42147
G1 X160.124 Y172.06 E.02433
G1 X152.165 Y164.101 E.42147
G1 X151.515 Y164.101 E.02433
G1 X159.474 Y172.06 E.42147
G1 X158.825 Y172.06 E.02433
G1 X150.865 Y164.101 E.42147
G1 X150.215 Y164.101 E.02433
G1 X158.175 Y172.06 E.42147
G1 X157.525 Y172.06 E.02433
G1 X149.566 Y164.101 E.42147
G1 X148.916 Y164.101 E.02433
G1 X156.875 Y172.06 E.42147
G1 X156.225 Y172.06 E.02433
G1 X148.266 Y164.101 E.42147
G1 X147.616 Y164.101 E.02433
G1 X155.575 Y172.06 E.42147
G1 X154.925 Y172.06 E.02433
G1 X146.966 Y164.101 E.42147
G1 X146.316 Y164.101 E.02433
G1 X154.276 Y172.06 E.42147
G1 X153.626 Y172.06 E.02433
G1 X145.667 Y164.101 E.42147
G1 X145.017 Y164.101 E.02433
G1 X152.976 Y172.06 E.42147
G1 X152.326 Y172.06 E.02433
G1 X144.367 Y164.101 E.42147
G1 X143.717 Y164.101 E.02433
G1 X151.676 Y172.06 E.42147
G1 X151.026 Y172.06 E.02433
G1 X143.067 Y164.101 E.42147
G1 X142.417 Y164.101 E.02433
G1 X150.377 Y172.06 E.42147
G1 X149.727 Y172.06 E.02433
G1 X141.768 Y164.101 E.42147
G1 X141.118 Y164.101 E.02433
G1 X149.077 Y172.06 E.42147
G1 X148.427 Y172.06 E.02433
G1 X140.468 Y164.101 E.42146
G1 X139.818 Y164.101 E.02433
G1 X147.777 Y172.06 E.42146
G1 X147.127 Y172.06 E.02433
G1 X139.168 Y164.101 E.42146
G1 X138.518 Y164.101 E.02433
G1 X146.477 Y172.06 E.42146
G1 X145.828 Y172.06 E.02433
G1 X137.868 Y164.101 E.42146
G1 X137.219 Y164.101 E.02433
G1 X145.178 Y172.06 E.42146
G1 X144.528 Y172.06 E.02433
G1 X136.569 Y164.101 E.42146
G1 X135.919 Y164.101 E.02433
G1 X143.878 Y172.06 E.42146
G1 X143.228 Y172.06 E.02433
G1 X135.269 Y164.101 E.42146
G1 X134.619 Y164.101 E.02433
G1 X142.578 Y172.06 E.42146
G1 X141.929 Y172.06 E.02433
G1 X133.969 Y164.101 E.42146
G1 X133.32 Y164.101 E.02433
G1 X141.279 Y172.06 E.42146
G1 X140.629 Y172.06 E.02433
G1 X132.67 Y164.101 E.42146
G1 X132.02 Y164.101 E.02433
G1 X139.979 Y172.06 E.42146
G1 X139.329 Y172.06 E.02433
G1 X131.37 Y164.101 E.42146
G1 X130.72 Y164.101 E.02433
G1 X138.679 Y172.06 E.42146
M73 C31
G1 X138.029 Y172.06 E.02433
G1 X130.07 Y164.101 E.42146
G1 X129.421 Y164.101 E.02433
G1 X137.38 Y172.06 E.42146
G1 X136.73 Y172.06 E.02433
G1 X128.771 Y164.101 E.42146
G1 X128.121 Y164.101 E.02433
G1 X136.08 Y172.06 E.42145
G1 X135.43 Y172.06 E.02433
G1 X127.471 Y164.101 E.42145
G1 X126.821 Y164.101 E.02433
G1 X134.78 Y172.06 E.42145
G1 X134.13 Y172.06 E.02433
G1 X126.171 Y164.101 E.42145
G1 X125.522 Y164.101 E.02433
G1 X133.48 Y172.06 E.42145
G1 X132.831 Y172.06 E.02433
G1 X124.872 Y164.101 E.42145
G1 X124.222 Y164.101 E.02433
G1 X132.181 Y172.06 E.42145
G1 X131.531 Y172.06 E.02433
G1 X123.572 Y164.101 E.42145
G1 X122.922 Y164.101 E.02433
G1 X130.881 Y172.06 E.42145
G1 X130.231 Y172.06 E.02433
G1 X122.272 Y164.101 E.42145
G1 X121.623 Y164.101 E.02433
G1 X129.581 Y172.06 E.42145
G1 X128.932 Y172.06 E.02433
G1 X120.973 Y164.101 E.42145
G1 X120.323 Y164.101 E.02433
G1 X128.282 Y172.06 E.42145
G1 X127.632 Y172.06 E.02433
G1 X119.673 Y164.101 E.42145
G1 X119.023 Y164.101 E.02433
G1 X126.982 Y172.06 E.42145
G1 X126.332 Y172.06 E.02433
G1 X118.373 Y164.101 E.42145
G1 X117.724 Y164.101 E.02433
G1 X125.682 Y172.059 E.42145
G1 X125.032 Y172.059 E.02433
G1 X117.074 Y164.101 E.42145
G1 X116.424 Y164.101 E.02433
G1 X124.383 Y172.059 E.42144
G1 X123.733 Y172.059 E.02433
G1 X115.774 Y164.101 E.42144
G1 X115.124 Y164.101 E.02433
G1 X123.083 Y172.059 E.42144
G1 X122.433 Y172.059 E.02433
G1 X114.474 Y164.101 E.42144
G1 X113.824 Y164.101 E.02433
G1 X121.783 Y172.059 E.42144
G1 X121.133 Y172.059 E.02433
G1 X113.175 Y164.101 E.42144
G1 X112.525 Y164.101 E.02433
G1 X120.484 Y172.059 E.42144
G1 X119.834 Y172.059 E.02433
G1 X111.875 Y164.101 E.42144
G1 X111.225 Y164.101 E.02433
G1 X119.184 Y172.059 E.42144
G1 X118.534 Y172.059 E.02433
G1 X110.575 Y164.101 E.42144
G1 X109.925 Y164.101 E.02433
G1 X117.884 Y172.059 E.42144
G1 X117.234 Y172.059 E.02433
G1 X109.276 Y164.101 E.42144
G1 X108.626 Y164.101 E.02433
G1 X116.584 Y172.059 E.42144
G1 X115.935 Y172.059 E.02433
G1 X107.976 Y164.101 E.42144
G1 X107.619 Y164.101 E.01338
G1 X107.619 Y164.393 E.01095
G1 X115.285 Y172.059 E.40595
G1 X114.635 Y172.059 E.02433
G1 X107.619 Y165.043 E.37154
G1 X107.619 Y165.693 E.02433
G1 X113.985 Y172.059 E.33713
G1 X113.335 Y172.059 E.02433
G1 X107.619 Y166.343 E.30271
G1 X107.619 Y166.993 E.02433
G1 X112.685 Y172.059 E.2683
G1 X112.035 Y172.059 E.02433
G1 X107.619 Y167.642 E.23389
G1 X107.619 Y168.292 E.02433
G1 X111.386 Y172.059 E.19948
G1 X110.736 Y172.059 E.02433
G1 X107.619 Y168.942 E.16507
G1 X107.619 Y169.592 E.02433
G1 X110.086 Y172.059 E.13066
G1 X109.436 Y172.059 E.02433
G1 X107.619 Y170.242 E.09624
G1 X107.619 Y170.892 E.02433
G1 X108.786 Y172.059 E.06183
G1 X108.136 Y172.059 E.02433
G1 X107.413 Y171.336 E.03831
; stop printing object Post.stl id:0 copy 0
; printing object Post.stl id:1 copy 0
G1 E-.8 F1800
EXCLUDE_OBJECT_END NAME=Post.stl_id_0_copy_0
EXCLUDE_OBJECT_START NAME=Post.stl_id_1_copy_0
G1 X105.905 Y140.226 F12000
G1 E.8 F1800
;TYPE:Outer wall
;WIDTH:0.5
G1 F3000
G1 X216.133 Y140.225 E4.10559
G1 X216.12 Y151.613 E.42417
G1 X105.905 Y151.612 E4.10511
G1 X105.905 Y140.266 E.42257
G1 X106.362 Y140.682 F12000
;TYPE:Inner wall
G1 F3000
G1 X215.675 Y140.682 E4.07153
G1 X215.663 Y151.156 E.39012
G1 X106.362 Y151.155 E4.07108
G1 X106.362 Y140.722 E.38857
G1 X106.819 Y141.139 F12000
G1 F3000
G1 X215.218 Y141.139 E4.03746
M73 P3 R38
G1 X215.207 Y150.699 E.35607
G1 X106.819 Y150.697 E4.03705
G1 X106.819 Y141.179 E.35452
G1 X107.276 Y141.596 F12000
G1 F3000
G1 X214.76 Y141.596 E4.00339
G1 X214.75 Y150.242 E.32202
G1 X107.276 Y150.24 E4.00302
M73 P3 R37
G1 X107.276 Y141.636 E.32047
G1 E-.8 F1800
G1 X213.694 Y141.733 F12000
G1 E.8 F1800
;TYPE:Bottom surface
;WIDTH:0.502425
G1 F6300
G1 X214.416 Y142.456 E.03826
G1 X214.416 Y143.105 E.0243
G1 X213.25 Y141.939 E.06174
G1 X212.6 Y141.939 E.02433
G1 X214.415 Y143.754 E.09612
