; HEADER_BLOCK_START
; generated by OrcaSlicer 1.6.4-beta3 on 2023-08-19 at 17:31:05
; total layer number: 109
; HEADER_BLOCK_END

; THUMBNAIL_BLOCK_START
; THUMBNAIL_BLOCK_END

; external perimeters extrusion width = 0.40mm
; perimeters extrusion width = 0.46mm
; infill extrusion width = 0.64mm
; solid infill extrusion width = 0.56mm
; top infill extrusion width = 0.40mm
; support material extrusion width = 0.46mm
; first layer extrusion width = 0.50mm

; external perimeters extrusion width = 0.40mm
; perimeters extrusion width = 0.46mm
; infill extrusion width = 0.64mm
; solid infill extrusion width = 0.56mm
; top infill extrusion width = 0.40mm
; support material extrusion width = 0.46mm
; first layer extrusion width = 0.50mm

; external perimeters extrusion width = 0.40mm
; perimeters extrusion width = 0.46mm
; infill extrusion width = 0.64mm
; solid infill extrusion width = 0.56mm
; top infill extrusion width = 0.40mm
; support material extrusion width = 0.46mm
; first layer extrusion width = 0.50mm

; external perimeters extrusion width = 0.40mm
; perimeters extrusion width = 0.46mm
; infill extrusion width = 0.64mm
; solid infill extrusion width = 0.56mm
; top infill extrusion width = 0.40mm
; support material extrusion width = 0.46mm
; first layer extrusion width = 0.50mm

; external perimeters extrusion width = 0.40mm
; perimeters extrusion width = 0.46mm
; infill extrusion width = 0.64mm
; solid infill extrusion width = 0.56mm
; top infill extrusion width = 0.40mm
; support material extrusion width = 0.46mm
; first layer extrusion width = 0.50mm

; external perimeters extrusion width = 0.40mm
; perimeters extrusion width = 0.46mm
; infill extrusion width = 0.64mm
; solid infill extrusion width = 0.56mm
; top infill extrusion width = 0.40mm
; support material extrusion width = 0.46mm
; first layer extrusion width = 0.50mm

; EXECUTABLE_BLOCK_START
EXCLUDE_OBJECT_DEFINE NAME=Post.stl_id_0_copy_0 CENTER=220.404,164.999 POLYGON=[[214.323,109.748],[214.324,109.73],[214.326,109.707],[214.33,109.691],[214.334,109.676],[214.336,109.668],[214.346,109.642],[214.352,109.631],[214.364,109.611],[214.373,109.598],[214.385,109.583],[214.399,109.569],[214.411,109.559],[214.429,109.545],[214.439,109.54],[214.463,109.528],[214.47,109.526],[214.498,109.518],[214.502,109.517],[214.535,109.514],[226.273,109.514],[226.31,109.518],[226.345,109.528],[226.379,109.545],[226.409,109.569],[226.435,109.598],[226.456,109.631],[226.472,109.668],[226.482,109.707],[226.485,109.748],[226.485,220.484],[226.483,220.484],[214.429,220.47],[214.352,220.47],[214.326,220.47],[214.323,220.47],[214.323,109.748]]
EXCLUDE_OBJECT_DEFINE NAME=Post.stl_id_1_copy_0 CENTER=198.242,164.999 POLYGON=[[192.162,109.748],[192.162,109.73],[192.165,109.707],[192.168,109.691],[192.172,109.676],[192.174,109.668],[192.185,109.642],[192.19,109.631],[192.202,109.611],[192.211,109.598],[192.224,109.583],[192.237,109.569],[192.249,109.559],[192.268,109.545],[192.277,109.54],[192.301,109.528],[192.308,109.526],[192.337,109.518],[192.341,109.517],[192.374,109.514],[204.111,109.514],[204.148,109.518],[204.184,109.528],[204.217,109.545],[204.247,109.569],[204.274,109.598],[204.295,109.631],[204.31,109.668],[204.32,109.707],[204.323,109.748],[204.323,220.484],[204.321,220.484],[192.268,220.47],[192.19,220.47],[192.165,220.47],[192.162,220.47],[192.162,109.748]]
EXCLUDE_OBJECT_DEFINE NAME=Post.stl_id_2_copy_0 CENTER=176.081,164.999 POLYGON=[[170,109.748],[170.001,109.73],[170.003,109.707],[170.006,109.691],[170.011,109.676],[170.013,109.668],[170.023,109.642],[170.028,109.631],[170.041,109.611],[170.05,109.598],[170.062,109.583],[170.076,109.569],[170.087,109.559],[170.106,109.545],[170.116,109.54],[170.14,109.528],[170.147,109.526],[170.175,109.518],[170.179,109.517],[170.212,109.514],[181.949,109.514],[181.986,109.518],[182.022,109.528],[182.056,109.545],[182.086,109.569],[182.112,109.598],[182.133,109.631],[182.149,109.668],[182.158,109.707],[182.162,109.748],[182.162,220.484],[182.159,220.484],[170.106,220.47],[170.028,220.47],[170.003,220.47],[170,220.47],[170,109.748]]
EXCLUDE_OBJECT_DEFINE NAME=Post.stl_id_3_copy_0 CENTER=153.919,164.999 POLYGON=[[147.838,109.748],[147.839,109.73],[147.842,109.707],[147.845,109.691],[147.849,109.676],[147.851,109.668],[147.862,109.642],[147.867,109.631],[147.879,109.611],[147.888,109.598],[147.901,109.583],[147.914,109.569],[147.926,109.559],[147.944,109.545],[147.954,109.54],[147.978,109.528],[147.985,109.526],[148.014,109.518],[148.017,109.517],[148.051,109.514],[159.788,109.514],[159.825,109.518],[159.86,109.528],[159.894,109.545],[159.924,109.569],[159.95,109.598],[159.972,109.631],[159.987,109.668],[159.997,109.707],[160,109.748],[160,220.484],[159.998,220.484],[147.944,220.47],[147.867,220.47],[147.842,220.47],[147.838,220.47],[147.838,109.748]]
EXCLUDE_OBJECT_DEFINE NAME=Post.stl_id_4_copy_0 CENTER=131.758,164.999 POLYGON=[[125.677,109.748],[125.677,109.73],[125.68,109.707],[125.683,109.691],[125.687,109.676],[125.69,109.668],[125.7,109.642],[125.705,109.631],[125.717,109.611],[125.726,109.598],[125.739,109.583],[125.753,109.569],[125.764,109.559],[125.783,109.545],[125.793,109.54],[125.816,109.528],[125.823,109.526],[125.852,109.518],[125.856,109.517],[125.889,109.514],[137.626,109.514],[137.663,109.518],[137.699,109.528],[137.732,109.545],[137.763,109.569],[137.789,109.598],[137.81,109.631],[137.826,109.668],[137.835,109.707],[137.838,109.748],[137.838,220.484],[137.836,220.484],[125.783,220.47],[125.705,220.47],[125.68,220.47],[125.677,220.47],[125.677,109.748]]
EXCLUDE_OBJECT_DEFINE NAME=Post.stl_id_5_copy_0 CENTER=109.596,164.999 POLYGON=[[103.515,109.748],[103.516,109.73],[103.518,109.707],[103.521,109.691],[103.526,109.676],[103.528,109.668],[103.538,109.642],[103.544,109.631],[103.556,109.611],[103.565,109.598],[103.577,109.583],[103.591,109.569],[103.603,109.559],[103.621,109.545],[103.631,109.54],[103.655,109.528],[103.662,109.526],[103.69,109.518],[103.694,109.517],[103.727,109.514],[115.465,109.514],[115.501,109.518],[115.537,109.528],[115.571,109.545],[115.601,109.569],[115.627,109.598],[115.648,109.631],[115.664,109.668],[115.674,109.707],[115.677,109.748],[115.677,220.484],[115.675,220.484],[103.621,220.47],[103.544,220.47],[103.518,220.47],[103.515,220.47],[103.515,109.748]]
M73 P0 R127
M73 C31
;TYPE:Custom
START_PRINT T_BED=60 T_EXTRUDER=220
G90
G21
M83 ; use relative distances for extrusion
; filament start gcode

    PRESSURE_ADVANCE_SELECT FILAMENT=PLA
M106 S0
;LAYER_CHANGE
;Z:0.2
;HEIGHT:0.2
;BEFORE_LAYER_CHANGE
;0.2
G92 E0

SET_VELOCITY_LIMIT ACCEL=1000 ACCEL_TO_DECEL=500
G1 E-.8 F3000
G1 X101.434 Y107.666 F12000
G1 Z.2
G1 E.8 F1800
;TYPE:Skirt
;WIDTH:0.5
G1 F3000
G1 X101.834 Y107.293 E.02035
G1 X102.307 Y106.989 E.02095
G1 X102.842 Y106.771 E.02153
G1 X103.727 Y106.64 E.03333
G1 X226.284 Y106.641 E4.56477
M73 C30
G1 X226.949 Y106.718 E.02492
G1 X227.666 Y106.975 E.02836
G1 X228.544 Y107.642 E.0411
G1 X229.121 Y108.547 E.03996
G1 X229.277 Y109.026 E.01879
G1 X229.362 Y109.748 E.02706
G1 X229.362 Y220.483 E4.12448
G1 X228.969 Y221.945 E.05638
G1 X227.896 Y223.013 E.05638
G1 X226.448 Y223.398 E.0558
G1 X103.549 Y223.384 E4.57754
G1 X102.087 Y222.989 E.05638
G1 X101.021 Y221.914 E.05638
G1 X100.638 Y220.47 E.05567
G1 X100.638 Y109.748 E4.12396
G1 X100.723 Y109.026 E.02707
G1 X100.891 Y108.516 E.02001
G1 X101.413 Y107.7 E.03608
G1 X101.794 Y107.949 F12000
G1 F3000
G1 X102.543 Y107.381 E.03501
G1 X103.001 Y107.201 E.01832
G1 X103.727 Y107.097 E.02732
G1 X226.284 Y107.099 E4.56477
G1 X226.852 Y107.165 E.02131
G1 X227.457 Y107.381 E.02391
G1 X228.206 Y107.949 E.03502
G1 X228.701 Y108.725 E.03426
G1 X228.905 Y109.748 E.03887
G1 X228.905 Y220.483 E4.12448
G1 X228.513 Y221.815 E.05169
G1 X227.463 Y222.721 E.05169
G1 X226.448 Y222.941 E.03866
G1 X103.549 Y222.927 E4.57752
G1 X102.218 Y222.533 E.05169
G1 X101.313 Y221.482 E.05169
G1 X101.095 Y220.47 E.03856
G1 X101.095 Y109.748 E4.12396
G1 X101.299 Y108.725 E.03887
G1 X101.773 Y107.983 E.03278
; printing object Post.stl id:5 copy 0
G1 E-.8
EXCLUDE_OBJECT_START NAME=Post.stl_id_5_copy_0
G1 X115.288 Y109.906 F12000
G1 E.8 F1800
;TYPE:Outer wall
G1 F3000
G1 X115.29 Y220.133 E4.10555
G1 X103.902 Y220.12 E.42417
G1 X103.902 Y109.906 E4.10507
G3 X115.248 Y109.905 I5.686 J1829.54 E.42262
G1 X114.831 Y110.363 F12000
;TYPE:Inner wall
G1 F3000
G1 X114.833 Y219.675 E4.07149
G1 X104.359 Y219.663 E.39012
G1 X104.359 Y110.362 E4.07108
M73 P0 R126
G1 X114.791 Y110.363 E.38857
G1 X114.374 Y110.82 F12000
G1 F3000
G1 X114.376 Y219.218 E4.03742
G1 X104.816 Y219.207 E.35607
G1 X104.816 Y110.819 E4.03704
G1 X114.334 Y110.82 E.35452
G1 X113.917 Y111.277 F12000
G1 F3000
G1 X113.919 Y218.76 E4.00335
G1 X105.273 Y218.75 E.32202
G1 X105.273 Y111.276 E4.00301
G1 X113.877 Y111.277 E.32047
G1 X113.78 Y112.343 F12000
;TYPE:Internal solid infill
;WIDTH:0.502383
G1 F3000
G1 X113.057 Y111.619 E.0383
G1 X112.407 Y111.619 E.02433
G1 X113.574 Y112.787 E.06182
G1 X113.574 Y113.437 E.02433
G1 X111.757 Y111.619 E.09623
G1 X111.107 Y111.619 E.02433
G1 X113.574 Y114.087 E.13064
G1 X113.574 Y114.736 E.02433
G1 X110.457 Y111.619 E.16505
G1 X109.807 Y111.619 E.02433
G1 X113.574 Y115.386 E.19946
G1 X113.574 Y116.036 E.02433
G1 X109.158 Y111.619 E.23387
G1 X108.508 Y111.619 E.02433
G1 X113.574 Y116.686 E.26827
G1 X113.574 Y117.335 E.02433
G1 X107.858 Y111.619 E.30268
G1 X107.208 Y111.619 E.02433
G1 X113.574 Y117.985 E.33709
G1 X113.574 Y118.635 E.02433
G1 X106.558 Y111.619 E.3715
G1 X105.908 Y111.619 E.02433
G1 X113.575 Y119.285 E.40591
G1 X113.575 Y119.935 E.02433
G1 X105.616 Y111.976 E.4214
G1 X105.616 Y112.626 E.02433
G1 X113.575 Y120.584 E.4214
G1 X113.575 Y121.234 E.02433
G1 X105.616 Y113.276 E.4214
G1 X105.616 Y113.925 E.02433
G1 X113.575 Y121.884 E.4214
G1 X113.575 Y122.534 E.02433
G1 X105.616 Y114.575 E.4214
G1 X105.616 Y115.225 E.02433
G1 X113.575 Y123.184 E.4214
G1 X113.575 Y123.833 E.02433
G1 X105.616 Y115.875 E.4214
G1 X105.616 Y116.524 E.02433
G1 X113.575 Y124.483 E.4214
G1 X113.575 Y125.133 E.02433
G1 X105.616 Y117.174 E.4214
G1 X105.616 Y117.824 E.02433
G1 X113.575 Y125.783 E.4214
G1 X113.575 Y126.433 E.02433
G1 X105.616 Y118.474 E.4214
G1 X105.616 Y119.124 E.02433
G1 X113.575 Y127.082 E.42141
G1 X113.575 Y127.732 E.02433
G1 X105.616 Y119.773 E.42141
G1 X105.616 Y120.423 E.02433
G1 X113.575 Y128.382 E.42141
G1 X113.575 Y129.032 E.02433
G1 X105.616 Y121.073 E.42141
G1 X105.616 Y121.723 E.02433
G1 X113.575 Y129.681 E.42141
G1 X113.575 Y130.331 E.02433
G1 X105.616 Y122.372 E.42141
G1 X105.616 Y123.022 E.02433
G1 X113.575 Y130.981 E.42141
G1 X113.575 Y131.631 E.02433
G1 X105.616 Y123.672 E.42141
G1 X105.616 Y124.322 E.02433
G1 X113.575 Y132.281 E.42141
G1 X113.575 Y132.93 E.02433
G1 X105.616 Y124.972 E.42141
G1 X105.616 Y125.621 E.02433
G1 X113.575 Y133.58 E.42141
G1 X113.575 Y134.23 E.02433
G1 X105.616 Y126.271 E.42141
G1 X105.616 Y126.921 E.02433
G1 X113.575 Y134.88 E.42141
G1 X113.575 Y135.53 E.02433
G1 X105.616 Y127.571 E.42141
G1 X105.616 Y128.22 E.02433
G1 X113.575 Y136.179 E.42141
G1 X113.575 Y136.829 E.02433
G1 X105.616 Y128.87 E.42141
G1 X105.616 Y129.52 E.02433
G1 X113.575 Y137.479 E.42141
G1 X113.575 Y138.129 E.02433
G1 X105.616 Y130.17 E.42141
G1 X105.616 Y130.82 E.02433
G1 X113.575 Y138.779 E.42141
G1 X113.575 Y139.428 E.02433
G1 X105.616 Y131.469 E.42142
G1 X105.616 Y132.119 E.02433
G1 X113.575 Y140.078 E.42142
G1 X113.575 Y140.728 E.02433
G1 X105.616 Y132.769 E.42142
G1 X105.616 Y133.419 E.02433
G1 X113.575 Y141.378 E.42142
G1 X113.575 Y142.027 E.02433
G1 X105.616 Y134.068 E.42142
G1 X105.616 Y134.718 E.02433
G1 X113.575 Y142.677 E.42142
G1 X113.575 Y143.327 E.02433
G1 X105.616 Y135.368 E.42142
G1 X105.616 Y136.018 E.02433
G1 X113.575 Y143.977 E.42142
G1 X113.575 Y144.627 E.02433
G1 X105.616 Y136.668 E.42142
G1 X105.616 Y137.317 E.02433
G1 X113.575 Y145.276 E.42142
G1 X113.575 Y145.926 E.02433
G1 X105.616 Y137.967 E.42142
G1 X105.616 Y138.617 E.02433
G1 X113.575 Y146.576 E.42142
G1 X113.575 Y147.226 E.02433
G1 X105.616 Y139.267 E.42142
G1 X105.616 Y139.916 E.02433
G1 X113.575 Y147.876 E.42142
G1 X113.575 Y148.525 E.02433
G1 X105.616 Y140.566 E.42142
G1 X105.616 Y141.216 E.02433
G1 X113.575 Y149.175 E.42142
G1 X113.575 Y149.825 E.02433
G1 X105.616 Y141.866 E.42142
G1 X105.616 Y142.516 E.02433
G1 X113.575 Y150.475 E.42142
G1 X113.575 Y151.124 E.02433
G1 X105.616 Y143.165 E.42143
G1 X105.616 Y143.815 E.02433
G1 X113.575 Y151.774 E.42143
G1 X113.575 Y152.424 E.02433
G1 X105.616 Y144.465 E.42143
G1 X105.616 Y145.115 E.02433
G1 X113.575 Y153.074 E.42143
G1 X113.575 Y153.724 E.02433
G1 X105.616 Y145.764 E.42143
G1 X105.616 Y146.414 E.02433
G1 X113.575 Y154.373 E.42143
G1 X113.575 Y155.023 E.02433
G1 X105.616 Y147.064 E.42143
G1 X105.616 Y147.714 E.02433
G1 X113.575 Y155.673 E.42143
G1 X113.575 Y156.323 E.02433
G1 X105.616 Y148.364 E.42143
G1 X105.616 Y149.013 E.02433
G1 X113.575 Y156.973 E.42143
G1 X113.575 Y157.622 E.02433
G1 X105.616 Y149.663 E.42143
G1 X105.616 Y150.313 E.02433
G1 X113.575 Y158.272 E.42143
G1 X113.575 Y158.922 E.02433
G1 X105.616 Y150.963 E.42143
G1 X105.616 Y151.613 E.02433
G1 X113.575 Y159.572 E.42143
G1 X113.575 Y160.222 E.02433
G1 X105.616 Y152.262 E.42143
G1 X105.616 Y152.912 E.02433
G1 X113.575 Y160.871 E.42143
G1 X113.575 Y161.521 E.02433
G1 X105.616 Y153.562 E.42143
G1 X105.616 Y154.212 E.02433
G1 X113.575 Y162.171 E.42143
G1 X113.575 Y162.821 E.02433
G1 X105.616 Y154.861 E.42143
G1 X105.616 Y155.511 E.02433
G1 X113.575 Y163.47 E.42144
G1 X113.575 Y164.12 E.02433
G1 X105.616 Y156.161 E.42144
M73 C29
G1 X105.616 Y156.811 E.02433
G1 X113.575 Y164.77 E.42144
G1 X113.575 Y165.42 E.02433
G1 X105.616 Y157.461 E.42144
G1 X105.616 Y158.11 E.02433
G1 X113.575 Y166.07 E.42144
G1 X113.575 Y166.719 E.02433
G1 X105.616 Y158.76 E.42144
G1 X105.616 Y159.41 E.02433
G1 X113.575 Y167.369 E.42144
G1 X113.575 Y168.019 E.02433
G1 X105.616 Y160.06 E.42144
G1 X105.616 Y160.709 E.02433
G1 X113.575 Y168.669 E.42144
G1 X113.575 Y169.319 E.02433
G1 X105.616 Y161.359 E.42144
G1 X105.616 Y162.009 E.02433
G1 X113.575 Y169.968 E.42144
G1 X113.575 Y170.618 E.02433
G1 X105.616 Y162.659 E.42144
G1 X105.616 Y163.309 E.02433
G1 X113.575 Y171.268 E.42144
G1 X113.575 Y171.918 E.02433
G1 X105.616 Y163.958 E.42144
G1 X105.616 Y164.608 E.02433
G1 X113.575 Y172.568 E.42144
G1 X113.575 Y173.217 E.02433
G1 X105.616 Y165.258 E.42144
G1 X105.616 Y165.908 E.02433
G1 X113.575 Y173.867 E.42144
G1 X113.575 Y174.517 E.02433
G1 X105.616 Y166.557 E.42144
G1 X105.616 Y167.207 E.02433
G1 X113.575 Y175.167 E.42144
G1 X113.575 Y175.816 E.02433
G1 X105.616 Y167.857 E.42145
G1 X105.616 Y168.507 E.02433
G1 X113.575 Y176.466 E.42145
G1 X113.575 Y177.116 E.02433
G1 X105.616 Y169.157 E.42145
G1 X105.616 Y169.806 E.02433
G1 X113.575 Y177.766 E.42145
G1 X113.575 Y178.416 E.02433
G1 X105.616 Y170.456 E.42145
G1 X105.616 Y171.106 E.02433
G1 X113.575 Y179.065 E.42145
G1 X113.575 Y179.715 E.02433
G1 X105.616 Y171.756 E.42145
G1 X105.616 Y172.405 E.02433
G1 X113.575 Y180.365 E.42145
G1 X113.575 Y181.015 E.02433
G1 X105.616 Y173.055 E.42145
G1 X105.616 Y173.705 E.02433
G1 X113.575 Y181.665 E.42145
G1 X113.575 Y182.314 E.02433
G1 X105.616 Y174.355 E.42145
G1 X105.616 Y175.005 E.02433
G1 X113.575 Y182.964 E.42145
G1 X113.576 Y183.614 E.02433
G1 X105.616 Y175.654 E.42145
G1 X105.616 Y176.304 E.02433
G1 X113.576 Y184.264 E.42145
G1 X113.576 Y184.914 E.02433
G1 X105.616 Y176.954 E.42145
G1 X105.616 Y177.604 E.02433
G1 X113.576 Y185.563 E.42145
G1 X113.576 Y186.213 E.02433
G1 X105.616 Y178.253 E.42145
G1 X105.616 Y178.903 E.02433
G1 X113.576 Y186.863 E.42145
G1 X113.576 Y187.513 E.02433
G1 X105.616 Y179.553 E.42145
G1 X105.616 Y180.203 E.02433
G1 X113.576 Y188.162 E.42146
G1 X113.576 Y188.812 E.02433
G1 X105.616 Y180.853 E.42146
G1 X105.616 Y181.502 E.02433
G1 X113.576 Y189.462 E.42146
G1 X113.576 Y190.112 E.02433
G1 X105.616 Y182.152 E.42146
G1 X105.616 Y182.802 E.02433
G1 X113.576 Y190.762 E.42146
G1 X113.576 Y191.411 E.02433
G1 X105.616 Y183.452 E.42146
G1 X105.616 Y184.101 E.02433
G1 X113.576 Y192.061 E.42146
