; generated by SuperSlicer 2.5.59 on 2023-06-28 at 18:52:16 UTC


;
;

;
;
; 

; external perimeters extrusion width = 0.42mm
; perimeters extrusion width = 0.44mm
; infill extrusion width = 0.44mm
; solid infill extrusion width = 0.44mm
; top infill extrusion width = 0.42mm
; first layer extrusion width = 0.48mm

; object:{"name":"Post","id":"Post.stl id:0 copy 0","object_center":[155.000000,155.000000,0.000000],"boundingbox_center":[155.000000,155.000000,10.875000],"boundingbox_size":[110.969395,12.161605,21.750000]}
EXCLUDE_OBJECT_DEFINE NAME=Post_stl_id_0_copy_0 CENTER=155.000000,155.000000 POLYGON=[[99.515304,149.131312],[99.518856,149.094480],[99.529400,149.058784],[99.546632,149.025248],[99.570016,148.994960],[99.598848,148.968832],[99.632240,148.947616],[99.669184,148.931984],[99.708568,148.922432],[99.749176,148.919200],[210.484688,148.919200],[210.484688,148.931984],[210.484560,149.047824],[210.470800,161.052384],[210.470768,161.077584],[210.470736,161.080800],[99.749176,161.080800],[99.730832,161.080160],[99.708568,161.077584],[99.692608,161.074512],[99.669184,161.068016],[99.643008,161.057680],[99.632240,161.052384],[99.611720,161.040304],[99.598848,161.031168],[99.583792,161.018672],[99.570016,161.005040],[99.559968,160.993360],[99.546632,160.974752],[99.540784,160.964976],[99.529400,160.941232],[99.526744,160.934240],[99.518856,160.905520],[99.518176,160.901872],[99.515304,160.868688],[99.515304,149.131312]]
; plater:{"center":[155.000000,155.000000,0.000000],"boundingbox_center":[155.000000,155.000000,10.875000],"boundingbox_size":[110.969395,12.161605,21.750000]}

;TYPE:Custom
START_PRINT T_BED=60 T_EXTRUDER=220
M107
G21 ; set units to millimeters
G90 ; use absolute coordinates
M82 ; use absolute distances for extrusion
G92 E0
; filament start gcode

    PRESSURE_ADVANCE_SELECT FILAMENT=PLA
;_TOOLCHANGE 0
M104 S220 ; set temperature
M109 S220 ; set temperature and wait for it to be reached
M190 S60 ; set bed temperature and wait for it to be reached
M107
;LAYER_CHANGE
;Z:0.2
;HEIGHT:0.2
G1 E-0.8 F3000
G1 Z0.2 F30000
G92 E0
M204 S2000
G1 X97.171 Y144.378
G1 E0.8 F1800
;TYPE:Skirt
;WIDTH:0.52
G1 F3000
G1 X95.851 Y145.36 E0.86528
G1 X94.694 Y147.18 E0.95083
G1 X94.317 Y149.133 E1.02971
G1 X94.32 Y160.9 E1.49653
G1 X95.14 Y163.712 E1.61271
G1 X96.209 Y164.975 E1.67835
G1 X97.983 Y165.978 E1.75917
G1 X99.749 Y166.283 E1.83029
G1 X210.471 Y166.283 E6.22254
G1 X212.489 Y165.878 E6.30418
G1 X214.18 Y164.743 E6.385
G1 X215.311 Y163.048 E6.46582
G1 X215.709 Y161.05 E6.54664
G1 X215.723 Y148.962 E7.02617
G1 X215.317 Y146.932 E7.10828
G1 X214.179 Y145.242 E7.1891
G1 X212.483 Y144.113 E7.26992
G1 X210.485 Y143.717 E7.35074
G1 X99.715 Y143.72 E11.74488
G1 X97.202 Y144.37 E11.84786
G92 E0
G1 E-0.8
; printing object Post.stl id:0 copy 0
EXCLUDE_OBJECT_START NAME=Post_stl_id_0_copy_0
G1 X99.796 Y149.199 F30000
G1 E0 F1800
;TYPE:External perimeter
;WIDTH:0.479999
G1 F3000
G1 X210.244 Y149.196 E4.01406
G1 X210.238 Y155.007 E4.22525
G1 X210.231 Y160.804 E4.43595
G1 X99.799 Y160.804 E8.44942
G1 X99.796 Y149.231 E8.87004
;WIPE_START
;WIPE_END
G1 X100.233 Y149.636 F30000
;TYPE:Internal perimeter
G1 F3000
G1 X209.807 Y149.633 E12.85232
G1 X209.801 Y155.006 E13.0476
G1 X209.794 Y160.367 E13.24243
G1 X100.236 Y160.367 E17.22416
G1 X100.233 Y149.668 E17.61301
G1 X100.67 Y150.073 F30000
G1 F3000
G1 X209.369 Y150.07 E21.56349
G1 X209.364 Y155.006 E21.74287
G1 X209.358 Y159.93 E21.92183
G1 X100.673 Y159.93 E25.87181
G1 X100.67 Y150.105 E26.22889
G92 E0
G1 E-0.8
; acceleration to travel
M204 S9000
G1 X188.775 Y150.184 F30000
; decel to extrusion
M204 S2000
G1 X208.354 Y150.201
; end travel
G1 E0 F1800
;TYPE:Solid infill
;WIDTH:0.479002
G1 F3000
G1 X209.049 Y150.896 E0.03563
G1 X209.049 Y151.513 E0.05803
G1 X207.924 Y150.389 E0.11569
G1 X207.306 Y150.389 E0.13811
G1 X209.048 Y152.131 E0.22743
G1 X209.047 Y152.748 E0.24983
G1 X206.688 Y150.389 E0.37082
G1 X206.07 Y150.389 E0.39324
G1 X209.046 Y153.366 E0.5459
G1 X209.046 Y153.983 E0.56829
G1 X205.452 Y150.389 E0.75262
G1 X204.834 Y150.389 E0.77504
G1 X209.045 Y154.6 E0.99103
G1 X209.044 Y155.218 E1.01343
G1 X204.216 Y150.389 E1.26109
G1 X203.598 Y150.389 E1.28351
G1 X209.044 Y155.835 E1.56283
G1 X209.043 Y156.453 E1.58523
G1 X202.979 Y150.389 E1.89622
G1 X202.361 Y150.389 E1.91864
G1 X209.042 Y157.07 E2.2613
G1 X209.041 Y157.688 E2.28369
G1 X201.743 Y150.389 E2.65802
G1 X201.125 Y150.389 E2.68044
G1 X209.041 Y158.305 E3.08643
G1 X209.04 Y158.922 E3.10883
G1 X200.507 Y150.389 E3.54649
G1 X199.889 Y150.389 E3.56891
G1 X209.039 Y159.54 E4.03823
G1 X209.039 Y159.611 E4.04081
G1 X208.492 Y159.611 E4.06065
G1 X199.271 Y150.389 E4.53363
G1 X198.653 Y150.389 E4.55604
G1 X207.874 Y159.611 E5.02902
G1 X207.256 Y159.611 E5.05144
G1 X198.035 Y150.389 E5.52442
G1 X197.416 Y150.389 E5.54683
G1 X206.638 Y159.611 E6.01981
G1 X206.02 Y159.611 E6.04223
G1 X196.798 Y150.389 E6.5152
G1 X196.18 Y150.389 E6.53762
G1 X205.402 Y159.611 E7.01059
G1 X204.784 Y159.611 E7.03301
G1 X195.562 Y150.389 E7.50598
G1 X194.944 Y150.389 E7.5284
G1 X204.165 Y159.611 E8.00137
G1 X203.547 Y159.611 E8.02379
G1 X194.326 Y150.389 E8.49676
G1 X193.708 Y150.389 E8.51918
G1 X202.929 Y159.611 E8.99215
G1 X202.311 Y159.611 E9.01457
G1 X193.09 Y150.389 E9.48754
G1 X192.472 Y150.39 E9.50996
G1 X201.693 Y159.611 E9.98293
G1 X201.075 Y159.611 E10.00534
G1 X191.853 Y150.39 E10.47831
G1 X191.235 Y150.39 E10.50073
G1 X200.457 Y159.611 E10.9737
G1 X199.839 Y159.611 E10.99612
G1 X190.617 Y150.39 E11.46908
G1 X189.999 Y150.39 E11.4915
G1 X199.221 Y159.611 E11.96447
G1 X198.602 Y159.611 E11.98688
G1 X189.381 Y150.39 E12.45985
G1 X188.763 Y150.39 E12.48227
G1 X197.984 Y159.611 E12.95523
G1 X197.366 Y159.611 E12.97765
G1 X188.145 Y150.39 E13.45061
G1 X187.527 Y150.39 E13.47303
G1 X196.748 Y159.611 E13.94599
G1 X196.13 Y159.611 E13.96841
G1 X186.909 Y150.39 E14.44138
G1 X186.291 Y150.39 E14.46379
G1 X195.512 Y159.611 E14.93675
G1 X194.894 Y159.611 E14.95917
G1 X185.672 Y150.39 E15.43213
G1 X185.054 Y150.39 E15.45455
G1 X194.276 Y159.611 E15.92751
G1 X193.657 Y159.611 E15.94993
G1 X184.436 Y150.39 E16.42289
G1 X183.818 Y150.39 E16.44531
G1 X193.039 Y159.611 E16.91826
G1 X192.421 Y159.611 E16.94068
G1 X183.2 Y150.39 E17.41364
G1 X182.582 Y150.39 E17.43606
G1 X191.803 Y159.611 E17.90901
G1 X191.185 Y159.611 E17.93143
G1 X181.964 Y150.39 E18.40439
G1 X181.346 Y150.39 E18.42681
G1 X190.567 Y159.611 E18.89976
G1 X189.949 Y159.611 E18.92218
G1 X180.728 Y150.39 E19.39514
G1 X180.109 Y150.39 E19.41755
G1 X189.331 Y159.611 E19.89051
G1 X188.712 Y159.611 E19.91292
G1 X179.491 Y150.39 E20.38588
G1 X178.873 Y150.39 E20.4083
G1 X188.094 Y159.611 E20.88125
G1 X187.476 Y159.611 E20.90367
G1 X178.255 Y150.39 E21.37662
G1 X177.637 Y150.39 E21.39904
G1 X186.858 Y159.611 E21.87199
G1 X186.24 Y159.611 E21.8944
G1 X177.019 Y150.39 E22.36735
G1 X176.401 Y150.39 E22.38977
G1 X185.622 Y159.611 E22.86272
G1 X185.004 Y159.611 E22.88514
G1 X175.783 Y150.39 E23.35809
G1 X175.165 Y150.39 E23.38051
G1 X184.386 Y159.611 E23.85345
G1 X183.767 Y159.611 E23.87587
G1 X174.546 Y150.39 E24.34882
G1 X173.928 Y150.39 E24.37124
G1 X183.149 Y159.611 E24.84418
G1 X182.531 Y159.611 E24.8666
G1 X173.31 Y150.39 E25.33955
G1 X172.692 Y150.39 E25.36196
G1 X181.913 Y159.611 E25.83491
G1 X181.295 Y159.611 E25.85733
G1 X172.074 Y150.39 E26.33027
G1 X171.456 Y150.39 E26.35269
G1 X180.677 Y159.611 E26.82563
G1 X180.059 Y159.611 E26.84805
G1 X170.838 Y150.39 E27.32099
G1 X170.22 Y150.39 E27.34341
G1 X179.441 Y159.611 E27.81635
G1 X178.822 Y159.611 E27.83877
G1 X169.602 Y150.39 E28.31171
G1 X168.983 Y150.39 E28.33413
G1 X178.204 Y159.611 E28.80707
G1 X177.586 Y159.611 E28.82949
G1 X168.365 Y150.39 E29.30243
G1 X167.747 Y150.39 E29.32484
G1 X176.968 Y159.611 E29.79778
G1 X176.35 Y159.611 E29.8202
G1 X167.129 Y150.39 E30.29314
G1 X166.511 Y150.39 E30.31556
G1 X175.732 Y159.611 E30.78849
G1 X175.114 Y159.611 E30.81091
G1 X165.893 Y150.39 E31.28385
G1 X165.275 Y150.39 E31.30627
G1 X174.496 Y159.611 E31.7792
G1 X173.877 Y159.611 E31.80162
G1 X164.657 Y150.39 E32.27455
G1 X164.039 Y150.39 E32.29697
G1 X173.259 Y159.611 E32.76991
G1 X172.641 Y159.611 E32.79232
G1 X163.421 Y150.39 E33.26526
G1 X162.802 Y150.39 E33.28768
G1 X172.023 Y159.611 E33.76061
G1 X171.405 Y159.611 E33.78303
G1 X162.184 Y150.39 E34.25596
G1 X161.566 Y150.39 E34.27838
G1 X170.787 Y159.611 E34.75131
G1 X170.169 Y159.611 E34.77373
G1 X160.948 Y150.39 E35.24666
G1 X160.33 Y150.39 E35.26907
G1 X169.551 Y159.611 E35.742
G1 X168.932 Y159.611 E35.76442
G1 X159.712 Y150.39 E36.23735
G1 X159.094 Y150.39 E36.25977
G1 X168.314 Y159.611 E36.7327
G1 X167.696 Y159.611 E36.75511
G1 X158.476 Y150.39 E37.22804
G1 X157.858 Y150.39 E37.25046
G1 X167.078 Y159.611 E37.72339
G1 X166.46 Y159.611 E37.7458
G1 X157.239 Y150.39 E38.21873
G1 X156.621 Y150.39 E38.24115
G1 X165.842 Y159.611 E38.71407
G1 X165.224 Y159.611 E38.73649
G1 X156.003 Y150.39 E39.20941
G1 X155.385 Y150.39 E39.23183
G1 X164.606 Y159.611 E39.70476
G1 X163.987 Y159.611 E39.72717
G1 X154.767 Y150.39 E40.2001
G1 X154.149 Y150.39 E40.22251
G1 X163.369 Y159.611 E40.69544
G1 X162.751 Y159.611 E40.71785
G1 X153.531 Y150.39 E41.19077
G1 X152.913 Y150.39 E41.21319
G1 X162.133 Y159.611 E41.68611
G1 X161.515 Y159.611 E41.70853
G1 X152.295 Y150.39 E42.18145
G1 X151.676 Y150.39 E42.20387
G1 X160.897 Y159.611 E42.67679
G1 X160.279 Y159.611 E42.69921
G1 X151.058 Y150.391 E43.17212
G1 X150.44 Y150.391 E43.19454
G1 X159.661 Y159.611 E43.66746
G1 X159.043 Y159.611 E43.68988
G1 X149.822 Y150.391 E44.16279
G1 X149.204 Y150.391 E44.18521
G1 X158.424 Y159.611 E44.65813
G1 X157.806 Y159.611 E44.68054
G1 X148.586 Y150.391 E45.15346
G1 X147.968 Y150.391 E45.17588
G1 X157.188 Y159.611 E45.64879
G1 X156.57 Y159.611 E45.67121
G1 X147.35 Y150.391 E46.14412
G1 X146.732 Y150.391 E46.16654
G1 X155.952 Y159.611 E46.63945
G1 X155.334 Y159.611 E46.66187
G1 X146.113 Y150.391 E47.13478
G1 X145.495 Y150.391 E47.1572
G1 X154.716 Y159.611 E47.63011
G1 X154.098 Y159.611 E47.65253
G1 X144.877 Y150.391 E48.12544
G1 X144.259 Y150.391 E48.14786
G1 X153.479 Y159.611 E48.62077
G1 X152.861 Y159.611 E48.64319
G1 X143.641 Y150.391 E49.1161
G1 X143.023 Y150.391 E49.13851
G1 X152.243 Y159.611 E49.61142
G1 X151.625 Y159.611 E49.63384
G1 X142.405 Y150.391 E50.10675
G1 X141.787 Y150.391 E50.12917
G1 X151.007 Y159.611 E50.60207
G1 X150.389 Y159.611 E50.62449
G1 X141.169 Y150.391 E51.0974
G1 X140.55 Y150.391 E51.11981
G1 X149.771 Y159.611 E51.59272
G1 X149.153 Y159.611 E51.61514
G1 X139.932 Y150.391 E52.08804
G1 X139.314 Y150.391 E52.11046
G1 X148.534 Y159.611 E52.58336
G1 X147.916 Y159.611 E52.60578
G1 X138.696 Y150.391 E53.07869
G1 X138.078 Y150.391 E53.1011
G1 X147.298 Y159.611 E53.57401
G1 X146.68 Y159.611 E53.59642
G1 X137.46 Y150.391 E54.06932
G1 X136.842 Y150.391 E54.09174
G1 X146.062 Y159.611 E54.56464
G1 X145.444 Y159.611 E54.58706
G1 X136.224 Y150.391 E55.05996
G1 X135.606 Y150.391 E55.08238
G1 X144.826 Y159.611 E55.55528
G1 X144.208 Y159.611 E55.5777
G1 X134.988 Y150.391 E56.05059
G1 X134.369 Y150.391 E56.07301
G1 X143.589 Y159.611 E56.54591
G1 X142.971 Y159.611 E56.56833
G1 X133.751 Y150.391 E57.04123
G1 X133.133 Y150.391 E57.06364
G1 X142.353 Y159.611 E57.53654
G1 X141.735 Y159.611 E57.55896
G1 X132.515 Y150.391 E58.03185
G1 X131.897 Y150.391 E58.05427
G1 X141.117 Y159.611 E58.52716
G1 X140.499 Y159.611 E58.54958
G1 X131.279 Y150.391 E59.02248
G1 X130.661 Y150.391 E59.04489
G1 X139.881 Y159.611 E59.51779
G1 X139.263 Y159.611 E59.54021
G1 X130.043 Y150.391 E60.0131
G1 X129.425 Y150.391 E60.03552
G1 X138.644 Y159.611 E60.50841
G1 X138.026 Y159.611 E60.53082
G1 X128.806 Y150.391 E61.00372
G1 X128.188 Y150.391 E61.02613
G1 X137.408 Y159.611 E61.49902
G1 X136.79 Y159.611 E61.52144
G1 X127.57 Y150.391 E61.99433
G1 X126.952 Y150.391 E62.01675
G1 X136.172 Y159.611 E62.48964
G1 X135.554 Y159.611 E62.51206
G1 X126.334 Y150.391 E62.98494
G1 X125.716 Y150.391 E63.00736
G1 X134.936 Y159.611 E63.48025
G1 X134.318 Y159.611 E63.50267
G1 X125.098 Y150.391 E63.97555
G1 X124.48 Y150.391 E63.99797
G1 X133.699 Y159.611 E64.47086
G1 X133.081 Y159.611 E64.49327
G1 X123.862 Y150.391 E64.96616
G1 X123.243 Y150.391 E64.98858
G1 X132.463 Y159.611 E65.46146
G1 X131.845 Y159.611 E65.48388
G1 X122.625 Y150.391 E65.95676
G1 X122.007 Y150.391 E65.97918
G1 X131.227 Y159.611 E66.45206
G1 X130.609 Y159.611 E66.47448
G1 X121.389 Y150.391 E66.94736
G1 X120.771 Y150.391 E66.96978
G1 X129.991 Y159.611 E67.44266
G1 X129.373 Y159.611 E67.46508
G1 X120.153 Y150.391 E67.93796
G1 X119.535 Y150.391 E67.96038
G1 X128.754 Y159.611 E68.43325
G1 X128.136 Y159.611 E68.45567
G1 X118.917 Y150.391 E68.92855
G1 X118.299 Y150.391 E68.95097
G1 X127.518 Y159.611 E69.42385
G1 X126.9 Y159.611 E69.44626
G1 X117.68 Y150.391 E69.91914
G1 X117.062 Y150.391 E69.94156
G1 X126.282 Y159.611 E70.41444
G1 X125.664 Y159.611 E70.43685
G1 X116.444 Y150.391 E70.90973
G1 X115.826 Y150.391 E70.93215
G1 X125.046 Y159.611 E71.40502
G1 X124.428 Y159.611 E71.42744
G1 X115.208 Y150.391 E71.90031
G1 X114.59 Y150.391 E71.92273
G1 X123.809 Y159.611 E72.39561
G1 X123.191 Y159.611 E72.41802
G1 X113.972 Y150.391 E72.8909
G1 X113.354 Y150.391 E72.91331
G1 X122.573 Y159.611 E73.38619
G1 X121.955 Y159.611 E73.4086
G1 X112.736 Y150.391 E73.88147
G1 X112.118 Y150.391 E73.90389
G1 X121.337 Y159.611 E74.37676
G1 X120.719 Y159.611 E74.39918
G1 X111.499 Y150.391 E74.87205
G1 X110.881 Y150.391 E74.89447
G1 X120.101 Y159.611 E75.36734
G1 X119.483 Y159.611 E75.38975
G1 X110.263 Y150.391 E75.86262
G1 X109.645 Y150.392 E75.88504
G1 X118.865 Y159.611 E76.35791
G1 X118.246 Y159.611 E76.38033
G1 X109.027 Y150.392 E76.85319
G1 X108.409 Y150.392 E76.87561
G1 X117.628 Y159.611 E77.34848
G1 X117.01 Y159.611 E77.37089
G1 X107.791 Y150.392 E77.84376
G1 X107.173 Y150.392 E77.86618
G1 X116.392 Y159.611 E78.33904
G1 X115.774 Y159.611 E78.36146
G1 X106.555 Y150.392 E78.83432
G1 X105.936 Y150.392 E78.85674
G1 X115.156 Y159.611 E79.3296
G1 X114.538 Y159.611 E79.35202
G1 X105.318 Y150.392 E79.82488
G1 X104.7 Y150.392 E79.8473
G1 X113.92 Y159.611 E80.32016
G1 X113.301 Y159.611 E80.34258
G1 X104.082 Y150.392 E80.81544
G1 X103.464 Y150.392 E80.83786
G1 X112.683 Y159.611 E81.31072
G1 X112.065 Y159.611 E81.33313
G1 X102.846 Y150.392 E81.80599
G1 X102.228 Y150.392 E81.82841
G1 X111.447 Y159.611 E82.30127
G1 X110.829 Y159.611 E82.32369
G1 X101.61 Y150.392 E82.79654
G1 X100.992 Y150.392 E82.81896
G1 X110.211 Y159.611 E83.29182
G1 X109.593 Y159.611 E83.31424
G1 X100.989 Y151.008 E83.7555
G1 X100.99 Y151.626 E83.77792
G1 X108.975 Y159.611 E84.18748
G1 X108.356 Y159.611 E84.2099
G1 X100.99 Y152.244 E84.58774
G1 X100.99 Y152.862 E84.61016
G1 X107.738 Y159.611 E84.95629
G1 X107.12 Y159.611 E84.97871
G1 X100.99 Y153.481 E85.29312
G1 X100.99 Y154.099 E85.31555
G1 X106.502 Y159.611 E85.59825
G1 X105.884 Y159.611 E85.62067
G1 X100.99 Y154.717 E85.87167
G1 X100.99 Y155.336 E85.89409
G1 X105.266 Y159.611 E86.11337
G1 X104.648 Y159.611 E86.13579
G1 X100.991 Y155.954 E86.32336
G1 X100.991 Y156.572 E86.34578
G1 X104.03 Y159.611 E86.50164
G1 X103.411 Y159.611 E86.52406
G1 X100.991 Y157.19 E86.64821
G1 X100.991 Y157.809 E86.67063
G1 X102.793 Y159.611 E86.76307
G1 X102.175 Y159.611 E86.78549
G1 X100.991 Y158.427 E86.84621
G1 X100.991 Y159.045 E86.86863
G1 X101.745 Y159.799 E86.90729
M106 S63.75
;LAYER_CHANGE
;Z:0.4
;HEIGHT:0.2
G92 E0
G1 E-0.8 F3000
; stop printing object Post.stl id:0 copy 0
EXCLUDE_OBJECT_END NAME=Post_stl_id_0_copy_0
M204 S9000
G1 Z0.4 F30000
G92 E0
; printing object Post.stl id:0 copy 0
EXCLUDE_OBJECT_START NAME=Post_stl_id_0_copy_0
G1 X101.745 Y160.478
G1 X100.485 Y160.477
G1 X99.771 Y160.868
G1 E0.8 F1800
;TYPE:External perimeter
;WIDTH:0.419999
G1 F15000
G1 X99.725 Y160.83 E0.80185
G1 X99.729 Y149.159 E1.16781
G1 X99.781 Y149.129 E1.16969
G1 X210.274 Y149.129 E4.63413
G1 X210.268 Y155.007 E4.81841
G1 X210.261 Y160.871 E5.00228
G1 X99.803 Y160.868 E8.4656
;WIPE_START
;WIPE_END
G1 X100.114 Y160.479 F30000
;TYPE:Internal perimeter
;WIDTH:0.44292
G1 F15000
G1 X100.117 Y149.518 E8.83017
G1 X209.885 Y149.518 E12.48108
