; HEADER_BLOCK_START
; generated by OrcaSlicer 1.6.3 on 2023-07-16 at 20:46:37
; total layer number: 53
; HEADER_BLOCK_END

; THUMBNAIL_BLOCK_START
; THUMBNAIL_BLOCK_END

; external perimeters extrusion width = 0.40mm
; perimeters extrusion width = 0.45mm
; infill extrusion width = 0.45mm
; solid infill extrusion width = 0.40mm
; top infill extrusion width = 0.40mm
; first layer extrusion width = 0.50mm

; external perimeters extrusion width = 0.40mm
; perimeters extrusion width = 0.45mm
; infill extrusion width = 0.45mm
; solid infill extrusion width = 0.40mm
; top infill extrusion width = 0.40mm
; first layer extrusion width = 0.50mm

; EXECUTABLE_BLOCK_START
EXCLUDE_OBJECT_DEFINE NAME=Probe_holder_d2f.STL_id_0_copy_0 CENTER=165,172.7 POLYGON=[[151.8,168.5],[151.802,168.439],[151.805,168.395],[151.809,168.363],[151.811,168.351],[151.822,168.292],[151.828,168.263],[151.83,168.257],[151.849,168.191],[151.853,168.178],[151.862,168.154],[151.867,168.14],[151.886,168.095],[151.886,168.093],[151.905,168.055],[151.91,168.045],[151.925,168.016],[151.934,168],[151.949,167.976],[151.958,167.961],[151.962,167.955],[151.972,167.939],[151.975,167.935],[151.991,167.912],[151.992,167.911],[151.998,167.903],[152.021,167.873],[152.023,167.871],[152.026,167.867],[152.031,167.861],[152.046,167.843],[152.047,167.842],[152.054,167.834],[152.057,167.831],[152.072,167.814],[152.085,167.801],[152.089,167.797],[152.093,167.793],[152.108,167.778],[152.125,167.762],[152.131,167.757],[152.139,167.75],[152.153,167.737],[152.162,167.73],[152.17,167.723],[152.173,167.721],[152.174,167.72],[152.209,167.693],[152.212,167.691],[152.241,167.671],[152.245,167.668],[152.254,167.662],[152.261,167.658],[152.278,167.647],[152.284,167.643],[152.3,167.634],[152.315,167.625],[152.344,167.61],[152.344,167.61],[152.355,167.605],[152.363,167.601],[152.366,167.599],[152.388,167.589],[152.393,167.586],[152.408,167.58],[152.416,167.577],[152.419,167.575],[152.439,167.567],[152.446,167.565],[152.454,167.562],[152.475,167.554],[152.49,167.549],[152.491,167.549],[152.495,167.548],[152.528,167.538],[152.532,167.537],[152.538,167.535],[152.557,167.53],[152.559,167.529],[152.567,167.528],[152.582,167.524],[152.592,167.522],[152.607,167.519],[152.621,167.516],[152.637,167.513],[152.64,167.513],[152.644,167.512],[152.663,167.509],[152.67,167.509],[152.691,167.506],[152.695,167.505],[152.71,167.504],[152.731,167.502],[152.743,167.502],[152.757,167.501],[152.8,167.5],[177.2,167.5],[177.254,167.501],[177.257,167.502],[177.279,167.503],[177.287,167.504],[177.305,167.505],[177.309,167.506],[177.337,167.509],[177.36,167.513],[177.363,167.513],[177.366,167.514],[177.375,167.515],[177.393,167.519],[177.408,167.522],[177.417,167.524],[177.433,167.528],[177.443,167.53],[177.45,167.532],[177.462,167.535],[177.462,167.535],[177.472,167.538],[177.509,167.549],[177.51,167.549],[177.526,167.555],[177.533,167.557],[177.546,167.562],[177.549,167.563],[177.561,167.567],[177.581,167.575],[177.584,167.577],[177.607,167.586],[177.612,167.589],[177.614,167.59],[177.634,167.599],[177.636,167.6],[177.645,167.605],[177.655,167.609],[177.656,167.61],[177.678,167.622],[177.687,167.626],[177.692,167.629],[177.7,167.634],[177.719,167.645],[177.722,167.647],[177.738,167.657],[177.739,167.658],[177.746,167.662],[177.76,167.671],[177.765,167.675],[177.788,167.691],[177.788,167.691],[177.8,167.7],[177.827,167.721],[177.83,167.723],[177.835,167.727],[177.837,167.729],[177.847,167.737],[177.869,167.757],[177.876,167.763],[177.884,167.77],[177.901,167.786],[177.907,167.793],[177.912,167.798],[177.928,167.814],[177.943,167.831],[177.946,167.834],[177.954,167.843],[177.96,167.85],[177.969,167.861],[177.977,167.871],[177.979,167.873],[178.002,167.903],[178.008,167.911],[178.009,167.912],[178.014,167.919],[178.025,167.935],[178.039,167.956],[178.042,167.961],[178.051,167.976],[178.062,167.993],[178.066,168],[178.066,168.001],[178.095,168.055],[178.103,168.071],[178.114,168.093],[178.137,168.152],[178.138,168.154],[178.151,168.19],[178.165,168.237],[178.17,168.257],[178.178,168.292],[178.184,168.324],[178.191,168.363],[178.195,168.395],[178.196,168.411],[178.2,168.5],[178.2,176.9],[178.2,176.929],[178.199,176.945],[178.198,176.97],[178.196,176.987],[178.195,177.005],[178.191,177.033],[178.191,177.037],[178.19,177.04],[178.185,177.073],[178.185,177.074],[178.178,177.108],[178.175,177.121],[178.17,177.143],[178.166,177.158],[178.16,177.178],[178.152,177.208],[178.151,177.209],[178.14,177.241],[178.138,177.246],[178.12,177.291],[178.114,177.307],[178.111,177.312],[178.107,177.321],[178.099,177.338],[178.095,177.345],[178.082,177.371],[178.079,177.377],[178.074,177.386],[178.068,177.397],[178.066,177.4],[178.042,177.439],[178.041,177.442],[178.036,177.449],[178.022,177.47],[178.017,177.476],[178.009,177.488],[178,177.5],[177.984,177.521],[177.979,177.527],[177.97,177.538],[177.954,177.557],[177.953,177.558],[177.943,177.569],[177.925,177.589],[177.919,177.595],[177.913,177.601],[177.907,177.607],[177.903,177.612],[177.884,177.63],[177.869,177.643],[177.86,177.651],[177.85,177.66],[177.847,177.662],[177.846,177.663],[177.836,177.671],[177.827,177.679],[177.792,177.706],[177.788,177.709],[177.77,177.722],[177.768,177.723],[177.739,177.742],[177.723,177.752],[177.717,177.756],[177.7,177.766],[177.696,177.768],[177.691,177.771],[177.645,177.795],[177.637,177.799],[177.62,177.807],[177.61,177.812],[177.607,177.814],[177.588,177.822],[177.569,177.829],[177.554,177.835],[177.546,177.838],[177.541,177.84],[177.527,177.845],[177.512,177.85],[177.509,177.851],[177.486,177.858],[177.468,177.863],[177.458,177.866],[177.445,177.87],[177.443,177.87],[177.436,177.872],[177.408,177.878],[177.403,177.879],[177.393,177.881],[177.379,177.884],[177.375,177.885],[177.358,177.887],[177.337,177.891],[177.321,177.893],[177.305,177.895],[177.289,177.896],[177.279,177.897],[177.24,177.899],[177.229,177.9],[177.2,177.9],[152.8,177.9],[152.771,177.9],[152.76,177.899],[152.721,177.897],[152.711,177.896],[152.695,177.895],[152.679,177.893],[152.663,177.891],[152.642,177.887],[152.625,177.885],[152.621,177.884],[152.607,177.881],[152.597,177.879],[152.592,177.878],[152.564,177.872],[152.557,177.87],[152.555,177.87],[152.542,177.866],[152.532,177.863],[152.514,177.858],[152.491,177.851],[152.488,177.85],[152.473,177.845],[152.459,177.84],[152.454,177.838],[152.446,177.835],[152.431,177.829],[152.412,177.822],[152.393,177.814],[152.39,177.812],[152.38,177.807],[152.363,177.799],[152.355,177.795],[152.344,177.79],[152.309,177.771],[152.304,177.768],[152.3,177.766],[152.283,177.756],[152.261,177.742],[152.261,177.742],[152.232,177.723],[152.23,177.722],[152.212,177.709],[152.208,177.706],[152.173,177.679],[152.172,177.679],[152.164,177.671],[152.154,177.663],[152.153,177.662],[152.15,177.66],[152.14,177.651],[152.131,177.643],[152.116,177.63],[152.097,177.612],[152.093,177.607],[152.093,177.607],[152.087,177.601],[152.081,177.595],[152.075,177.589],[152.057,177.569],[152.047,177.558],[152.046,177.557],[152.03,177.538],[152.021,177.527],[152.016,177.521],[152,177.5],[151.991,177.488],[151.983,177.476],[151.978,177.47],[151.964,177.449],[151.959,177.442],[151.958,177.439],[151.934,177.4],[151.932,177.397],[151.926,177.386],[151.921,177.377],[151.918,177.371],[151.905,177.345],[151.901,177.338],[151.893,177.321],[151.889,177.312],[151.886,177.307],[151.88,177.291],[151.862,177.246],[151.86,177.241],[151.849,177.209],[151.848,177.208],[151.84,177.178],[151.834,177.158],[151.83,177.143],[151.825,177.121],[151.822,177.11],[151.822,177.108],[151.815,177.074],[151.815,177.073],[151.809,177.037],[151.809,177.033],[151.805,177.005],[151.804,176.987],[151.802,176.97],[151.801,176.945],[151.8,176.929],[151.8,176.9],[151.8,168.5]]
EXCLUDE_OBJECT_DEFINE NAME=omron_d2f-5_microswitch_probe_body_x1_rev3.STL_id_1_copy_0 CENTER=165,157.3 POLYGON=[[151.8,153.1],[151.802,153.034],[151.803,153.023],[151.809,152.969],[151.812,152.947],[151.819,152.905],[151.823,152.889],[151.834,152.841],[151.837,152.829],[151.849,152.792],[151.853,152.778],[151.868,152.737],[151.871,152.729],[151.876,152.717],[151.898,152.668],[151.903,152.658],[151.906,152.651],[151.931,152.606],[151.934,152.6],[151.953,152.568],[151.967,152.546],[151.968,152.545],[152.007,152.491],[152.008,152.489],[152.048,152.44],[152.053,152.435],[152.071,152.415],[152.093,152.393],[152.102,152.384],[152.141,152.348],[152.154,152.337],[152.191,152.307],[152.2,152.3],[152.221,152.285],[152.245,152.268],[152.247,152.267],[152.267,152.254],[152.3,152.234],[152.306,152.231],[152.328,152.218],[152.358,152.203],[152.391,152.188],[152.417,152.176],[152.471,152.156],[152.473,152.155],[152.493,152.148],[152.523,152.139],[152.541,152.134],[152.592,152.122],[152.606,152.119],[152.66,152.11],[152.669,152.109],[152.684,152.107],[152.696,152.105],[152.743,152.102],[152.744,152.102],[152.8,152.1],[177.2,152.1],[177.256,152.102],[177.257,152.102],[177.304,152.105],[177.315,152.107],[177.331,152.109],[177.34,152.11],[177.394,152.119],[177.408,152.122],[177.459,152.134],[177.477,152.139],[177.507,152.148],[177.527,152.155],[177.529,152.156],[177.583,152.176],[177.609,152.188],[177.642,152.203],[177.672,152.218],[177.7,152.234],[177.733,152.254],[177.753,152.267],[177.755,152.268],[177.779,152.285],[177.8,152.3],[177.809,152.307],[177.846,152.337],[177.858,152.347],[177.859,152.348],[177.898,152.384],[177.907,152.393],[177.947,152.435],[177.952,152.44],[177.992,152.489],[177.993,152.491],[178.031,152.544],[178.033,152.546],[178.047,152.568],[178.066,152.6],[178.069,152.606],[178.094,152.651],[178.097,152.658],[178.102,152.668],[178.124,152.717],[178.129,152.729],[178.132,152.737],[178.147,152.778],[178.151,152.792],[178.152,152.794],[178.162,152.829],[178.166,152.841],[178.177,152.888],[178.181,152.905],[178.188,152.947],[178.191,152.969],[178.197,153.023],[178.198,153.034],[178.2,153.1],[178.2,161.5],[178.198,161.566],[178.198,161.566],[178.191,161.631],[178.183,161.684],[178.181,161.696],[178.166,161.759],[178.162,161.774],[178.158,161.785],[178.158,161.787],[178.142,161.835],[178.142,161.837],[178.124,161.883],[178.097,161.942],[178.094,161.949],[178.066,162],[178.047,162.032],[178.037,162.047],[178.037,162.048],[178.029,162.059],[178.007,162.091],[178.005,162.093],[177.993,162.109],[177.951,162.16],[177.951,162.16],[177.907,162.207],[177.858,162.253],[177.857,162.254],[177.809,162.293],[177.779,162.315],[177.763,162.326],[177.762,162.327],[177.748,162.337],[177.717,162.356],[177.716,162.357],[177.7,162.366],[177.642,162.397],[177.642,162.397],[177.584,162.423],[177.583,162.424],[177.521,162.447],[177.52,162.447],[177.507,162.452],[177.461,162.465],[177.46,162.466],[177.459,162.466],[177.413,162.477],[177.402,162.479],[177.402,162.479],[177.348,162.489],[177.347,162.489],[177.331,162.491],[177.304,162.495],[177.288,162.496],[177.287,162.496],[177.246,162.499],[177.245,162.499],[177.2,162.5],[152.8,162.5],[152.755,162.499],[152.754,162.499],[152.713,162.496],[152.712,162.496],[152.696,162.495],[152.669,162.491],[152.652,162.489],[152.598,162.479],[152.598,162.479],[152.587,162.477],[152.541,162.466],[152.54,162.466],[152.539,162.465],[152.493,162.452],[152.48,162.447],[152.479,162.447],[152.417,162.424],[152.415,162.423],[152.358,162.397],[152.358,162.397],[152.3,162.366],[152.284,162.357],[152.283,162.356],[152.252,162.337],[152.238,162.327],[152.237,162.326],[152.221,162.315],[152.191,162.293],[152.143,162.254],[152.142,162.253],[152.093,162.207],[152.049,162.16],[152.049,162.16],[152.007,162.109],[152.007,162.109],[151.994,162.093],[151.993,162.091],[151.971,162.059],[151.963,162.048],[151.963,162.047],[151.953,162.032],[151.934,162],[151.906,161.949],[151.903,161.942],[151.876,161.883],[151.868,161.863],[151.858,161.837],[151.857,161.834],[151.843,161.789],[151.841,161.782],[151.834,161.759],[151.819,161.696],[151.817,161.684],[151.809,161.631],[151.802,161.566],[151.802,161.566],[151.8,161.5],[151.8,153.1]]
M73 P0 R16
;TYPE:Custom
START_PRINT T_BED=60 T_EXTRUDER=220
G90
G21
M83 ; use relative distances for extrusion
; filament start gcode

    PRESSURE_ADVANCE_SELECT FILAMENT=PLA
M106 S0
;LAYER_CHANGE
;Z:0.2
;HEIGHT:0.2
;BEFORE_LAYER_CHANGE
;0.2
G92 E0

M204 S1000
G1 E-.8 F3000
G1 X150.114 Y150.684 F9000
G1 Z.2
G1 E.8 F1800
;TYPE:Skirt
;WIDTH:0.5
G1 F3000
G1 X150.755 Y150.122 E.03174
G1 X151.243 Y149.84 E.02101
G1 X152.05 Y149.566 E.03175
G1 X152.609 Y149.492 E.021
G1 X177.391 Y149.492 E.92301
G1 X177.95 Y149.566 E.021
G1 X178.757 Y149.84 E.03175
G1 X179.616 Y150.414 E.0385
G1 X180.178 Y151.055 E.03174
G1 X180.46 Y151.543 E.021
G1 X180.636 Y151.982 E.01761
G1 X180.802 Y152.818 E.03173
G1 X180.814 Y161.538 E.32479
G1 X180.61 Y177.052 E.5779
G1 X180.435 Y177.986 E.03538
G1 X180.06 Y178.762 E.03212
G1 X179.766 Y179.149 E.01812
G1 X179.353 Y179.549 E.0214
G1 X178.678 Y179.977 E.02976
G1 X177.786 Y180.263 E.03489
G1 X177.2 Y180.314 E.02192
G1 X152.8 Y180.314 E.90881
G1 X152 Y180.218 E.03001
G1 X151.578 Y180.087 E.01647
G1 X150.661 Y179.56 E.03939
G1 X150.063 Y178.938 E.03212
G1 X149.759 Y178.451 E.02138
G1 X149.496 Y177.758 E.02762
G1 X149.386 Y176.938 E.03082
G1 X149.186 Y161.538 E.57364
G1 X149.186 Y153.1 E.31428
G1 X149.248 Y152.44 E.02468
G1 X149.394 Y151.896 E.021
G1 X149.771 Y151.131 E.03176
G1 X150.077 Y150.731 E.01876
G1 X150.458 Y150.985 F9000
G1 F3000
G1 X150.458 Y150.985 E.00001
G1 X151.009 Y150.502 E.0273
G1 X151.445 Y150.25 E.01878
G1 X152.14 Y150.014 E.02731
G1 X152.639 Y149.948 E.01877
G1 X177.361 Y149.948 E.92079
G1 X177.861 Y150.014 E.01877
G1 X178.555 Y150.25 E.02731
G1 X179.315 Y150.758 E.03406
G1 X179.798 Y151.309 E.0273
G1 X180.05 Y151.745 E.01878
G1 X180.346 Y152.848 E.04251
G1 X180.357 Y161.532 E.32345
G1 X180.154 Y177.028 E.57723
G1 X180.027 Y177.762 E.02774
G1 X179.866 Y178.177 E.01655
G1 X179.368 Y178.909 E.033
G1 X178.477 Y179.566 E.04124
G1 X177.711 Y179.812 E.02993
G1 X177.2 Y179.857 E.01913
G1 X152.8 Y179.857 E.90881
G1 X152.111 Y179.775 E.02584
G1 X151.69 Y179.64 E.01647
G1 X151.289 Y179.44 E.01668
G1 X150.707 Y178.988 E.02745
G1 X150.382 Y178.599 E.01889
G1 X150.049 Y177.984 E.02603
G1 X149.849 Y177.081 E.03445
G1 X149.643 Y161.532 E.5792
G1 X149.654 Y152.848 E.32345
G1 X149.95 Y151.745 E.04251
G1 X150.424 Y151.035 E.03182
; printing object Probe_holder_d2f.STL id:0 copy 0
EXCLUDE_OBJECT_START NAME=Probe_holder_d2f.STL_id_0_copy_0
G1 E-.8
G1 X177.313 Y176.984 F9000
G1 E.8 F1800
;TYPE:Outer wall
;WIDTH:0.499999
G1 F3000
G1 X177.174 Y177.05 E.00573
G1 X174.836 Y177.05 E.08708
;WIDTH:0.546374
G1 X174.597 Y177.027 E.00985
;WIDTH:0.592748
G1 X174.358 Y177.004 E.01076
;WIDTH:0.639122
G1 X174.119 Y176.98 E.01167
G1 X173.4 Y177.001 E.03492
;WIDTH:0.618134
G1 X172.727 Y176.991 E.03155
G1 X172.512 Y177.011 E.01014
;WIDTH:0.578756
G1 X172.297 Y177.03 E.00944
;WIDTH:0.539378
G1 X172.081 Y177.05 E.00875
;WIDTH:0.499999
G1 X170.211 Y177.05 E.06967
G3 X168.499 Y176.172 I5.622 J-13.071 E.07171
G1 X168.233 Y176.05 E.0109
G1 X162.021 Y176.05 E.23137
G1 X161.649 Y176.081 E.01391
G3 X159.755 Y177.05 I-7.798 J-12.908 E.07931
G1 X158.141 Y177.05 E.06012
;WIDTH:0.543989
G1 X157.909 Y177.028 E.0095
;WIDTH:0.587979
G1 X157.678 Y177.006 E.01033
;WIDTH:0.631968
G1 X157.446 Y176.984 E.01116
G1 X156.744 Y177.001 E.0337
;WIDTH:0.625939
G1 X156.021 Y176.987 E.03436
G1 X155.83 Y177.008 E.00914
;WIDTH:0.583959
G1 X155.639 Y177.029 E.00848
;WIDTH:0.541979
G1 X155.448 Y177.05 E.00782
;WIDTH:0.499999
G1 X152.875 Y177.05 E.09584
G1 X152.715 Y177.011 E.0061
G1 X152.65 Y176.873 E.00571
G2 X152.64 Y174.072 I-109.703 J-1.01 E.10432
;WIDTH:0.501489
G2 X152.604 Y172.685 I-125.047 J2.594 E.05185
;WIDTH:0.50796
G3 X152.642 Y171.475 I112.952 J2.986 E.04587
;WIDTH:0.499999
G2 X152.653 Y168.55 I-123.138 J-1.905 E.10896
G1 X152.695 Y168.411 E.00541
G1 X152.816 Y168.35 E.00503
G1 X155.406 Y168.35 E.09647
;WIDTH:0.539437
G1 X155.643 Y168.37 E.00965
;WIDTH:0.578875
G1 X155.881 Y168.389 E.01041
;WIDTH:0.618313
G2 X156.773 Y168.399 I.493 J-4.503 E.04188
;WIDTH:0.620466
G2 X157.514 Y168.39 I.334 J-3.098 E.03496
;WIDTH:0.580311
