; generated by SuperSlicer 2.5.59 on 2023-03-17 at 01:48:58 UTC


;
;

;
;
; 

; external perimeters extrusion width = 0.40mm
; perimeters extrusion width = 0.46mm
; infill extrusion width = 0.64mm
; solid infill extrusion width = 0.56mm
; top infill extrusion width = 0.40mm
; support material extrusion width = 0.46mm
; first layer extrusion width = 0.50mm

; object:{"name":"Pudding Park","id":"Pudding Park.stl id:0 copy 0","object_center":[165.000000,165.000000,0.000000],"boundingbox_center":[165.000000,165.000000,9.172001],"boundingbox_size":[109.954010,60.044014,18.344002]}
EXCLUDE_OBJECT_DEFINE NAME=Pudding_Park_stl_id_0_copy_0 CENTER=165.000000,165.000000 POLYGON=[[110.022992,136.578000],[110.043000,136.328000],[110.103000,136.084000],[110.199000,135.851984],[110.328992,135.638000],[110.493000,135.446000],[110.683000,135.284000],[110.896992,135.152000],[111.129000,135.056000],[111.372992,134.998000],[111.622992,134.978000],[218.376992,134.978000],[218.626992,134.998000],[218.871008,135.056000],[219.102992,135.152000],[219.317008,135.284000],[219.507008,135.446000],[219.671008,135.638000],[219.800992,135.851984],[219.897008,136.084000],[219.957008,136.328000],[219.977008,136.578000],[219.977008,179.827984],[219.953008,180.098000],[219.884992,180.360000],[219.772992,180.608000],[219.621008,180.832000],[219.434992,181.028000],[219.216992,181.190000],[218.975008,181.312000],[180.367008,194.982000],[180.244992,195.012000],[180.121008,195.022000],[149.878992,195.022000],[149.755008,195.012000],[149.632992,194.982000],[111.024992,181.312000],[110.783000,181.190000],[110.564992,181.028000],[110.379000,180.832000],[110.227000,180.608000],[110.115000,180.360000],[110.047000,180.098000],[110.022992,179.827984],[110.022992,136.578000]]
; plater:{"center":[165.000000,165.000000,0.000000],"boundingbox_center":[165.000000,165.000000,9.172001],"boundingbox_size":[109.954010,60.044014,18.344002]}

M73 P0 R95
M73 P0 R95
;TYPE:Custom
; custom gcode: start_gcode
START_PRINT T_BED=60 T_EXTRUDER=200
; custom gcode end: start_gcode
M107
G21 ; set units to millimeters
G90 ; use absolute coordinates
M82 ; use absolute distances for extrusion
G92 E0
; custom gcode: start_filament_gcode
; Filament gcode

    PRESSURE_ADVANCE_SELECT FILAMENT=PLA
; custom gcode end: start_filament_gcode
;_TOOLCHANGE 0
M109 S200 ; set temperature and wait for it to be reached
M190 S60 ; set bed temperature and wait for it to be reached
;LAYER_CHANGE
;Z:0.2
;HEIGHT:0.2
G1 Z0.2 F9000
M73 P0 R95
G1 E-0.8 F3000
M204 S1000
G1 X108.544 Y132.833 F9000
G1 E0 F1800
;TYPE:Skirt
;WIDTH:0.52
G1 X107.741 Y133.614 E0.04355
G1 X106.994 Y134.685 E0.09431
G1 X106.647 Y135.558 E0.13083
G1 X106.5 Y136.592 E0.17144
G1 X106.5 Y179.818 E1.85186
G1 X106.679 Y181.053 E1.90039
G1 X107.091 Y182.136 E1.94544
G1 X107.798 Y183.149 E1.99348
G1 X108.137 Y183.504 E2.01257
G1 X108.98 Y184.174 E2.05444
G1 X109.917 Y184.64 E2.0951
G1 X148.666 Y198.377 E3.69337
G1 X149.907 Y198.59 E3.74232
G1 X180.093 Y198.59 E4.91581
G1 X181.334 Y198.377 E4.96476
G1 X220.019 Y184.668 E6.56032
G1 X221.018 Y184.175 E6.60363
G1 X222.202 Y183.149 E6.66453
G1 X222.909 Y182.136 E6.71258
G1 X223.321 Y181.053 E6.75762
G1 X223.5 Y179.818 E6.80615
G1 X223.5 Y136.592 E8.48658
G1 X223.353 Y135.558 E8.52718
G1 X223.047 Y134.787 E8.55945
G1 X222.537 Y133.996 E8.59603
G1 X221.341 Y132.696 E8.66473
G1 X220.001 Y131.822 E8.7269
G1 X219.372 Y131.593 E8.75292
G1 X218.369 Y131.455 E8.79227
G1 X196.931 Y131.455 E9.62569
G1 X111.636 Y131.455 E12.9416
G1 X110.607 Y131.6 E12.98203
G1 X109.651 Y132.005 E13.02237
G1 X108.544 Y132.833 E13.07614
G1 X108.849 Y133.199 F9000
G1 F1800
G1 X108.078 Y133.952 E13.11801
G1 X107.427 Y134.885 E13.16225
G1 X107.105 Y135.691 E13.19599
G1 X106.977 Y136.592 E13.23138
G1 X106.977 Y179.818 E14.91181
G1 X107.145 Y180.955 E14.9565
G1 X107.505 Y181.898 E14.99576
G1 X108.143 Y182.82 E15.03932
G1 X108.482 Y183.174 E15.0584
G1 X109.246 Y183.778 E15.09626
G1 X110.252 Y184.258 E15.13959
G1 X148.826 Y197.927 E16.73054
G1 X149.907 Y198.113 E16.77321
G1 X180.093 Y198.113 E17.94669
G1 X181.174 Y197.927 E17.98936
G1 X219.86 Y184.219 E19.58492
G1 X220.752 Y183.779 E19.62361
G1 X221.857 Y182.82 E19.68049
G1 X222.495 Y181.898 E19.72405
G1 X222.855 Y180.955 E19.76331
G1 X223.023 Y179.818 E19.808
G1 X223.023 Y136.592 E21.48843
M73 P0 R95
G1 X222.895 Y135.691 E21.52382
G1 X222.626 Y135.011 E21.55224
G1 X222.171 Y134.302 E21.58502
G1 X221.003 Y133.033 E21.65204
G1 X219.798 Y132.254 E21.70783
G1 X219.243 Y132.053 E21.73078
G1 X218.369 Y131.933 E21.76507
G1 X196.931 Y131.932 E22.5985
G1 X111.636 Y131.932 E25.91441
G1 X110.731 Y132.06 E25.94994
G1 X109.878 Y132.424 E25.98599
G1 X108.849 Y133.199 E26.03609
G92 E0
G1 E-0.8 F3000
; printing object Pudding Park.stl id:0 copy 0
EXCLUDE_OBJECT_START NAME=Pudding_Park_stl_id_0_copy_0
; acceleration to travel
M204 S3000
G1 X162.44 Y172.399 F9000
; decel to extrusion
M204 S1000
G1 X180.303 Y185.465
; end travel
G1 E0 F1800
;TYPE:Internal perimeter
;WIDTH:0.5
G1 X179.605 Y186.273 E0.03977
G1 X179.609 Y193.71 E0.31677
G1 X150.391 Y193.71 E1.40502
G1 X150.394 Y186.276 E1.68193
G1 X149.585 Y185.334 E1.72818
G1 X141.949 Y184.741 E2.01345
G1 X134.303 Y183.921 E2.29988
G1 X126.689 Y182.868 E2.58617
G1 X119.109 Y181.582 E2.87252
G1 X111.674 Y180.086 E3.15501
G1 X111.586 Y180.05 E3.15854
G1 X111.417 Y179.873 E3.16767
G1 X111.38 Y179.696 E3.1744
G1 X111.38 Y136.876 E4.76927
G1 X111.682 Y136.574 E4.78523
G1 X112.009 Y136.335 E4.8003
G1 X218.079 Y136.335 E8.75101
G1 X218.381 Y136.637 E8.76691
G1 X218.62 Y136.965 E8.78203
G1 X218.62 Y179.696 E10.37362
G1 X218.583 Y179.873 E10.38035
G1 X218.413 Y180.051 E10.38951
G1 X218.328 Y180.086 E10.39293
G1 X210.891 Y181.582 E10.6755
G1 X203.311 Y182.868 E10.96185
G1 X195.695 Y183.921 E11.24821
G1 X188.051 Y184.741 E11.53457
M73 P1 R94
G1 X180.417 Y185.333 E11.81976
G1 X180.303 Y185.465 E11.82623
G1 X180.583 Y185.84 F9000
G1 F1800
G1 X180.063 Y186.443 E11.85589
G1 X180.066 Y194.167 E12.14359
G1 X149.934 Y194.167 E13.26591
G1 X149.937 Y186.445 E13.55353
G1 X149.362 Y185.775 E13.58644
G1 X141.907 Y185.196 E13.86493
G1 X134.247 Y184.374 E14.15186
G1 X126.619 Y183.32 E14.43867
G1 X119.026 Y182.032 E14.72554
G1 X111.54 Y180.526 E15.00994
G1 X111.385 Y180.462 E15.01621
G1 X111.28 Y180.391 E15.0209
G1 X111.053 Y180.155 E15.03311
G1 X110.983 Y180.032 E15.03837
G1 X110.922 Y179.744 E15.04934
G1 X110.922 Y136.827 E16.64783
G1 X110.989 Y136.621 E16.6559
G1 X111.384 Y136.226 E16.67671
G1 X111.829 Y135.9 E16.69726
G1 X111.92 Y135.877 E16.70075
G1 X112.122 Y135.877 E16.70827
G1 X218.138 Y135.878 E20.65698
G1 X218.332 Y135.942 E20.66458
G1 X218.729 Y136.339 E20.68548
G1 X219.052 Y136.78 E20.70585
G1 X219.078 Y136.891 E20.71007
G1 X219.078 Y179.744 E22.3062
G1 X219.017 Y180.032 E22.31717
G1 X218.947 Y180.155 E22.32242
G1 X218.72 Y180.391 E22.33463
G1 X218.614 Y180.463 E22.33939
G1 X218.462 Y180.525 E22.34551
G1 X210.974 Y182.032 E22.62999
G1 X203.381 Y183.32 E22.91687
G1 X195.751 Y184.374 E23.20375
G1 X188.093 Y185.196 E23.49061
G1 X180.64 Y185.775 E23.76905
G1 X180.583 Y185.84 E23.77228
G1 X180.863 Y186.216 F9000
;TYPE:External perimeter
G1 F1800
G1 X180.52 Y186.613 E23.79183
G1 X180.523 Y194.123 E24.07155
G1 X180.424 Y194.376 E24.08168
G1 X180.361 Y194.462 E24.08564
G1 X180.274 Y194.525 E24.08963
G1 X180.022 Y194.624 E24.09974
G1 X149.978 Y194.624 E25.21875
G1 X149.726 Y194.525 E25.22886
G1 X149.639 Y194.462 E25.23286
G1 X149.576 Y194.376 E25.23681
G1 X149.477 Y194.123 E25.24694
G1 X149.48 Y186.614 E25.52661
G1 X149.138 Y186.216 E25.54617
G1 X141.865 Y185.651 E25.81788
G1 X134.192 Y184.828 E26.10532
G1 X126.55 Y183.772 E26.39265
G1 X118.943 Y182.481 E26.68004
G1 X111.407 Y180.965 E26.96635
G1 X111.168 Y180.867 E26.97596
G1 X110.984 Y180.743 E26.98421
G1 X110.685 Y180.43 E27.00035
G1 X110.551 Y180.197 E27.01037
G1 X110.465 Y179.792 E27.0258
G1 X110.465 Y136.699 E28.63084
G1 X110.487 Y136.687 E28.63177
G1 X110.588 Y136.376 E28.64396
G1 X111.086 Y135.878 E28.67019
G1 X111.552 Y135.536 E28.69174
G1 X111.581 Y135.49 E28.69375
G1 X111.698 Y135.461 E28.69823
G1 X111.724 Y135.42 E28.70005
G1 X112.122 Y135.42 E28.71486
G1 X218.276 Y135.421 E32.6687
G1 X218.294 Y135.448 E32.6699
G1 X218.579 Y135.542 E32.68107
G1 X219.077 Y136.04 E32.70733
G1 X219.42 Y136.509 E32.72894
G1 X219.464 Y136.536 E32.73088
G1 X219.491 Y136.65 E32.73526
G1 X219.535 Y136.679 E32.73722
G1 X219.535 Y179.792 E34.34299
G1 X219.449 Y180.197 E34.35842
G1 X219.315 Y180.43 E34.36844
G1 X219.016 Y180.743 E34.38457
G1 X218.83 Y180.868 E34.39289
G1 X218.596 Y180.965 E34.40235
G1 X211.057 Y182.481 E34.68875
G1 X203.45 Y183.772 E34.97614
G1 X195.807 Y184.828 E35.26354
G1 X188.135 Y185.651 E35.55091
G1 X180.863 Y186.216 E35.82259
;WIPE_START
M204 S4000
G1 X180.502 Y186.042 F9000
;WIPE_END
G92 E0
G1 E-0.8 F3000
; acceleration to travel
M204 S3000
G1 X207.461 Y150.147 F9000
; decel to extrusion
M204 S1000
G1 X217.731 Y136.472
; end travel
G1 E0 F1800
;TYPE:Solid infill
;WIDTH:0.500516
G1 F3600
G1 X218.483 Y137.224 E0.03965
G1 X218.483 Y137.871 F9000
G1 F3600
G1 X217.085 Y136.472 E0.11338
G1 X216.439 Y136.472 F9000
G1 F3600
G1 X218.483 Y138.517 E0.2212
G1 X218.483 Y139.163 F9000
G1 F3600
G1 X215.792 Y136.472 E0.3631
G1 X215.146 Y136.472 F9000
G1 F3600
G1 X218.483 Y139.81 E0.53908
G1 X218.483 Y140.456 F9000
G1 F3600
G1 X214.499 Y136.472 E0.74915
G1 X213.853 Y136.472 F9000
G1 F3600
G1 X218.483 Y141.103 E0.9933
G1 X218.483 Y141.749 F9000
G1 F3600
G1 X213.207 Y136.472 E1.27154
G1 X212.56 Y136.472 F9000
G1 F3600
G1 X218.483 Y142.395 E1.58386
G1 X218.483 Y143.042 F9000
G1 F3600
G1 X211.914 Y136.472 E1.93027
G1 X211.267 Y136.472 F9000
G1 F3600
G1 X218.483 Y143.688 E2.31076
G1 X218.483 Y144.335 F9000
G1 F3600
G1 X210.621 Y136.472 E2.72533
G1 X209.974 Y136.472 F9000
G1 F3600
G1 X218.483 Y144.981 E3.17399
G1 X218.483 Y145.628 F9000
G1 F3600
G1 X209.328 Y136.472 E3.65673
G1 X208.682 Y136.472 F9000
G1 F3600
G1 X218.483 Y146.274 E4.17356
G1 X218.483 Y146.92 F9000
G1 F3600
G1 X208.035 Y136.472 E4.72447
G1 X207.389 Y136.472 F9000
G1 F3600
G1 X218.483 Y147.567 E5.30947
G1 X218.483 Y148.213 F9000
G1 F3600
G1 X206.742 Y136.472 E5.92855
G1 X206.096 Y136.472 F9000
G1 F3600
G1 X218.483 Y148.86 E6.58171
G1 X218.483 Y149.506 F9000
G1 F3600
G1 X205.45 Y136.472 E7.26896
G1 X204.803 Y136.472 F9000
G1 F3600
G1 X218.483 Y150.152 E7.99029
G1 X218.483 Y150.799 F9000
G1 F3600
G1 X204.157 Y136.472 E8.74571
G1 X203.51 Y136.472 F9000
G1 F3600
G1 X218.483 Y151.445 E9.53521
G1 X218.483 Y152.092 F9000
G1 F3600
G1 X202.864 Y136.472 E10.3588
G1 X202.218 Y136.472 F9000
G1 F3600
G1 X218.483 Y152.738 E11.21647
G1 X218.483 Y153.384 F9000
G1 F3600
G1 X201.571 Y136.472 E12.10822
G1 X200.925 Y136.472 F9000
G1 F3600
G1 X218.483 Y154.031 E13.03406
G1 X218.483 Y154.677 F9000
G1 F3600
G1 X200.278 Y136.472 E13.99398
G1 X199.632 Y136.472 F9000
G1 F3600
G1 X218.483 Y155.324 E14.98799
G1 X218.483 Y155.97 F9000
G1 F3600
G1 X198.985 Y136.472 E16.01608
G1 X198.339 Y136.472 F9000
G1 F3600
G1 X218.483 Y156.616 E17.07825
G1 X218.483 Y157.263 F9000
G1 F3600
G1 X197.693 Y136.472 E18.17451
G1 X197.046 Y136.472 F9000
G1 F3600
G1 X218.483 Y157.909 E19.30486
G1 X218.483 Y158.556 F9000
G1 F3600
G1 X196.4 Y136.472 E20.46928
G1 X195.753 Y136.472 F9000
G1 F3600
G1 X218.483 Y159.202 E21.6678
G1 X218.483 Y159.848 F9000
G1 F3600
G1 X195.107 Y136.472 E22.90039
G1 X194.461 Y136.472 F9000
G1 F3600
G1 X218.483 Y160.495 E24.16707
G1 X218.483 Y161.141 F9000
G1 F3600
G1 X193.814 Y136.472 E25.46784
G1 X193.168 Y136.472 F9000
G1 F3600
G1 X218.483 Y161.788 E26.80269
G1 X218.483 Y162.434 F9000
G1 F3600
G1 X192.521 Y136.472 E28.17162
G1 X191.875 Y136.472 F9000
G1 F3600
G1 X218.483 Y163.081 E29.57464
G1 X218.483 Y163.727 F9000
G1 F3600
G1 X191.229 Y136.472 E31.01174
G1 X190.582 Y136.472 F9000
G1 F3600
G1 X218.483 Y164.373 E32.48293
G1 X218.483 Y165.02 F9000
G1 F3600
G1 X189.936 Y136.472 E33.9882
G1 X189.289 Y136.472 F9000
G1 F3600
G1 X218.483 Y165.666 E35.52755
G1 X218.483 Y166.313 F9000
G1 F3600
G1 X188.643 Y136.472 E37.10099
G1 X187.996 Y136.472 F9000
G1 F3600
G1 X218.483 Y166.959 E38.70851
G1 X218.483 Y167.605 F9000
G1 F3600
G1 X187.35 Y136.472 E40.35012
M73 P1 R94
G1 X186.704 Y136.472 F9000
G1 F3600
G1 X218.483 Y168.252 E42.02581
G1 X218.483 Y168.898 F9000
G1 F3600
G1 X186.057 Y136.472 E43.73559
G1 X185.411 Y136.472 F9000
G1 F3600
G1 X218.483 Y169.545 E45.47945
G1 X218.483 Y170.191 F9000
G1 F3600
G1 X184.764 Y136.472 E47.25739
G1 X184.118 Y136.472 F9000
G1 F3600
G1 X218.483 Y170.837 E49.06942
G1 X218.483 Y171.484 F9000
G1 F3600
G1 X183.472 Y136.472 E50.91554
G1 X182.825 Y136.472 F9000
G1 F3600
G1 X218.483 Y172.13 E52.79573
G1 X218.483 Y172.777 F9000
G1 F3600
G1 X182.179 Y136.472 E54.71002
G1 X181.532 Y136.472 F9000
G1 F3600
G1 X218.483 Y173.423 E56.65838
G1 X218.483 Y174.069 F9000
G1 F3600
G1 X180.886 Y136.472 E58.64083
G1 X180.24 Y136.472 F9000
G1 F3600
G1 X218.483 Y174.716 E60.65737
G1 X218.483 Y175.362 F9000
G1 F3600
G1 X179.593 Y136.472 E62.70798
M73 P2 R93
G1 X178.947 Y136.472 F9000
G1 F3600
G1 X218.483 Y176.009 E64.79269
G1 X218.483 Y176.655 F9000
G1 F3600
G1 X178.3 Y136.472 E66.91147
G1 X177.654 Y136.472 F9000
G1 F3600
G1 X218.483 Y177.301 E69.06435
G1 X218.483 Y177.948 F9000
G1 F3600
G1 X177.008 Y136.472 E71.2513
G1 X176.361 Y136.472 F9000
G1 F3600
G1 X218.483 Y178.594 E73.47234
G1 X218.483 Y179.241 F9000
G1 F3600
G1 X175.715 Y136.472 E75.72746
G1 X175.068 Y136.472 F9000
G1 F3600
G1 X218.483 Y179.887 E78.01667
G1 X217.968 Y180.019 F9000
G1 F3600
G1 X174.422 Y136.472 E80.31281
G1 X173.775 Y136.472 F9000
G1 F3600
G1 X217.43 Y180.127 E82.61466
G1 X216.892 Y180.235 F9000
G1 F3600
G1 X173.129 Y136.472 E84.92222
G1 X172.483 Y136.472 F9000
G1 F3600
G1 X216.354 Y180.343 E87.23549
G1 X215.816 Y180.452 F9000
G1 F3600
G1 X171.836 Y136.472 E89.55446
G1 X171.19 Y136.472 F9000
G1 F3600
G1 X215.278 Y180.56 E91.87915
G1 X214.74 Y180.668 F9000
G1 F3600
G1 X170.543 Y136.472 E94.20955
G1 X169.897 Y136.472 F9000
G1 F3600
G1 X214.201 Y180.776 E96.54565
G1 X213.663 Y180.885 F9000
G1 F3600
G1 X169.251 Y136.472 E98.88747
G1 X168.604 Y136.472 F9000
G1 F3600
G1 X213.125 Y180.993 E101.23499
G1 X212.587 Y181.101 F9000
G1 F3600
G1 X167.958 Y136.472 E103.58823
G1 X167.311 Y136.472 F9000
G1 F3600
G1 X212.049 Y181.21 E105.94717
G1 X211.511 Y181.318 F9000
G1 F3600
G1 X166.665 Y136.472 E108.31183
G1 X166.019 Y136.472 F9000
G1 F3600
G1 X210.973 Y181.426 E110.68219
G1 X210.423 Y181.523 F9000
G1 F3600
G1 X165.372 Y136.472 E113.05765
G1 X164.726 Y136.472 F9000
G1 F3600
G1 X209.87 Y181.617 E115.43805
G1 X209.318 Y181.71 F9000
G1 F3600
G1 X164.079 Y136.472 E117.82339
G1 X163.433 Y136.472 F9000
G1 F3600
G1 X208.765 Y181.804 E120.21368
G1 X208.212 Y181.898 F9000
G1 F3600
G1 X162.786 Y136.472 E122.6089
G1 X162.14 Y136.472 F9000
G1 F3600
G1 X207.66 Y181.991 E125.00908
G1 X207.107 Y182.085 F9000
G1 F3600
G1 X161.494 Y136.472 E127.41419
G1 X160.847 Y136.472 F9000
G1 F3600
G1 X206.554 Y182.179 E129.82424
G1 X206.002 Y182.273 F9000
G1 F3600
G1 X160.201 Y136.472 E132.23924
G1 X159.554 Y136.472 F9000
G1 F3600
G1 X205.449 Y182.366 E134.65919
G1 X204.896 Y182.46 F9000
G1 F3600
G1 X158.908 Y136.472 E137.08407
G1 X158.262 Y136.472 F9000
G1 F3600
G1 X204.343 Y182.554 E139.5139
G1 X203.791 Y182.648 F9000
G1 F3600
G1 X157.615 Y136.472 E141.94867
G1 X156.969 Y136.472 F9000
G1 F3600
G1 X203.237 Y182.74 E144.3883
G1 X202.669 Y182.818 F9000
G1 F3600
G1 X156.322 Y136.472 E146.83208
G1 X155.676 Y136.472 F9000
G1 F3600
G1 X202.101 Y182.897 E149.27999
G1 X201.533 Y182.975 F9000
G1 F3600
G1 X155.03 Y136.472 E151.73205
G1 X154.383 Y136.472 F9000
G1 F3600
G1 X200.965 Y183.054 E154.18824
G1 X200.397 Y183.132 F9000
G1 F3600
G1 X153.737 Y136.472 E156.64857
G1 X153.09 Y136.472 F9000
G1 F3600
G1 X199.829 Y183.211 E159.11305
G1 X199.261 Y183.289 F9000
G1 F3600
G1 X152.444 Y136.472 E161.58166
G1 X151.797 Y136.472 F9000
G1 F3600
G1 X198.693 Y183.368 E164.05441
G1 X198.126 Y183.446 F9000
G1 F3600
G1 X151.151 Y136.472 E166.5313
M73 P2 R93
G1 X150.505 Y136.472 F9000
G1 F3600
G1 X197.558 Y183.525 E169.01233
G1 X196.99 Y183.603 F9000
G1 F3600
