; HEADER_BLOCK_START
; generated by OrcaSlicer 1.7.0-beta on 2023-09-19 at 19:18:44
; total layer number: 125
; HEADER_BLOCK_END

; THUMBNAIL_BLOCK_START
; THUMBNAIL_BLOCK_END

; external perimeters extrusion width = 0.40mm
; perimeters extrusion width = 0.46mm
; infill extrusion width = 0.64mm
; solid infill extrusion width = 0.56mm
; top infill extrusion width = 0.40mm
; first layer extrusion width = 0.50mm

; EXECUTABLE_BLOCK_START
EXCLUDE_OBJECT_DEFINE NAME=PulleyMountrightTop.stl_id_0_copy_0 CENTER=165,132.268 POLYGON=[[113.396,126.45],[113.408,126.294],[113.445,126.141],[113.505,125.996],[113.587,125.862],[113.689,125.743],[117.103,122.329],[117.222,122.227],[117.356,122.145],[154.338,102.154],[154.356,102.145],[154.427,102.112],[154.501,102.084],[154.52,102.079],[154.615,102.055],[154.653,102.048],[154.712,102.04],[154.81,102.036],[211.19,102.036],[211.288,102.04],[211.346,102.048],[211.385,102.055],[211.48,102.079],[211.499,102.084],[211.573,102.112],[211.644,102.145],[211.661,102.154],[211.746,102.204],[211.778,102.227],[211.824,102.262],[211.897,102.328],[216.311,106.743],[216.413,106.862],[216.495,106.996],[216.555,107.141],[216.592,107.293],[216.604,107.45],[216.604,116.621],[216.592,116.778],[216.555,116.93],[216.495,117.075],[194.298,159.571],[191.369,162.5],[187.227,162.5],[118.11,162.036],[117.954,162.023],[117.801,161.987],[117.656,161.927],[117.522,161.845],[117.403,161.743],[113.689,158.028],[113.587,157.909],[113.505,157.775],[113.445,157.63],[113.408,157.478],[113.396,157.321],[113.396,126.45]]
M73 P0 R43
;TYPE:Custom
START_PRINT T_BED=110 T_EXTRUDER=260
G90
G21
M83 ; use relative distances for extrusion
; Filament gcode
PRESSURE_ADVANCE_SELECT FILAMENT=ASA
M106 S0
;LAYER_CHANGE
;Z:0.2
;HEIGHT:0.2
;BEFORE_LAYER_CHANGE
;0.2
G92 E0

;_SET_FAN_SPEED_CHANGING_LAYER
SET_VELOCITY_LIMIT ACCEL=5000 ACCEL_TO_DECEL=2500
G1 E-.5 F2400
G1 X115.679 Y120.905 F12000
G1 Z.2
G1 E.5 F1800
;TYPE:Skirt
;WIDTH:0.5
G1 F3000
G1 X116.379 Y120.383 E.03086
G1 X153.386 Y100.38 E1.48691
G1 X153.948 Y100.148 E.0215
G1 X154.79 Y100.023 E.0301
G1 X211.204 Y100.023 E1.994
G1 X211.939 Y100.117 E.02619
G1 X212.847 Y100.52 E.03512
G1 X213.321 Y100.904 E.02156
G1 X217.735 Y105.318 E.22065
G1 X218.184 Y105.896 E.02585
G1 X218.578 Y106.963 E.04019
G1 X218.618 Y107.45 E.01727
G1 X218.578 Y117.108 E.34139
G1 X218.28 Y118.005 E.0334
G1 X195.979 Y160.551 E1.69789
G1 X195.459 Y161.259 E.03105
G1 X193.057 Y163.661 E.12005
G1 X190.997 Y164.514 E.07884
G1 X118.091 Y164.05 E2.57698
G1 X117.623 Y164.009 E.01658
G1 X116.557 Y163.615 E.04019
G1 X115.979 Y163.167 E.02585
G1 X111.949 Y159.08 E.20287
G1 X111.473 Y158.047 E.0402
G1 X111.382 Y157.321 E.02586
G1 X111.383 Y126.434 E1.09172
G1 X111.535 Y125.504 E.03332
G1 X111.968 Y124.666 E.03332
G1 X115.651 Y120.933 E.18536
G1 X115.976 Y121.254 F12000
G1 F3000
G1 X116.002 Y121.228 E.00132
G1 X116.596 Y120.785 E.02619
G1 X153.603 Y100.782 E1.48691
G1 X154.08 Y100.585 E.01823
G1 X154.79 Y100.48 E.02538
G1 X211.204 Y100.48 E1.994
G1 X211.824 Y100.559 E.02208
G1 X212.593 Y100.9 E.02974
G1 X212.998 Y101.227 E.01839
G1 X217.412 Y105.642 E.22065
G1 X217.794 Y106.135 E.02205
G1 X218.126 Y107.034 E.03389
G1 X218.161 Y107.45 E.01473
G1 X218.126 Y117.037 E.33886
G1 X217.876 Y117.793 E.02816
G1 X195.575 Y160.339 E1.69789
G1 X195.136 Y160.936 E.02618
G1 X192.734 Y163.337 E.12005
G1 X190.997 Y164.057 E.06647
G1 X118.094 Y163.593 E2.57687
G1 X117.695 Y163.557 E.01415
G1 X116.795 Y163.226 E.03388
G1 X116.302 Y162.844 E.02206
G1 X112.319 Y158.811 E.20034
G1 X111.918 Y157.94 E.03389
G1 X111.839 Y157.321 E.02206
G1 X111.84 Y126.434 E1.09172
G1 X111.97 Y125.646 E.02826
G1 X112.337 Y124.935 E.02827
G1 X115.948 Y121.283 E.18152
; printing object PulleyMountrightTop.stl id:0 copy 0
G1 E-.5 F2400
EXCLUDE_OBJECT_START NAME=PulleyMountrightTop.stl_id_0_copy_0
G1 X191.584 Y154.352 F12000
G1 E.5 F1800
;TYPE:Outer wall
G1 F3000
G1 X191.584 Y154.482 E.0046
G1 X193.048 Y155.947 E.0732
G1 X193.048 Y159.053 E.10981
G1 X190.852 Y161.25 E.10981
G1 X187.745 Y161.25 E.10981
G1 X184.781 Y158.286 E.14818
G1 X135.193 Y158.286 E1.75272
G1 X132.692 Y160.784 E.12494
G1 X118.214 Y160.786 E.51176
G1 X114.646 Y157.217 E.17836
G1 X114.647 Y126.554 E1.08381
G1 X117.914 Y123.286 E.16334
G1 X133.992 Y123.286 E.56829
G2 X135.564 Y122.635 I-.007 J-2.241 E.06167
G1 X154.914 Y103.287 E.96718
G1 X211.088 Y103.287 E1.98551
G1 X215.354 Y107.553 E.21323
G1 X215.354 Y116.518 E.3169
G1 X212.086 Y119.786 E.16334
G1 X208.237 Y119.786 E.13605
G2 X206.665 Y120.436 I.013 J2.253 E.06164
G1 X192.235 Y134.867 E.72134
G2 X191.584 Y136.438 I1.591 J1.58 E.06165
G1 X191.584 Y154.312 E.63177
G1 X191.138 Y154.683 F12000
;TYPE:Inner wall
G1 F3000
G1 X192.591 Y156.136 E.07262
G1 X192.591 Y158.864 E.09642
G1 X190.662 Y160.793 E.09642
G1 X187.934 Y160.793 E.09642
G1 X184.97 Y157.828 E.14818
G1 X135.004 Y157.828 E1.7661
M73 P0 R42
G1 X132.503 Y160.327 E.12494
G1 X118.403 Y160.328 E.49838
G1 X115.103 Y157.028 E.16497
G1 X115.104 Y126.743 E1.07042
G1 X118.104 Y123.743 E.14996
G1 X134.007 Y123.743 E.56212
G2 X135.877 Y122.969 I-.017 J-2.685 E.07333
G1 X155.103 Y103.744 E.96102
G1 X210.898 Y103.744 E1.97213
G1 X214.897 Y107.742 E.19985
G1 X214.897 Y116.329 E.30351
G1 X211.896 Y119.328 E.14995
G1 X208.222 Y119.328 E.12988
G2 X206.353 Y120.102 I.02 J2.69 E.0733
G1 X191.901 Y134.554 E.72241
G2 X191.202 Y135.791 I2.016 J1.954 E.05075
G1 X190.999 Y135.783 E.00721
G2 X190.661 Y139.151 I-5.512 J1.148 E1.12897
G1 X190.901 Y138.502 E.02446
G1 X191.127 Y138.542 E.00811
G1 X191.127 Y154.648 E.56927
G1 X190.67 Y154.758 F12000
G1 F3000
G1 X190.67 Y154.836 E.00277
G2 X186.442 Y158.368 I-1.36 J2.669 E.24712
M73 P1 R42
G1 X186.26 Y158.472 E.00741
G1 X185.159 Y157.371 E.055
G1 X134.814 Y157.371 E1.77948
G1 X132.314 Y159.87 E.12494
G1 X118.592 Y159.871 E.485
G1 X115.56 Y156.838 E.15159
G1 X115.561 Y126.933 E1.05704
G1 X118.293 Y124.2 E.13658
G1 X134.022 Y124.2 E.55595
G2 X136.189 Y123.302 I-.026 J-3.129 E.08499
G1 X155.293 Y104.202 E.95485
G1 X210.709 Y104.201 E1.95875
G1 X214.439 Y107.931 E.18647
G1 X214.439 Y116.14 E.29013
G1 X211.707 Y118.871 E.13657
G1 X208.207 Y118.871 E.12372
G2 X206.04 Y119.769 I.027 J3.13 E.08495
G1 X191.567 Y134.242 E.72348
G2 X191.181 Y134.732 I1.645 J1.691 E.0221
G1 X190.809 Y133.973 E.02986
G2 X190.484 Y140.407 I-5.321 J2.956 E1.11195
G1 X190.67 Y140.471 E.00693
G1 X190.67 Y154.718 E.50356
G1 X190.213 Y154.178 F12000
G1 F3000
G1 X189.734 Y154.075 E.01731
G1 X189.143 Y154.051 E.0209
G1 X188.571 Y154.125 E.0204
G1 X188.011 Y154.296 E.0207
G1 X187.488 Y154.56 E.0207
G1 X187.017 Y154.908 E.0207
G1 X186.612 Y155.331 E.0207
G1 X186.284 Y155.816 E.0207
G1 X186.043 Y156.35 E.0207
G1 X185.895 Y156.916 E.0207
G1 X185.853 Y157.418 E.0178
G1 X185.349 Y156.914 E.02519
G1 X155.488 Y156.914 E1.05546
G1 X155.462 Y156.668 E.00876
G2 X154.211 Y143.639 I-.93 J-6.485 E.70588
G2 X153.629 Y156.668 I.347 J6.543 E.68235
G1 X153.604 Y156.914 E.00876
G1 X134.625 Y156.914 E.67083
G1 X132.124 Y159.413 E.12494
G1 X118.782 Y159.414 E.47162
G1 X116.017 Y156.649 E.1382
G1 X116.018 Y127.122 E1.04366
G1 X118.482 Y124.657 E.12319
G1 X134.037 Y124.657 E.54978
G2 X136.502 Y123.636 I-.036 J-3.574 E.09666
G1 X155.482 Y104.659 E.94868
G1 X210.52 Y104.658 E1.94536
G1 X213.982 Y108.121 E.17308
G1 X213.982 Y115.95 E.27674
G1 X211.518 Y118.414 E.12318
G1 X208.192 Y118.414 E.11756
G2 X205.728 Y119.435 I.037 J3.574 E.0966
G1 X191.287 Y133.875 E.72185
G2 X188.948 Y131.372 I-6.075 J3.331 E.12237
G2 X189.492 Y142.108 I-3.459 J5.557 E1.00787
G1 X190.213 Y141.489 E.03356
G1 X190.213 Y154.138 E.44707
G1 X189.756 Y153.618 F12000
G1 F3000
G1 X189.123 Y153.593 E.02237
G1 X188.474 Y153.676 E.02312
G1 X187.84 Y153.871 E.02345
G1 X187.248 Y154.169 E.02345
G1 X186.714 Y154.564 E.02345
G1 X186.255 Y155.043 E.02345
G1 X185.884 Y155.592 E.02345
G1 X185.61 Y156.197 E.02345
G1 X185.542 Y156.457 E.00951
G1 X158.077 Y156.457 E.97079
G1 X158.024 Y156.252 E.0075
G1 X158.252 Y156.125 E.00922
G2 X150.84 Y156.125 I-3.706 J-5.941 E1.27898
G1 X151.068 Y156.252 E.00922
G1 X151.015 Y156.457 E.0075
G1 X134.436 Y156.457 E.58599
G1 X131.935 Y158.955 E.12494
G1 X118.971 Y158.957 E.45824
G1 X116.474 Y156.46 E.12482
G1 X116.475 Y127.311 E1.03028
G1 X118.672 Y125.114 E.10981
G1 X134.052 Y125.114 E.54361
G2 X136.815 Y123.97 I-.046 J-4.018 E.10832
G1 X149.957 Y110.829 E.6569
G1 X150.138 Y110.929 E.00729
G1 X150.035 Y111.378 E.01629
G1 X149.986 Y112.036 E.0233
G1 X150.035 Y112.693 E.0233
G1 X150.182 Y113.335 E.0233
G1 X150.423 Y113.949 E.02329
G1 X150.752 Y114.52 E.02329
G1 X151.163 Y115.035 E.0233
G1 X151.646 Y115.483 E.0233
G1 X152.191 Y115.854 E.0233
G1 X152.785 Y116.14 E.02329
G1 X153.414 Y116.335 E.0233
G1 X154.066 Y116.433 E.0233
G1 X154.725 Y116.433 E.02329
G1 X155.377 Y116.335 E.0233
G1 X156.01 Y116.139 E.02341
G1 X156.608 Y115.849 E.02352
G1 X157.145 Y115.483 E.02295
G1 X157.628 Y115.035 E.0233
G1 X158.039 Y114.52 E.0233
G1 X158.368 Y113.949 E.02329
G1 X158.609 Y113.335 E.0233
G1 X158.756 Y112.693 E.02329
G1 X158.805 Y112.036 E.0233
G1 X158.756 Y111.375 E.02341
G1 X158.606 Y110.727 E.02352
G1 X158.368 Y110.122 E.02295
G1 X158.039 Y109.552 E.02329
G1 X157.628 Y109.036 E.0233
G1 X157.145 Y108.588 E.0233
G1 X156.6 Y108.217 E.02329
G1 X156.007 Y107.931 E.02329
G1 X155.377 Y107.737 E.0233
G1 X154.725 Y107.638 E.0233
G1 X154.066 Y107.638 E.02329
G1 X153.414 Y107.737 E.0233
G1 X153.314 Y107.768 E.00373
G1 X153.203 Y107.584 E.00758
G1 X155.671 Y105.116 E.12338
G1 X210.33 Y105.115 E1.93198
G1 X213.525 Y108.31 E.1597
G1 X213.525 Y115.761 E.26336
G1 X211.328 Y117.957 E.1098
G1 X208.177 Y117.957 E.1114
G2 X205.415 Y119.101 I.047 J4.019 E.10825
G1 X191.371 Y133.145 E.70205
G1 X191.234 Y132.927 E.0091
G2 X178.475 Y136.985 I-5.747 J4.018 E.62885
G1 X178.053 Y136.514 E.02236
G1 X167.421 Y126.493 E.51641
G1 X167.06 Y126.207 E.01628
G2 X165.5 Y125.665 I-1.965 J3.14 E.05887
G1 X164.907 Y125.666 E.02096
G1 X164.921 Y125.072 E.02101
G1 X164.844 Y124.564 E.01814
G2 X164.221 Y123.405 I-2.966 J.849 E.04688
G2 X163.287 Y122.488 I-6.299 J5.477 E.04633
G1 X162.749 Y122.14 E.02263
G1 X162.164 Y121.881 E.02263
G1 X161.545 Y121.716 E.02263
G1 X160.908 Y121.651 E.02263
G1 X160.269 Y121.685 E.02263
G1 X159.643 Y121.82 E.02263
G1 X159.045 Y122.05 E.02263
G1 X158.491 Y122.372 E.02263
G1 X158.064 Y122.719 E.01949
G1 X145.457 Y134.73 E.61545
G1 X145.12 Y135.111 E.01798
G1 X144.801 Y135.625 E.02138
G1 X144.574 Y136.186 E.02138
G1 X144.446 Y136.777 E.02138
G1 X144.419 Y137.381 E.02138
G1 X144.494 Y137.981 E.02138
G1 X144.671 Y138.56 E.02138
G1 X144.942 Y139.1 E.02138
G1 X145.301 Y139.587 E.02138
G1 X145.738 Y140.006 E.02138
G1 X146.238 Y140.345 E.02138
G1 X146.789 Y140.594 E.02138
G1 X147.375 Y140.747 E.02138
G2 X149.034 Y140.758 I.894 J-9.223 E.05874
G2 X150.743 Y139.94 I-.49 J-3.219 E.06796
G1 X151.869 Y138.867 E.05498
G2 X154.22 Y140.79 I2.431 J-.573 E.11538
G1 X158.163 Y140.79 E.13936
G2 X160.286 Y139.94 I-.111 J-3.356 E.0825
G1 X160.661 Y139.583 E.01831
G2 X162.724 Y140.79 I2.152 J-1.312 E.088
G1 X168.947 Y140.79 E.21996
G2 X170.337 Y140.305 I-.031 J-2.322 E.05295
G2 X171.968 Y140.79 I1.657 J-2.585 E.06096
G1 X176.355 Y140.79 E.15507
G2 X178.631 Y139.113 I-.073 J-2.482 E.10631
G1 X178.829 Y139.107 E.00697
G2 X189.756 Y142.481 I6.661 J-2.192 E.47263
G1 X189.756 Y153.578 E.39222
G1 E-.5 F2400
G1 X191.807 Y135.901 F12000
G1 X191.843 Y135.616
G1 X191.901 Y135.34
G1 X191.99 Y135.039
G1 X192.107 Y134.747
G1 X192.257 Y134.388
G1 X207.379 Y114.94
G1 X207.379 Y114.605
G1 E.5 F1800
;TYPE:Outer wall
G1 F3000
G1 X207.004 Y114.597 E.01326
G3 X207.003 Y109.467 I.192 J-2.565 E.27206
G1 X207.388 Y109.467 E.01361
G3 X207.416 Y114.595 I-.193 J2.565 E.27105
G1 X207.393 Y115.062 F12000
;TYPE:Inner wall
G1 F3000
G1 X206.97 Y115.053 E.01496
G3 X206.969 Y109.009 I.226 J-3.022 E.32047
G1 X207.423 Y109.009 E.01603
G3 X207.432 Y115.052 I-.227 J3.022 E.32012
G1 X207.397 Y115.519 F12000
G1 F3000
G1 X206.936 Y115.509 E.0163
G3 X206.935 Y108.552 I.26 J-3.478 E.36888
G1 X207.457 Y108.552 E.01845
G3 X207.456 Y115.509 I-.261 J3.478 E.36888
G1 X207.436 Y115.512 E.00072
G1 X207.4 Y115.976 F12000
G1 F3000
G1 X206.901 Y115.965 E.01764
G3 X206.901 Y108.095 I.294 J-3.935 E.41728
G1 X207.491 Y108.095 E.02087
G3 X207.49 Y115.965 I-.295 J3.935 E.41728
G1 X207.44 Y115.971 E.00179
G1 X207.404 Y116.433 F12000
G1 F3000
G1 X206.866 Y116.433 E.019
G1 X206.215 Y116.335 E.0233
G1 X205.585 Y116.14 E.0233
G1 X204.991 Y115.854 E.02329
G1 X204.446 Y115.483 E.0233
G1 X203.963 Y115.035 E.0233
G1 X203.552 Y114.52 E.02329
G1 X203.223 Y113.949 E.0233
G1 X202.982 Y113.335 E.02329
G1 X202.835 Y112.693 E.0233
G1 X202.786 Y112.036 E.02329
G1 X202.835 Y111.378 E.02329
G1 X202.982 Y110.736 E.0233
G1 X203.223 Y110.122 E.0233
G1 X203.552 Y109.552 E.02329
G1 X203.963 Y109.036 E.02329
G1 X204.446 Y108.588 E.0233
G1 X204.991 Y108.217 E.0233
G1 X205.585 Y107.931 E.02329
G1 X206.215 Y107.736 E.0233
G1 X206.866 Y107.638 E.0233
G1 X207.525 Y107.638 E.02329
G1 X208.177 Y107.736 E.0233
G1 X208.807 Y107.931 E.02329
G1 X209.401 Y108.217 E.02329
G1 X209.945 Y108.588 E.0233
G1 X210.428 Y109.036 E.0233
G1 X210.839 Y109.552 E.0233
G1 X211.169 Y110.122 E.02329
G1 X211.41 Y110.736 E.02329
G1 X211.556 Y111.378 E.0233
G1 X211.605 Y112.036 E.02329
G1 X211.556 Y112.693 E.02329
G1 X211.41 Y113.335 E.0233
G1 X211.169 Y113.949 E.02329
G1 X210.839 Y114.52 E.0233
G1 X210.428 Y115.035 E.0233
G1 X209.945 Y115.483 E.0233
G1 X209.401 Y115.854 E.0233
G1 X208.807 Y116.14 E.02329
G1 X208.177 Y116.335 E.0233
G1 X207.525 Y116.433 E.0233
G1 X207.444 Y116.433 E.00288
G1 E-.5 F2400
G1 X175.284 Y135.955 F12000
G1 X176.983 Y137.556
G1 X177.078 Y137.662
G1 X177.17 Y137.809
G1 X177.236 Y137.971
G1 X177.274 Y138.141
G1 X177.282 Y138.315
G1 X177.261 Y138.488
G1 X177.211 Y138.654
G1 X177.133 Y138.81
G1 X177.03 Y138.951
G1 X176.904 Y139.072
G1 X176.76 Y139.169
G1 X176.602 Y139.241
G1 X176.433 Y139.285
G1 X176.292 Y139.298
G1 X157.627 Y139.298
G1 X124.852 Y155.558
G1 X124.46 Y155.747
G1 X124.044 Y155.875
G1 X123.613 Y155.94
G1 X123.178 Y155.94
G1 X122.748 Y155.875
G1 X122.365 Y155.757
G1 X122.463 Y155.436
G1 E.5 F1800
;TYPE:Outer wall
G1 F3000
G1 X122.457 Y155.427 E.0004
G3 X123.203 Y150.467 I.939 J-2.395 E.24489
G1 X123.588 Y150.467 E.01361
G3 X122.824 Y155.54 I-.193 J2.565 E.29923
G1 X122.502 Y155.447 E.01185
G1 X122.315 Y155.869 F12000
;TYPE:Inner wall
G1 F3000
G1 X122.29 Y155.853 E.00106
G3 X123.169 Y150.009 I1.106 J-2.821 E.28847
M73 P2 R42
G1 X123.623 Y150.009 E.01603
G3 X122.722 Y155.986 I-.227 J3.022 E.35247
G1 X122.354 Y155.88 E.01355
G1 X122.065 Y156.261 F12000
G1 F3000
G1 X121.654 Y156.053 E.0163
G3 X123.135 Y149.552 I1.742 J-3.022 E.31362
G1 X123.657 Y149.552 E.01845
G3 X122.123 Y156.278 I-.261 J3.478 E.42413
G1 X122.104 Y156.272 E.00072
G1 X121.87 Y156.674 F12000
G1 F3000
G1 X121.425 Y156.448 E.01764
G3 X123.1 Y149.095 I1.971 J-3.418 E.35477
G1 X123.691 Y149.095 E.02087
G3 X121.956 Y156.704 I-.295 J3.935 E.47979
G1 X121.908 Y156.687 E.00179
G1 X121.675 Y157.088 F12000
G1 F3000
G1 X121.191 Y156.854 E.01901
G1 X120.646 Y156.483 E.02329
G1 X120.163 Y156.035 E.0233
G1 X119.752 Y155.52 E.0233
G1 X119.423 Y154.949 E.02329
G1 X119.186 Y154.344 E.02295
G1 X119.036 Y153.696 E.02352
G1 X118.986 Y153.036 E.02341
G1 X119.035 Y152.378 E.0233
G1 X119.182 Y151.736 E.02329
G1 X119.423 Y151.122 E.0233
G1 X119.752 Y150.552 E.02329
G1 X120.163 Y150.036 E.02329
G1 X120.646 Y149.588 E.0233
G1 X121.191 Y149.217 E.02329
G1 X121.785 Y148.931 E.0233
G1 X122.414 Y148.736 E.02329
G1 X123.066 Y148.638 E.0233
G1 X123.725 Y148.638 E.0233
G1 X124.377 Y148.736 E.0233
G1 X125.007 Y148.931 E.02329
G1 X125.601 Y149.217 E.02329
G1 X126.145 Y149.588 E.0233
G1 X126.628 Y150.036 E.0233
G1 X127.039 Y150.552 E.0233
G1 X127.369 Y151.122 E.02329
G1 X127.609 Y151.736 E.0233
G1 X127.756 Y152.378 E.0233
G1 X127.805 Y153.036 E.0233
G1 X127.756 Y153.693 E.0233
G1 X127.609 Y154.335 E.02329
G1 X127.369 Y154.949 E.0233
G1 X127.039 Y155.52 E.02329
G1 X126.628 Y156.035 E.02329
G1 X126.145 Y156.483 E.0233
G1 X125.601 Y156.854 E.02329
G1 X125.007 Y157.14 E.0233
G1 X124.377 Y157.335 E.02329
