; generated by SuperSlicer 2.5.59 on 2023-03-10 at 21:46:05 UTC


;
;

;
;
; 

; external perimeters extrusion width = 0.40mm
; perimeters extrusion width = 0.46mm
; infill extrusion width = 0.64mm
; solid infill extrusion width = 0.56mm
; top infill extrusion width = 0.40mm
; support material extrusion width = 0.46mm
; first layer extrusion width = 0.50mm

; object:{"name":"Putting Gate","id":"Putting Gate id:0 copy 0","object_center":[165.000000,165.000000,0.000000],"boundingbox_center":[165.000000,165.000000,2.000000],"boundingbox_size":[100.000000,110.000000,4.000000]}
; plater:{"center":[165.000000,165.000000,0.000000],"boundingbox_center":[165.000000,165.000000,2.000000],"boundingbox_size":[100.000000,110.000000,4.000000]}

M73 P0 R43


; Pre-Processed for Cancel-Object support by preprocess_cancellation v0.2.0
; 1 known objects
EXCLUDE_OBJECT_DEFINE NAME=Putting_Gate_id_0_copy_0 CENTER=165.077,167.241 POLYGON=[[115.2,110.2],[115.2,219.8],[214.8,219.8],[214.8,110.2]]
;TYPE:Custom
; custom gcode: start_gcode
START_PRINT T_BED=70 T_EXTRUDER=235
; custom gcode end: start_gcode
M107
G21 ; set units to millimeters
G90 ; use absolute coordinates
M82 ; use absolute distances for extrusion
G92 E0
; custom gcode: start_filament_gcode
; Filament gcode
PRESSURE_ADVANCE_SELECT FILAMENT=PETG
; custom gcode end: start_filament_gcode
;_TOOLCHANGE 0
M104 S235 ; set temperature
M109 S235 ; set temperature and wait for it to be reached
M190 S70 ; set bed temperature and wait for it to be reached
;LAYER_CHANGE
;Z:0.2
;HEIGHT:0.2
G1 Z0.2 F9000
M73 P0 R43
G1 E-1 F3000
M204 S1000
G1 X117.659 Y107.298 F9000
G1 E0 F1800
;TYPE:Skirt
;WIDTH:0.52
G1 X116.662 Y108.69 E0.06386
G1 X112.562 Y118.69 E0.46687
G1 X112.284 Y120.1 E0.52044
G1 X112.284 Y207.586 E3.78272
G1 X112.473 Y208.756 E3.82691
G1 X113.373 Y210.213 E3.89077
G1 X124.787 Y221.627 E4.49269
M73 P0 R42
G1 X125.748 Y222.321 E4.53689
G1 X127.414 Y222.716 E4.60074
G1 X202.586 Y222.716 E7.40383
G1 X203.756 Y222.527 E7.44802
G1 X205.213 Y221.627 E7.51188
G1 X216.627 Y210.213 E8.11381
G1 X217.321 Y209.252 E8.158
G1 X217.716 Y207.586 E8.22186
G1 X217.716 Y120.1 E11.48413
G1 X217.438 Y118.69 E11.5377
G1 X213.338 Y108.69 E11.94072
G1 X212.879 Y107.879 E11.97548
G1 X211.566 Y106.779 E12.03934
G1 X209.9 Y106.384 E12.10319
G1 X120.1 Y106.384 E15.45176
G1 X119.175 Y106.501 E15.48653
G1 X117.659 Y107.298 E15.55038
G1 X118.054 Y107.591 F9000
G1 F1800
G1 X117.104 Y108.871 E15.60984
G1 X113.004 Y118.871 E16.01286
G1 X112.761 Y120.1 E16.05955
G1 X112.761 Y207.586 E19.32182
G1 X112.894 Y208.503 E19.35637
G1 X113.71 Y209.876 E19.41593
G1 X125.124 Y221.29 E20.01786
G1 X125.866 Y221.845 E20.05241
G1 X127.414 Y222.239 E20.11196
G1 X202.586 Y222.239 E22.91505
G1 X203.503 Y222.106 E22.9496
G1 X204.876 Y221.29 E23.00916
G1 X216.29 Y209.876 E23.61108
G1 X216.845 Y209.134 E23.64564
G1 X217.239 Y207.586 E23.70519
G1 X217.239 Y120.1 E26.96746
G1 X216.996 Y118.871 E27.01416
G1 X212.896 Y108.871 E27.41717
G1 X211.448 Y107.255 E27.4981
G1 X209.9 Y106.861 E27.55766
G1 X120.1 Y106.861 E30.90623
G1 X118.054 Y107.591 E30.98724
G92 E0
G1 E-1 F3000
; printing object Putting Gate id:0 copy 0
EXCLUDE_OBJECT_START NAME=Putting_Gate_id_0_copy_0
; acceleration to travel
M204 S3000
G1 X120.462 Y110.346 F9000
; decel to extrusion
M204 S1000
G1 X121.264 Y111.264
; end travel
G1 E0 F1800
;TYPE:Internal perimeter
;WIDTH:0.5
G1 X128.736 Y111.264 E0.26693
G1 X128.736 Y121.264 E0.62419
G1 X132.836 Y121.264 E0.77067
G1 X132.836 Y194.896 E3.40125
M73 P1 R42
G1 X140.104 Y202.164 E3.76845
G1 X189.896 Y202.164 E5.54734
G1 X197.164 Y194.896 E5.91454
G1 X197.164 Y121.264 E8.54512
G1 X201.264 Y121.264 E8.6916
G1 X201.264 Y111.264 E9.04886
G1 X208.736 Y111.264 E9.31579
G1 X208.736 Y121.264 E9.67305
G1 X212.836 Y121.264 E9.81953
G1 X212.836 Y207.104 E12.88622
G1 X202.104 Y217.836 E13.42846
G1 X127.896 Y217.836 E16.07958
G1 X117.164 Y207.104 E16.62182
G1 X117.164 Y121.264 E19.68851
M73 P2 R42
G1 X121.264 Y121.264 E19.83499
G1 X121.264 Y111.264 E20.19225
G1 X120.807 Y110.807 F9000
G1 F1800
G1 X129.193 Y110.807 E20.49184
G1 X129.193 Y120.807 E20.8491
G1 X133.293 Y120.807 E20.99558
G1 X133.293 Y194.707 E23.63572
G1 X140.293 Y201.707 E23.98939
G1 X189.707 Y201.707 E25.75476
G1 X196.707 Y194.707 E26.10843
G1 X196.707 Y120.807 E28.74858
M73 P2 R42
G1 X200.807 Y120.807 E28.89505
G1 X200.807 Y110.807 E29.25231
G1 X209.193 Y110.807 E29.55191
G1 X209.193 Y120.807 E29.90917
G1 X213.293 Y120.807 E30.05564
G1 X213.293 Y207.293 E33.14543
G1 X202.293 Y218.293 E33.7012
G1 X127.707 Y218.293 E36.36584
G1 X116.707 Y207.293 E36.92161
G1 X116.707 Y120.807 E40.0114
G1 X120.807 Y120.807 E40.15787
G1 X120.807 Y110.807 E40.51513
G1 X120.35 Y110.35 F9000
;TYPE:External perimeter
G1 F1800
G1 X129.65 Y110.35 E40.84739
G1 X129.65 Y120.35 E41.20464
G1 X133.75 Y120.35 E41.35112
G1 X133.75 Y194.518 E44.00083
G1 X140.482 Y201.25 E44.34098
G1 X189.518 Y201.25 E46.09282
G1 X196.25 Y194.518 E46.43296
G1 X196.25 Y120.35 E49.08267
G1 X200.35 Y120.35 E49.22915
G1 X200.35 Y110.35 E49.58641
G1 X209.65 Y110.35 E49.91866
G1 X209.65 Y120.35 E50.27592
G1 X213.75 Y120.35 E50.42239
G1 X213.75 Y207.482 E53.53527
G1 X202.482 Y218.75 E54.10457
G1 X127.518 Y218.75 E56.78274
M73 P3 R41
G1 X116.25 Y207.482 E57.35204
G1 X116.25 Y120.35 E60.46492
G1 X120.35 Y120.35 E60.6114
G1 X120.35 Y110.35 E60.96866
;WIPE_START
M204 S4000
G1 X120.696 Y110.55 F9000
;WIPE_END
G92 E0
G1 E-1 F3000
; acceleration to travel
M204 S3000
G1 X183.681 Y111.166 F9000
; decel to extrusion
M204 S1000
G1 X207.675 Y111.401
; end travel
G1 E0 F1800
;TYPE:Solid infill
;WIDTH:0.50155
G1 F3600
G1 X208.599 Y112.325 E0.04683
G1 X208.599 Y112.972 F9000
G1 F3600
G1 X207.028 Y111.401 E0.12642
G1 X206.382 Y111.401 F9000
G1 F3600
G1 X208.599 Y113.618 E0.23876
G1 X208.599 Y114.264 F9000
G1 F3600
G1 X205.736 Y111.401 E0.38387
G1 X205.089 Y111.401 F9000
G1 F3600
G1 X208.599 Y114.911 E0.56174
G1 X208.599 Y115.557 F9000
G1 F3600
G1 X204.443 Y111.401 E0.77237
G1 X203.796 Y111.401 F9000
G1 F3600
G1 X208.599 Y116.204 E1.01576
G1 X208.599 Y116.85 F9000
G1 F3600
G1 X203.15 Y111.401 E1.29191
G1 X202.504 Y111.401 F9000
G1 F3600
G1 X208.599 Y117.496 E1.60082
G1 X208.599 Y118.143 F9000
G1 F3600
G1 X201.857 Y111.401 E1.9425
G1 X201.401 Y111.592 F9000
G1 F3600
G1 X208.599 Y118.789 E2.30727
G1 X208.599 Y119.436 F9000
G1 F3600
G1 X201.401 Y112.238 E2.67204
G1 X201.401 Y112.885 F9000
G1 F3600
G1 X208.599 Y120.082 E3.03682
G1 X208.599 Y120.729 F9000
G1 F3600
G1 X201.401 Y113.531 E3.40159
G1 X201.401 Y114.177 F9000
G1 F3600
G1 X208.599 Y121.375 E3.76636
G92 E0
G1 E-1 F3000
; acceleration to travel
M204 S3000
G1 X211.043 Y121.395 F9000
; decel to extrusion
M204 S1000
G1 X211.857 Y121.401
; end travel
G1 E0 F1800
G1 F3600
G1 X212.699 Y122.243 E0.04265
G1 X212.699 Y122.889 F9000
G1 F3600
G1 X211.211 Y121.401 E0.11807
G1 X210.564 Y121.401 F9000
G1 F3600
G1 X212.699 Y123.536 E0.22625
G1 X212.699 Y124.182 F9000
G1 F3600
G1 X209.918 Y121.401 E0.36718
G1 X209.271 Y121.401 F9000
G1 F3600
G1 X212.699 Y124.829 E0.54088
G1 X212.699 Y125.475 F9000
G1 F3600
G1 X208.625 Y121.401 E0.74734
G92 E0
G1 E-1 F3000
; acceleration to travel
M204 S3000
G1 X211.68 Y124.941 F9000
; decel to extrusion
M204 S1000
G1 X212.699 Y126.121
; end travel
G1 E0 F1800
G1 F3600
G1 X201.401 Y114.824 E0.57256
G1 X201.401 Y115.47 F9000
G1 F3600
G1 X212.699 Y126.768 E1.14513
G1 X212.699 Y127.414 F9000
G1 F3600
G1 X201.401 Y116.117 E1.71769
G1 X201.401 Y116.763 F9000
G1 F3600
G1 X212.699 Y128.061 E2.29026
G1 X212.699 Y128.707 F9000
G1 F3600
G1 X201.401 Y117.409 E2.86282
G1 X201.401 Y118.056 F9000
G1 F3600
G1 X212.699 Y129.353 E3.43539
G1 X212.699 Y130 F9000
G1 F3600
G1 X201.401 Y118.702 E4.00795
G1 X201.401 Y119.349 F9000
G1 F3600
G1 X212.699 Y130.646 E4.58052
G1 X212.699 Y131.293 F9000
G1 F3600
G1 X201.401 Y119.995 E5.15308
G1 X201.401 Y120.642 F9000
G1 F3600
G1 X212.699 Y131.939 E5.72565
G1 X212.699 Y132.585 F9000
G1 F3600
G1 X201.401 Y121.288 E6.29821
G1 X200.868 Y121.401 F9000
G1 F3600
G1 X212.699 Y133.232 E6.89779
G1 X212.699 Y133.878 F9000
G1 F3600
G1 X200.222 Y121.401 E7.53014
G1 X199.575 Y121.401 F9000
G1 F3600
G1 X212.699 Y134.525 E8.19524
G1 X212.699 Y135.171 F9000
G1 F3600
G1 X198.929 Y121.401 E8.8931
G1 X198.283 Y121.401 F9000
G1 F3600
G1 X212.699 Y135.817 E9.62373
G1 X212.699 Y136.464 F9000
G1 F3600
G1 X197.636 Y121.401 E10.38711
G1 X197.301 Y121.713 F9000
G1 F3600
G1 X212.699 Y137.11 E11.16747
G1 X212.699 Y137.757 F9000
G1 F3600
G1 X197.301 Y122.359 E11.94782
G1 X197.301 Y123.006 F9000
G1 F3600
G1 X212.699 Y138.403 E12.72818
G1 X212.699 Y139.049 F9000
G1 F3600
G1 X197.301 Y123.652 E13.50853
G1 X197.301 Y124.298 F9000
G1 F3600
G1 X212.699 Y139.696 E14.28889
G1 X212.699 Y140.342 F9000
G1 F3600
G1 X197.301 Y124.945 E15.06925
G1 X197.301 Y125.591 F9000
G1 F3600
G1 X212.699 Y140.989 E15.8496
G1 X212.699 Y141.635 F9000
G1 F3600
G1 X197.301 Y126.238 E16.62996
G1 X197.301 Y126.884 F9000
G1 F3600
G1 X212.699 Y142.282 E17.41031
G1 X212.699 Y142.928 F9000
G1 F3600
G1 X197.301 Y127.53 E18.19067
G1 X197.301 Y128.177 F9000
G1 F3600
G1 X212.699 Y143.574 E18.97103
G1 X212.699 Y144.221 F9000
G1 F3600
G1 X197.301 Y128.823 E19.75138
G1 X197.301 Y129.47 F9000
G1 F3600
G1 X212.699 Y144.867 E20.53174
G1 X212.699 Y145.514 F9000
G1 F3600
G1 X197.301 Y130.116 E21.31209
G1 X197.301 Y130.762 F9000
G1 F3600
G1 X212.699 Y146.16 E22.09245
G1 X212.699 Y146.806 F9000
G1 F3600
G1 X197.301 Y131.409 E22.8728
G1 X197.301 Y132.055 F9000
G1 F3600
G1 X212.699 Y147.453 E23.65316
G1 X212.699 Y148.099 F9000
G1 F3600
G1 X197.301 Y132.702 E24.43352
G1 X197.301 Y133.348 F9000
G1 F3600
G1 X212.699 Y148.746 E25.21387
G1 X212.699 Y149.392 F9000
G1 F3600
G1 X197.301 Y133.995 E25.99423
M73 P4 R41
G1 X197.301 Y134.641 F9000
G1 F3600
G1 X212.699 Y150.038 E26.77458
G1 X212.699 Y150.685 F9000
G1 F3600
G1 X197.301 Y135.287 E27.55494
G1 X197.301 Y135.934 F9000
G1 F3600
G1 X212.699 Y151.331 E28.3353
G1 X212.699 Y151.978 F9000
G1 F3600
G1 X197.301 Y136.58 E29.11565
M73 P4 R41
G1 X197.301 Y137.227 F9000
G1 F3600
G1 X212.699 Y152.624 E29.89601
G1 X212.699 Y153.27 F9000
G1 F3600
G1 X197.301 Y137.873 E30.67636
G1 X197.301 Y138.519 F9000
G1 F3600
G1 X212.699 Y153.917 E31.45672
G1 X212.699 Y154.563 F9000
G1 F3600
G1 X197.301 Y139.166 E32.23708
G1 X197.301 Y139.812 F9000
G1 F3600
G1 X212.699 Y155.21 E33.01743
G1 X212.699 Y155.856 F9000
G1 F3600
G1 X197.301 Y140.459 E33.79779
G1 X197.301 Y141.105 F9000
G1 F3600
G1 X212.699 Y156.502 E34.57814
G1 X212.699 Y157.149 F9000
G1 F3600
G1 X197.301 Y141.751 E35.3585
G1 X197.301 Y142.398 F9000
G1 F3600
G1 X212.699 Y157.795 E36.13885
G1 X212.699 Y158.442 F9000
G1 F3600
G1 X197.301 Y143.044 E36.91921
G1 X197.301 Y143.691 F9000
G1 F3600
G1 X212.699 Y159.088 E37.69957
G1 X212.699 Y159.735 F9000
G1 F3600
G1 X197.301 Y144.337 E38.47992
G1 X197.301 Y144.983 F9000
G1 F3600
G1 X212.699 Y160.381 E39.26028
G1 X212.699 Y161.027 F9000
G1 F3600
G1 X197.301 Y145.63 E40.04063
G1 X197.301 Y146.276 F9000
G1 F3600
G1 X212.699 Y161.674 E40.82099
G1 X212.699 Y162.32 F9000
G1 F3600
G1 X197.301 Y146.923 E41.60135
G1 X197.301 Y147.569 F9000
G1 F3600
G1 X212.699 Y162.967 E42.3817
G1 X212.699 Y163.613 F9000
G1 F3600
G1 X197.301 Y148.215 E43.16206
G1 X197.301 Y148.862 F9000
G1 F3600
G1 X212.699 Y164.259 E43.94241
G1 X212.699 Y164.906 F9000
G1 F3600
G1 X197.301 Y149.508 E44.72277
G1 X197.301 Y150.155 F9000
G1 F3600
G1 X212.699 Y165.552 E45.50313
G1 X212.699 Y166.199 F9000
G1 F3600
G1 X197.301 Y150.801 E46.28348
G1 X197.301 Y151.448 F9000
G1 F3600
G1 X212.699 Y166.845 E47.06384
G1 X212.699 Y167.491 F9000
G1 F3600
G1 X197.301 Y152.094 E47.84419
G1 X197.301 Y152.74 F9000
G1 F3600
G1 X212.699 Y168.138 E48.62455
G1 X212.699 Y168.784 F9000
G1 F3600
G1 X197.301 Y153.387 E49.4049
G1 X197.301 Y154.033 F9000
G1 F3600
G1 X212.699 Y169.431 E50.18526
G1 X212.699 Y170.077 F9000
G1 F3600
G1 X197.301 Y154.68 E50.96562
G1 X197.301 Y155.326 F9000
G1 F3600
G1 X212.699 Y170.723 E51.74597
G1 X212.699 Y171.37 F9000
G1 F3600
G1 X197.301 Y155.972 E52.52633
G1 X197.301 Y156.619 F9000
G1 F3600
G1 X212.699 Y172.016 E53.30668
G1 X212.699 Y172.663 F9000
G1 F3600
G1 X197.301 Y157.265 E54.08704
G1 X197.301 Y157.912 F9000
G1 F3600
G1 X212.699 Y173.309 E54.8674
G1 X212.699 Y173.955 F9000
G1 F3600
G1 X197.301 Y158.558 E55.64775
G1 X197.301 Y159.204 F9000
G1 F3600
G1 X212.699 Y174.602 E56.42811
G1 X212.699 Y175.248 F9000
G1 F3600
G1 X197.301 Y159.851 E57.20846
G1 X197.301 Y160.497 F9000
G1 F3600
G1 X212.699 Y175.895 E57.98882
G1 X212.699 Y176.541 F9000
G1 F3600
G1 X197.301 Y161.144 E58.76918
G1 X197.301 Y161.79 F9000
G1 F3600
G1 X212.699 Y177.188 E59.54953
G1 X212.699 Y177.834 F9000
G1 F3600
G1 X197.301 Y162.436 E60.32989
G1 X197.301 Y163.083 F9000
G1 F3600
G1 X212.699 Y178.48 E61.11024
G1 X212.699 Y179.127 F9000
G1 F3600
G1 X197.301 Y163.729 E61.8906
G1 X197.301 Y164.376 F9000
G1 F3600
G1 X212.699 Y179.773 E62.67095
G1 X212.699 Y180.42 F9000
G1 F3600
G1 X197.301 Y165.022 E63.45131
G1 X197.301 Y165.668 F9000
G1 F3600
G1 X212.699 Y181.066 E64.23167
G1 X212.699 Y181.712 F9000
G1 F3600
G1 X197.301 Y166.315 E65.01202
G1 X197.301 Y166.961 F9000
G1 F3600
G1 X212.699 Y182.359 E65.79238
G1 X212.699 Y183.005 F9000
G1 F3600
G1 X197.301 Y167.608 E66.57273
G1 X197.301 Y168.254 F9000
G1 F3600
G1 X212.699 Y183.652 E67.35309
G1 X212.699 Y184.298 F9000
G1 F3600
G1 X197.301 Y168.901 E68.13345
G1 X197.301 Y169.547 F9000
G1 F3600
G1 X212.699 Y184.944 E68.9138
G1 X212.699 Y185.591 F9000
G1 F3600
G1 X197.301 Y170.193 E69.69416
G1 X197.301 Y170.84 F9000
G1 F3600
G1 X212.699 Y186.237 E70.47451
G1 X212.699 Y186.884 F9000
G1 F3600
G1 X197.301 Y171.486 E71.25487
M73 P5 R40
G1 X197.301 Y172.133 F9000
G1 F3600
G1 X212.699 Y187.53 E72.03523
G1 X212.699 Y188.176 F9000
G1 F3600
G1 X197.301 Y172.779 E72.81558
G1 X197.301 Y173.425 F9000
G1 F3600
G1 X212.699 Y188.823 E73.59594
G1 X212.699 Y189.469 F9000
G1 F3600
G1 X197.301 Y174.072 E74.37629
G1 X197.301 Y174.718 F9000
G1 F3600
G1 X212.699 Y190.116 E75.15665
G1 X212.699 Y190.762 F9000
G1 F3600
G1 X197.301 Y175.365 E75.93701
G1 X197.301 Y176.011 F9000
G1 F3600
G1 X212.699 Y191.408 E76.71736
G1 X212.699 Y192.055 F9000
G1 F3600
G1 X197.301 Y176.657 E77.49772
G1 X197.301 Y177.304 F9000
G1 F3600
G1 X212.699 Y192.701 E78.27807
G1 X212.699 Y193.348 F9000
G1 F3600
G1 X197.301 Y177.95 E79.05843
G1 X197.301 Y178.597 F9000
G1 F3600
G1 X212.699 Y193.994 E79.83879
G1 X212.699 Y194.641 F9000
G1 F3600
G1 X197.301 Y179.243 E80.61914
G1 X197.301 Y179.889 F9000
G1 F3600
G1 X212.699 Y195.287 E81.3995
G1 X212.699 Y195.933 F9000
G1 F3600
G1 X197.301 Y180.536 E82.17985
G1 X197.301 Y181.182 F9000
G1 F3600
G1 X212.699 Y196.58 E82.96021
G1 X212.699 Y197.226 F9000
G1 F3600
G1 X197.301 Y181.829 E83.74056
G1 X197.301 Y182.475 F9000
G1 F3600
G1 X212.699 Y197.873 E84.52092
G1 X212.699 Y198.519 F9000
G1 F3600
G1 X197.301 Y183.121 E85.30128
G1 X197.301 Y183.768 F9000
G1 F3600
G1 X212.699 Y199.165 E86.08163
G1 X212.699 Y199.812 F9000
G1 F3600
G1 X197.301 Y184.414 E86.86199
G1 X197.301 Y185.061 F9000
G1 F3600
G1 X212.699 Y200.458 E87.64234
G1 X212.699 Y201.105 F9000
G1 F3600
G1 X197.301 Y185.707 E88.4227
G1 X197.301 Y186.354 F9000
G1 F3600
G1 X212.699 Y201.751 E89.20306
G1 X212.699 Y202.397 F9000
G1 F3600
G1 X197.301 Y187 E89.98341
G1 X197.301 Y187.646 F9000
G1 F3600
G1 X212.699 Y203.044 E90.76377
G1 X212.699 Y203.69 F9000
G1 F3600
G1 X197.301 Y188.293 E91.54412
G1 X197.301 Y188.939 F9000
G1 F3600
G1 X212.699 Y204.337 E92.32448
G1 X212.699 Y204.983 F9000
G1 F3600
G1 X197.301 Y189.586 E93.10484
G1 X197.301 Y190.232 F9000
G1 F3600
G1 X212.699 Y205.629 E93.88519
G1 X212.699 Y206.276 F9000
G1 F3600
G1 X197.301 Y190.878 E94.66555
G1 X197.301 Y191.525 F9000
G1 F3600
G1 X212.699 Y206.922 E95.4459
G1 X212.438 Y207.308 F9000
G1 F3600
G1 X197.301 Y192.171 E96.21303
G1 X197.301 Y192.818 F9000
G1 F3600
G1 X212.115 Y207.631 E96.96379
G1 X211.791 Y207.954 F9000
G1 F3600
G1 X197.301 Y193.464 E97.69816
G1 X197.301 Y194.11 F9000
G1 F3600
G1 X211.468 Y208.277 E98.41615
G1 X211.145 Y208.601 F9000
G1 F3600
G1 X197.301 Y194.757 E99.11776
G1 X197.076 Y195.178 F9000
G1 F3600
