; generated by SuperSlicer 2.5.59 on 2023-02-02 at 18:00:17 UTC


;
;

;
;
; 

; external perimeters extrusion width = 0.40mm
; perimeters extrusion width = 0.46mm
; infill extrusion width = 0.64mm
; solid infill extrusion width = 0.56mm
; top infill extrusion width = 0.40mm
; first layer extrusion width = 0.50mm

; object:{"name":"r6_fan_shroud_mosquito_v4","id":"r6_fan_shroud_mosquito_v4.stl id:0 copy 0","object_center":[165.000001,165.000000,0.000000],"boundingbox_center":[165.000001,165.000000,9.950001],"boundingbox_size":[45.322948,27.603420,19.900002]}
; plater:{"center":[165.000001,165.000000,0.000000],"boundingbox_center":[165.000001,165.000000,9.950001],"boundingbox_size":[45.322948,27.603420,19.900002]}

M73 P0 R33


; Pre-Processed for Cancel-Object support by preprocess_cancellation v0.2.0
; 1 known objects
EXCLUDE_OBJECT_DEFINE NAME=r6_fan_shroud_mosquito_v4_stl_id_0_copy_0 CENTER=167.046,164.686 POLYGON=[[142.539,151.488],[142.539,178.619],[187.461,178.619],[187.461,151.488]]
;TYPE:Custom
; custom gcode: start_gcode
START_PRINT T_BED=110 T_EXTRUDER=240
; custom gcode end: start_gcode
M107
G21 ; set units to millimeters
G90 ; use absolute coordinates
M82 ; use absolute distances for extrusion
G92 E0
; custom gcode: start_filament_gcode
; Filament gcode

    PRESSURE_ADVANCE_SELECT FILAMENT=ABS
; custom gcode end: start_filament_gcode
;_TOOLCHANGE 0
M109 S240 ; set temperature and wait for it to be reached
M190 S110 ; set bed temperature and wait for it to be reached
;LAYER_CHANGE
;Z:0.2
;HEIGHT:0.2
G1 Z0.2 F9000
M73 P0 R33
G1 E-0.5 F3000
M204 S1000
G1 X149.009 Y148.308 F9000
G1 E0 F1800
;TYPE:Skirt
;WIDTH:0.52
G1 X147.578 Y150.018 E0.08491
G1 X146.389 Y152.025 E0.17374
G1 X145.63 Y153.478 E0.2362
G1 X144.659 Y155.872 E0.33458
G1 X143.929 Y158.624 E0.443
G1 X143.69 Y160.101 E0.49997
G1 X143.561 Y161.574 E0.5563
G1 X143.527 Y163.303 E0.62216
G1 X143.609 Y164.749 E0.6773
G1 X143.95 Y167.072 E0.76673
G1 X144.33 Y168.661 E0.82892
G1 X144.783 Y170.089 E0.88598
G1 X148.948 Y180.106 E1.29913
G1 X149.811 Y181.456 E1.36014
G1 X151.374 Y182.576 E1.43335
G1 X153.255 Y182.971 E1.50656
G1 X180.539 Y182.971 E2.5456
G1 X182.344 Y182.608 E2.61573
G1 X183.926 Y181.516 E2.68894
G1 X187.883 Y177.345 E2.90789
G1 X189.1 Y174.915 E3.01139
G1 X190.642 Y165.84 E3.36193
G1 X190.795 Y164.427 E3.41607
G1 X190.856 Y162.7 E3.48187
G1 X190.696 Y160.17 E3.57844
G1 X190.407 Y158.418 E3.64603
G1 X189.667 Y155.723 E3.75245
G1 X188.7 Y153.379 E3.84903
G1 X187.224 Y150.696 E3.96566
G1 X186.369 Y149.435 E4.02367
G1 X185.114 Y148.082 E4.09395
G1 X183.907 Y147.311 E4.1485
G1 X182.025 Y146.915 E4.22171
G1 X152.352 Y146.916 E5.35176
G1 X150.921 Y147.14 E5.40689
G1 X149.252 Y148.093 E5.48011
G1 X149.009 Y148.308 E5.49244
G1 X149.326 Y148.665 F9000
G1 F1800
G1 X147.967 Y150.295 E5.57327
G1 X146.801 Y152.264 E5.66042
G1 X146.065 Y153.672 E5.72091
G1 X145.107 Y156.037 E5.81808
G1 X144.394 Y158.732 E5.92426
G1 X144.162 Y160.173 E5.97983
G1 X144.003 Y163.28 E6.09832
G1 X144.082 Y164.694 E6.15224
G1 X144.419 Y166.986 E6.24046
G1 X144.793 Y168.548 E6.30162
G1 X145.236 Y169.94 E6.35727
G1 X149.388 Y179.922 E6.76898
G1 X150.036 Y180.988 E6.81649
G1 X151.478 Y182.099 E6.88581
G1 X153.255 Y182.494 E6.95514
G1 X180.539 Y182.494 E7.99418
G1 X182.07 Y182.205 E8.05354
G1 X183.58 Y181.188 E8.12286
G1 X187.537 Y177.017 E8.34182
G1 X188.629 Y174.835 E8.43474
G1 X190.172 Y165.761 E8.78524
G1 X190.379 Y162.99 E8.89107
G1 X190.328 Y161.325 E8.95449
G1 X190.006 Y158.842 E9.04985
G1 X189.565 Y156.996 E9.12214
G1 X188.724 Y154.592 E9.21912
G1 X187.619 Y152.345 E9.31449
G1 X186.172 Y149.962 E9.42068
G1 X185.036 Y148.65 E9.48675
G1 X183.802 Y147.788 E9.54407
G1 X182.025 Y147.393 E9.6134
G1 X152.352 Y147.393 E10.74345
M73 P1 R33
G1 X151.16 Y147.566 E10.78931
G1 X149.568 Y148.45 E10.85864
G1 X149.326 Y148.665 E10.87098
G1 X149.643 Y149.022 F9000
G1 F1800
G1 X148.355 Y150.572 E10.94771
G1 X147.214 Y152.504 E11.03318
G1 X146.501 Y153.866 E11.09171
G1 X145.555 Y156.201 E11.18767
G1 X144.858 Y158.84 E11.29161
G1 X144.633 Y160.245 E11.34578
G1 X144.48 Y163.256 E11.46063
G1 X144.556 Y164.638 E11.51333
G1 X144.889 Y166.899 E11.60036
G1 X145.257 Y168.435 E11.66049
G1 X145.69 Y169.791 E11.71473
G1 X149.828 Y179.738 E12.12498
G1 X150.276 Y180.523 E12.15941
G1 X151.588 Y181.623 E12.22462
G1 X153.255 Y182.017 E12.28984
G1 X180.539 Y182.017 E13.32887
G1 X181.801 Y181.796 E13.37767
G1 X183.234 Y180.859 E13.44288
G1 X187.191 Y176.689 E13.66183
G1 X188.159 Y174.755 E13.74418
G1 X189.701 Y165.682 E14.09464
G1 X189.902 Y162.973 E14.19809
G1 X189.853 Y161.371 E14.25913
G1 X189.535 Y158.919 E14.3533
G1 X189.108 Y157.134 E14.42318
G1 X188.29 Y154.788 E14.5178
G1 X187.198 Y152.569 E14.61199
G1 X186.001 Y150.543 E14.70159
G1 X184.721 Y149.008 E14.77774
G1 X183.692 Y148.264 E14.82608
G1 X182.025 Y147.87 E14.8913
G1 X152.352 Y147.87 E16.02135
G1 X151.393 Y147.996 E16.05816
G1 X149.885 Y148.807 E16.12337
G1 X149.643 Y149.022 E16.13571
G1 X149.96 Y149.379 F9000
G1 F1800
G1 X148.744 Y150.849 E16.20835
G1 X147.626 Y152.744 E16.29214
G1 X146.475 Y155.098 E16.39194
G1 X145.936 Y156.567 E16.45152
G1 X145.323 Y158.948 E16.54517
G1 X145.08 Y160.528 E16.60604
G1 X144.954 Y162.982 E16.69963
G1 X145.012 Y164.367 E16.75242
G1 X145.396 Y166.992 E16.85345
G1 X145.789 Y168.564 E16.91514
G1 X146.217 Y169.846 E16.96663
M73 P1 R32
G1 X150.268 Y179.553 E17.36719
G1 X151.707 Y181.146 E17.44896
G1 X153.255 Y181.54 E17.50978
G1 X180.539 Y181.54 E18.54881
G1 X181.537 Y181.383 E18.5873
G1 X182.888 Y180.531 E18.64812
G1 X186.845 Y176.36 E18.86707
G1 X187.689 Y174.675 E18.93885
G1 X189.231 Y165.603 E19.28926
G1 X189.386 Y164.071 E19.34791
G1 X189.392 Y161.629 E19.44091
G1 X189.244 Y160.096 E19.49956
G1 X189.016 Y158.755 E19.55136
G1 X188.327 Y156.226 E19.6512
G1 X187.396 Y153.968 E19.74419
G1 X185.983 Y151.41 E19.8555
G1 X185.263 Y150.344 E19.90446
G1 X184.167 Y149.156 E19.96603
G1 X182.025 Y148.347 E20.05322
G1 X152.352 Y148.347 E21.18327
G1 X150.202 Y149.163 E21.27085
G1 X149.96 Y149.379 E21.28319
G92 E0
G1 E-0.5 F3000
; printing object r6_fan_shroud_mosquito_v4.stl id:0 copy 0
EXCLUDE_OBJECT_START NAME=r6_fan_shroud_mosquito_v4_stl_id_0_copy_0
; acceleration to travel
M204 S3000
G1 X151.369 Y161.993 F9000
; decel to extrusion
M204 S1000
G1 X151.838 Y166.198
; end travel
G1 E0 F1800
;TYPE:Internal perimeter
;WIDTH:0.5
G1 X154.067 Y166.198 E0.08132
G1 X154.067 Y172.523 E0.3121
G1 X176.51 Y172.523 E1.13094
G1 X176.51 Y166.198 E1.36171
G1 X184.179 Y166.198 E1.64152
G1 X184.03 Y166.828 E1.66513
G1 X183.736 Y167.785 E1.70167
G1 X183.171 Y169.234 E1.75843
G1 X183.041 Y169.62 E1.77327
G1 X182.93 Y170.115 E1.79179
G1 X182.875 Y170.752 E1.81512
G1 X182.875 Y173.319 E1.90879
G1 X178.917 Y176.281 E2.08913
G1 X178.917 Y176.68 E2.10372
G1 X154.717 Y176.68 E2.9867
G1 X154.544 Y175.848 E3.01772
G1 X154.316 Y175.039 E3.04838
G1 X153.999 Y174.162 E3.0824
G1 X153.614 Y173.31 E3.11653
G1 X153.162 Y172.487 E3.15077
G1 X152.085 Y170.851 E3.22224
G1 X151.576 Y169.956 E3.25981
G1 X151.129 Y169.031 E3.29732
G1 X150.744 Y168.077 E3.33481
G1 X150.427 Y167.11 E3.37198
G1 X150.205 Y166.198 E3.40621
G1 X151.838 Y166.198 E3.46583
; acceleration to travel
M204 S3000
G1 X150.81 Y165.965 F9000
; decel to extrusion
M204 S1000
G1 X150.467 Y165.887
; end travel
G1 F1800
G1 X150.134 Y165.917 E3.478
G1 X149.983 Y165.095 E3.50851
G1 X149.863 Y164.073 E3.54604
G1 X149.813 Y163.056 E3.58321
G1 X149.848 Y161.797 E3.62914
G1 X149.917 Y160.996 E3.65849
G1 X150.071 Y159.988 E3.6957
G1 X150.146 Y159.665 E3.70779
G1 X150.47 Y159.702 E3.71969
G1 X150.467 Y165.887 E3.94534
G92 E0
G1 E-0.5 F3000
; acceleration to travel
M204 S3000
G1 X175.549 Y165.908 F9000
; decel to extrusion
M204 S1000
G1 X183.91 Y165.916
; end travel
G1 E0 F1800
G1 X183.907 Y159.678 E0.22759
G1 X184.23 Y159.639 E0.23943
G1 X184.278 Y159.839 E0.24691
G1 X184.439 Y160.826 E0.2834
G1 X184.536 Y161.83 E0.32021
G1 X184.566 Y162.839 E0.35703
G1 X184.531 Y163.847 E0.39384
G1 X184.429 Y164.851 E0.43065
G1 X184.246 Y165.944 E0.47109
G1 X183.91 Y165.916 E0.48336
G92 E0
G1 E-0.5 F3000
; acceleration to travel
M204 S3000
G1 X159.17 Y165.785 F9000
; decel to extrusion
M204 S1000
G1 X150.924 Y165.741
; end travel
G1 E0 F1800
G1 X154.524 Y165.741 E0.13137
G1 X154.524 Y172.066 E0.36215
G1 X176.053 Y172.066 E1.14763
G1 X176.053 Y165.741 E1.3784
G1 X183.453 Y165.741 E1.64842
G1 X183.449 Y156.627 E1.98097
G1 X183.737 Y156.564 E1.99174
G1 X183.827 Y156.762 E1.99965
G1 X184.191 Y157.736 E2.03758
G1 X184.428 Y158.518 E2.06741
G1 X184.726 Y159.748 E2.11359
G1 X184.892 Y160.767 E2.15126
G1 X184.992 Y161.801 E2.18917
G1 X185.024 Y162.84 E2.22708
G1 X184.987 Y163.878 E2.26498
G1 X184.882 Y164.912 E2.30289
G1 X184.71 Y165.936 E2.34079
G1 X184.471 Y166.947 E2.3787
G1 X184.168 Y167.935 E2.41641
G1 X183.601 Y169.391 E2.47341
G1 X183.481 Y169.743 E2.48698
G1 X183.382 Y170.185 E2.50349
G1 X183.332 Y170.772 E2.52499
G1 X183.332 Y173.548 E2.62629
G1 X179.374 Y176.509 E2.80663
G1 X179.374 Y177.138 E2.82955
G1 X154.314 Y177.138 E3.74392
G1 X154.264 Y176.745 E3.75836
G1 X154.1 Y175.956 E3.78774
G1 X153.881 Y175.179 E3.81722
G1 X153.575 Y174.335 E3.84998
G1 X153.204 Y173.514 E3.88282
G1 X152.77 Y172.723 E3.91574
G1 X151.696 Y171.09 E3.98709
G1 X151.171 Y170.169 E4.02576
G1 X150.711 Y169.216 E4.06438
G1 X150.314 Y168.234 E4.10299
G1 X149.987 Y167.235 E4.14136
G1 X149.681 Y165.982 E4.18843
G1 X149.53 Y165.163 E4.21881
G1 X149.408 Y164.111 E4.25744
G1 X149.356 Y163.061 E4.29582
G1 X149.392 Y161.771 E4.34288
G1 X149.463 Y160.942 E4.37326
G1 X149.622 Y159.901 E4.41166
G1 X149.914 Y158.645 E4.45872
G1 X150.149 Y157.847 E4.48909
G1 X150.514 Y156.852 E4.52774
G1 X150.639 Y156.571 E4.53896
G1 X150.928 Y156.633 E4.54977
G1 X150.924 Y165.741 E4.88209
G1 X151.381 Y165.284 F9000
G1 F1800
G1 X154.981 Y165.284 E5.01345
G1 X154.981 Y171.609 E5.24423
G1 X175.596 Y171.609 E5.99636
G1 X175.596 Y165.284 E6.22713
G1 X182.996 Y165.284 E6.49714
G1 X182.99 Y154.666 E6.88454
G1 X183.268 Y154.597 E6.89496
G1 X183.809 Y155.613 E6.93698
G1 X184.249 Y156.587 E6.97598
G1 X184.625 Y157.589 E7.01501
G1 X184.87 Y158.398 E7.04584
G1 X185.175 Y159.657 E7.09313
G1 X185.346 Y160.708 E7.13198
G1 X185.448 Y161.772 E7.17098
G1 X185.481 Y162.841 E7.20998
G1 X185.443 Y163.909 E7.24898
G1 X185.336 Y164.973 E7.28798
G1 X185.159 Y166.027 E7.32698
G1 X184.913 Y167.067 E7.36599
G1 X184.6 Y168.086 E7.40486
G1 X184.03 Y169.547 E7.4621
G1 X183.922 Y169.867 E7.47441
G1 X183.835 Y170.255 E7.48891
G1 X183.789 Y170.791 E7.50857
G1 X183.789 Y173.777 E7.61751
G1 X179.831 Y176.738 E7.79785
G1 X179.831 Y177.595 E7.82909
G1 X153.911 Y177.595 E8.77482
G1 X153.899 Y177.43 E8.78083
G1 X153.812 Y176.82 E8.80331
G1 X153.655 Y176.065 E8.83146
G1 X153.446 Y175.319 E8.85974
G1 X153.152 Y174.507 E8.89125
G1 X152.795 Y173.719 E8.92281
G1 X152.379 Y172.959 E8.95441
G1 X151.306 Y171.329 E9.02563
G1 X150.767 Y170.381 E9.06539
G1 X150.292 Y169.401 E9.10513
G1 X149.885 Y168.391 E9.14486
G1 X149.547 Y167.361 E9.18443
G1 X149.234 Y166.077 E9.23263
G1 X149.078 Y165.231 E9.26403
G1 X148.952 Y164.149 E9.30377
G1 X148.898 Y163.066 E9.34335
G1 X148.935 Y161.745 E9.39154
G1 X149.009 Y160.888 E9.42294
G1 X149.172 Y159.815 E9.46254
G1 X149.471 Y158.529 E9.51072
G1 X149.714 Y157.703 E9.54212
G1 X150.09 Y156.68 E9.58188
G1 X150.533 Y155.685 E9.62161
G1 X151.042 Y154.72 E9.66142
M73 P2 R32
G1 X151.12 Y154.592 E9.66689
G1 X151.387 Y154.667 E9.67701
G1 X151.381 Y165.284 E10.06437
G1 X151.838 Y164.827 F9000
;TYPE:External perimeter
G1 F1800
G1 X155.439 Y164.827 E10.19572
G1 X155.439 Y171.152 E10.4265
G1 X175.139 Y171.152 E11.14527
G1 X175.139 Y164.827 E11.37605
G1 X182.539 Y164.827 E11.64605
G1 X182.533 Y154.113 E12.03695
G1 X182.504 Y153.603 E12.05559
G1 X182.439 Y153.117 E12.07349
G1 X182.439 Y152.551 E12.09414
G1 X182.119 Y152.163 E12.11249
G1 X182.02 Y151.999 E12.11945
G1 X182.059 Y151.948 E12.12181
G1 X182.083 Y151.969 E12.12295
G1 X182.563 Y152.554 E12.15055
G1 X182.771 Y152.844 E12.16358
G1 X182.96 Y153.15 E12.17669
G1 X183.315 Y153.806 E12.20391
G1 X183.702 Y154.441 E12.23105
G1 X184.22 Y155.411 E12.27118
G1 X184.672 Y156.413 E12.31128
G1 X185.058 Y157.442 E12.35138
G1 X185.311 Y158.278 E12.38323
G1 X185.623 Y159.567 E12.43162
G1 X185.799 Y160.65 E12.47165
G1 X185.905 Y161.743 E12.51175
G1 X185.938 Y162.842 E12.55184
G1 X185.9 Y163.94 E12.59194
G1 X185.789 Y165.033 E12.63204
G1 X185.607 Y166.117 E12.67213
G1 X185.354 Y167.187 E12.71223
G1 X185.032 Y168.236 E12.75227
G1 X184.46 Y169.704 E12.80975
G1 X184.363 Y169.99 E12.82079
G1 X184.288 Y170.324 E12.83329
G1 X184.246 Y170.811 E12.85111
G1 X184.246 Y174.006 E12.96768
G1 X180.289 Y176.967 E13.14801
G1 X180.289 Y178.052 E13.18759
G1 X153.487 Y178.052 E14.16547
G1 X153.444 Y177.48 E14.18641
G1 X153.362 Y176.899 E14.2078
G1 X153.211 Y176.174 E14.23484
G1 X153.01 Y175.459 E14.26194
G1 X152.728 Y174.679 E14.29218
G1 X152.386 Y173.923 E14.32246
G1 X151.987 Y173.195 E14.35275
G1 X150.916 Y171.568 E14.42384
G1 X150.362 Y170.594 E14.4647
G1 X149.874 Y169.586 E14.50555
G1 X149.455 Y168.548 E14.54639
G1 X149.107 Y167.486 E14.58717
G1 X148.787 Y166.173 E14.63649
G1 X148.626 Y165.299 E14.66892
G1 X148.496 Y164.187 E14.70977
G1 X148.441 Y163.07 E14.75055
G1 X148.479 Y161.719 E14.79986
G1 X148.555 Y160.834 E14.83229
G1 X148.723 Y159.729 E14.87308
G1 X149.029 Y158.412 E14.92239
G1 X149.28 Y157.56 E14.95482
G1 X149.666 Y156.508 E14.99568
G1 X150.121 Y155.486 E15.03653
G1 X150.644 Y154.495 E15.0774
G1 X151.036 Y153.849 E15.10495
G1 X151.593 Y152.862 E15.14629
G1 X151.801 Y152.57 E15.1594
G1 X152.29 Y151.974 E15.18751
G1 X152.318 Y151.949 E15.18889
G1 X152.357 Y151.999 E15.1912
G1 X152.259 Y152.162 E15.19815
G1 X151.939 Y152.55 E15.21649
G1 X151.939 Y153.116 E15.23715
G1 X151.873 Y153.602 E15.25505
G1 X151.844 Y154.112 E15.27369
G1 X151.838 Y164.827 E15.66461
;WIPE_START
M204 S4000
G1 X151.838 Y165.227 F9000
;WIPE_END
; acceleration to travel
M204 S3000
G1 X150.618 Y164.943
; decel to extrusion
M204 S1000
G1 X150.211 Y164.849
; end travel
;TYPE:Gap fill
;WIDTH:0.136199
G1 F1800
G1 X150.209 Y164.801 E15.66497
G1 X150.187 Y164.425 E15.66777
;WIDTH:0.226859
G1 X150.165 Y164.048 E15.67331
G1 X150.153 Y163.55 E15.68062
;WIDTH:0.276534
G1 X150.141 Y163.052 E15.68991
G1 X150.15 Y162.434 E15.70145
;WIDTH:0.242442
G1 X150.158 Y161.815 E15.7113
G1 X150.175 Y161.422 E15.71757
;WIDTH:0.175606
G1 X150.192 Y161.028 E15.72174
G1 X150.201 Y160.907 E15.72303
;WIDTH:0.13892
G1 X150.211 Y160.785 E15.72396
G1 X150.214 Y160.738 E15.72433
; acceleration to travel
M204 S3000
G1 X150.302 Y159.79 F9000
; decel to extrusion
M204 S1000
G1 X150.332 Y159.475
; end travel
;WIDTH:0.817218
G1 F1800
G1 X150.352 Y159.303 E15.73501
;WIDTH:0.733658
G1 X150.371 Y159.131 E15.74453
G1 X150.392 Y158.954 E15.75438
;WIDTH:0.65235
G1 X150.412 Y158.776 E15.76308
G1 X150.431 Y158.642 E15.76967
;WIDTH:0.606057
G1 X150.451 Y158.508 E15.77576
;WIDTH:0.559763
G1 X150.47 Y158.374 E15.78135
;WIDTH:0.51347
G1 X150.49 Y158.24 E15.78643
;WIDTH:0.467176
G1 X150.509 Y158.106 E15.79102
;WIDTH:0.420882
G1 X150.528 Y157.972 E15.79511
G1 X150.548 Y157.858 E15.79858
;WIDTH:0.373889
G1 X150.569 Y157.745 E15.80163
;WIDTH:0.326895
G1 X150.589 Y157.631 E15.80424
;WIDTH:0.279901
G1 X150.609 Y157.518 E15.80642
;WIDTH:0.232908
G1 X150.629 Y157.404 E15.80817
;WIDTH:0.185914
G1 X150.649 Y157.291 E15.80949
;WIDTH:0.13892
G1 X150.67 Y157.178 E15.81037
G1 X150.678 Y157.13 E15.81074
G1 X150.827 Y156.396 F9000
;WIDTH:0.75386
G1 F1800
G1 X150.842 Y156.326 E15.81482
;WIDTH:0.70886
G1 X150.857 Y156.255 E15.81865
;WIDTH:0.663859
G1 X150.872 Y156.185 E15.82222
;WIDTH:0.618858
G1 X150.887 Y156.114 E15.82553
G1 X150.912 Y155.999 E15.83096
;WIDTH:0.52082
G1 X150.936 Y155.883 E15.83546
G1 X150.958 Y155.799 E15.83878
;WIDTH:0.473083
G1 X150.979 Y155.714 E15.84177
;WIDTH:0.425345
G1 X151 Y155.63 E15.84443
;WIDTH:0.377608
G1 X151.021 Y155.545 E15.84676
;WIDTH:0.32987
G1 X151.043 Y155.461 E15.84875
;WIDTH:0.282133
G1 X151.064 Y155.377 E15.85042
;WIDTH:0.234395
G1 X151.085 Y155.292 E15.85175
;WIDTH:0.186658
G1 X151.107 Y155.208 E15.85275
