; HEADER_BLOCK_START
; generated by OrcaSlicer 1.6.3 on 2023-06-16 at 21:10:30
; total layer number: 20
; HEADER_BLOCK_END

; THUMBNAIL_BLOCK_START
; THUMBNAIL_BLOCK_END

; external perimeters extrusion width = 0.40mm
; perimeters extrusion width = 0.45mm
; infill extrusion width = 0.45mm
; solid infill extrusion width = 0.40mm
; top infill extrusion width = 0.40mm
; first layer extrusion width = 0.50mm

; EXECUTABLE_BLOCK_START
EXCLUDE_OBJECT_DEFINE NAME=Rail_mount_template.stl_id_0_copy_0 CENTER=162.5,165 POLYGON=[[22.8464,31.7104],[29.2104,25.3464],[302.154,298.29],[295.79,304.654],[22.8464,31.7104]]
M73 P0 R24
;TYPE:Custom
START_PRINT T_BED=60 T_EXTRUDER=200
G90
G21
M83 ; use relative distances for extrusion
; filament start gcode

    PRESSURE_ADVANCE_SELECT FILAMENT=PLA
M106 S0
;LAYER_CHANGE
;Z:0.2
;HEIGHT:0.2
M204 S1000
G1 E-.5 F3600
G1 X25.218 Y25.218 F9000
G1 Z.2
G1 E.5 F3600
;TYPE:Skirt
;WIDTH:0.5
G1 F3000
G1 X27.15 Y23.286 E.10177
G1 X28.461 Y22.53 E.05638
G1 X29.975 Y22.534 E.05638
G1 X31.271 Y23.286 E.0558
G1 X304.214 Y296.229 E14.37703
G1 X304.97 Y297.541 E.05638
G1 X304.966 Y299.054 E.05638
G1 X304.214 Y300.35 E.0558
G1 X297.85 Y306.714 E.33522
G1 X296.539 Y307.47 E.05638
G1 X295.025 Y307.466 E.05638
G1 X293.729 Y306.714 E.0558
G1 X20.786 Y33.771 E14.37703
M73 P1 R24
G1 X20.03 Y32.459 E.05638
G1 X20.034 Y30.946 E.05638
G1 X20.786 Y29.65 E.0558
G1 X25.175 Y25.26 E.23122
G1 X25.499 Y25.583 F9000
G1 F3000
G1 X27.473 Y23.609 E.104
G1 X28.691 Y22.945 E.05169
G1 X30.075 Y23.047 E.05169
G1 X30.948 Y23.609 E.03866
G1 X303.891 Y296.552 E14.37703
G1 X304.555 Y297.771 E.05169
G1 X304.453 Y299.155 E.05169
G1 X303.891 Y300.027 E.03866
G1 X297.527 Y306.391 E.33522
G1 X296.309 Y307.055 E.05169
G1 X294.925 Y306.953 E.05169
G1 X294.052 Y306.391 E.03866
G1 X21.109 Y33.448 E14.37703
M73 P2 R24
G1 X20.445 Y32.229 E.05169
G1 X20.547 Y30.845 E.05169
G1 X21.109 Y29.973 E.03866
G1 X25.456 Y25.626 E.22898
; printing object Rail mount template.stl id:0 copy 0
EXCLUDE_OBJECT_START NAME=Rail_mount_template.stl_id_0_copy_0
G1 E-.5 F3600
G1 X295.39 Y301.442 F9000
G1 E.5 F3600
;TYPE:Inner wall
;WIDTH:0.499999
G1 F3000
G1 X295.716 Y301.641 E.01421
G1 X296.043 Y301.77 E.01308
G1 X296.568 Y301.89 E.02007
G1 X297.013 Y301.901 E.01659
G1 X297.473 Y301.828 E.01734
G1 X295.79 Y303.512 E.0887
G1 X23.988 Y31.71 E14.31689
G1 X25.657 Y30.041 E.08792
G1 X25.61 Y30.368 E.01228
G1 X25.599 Y30.813 E.01659
G1 X25.666 Y31.253 E.01659
G1 X25.809 Y31.675 E.01659
G1 X26.023 Y32.066 E.01659
G1 X26.301 Y32.414 E.01659
G1 X26.635 Y32.708 E.01659
G1 X27.016 Y32.94 E.01659
G1 X27.431 Y33.102 E.01659
G1 X27.867 Y33.19 E.01659
G1 X28.313 Y33.2 E.01659
G1 X28.753 Y33.133 E.01659
G1 X29.175 Y32.991 E.01659
G1 X29.566 Y32.777 E.01659
G1 X29.914 Y32.499 E.01659
G1 X30.208 Y32.164 E.01659
G1 X30.44 Y31.784 E.01659
G1 X30.602 Y31.369 E.01659
G1 X30.69 Y30.932 E.01659
G1 X30.7 Y30.487 E.01659
G1 X30.633 Y30.046 E.01659
G1 X30.491 Y29.624 E.01659
G1 X30.277 Y29.233 E.01659
G1 X29.999 Y28.885 E.01659
G1 X29.664 Y28.591 E.01659
G1 X29.284 Y28.359 E.01659
G1 X28.957 Y28.23 E.01308
G1 X28.393 Y28.108 E.0215
G1 X27.987 Y28.099 E.01514
G1 X27.527 Y28.172 E.01734
G1 X29.21 Y26.488 E.08869
G1 X301.012 Y298.29 E14.31689
M73 P3 R24
G1 X299.343 Y299.959 E.08792
G1 X299.39 Y299.633 E.01228
G1 X299.39 Y299.068 E.02102
G1 X299.334 Y298.747 E.01215
G1 X299.191 Y298.325 E.01659
G1 X298.977 Y297.934 E.01659
G1 X298.699 Y297.586 E.01659
G1 X298.365 Y297.292 E.01659
G1 X297.984 Y297.06 E.01659
G1 X297.569 Y296.898 E.01659
G1 X297.133 Y296.81 E.01659
G1 X296.687 Y296.8 E.01659
G1 X296.247 Y296.867 E.01659
G1 X295.825 Y297.009 E.01659
G1 X295.434 Y297.223 E.0166
G1 X295.086 Y297.501 E.01659
G1 X294.792 Y297.836 E.01659
G1 X294.56 Y298.216 E.01659
G1 X294.398 Y298.631 E.01659
G1 X294.31 Y299.068 E.01659
G1 X294.3 Y299.513 E.01659
G1 X294.367 Y299.954 E.01659
G1 X294.509 Y300.376 E.01659
G1 X294.723 Y300.767 E.01659
G1 X295.001 Y301.115 E.01659
G1 X295.336 Y301.409 E.01659
G1 X295.339 Y301.411 E.00015
G1 X295.653 Y301.073 F9000
;TYPE:Outer wall
G1 F3000
G1 X295.63 Y301.059 E.00101
G1 X295.352 Y300.821 E.01363
G1 X295.119 Y300.538 E.01363
G1 X294.939 Y300.22 E.01363
G1 X294.817 Y299.874 E.01363
G1 X294.757 Y299.513 E.01363
G1 X294.76 Y299.147 E.01363
G1 X294.827 Y298.788 E.01363
G1 X294.956 Y298.445 E.01363
G1 X295.142 Y298.13 E.01363
G1 X295.38 Y297.852 E.01363
G1 X295.662 Y297.619 E.01363
G1 X295.981 Y297.439 E.01363
G1 X296.326 Y297.317 E.01363
G1 X296.687 Y297.257 E.01363
G1 X297.053 Y297.26 E.01363
G1 X297.413 Y297.327 E.01363
G1 X297.756 Y297.456 E.01363
G1 X298.071 Y297.642 E.01363
G1 X298.349 Y297.88 E.01363
G1 X298.582 Y298.162 E.01363
G1 X298.762 Y298.481 E.01363
G1 X298.883 Y298.826 E.01363
G1 X298.94 Y299.147 E.01215
G1 X298.94 Y299.553 E.01511
G1 X298.873 Y299.913 E.01363
;WIDTH:0.528444
G1 X298.74 Y300.233 E.01371
;WIDTH:0.556889
G1 X298.606 Y300.552 E.01451
G1 X298.336 Y300.867 E.01737
;WIDTH:0.54738
G1 X298.05 Y301.102 E.01521
G1 X297.413 Y301.373 E.02847
;WIDTH:0.499999
G1 X297.013 Y301.444 E.01511
G1 X296.647 Y301.44 E.01363
G1 X296.199 Y301.341 E.01711
G1 X295.945 Y301.245 E.01012
G1 X295.705 Y301.103 E.01039
G1 X295.648 Y301.075
G1 E-.5 F3600
G1 X23.341 Y31.71 F9000
M73 P3 R23
G1 E.5 F3600
G1 F3000
G1 X25.417 Y29.635 E.10933
;WIDTH:0.52844
G1 X25.693 Y29.379 E.01491
;WIDTH:0.556881
G1 X26.324 Y28.762 E.03694
;WIDTH:0.547189
G1 X26.833 Y28.219 E.03058
;WIDTH:0.499999
G1 X29.21 Y25.841 E.12523
G1 X301.659 Y298.29 E14.35094
M73 P4 R23
G1 X299.352 Y300.596 E.12148
;WIDTH:0.530711
G1 X299.158 Y300.768 E.01032
;WIDTH:0.561424
G1 X298.441 Y301.464 E.04224
G1 X298.304 Y301.623 E.00884
;WIDTH:0.530712
G1 X298.167 Y301.781 E.00832
;WIDTH:0.499999
G1 X295.79 Y304.159 E.12524
G1 X23.384 Y31.753 E14.34871
G1 X23.419 Y31.689
G1 E-.5 F3600
G1 X24.048 Y31.942 F9000
G1 X238.558 Y244.506
G1 X238.883 Y244.779
G1 X239.251 Y244.992
G1 X239.651 Y245.137
G1 X240.069 Y245.211
G1 X240.494 Y245.211
G1 X240.913 Y245.137
G1 X241.312 Y244.992
G1 X242.089 Y244.582
G1 E.5 F3600
;TYPE:Inner wall
G1 F3000
G1 X242.046 Y244.631 E.00241
G1 X241.698 Y244.909 E.01659
G1 X241.307 Y245.123 E.0166
G1 X240.885 Y245.265 E.01659
G1 X240.445 Y245.332 E.01659
G1 X240 Y245.322 E.01659
G1 X239.563 Y245.234 E.01659
G1 X239.148 Y245.072 E.01659
G1 X238.767 Y244.84 E.01659
G1 X238.462 Y244.572 E.01514
G1 X238.155 Y244.198 E.01802
G1 X237.941 Y243.807 E.0166
G1 X237.798 Y243.385 E.01659
G1 X237.731 Y242.945 E.01659
G1 X237.742 Y242.5 E.01659
G1 X237.829 Y242.063 E.01659
G1 X237.991 Y241.648 E.01659
G1 X238.223 Y241.267 E.01659
G1 X238.517 Y240.933 E.01659
G1 X238.865 Y240.655 E.01659
G1 X239.256 Y240.441 E.01659
G1 X239.678 Y240.298 E.01659
G1 X240.119 Y240.231 E.01659
G1 X240.564 Y240.242 E.01659
G1 X241.001 Y240.329 E.01659
G1 X241.416 Y240.491 E.01659
G1 X241.698 Y240.655 E.01215
G1 X242.102 Y240.991 E.01957
G1 X242.409 Y241.365 E.01802
G1 X242.623 Y241.756 E.0166
G1 X242.765 Y242.178 E.01659
G1 X242.832 Y242.619 E.01659
G1 X242.822 Y243.064 E.01659
G1 X242.734 Y243.501 E.01659
G1 X242.572 Y243.916 E.01659
G1 X242.34 Y244.296 E.01659
G1 X242.128 Y244.537 E.01195
G1 X241.754 Y244.279 F9000
;TYPE:Outer wall
G1 F3000
G1 X241.752 Y244.28 E.00008
G1 X241.47 Y244.513 E.01363
G1 X241.151 Y244.693 E.01363
G1 X240.806 Y244.815 E.01363
G1 X240.445 Y244.875 E.01363
G1 X240.079 Y244.872 E.01363
G1 X239.719 Y244.805 E.01363
G1 X239.376 Y244.676 E.01363
G1 X239.061 Y244.49 E.01363
G1 X238.808 Y244.274 E.01242
G1 X238.55 Y243.97 E.01482
G1 X238.37 Y243.651 E.01364
G1 X238.249 Y243.306 E.01363
G1 X238.188 Y242.945 E.01363
G1 X238.192 Y242.579 E.01363
G1 X238.259 Y242.219 E.01363
G1 X238.387 Y241.876 E.01363
G1 X238.573 Y241.561 E.01363
G1 X238.811 Y241.283 E.01363
G1 X239.094 Y241.05 E.01363
G1 X239.412 Y240.87 E.01363
G1 X239.758 Y240.749 E.01363
G1 X240.119 Y240.688 E.01363
G1 X240.485 Y240.692 E.01363
G1 X240.844 Y240.759 E.01363
G1 X241.187 Y240.887 E.01363
G1 X241.47 Y241.05 E.01215
G1 X241.756 Y241.29 E.0139
G1 X242.013 Y241.594 E.01482
G1 X242.193 Y241.912 E.01364
G1 X242.315 Y242.258 E.01363
G1 X242.375 Y242.619 E.01363
G1 X242.372 Y242.985 E.01363
G1 X242.305 Y243.344 E.01363
G1 X242.176 Y243.687 E.01363
G1 X241.99 Y244.002 E.01363
G1 X241.793 Y244.233 E.01132
G1 X241.754 Y244.279
G1 E-.5 F3600
G1 X242.052 Y244.451 F9000
G1 X242.006 Y244.506
G1 X241.68 Y244.779
G1 X241.312 Y244.992
G1 X240.913 Y245.137
G1 X240.494 Y245.211
G1 X240.069 Y245.211
G1 X239.651 Y245.137
G1 X239.251 Y244.992
G1 X238.883 Y244.779
G1 X238.558 Y244.506
G1 X185.8 Y187.682
M73 P5 R23
G1 E.5 F3600
;TYPE:Inner wall
G1 F3000
G1 X185.772 Y187.728 E.00201
G1 X185.562 Y187.978 E.01215
G1 X185.13 Y188.34 E.02102
G1 X184.739 Y188.554 E.01659
G1 X184.317 Y188.697 E.01659
G1 X183.876 Y188.764 E.01659
G1 X183.431 Y188.753 E.01659
G1 X182.994 Y188.666 E.01659
G1 X182.579 Y188.504 E.01659
G1 X182.199 Y188.272 E.01659
G1 X181.864 Y187.978 E.01659
G1 X181.586 Y187.63 E.01659
G1 X181.372 Y187.239 E.01659
G1 X181.23 Y186.817 E.01659
G1 X181.163 Y186.376 E.01659
G1 X181.173 Y185.931 E.01659
G1 X181.261 Y185.494 E.01659
G1 X181.423 Y185.079 E.01659
G1 X181.655 Y184.699 E.01659
G1 X181.949 Y184.364 E.01659
G1 X182.297 Y184.086 E.01659
G1 X182.688 Y183.872 E.01659
G1 X183.11 Y183.73 E.01659
G1 X183.55 Y183.663 E.01659
G1 X183.956 Y183.672 E.01514
G1 X184.432 Y183.761 E.01802
G1 X184.847 Y183.923 E.0166
G1 X185.228 Y184.155 E.01659
G1 X185.562 Y184.449 E.01659
G1 X185.84 Y184.797 E.01659
G1 X186.054 Y185.188 E.01659
G1 X186.197 Y185.61 E.01659
G1 X186.258 Y186.011 E.01514
G1 X186.253 Y186.495 E.01802
G1 X186.166 Y186.932 E.0166
G1 X186.004 Y187.347 E.01659
G1 X185.831 Y187.63 E.01235
G1 X185.192 Y187.7 F9000
;TYPE:Outer wall
G1 F3000
G1 X184.901 Y187.945 E.01415
G1 X184.582 Y188.124 E.01363
G1 X184.237 Y188.246 E.01363
G1 X183.876 Y188.307 E.01363
G1 X183.51 Y188.303 E.01363
G1 X183.151 Y188.236 E.01363
G1 X182.808 Y188.108 E.01363
G1 X182.493 Y187.922 E.01363
G1 X182.214 Y187.684 E.01363
G1 X181.982 Y187.401 E.01363
G1 X181.802 Y187.082 E.01363
G1 X181.68 Y186.737 E.01363
G1 X181.62 Y186.376 E.01363
G1 X181.623 Y186.01 E.01363
G1 X181.69 Y185.651 E.01363
G1 X181.819 Y185.308 E.01363
G1 X182.005 Y184.993 E.01363
G1 X182.243 Y184.714 E.01363
G1 X182.525 Y184.482 E.01363
G1 X182.844 Y184.302 E.01363
G1 X183.189 Y184.18 E.01363
G1 X183.55 Y184.12 E.01363
G1 X183.884 Y184.123 E.01242
G1 X184.276 Y184.19 E.01482
G1 X184.619 Y184.319 E.01364
G1 X184.934 Y184.505 E.01363
G1 X185.212 Y184.743 E.01363
G1 X185.445 Y185.025 E.01363
G1 X185.625 Y185.344 E.01363
G1 X185.746 Y185.689 E.01363
G1 X185.801 Y186.018 E.01242
G1 X185.803 Y186.416 E.01482
G1 X185.736 Y186.776 E.01364
G1 X185.608 Y187.119 E.01363
G1 X185.422 Y187.434 E.01363
G1 X185.234 Y187.658 E.01088
G1 X185.212 Y187.774
G1 E-.5 F3600
G1 X185.491 Y187.873 F9000
G1 X185.437 Y187.937
G1 X185.112 Y188.211
G1 X184.744 Y188.423
G1 X184.344 Y188.568
G1 X183.926 Y188.642
G1 X183.501 Y188.642
G1 X183.082 Y188.568
G1 X182.683 Y188.423
G1 X182.315 Y188.211
G1 X181.989 Y187.937
G1 X143.369 Y145.262
G1 E.5 F3600
;TYPE:Inner wall
G1 F3000
G1 X143.345 Y145.301 E.00172
G1 X143.136 Y145.551 E.01215
G1 X142.703 Y145.914 E.02102
G1 X142.312 Y146.128 E.01659
G1 X141.89 Y146.27 E.01659
G1 X141.45 Y146.337 E.01659
G1 X141.005 Y146.327 E.01659
G1 X140.568 Y146.239 E.01659
G1 X140.153 Y146.077 E.01659
G1 X139.772 Y145.845 E.01659
G1 X139.438 Y145.551 E.01659
G1 X139.16 Y145.203 E.01659
G1 X138.946 Y144.812 E.01659
G1 X138.803 Y144.39 E.01659
G1 X138.736 Y143.95 E.01659
G1 X138.747 Y143.505 E.01659
G1 X138.834 Y143.068 E.01659
G1 X138.996 Y142.653 E.01659
G1 X139.228 Y142.272 E.01659
G1 X139.522 Y141.938 E.01659
G1 X139.87 Y141.66 E.01659
G1 X140.261 Y141.446 E.01659
G1 X140.683 Y141.303 E.01659
G1 X141.124 Y141.236 E.01659
G1 X141.53 Y141.245 E.01514
G1 X142.006 Y141.334 E.01802
G1 X142.421 Y141.496 E.0166
G1 X142.801 Y141.728 E.01659
G1 X143.136 Y142.022 E.01659
G1 X143.414 Y142.37 E.01659
G1 X143.628 Y142.761 E.01659
G1 X143.77 Y143.183 E.01659
G1 X143.832 Y143.585 E.01514
G1 X143.827 Y144.069 E.01802
G1 X143.739 Y144.506 E.0166
G1 X143.577 Y144.921 E.01659
G1 X143.401 Y145.211 E.01264
G1 X142.76 Y145.278 F9000
;TYPE:Outer wall
G1 F3000
G1 X142.475 Y145.518 E.01389
G1 X142.156 Y145.698 E.01363
G1 X141.811 Y145.82 E.01363
G1 X141.45 Y145.88 E.01363
G1 X141.084 Y145.877 E.01363
G1 X140.724 Y145.81 E.01363
G1 X140.381 Y145.681 E.01363
G1 X140.066 Y145.495 E.01363
G1 X139.788 Y145.257 E.01363
G1 X139.555 Y144.975 E.01363
G1 X139.375 Y144.656 E.01363
G1 X139.254 Y144.311 E.01363
G1 X139.193 Y143.95 E.01363
G1 X139.197 Y143.584 E.01363
G1 X139.264 Y143.224 E.01363
G1 X139.392 Y142.881 E.01363
G1 X139.578 Y142.566 E.01363
G1 X139.816 Y142.288 E.01363
G1 X140.099 Y142.055 E.01363
G1 X140.418 Y141.876 E.01363
G1 X140.763 Y141.754 E.01363
G1 X141.124 Y141.693 E.01363
G1 X141.457 Y141.696 E.01242
G1 X141.849 Y141.764 E.01482
G1 X142.192 Y141.892 E.01364
G1 X142.507 Y142.078 E.01363
G1 X142.786 Y142.316 E.01363
G1 X143.018 Y142.599 E.01363
G1 X143.198 Y142.918 E.01363
G1 X143.32 Y143.263 E.01363
G1 X143.375 Y143.592 E.01242
G1 X143.377 Y143.989 E.01482
G1 X143.31 Y144.349 E.01364
G1 X143.181 Y144.692 E.01363
G1 X142.995 Y145.007 E.01363
G1 X142.803 Y145.237 E.01114
G1 X142.779 Y145.351
G1 E-.5 F3600
G1 X143.06 Y145.452 F9000
G1 X143.011 Y145.511
G1 X142.685 Y145.784
G1 X142.317 Y145.997
G1 X141.918 Y146.142
G1 X141.499 Y146.216
G1 X141.074 Y146.216
G1 X140.656 Y146.142
G1 X140.256 Y145.997
G1 X139.888 Y145.784
G1 X139.563 Y145.511
G1 X86.525 Y89.019
G1 E.5 F3600
;TYPE:Inner wall
G1 F3000
G1 X86.483 Y89.067 E.00241
G1 X86.135 Y89.345 E.01659
G1 X85.744 Y89.559 E.01659
G1 X85.322 Y89.702 E.01659
G1 X84.881 Y89.769 E.01659
G1 X84.436 Y89.758 E.01659
G1 X84.037 Y89.679 E.01514
G1 X83.584 Y89.509 E.01802
G1 X83.204 Y89.277 E.0166
G1 X82.869 Y88.983 E.01659
G1 X82.591 Y88.635 E.01659
G1 X82.377 Y88.244 E.01659
G1 X82.235 Y87.822 E.01659
G1 X82.168 Y87.381 E.01659
G1 X82.178 Y86.936 E.01659
G1 X82.257 Y86.537 E.01514
G1 X82.428 Y86.084 E.01802
G1 X82.66 Y85.704 E.0166
G1 X82.954 Y85.369 E.01659
G1 X83.302 Y85.091 E.01659
G1 X83.693 Y84.877 E.01659
G1 X84.115 Y84.735 E.01659
G1 X84.555 Y84.668 E.01659
G1 X85 Y84.678 E.01659
G1 X85.437 Y84.766 E.01659
G1 X85.852 Y84.928 E.01659
G1 X86.2 Y85.139 E.01514
G1 X86.567 Y85.454 E.01802
G1 X86.845 Y85.802 E.0166
G1 X87.059 Y86.193 E.01659
G1 X87.202 Y86.615 E.01659
G1 X87.269 Y87.055 E.01659
G1 X87.258 Y87.5 E.01659
G1 X87.171 Y87.937 E.01659
G1 X87.009 Y88.352 E.01659
G1 X86.777 Y88.733 E.01659
G1 X86.565 Y88.974 E.01195
G1 X86.196 Y88.708 F9000
;TYPE:Outer wall
G1 F3000
G1 X86.189 Y88.717 E.00043
G1 X85.906 Y88.95 E.01363
G1 X85.588 Y89.13 E.01363
G1 X85.242 Y89.251 E.01363
G1 X84.881 Y89.312 E.01363
G1 X84.515 Y89.308 E.01363
G1 X84.188 Y89.247 E.01242
G1 X83.813 Y89.113 E.01482
G1 X83.498 Y88.927 E.01364
G1 X83.22 Y88.689 E.01363
G1 X82.987 Y88.406 E.01363
G1 X82.807 Y88.088 E.01363
G1 X82.685 Y87.742 E.01363
G1 X82.625 Y87.381 E.01363
G1 X82.628 Y87.015 E.01363
G1 X82.689 Y86.688 E.01242
G1 X82.824 Y86.313 E.01482
G1 X83.01 Y85.998 E.01364
G1 X83.248 Y85.72 E.01363
G1 X83.53 Y85.487 E.01363
G1 X83.849 Y85.307 E.01363
G1 X84.194 Y85.185 E.01363
G1 X84.555 Y85.125 E.01363
G1 X84.921 Y85.128 E.01363
G1 X85.281 Y85.195 E.01363
G1 X85.624 Y85.324 E.01363
G1 X85.911 Y85.493 E.01242
G1 X86.217 Y85.748 E.01482
G1 X86.45 Y86.03 E.01364
G1 X86.63 Y86.349 E.01363
G1 X86.751 Y86.694 E.01363
G1 X86.812 Y87.055 E.01363
G1 X86.808 Y87.421 E.01363
G1 X86.741 Y87.781 E.01363
G1 X86.613 Y88.124 E.01363
G1 X86.427 Y88.439 E.01363
G1 X86.235 Y88.663 E.01096
G1 X86.197 Y88.71
G1 E-.5 F3600
G1 X86.495 Y88.88 F9000
G1 X86.442 Y88.942
G1 X86.117 Y89.216
G1 X85.749 Y89.428
G1 X85.349 Y89.574
G1 X84.931 Y89.647
G1 X84.506 Y89.647
G1 X84.087 Y89.574
G1 X83.688 Y89.428
G1 X83.32 Y89.216
G1 X82.994 Y88.942
G1 X29.838 Y32.404
G1 X29.622 Y32.147
G1 E.5 F3600
G1 F3000
G1 X29.62 Y32.148 E.00008
G1 X29.338 Y32.381 E.01363
G1 X29.019 Y32.561 E.01363
G1 X28.674 Y32.683 E.01363
G1 X28.313 Y32.743 E.01363
G1 X27.947 Y32.74 E.01363
