; generated by SuperSlicer 2.5.59 on 2023-03-21 at 18:31:53 UTC


;
;

;
;
; 

; external perimeters extrusion width = 0.40mm
; perimeters extrusion width = 0.46mm
; infill extrusion width = 0.64mm
; solid infill extrusion width = 0.56mm
; top infill extrusion width = 0.40mm
; support material extrusion width = 0.46mm
; first layer extrusion width = 0.50mm

; object:{"name":"rear ash tray insert v11","id":"rear ash tray insert v11.stl id:0 copy 0","object_center":[165.000001,165.000000,0.000000],"boundingbox_center":[165.000001,165.000000,26.130000],"boundingbox_size":[76.380000,48.240000,52.260000]}
EXCLUDE_OBJECT_DEFINE NAME=rear_ash_tray_insert_v11_stl_id_0_copy_0 CENTER=165.000001,165.000000 POLYGON=[[126.810000,140.880000],[190.527008,140.880000],[203.190000,159.673504],[203.190000,189.120000],[126.810000,189.120000],[126.810000,140.880000]]
; plater:{"center":[165.000001,165.000000,0.000000],"boundingbox_center":[165.000001,165.000000,26.130000],"boundingbox_size":[76.380000,48.240000,52.260000]}

M73 P0 R149
;TYPE:Custom
; custom gcode: start_gcode
START_PRINT T_BED=110 T_EXTRUDER=240
; custom gcode end: start_gcode
M107
G21 ; set units to millimeters
G90 ; use absolute coordinates
M82 ; use absolute distances for extrusion
G92 E0
; custom gcode: start_filament_gcode
; Filament gcode

    PRESSURE_ADVANCE_SELECT FILAMENT=ABS
; custom gcode end: start_filament_gcode
;_TOOLCHANGE 0
M104 S240 ; set temperature
M109 S240 ; set temperature and wait for it to be reached
M190 S110 ; set bed temperature and wait for it to be reached
;LAYER_CHANGE
;Z:0.2
;HEIGHT:0.2
G1 Z0.2 F9000
G1 E-0.5 F3000
M204 S1000
G1 X124.232 Y137.776 F9000
G1 E0 F1800
;TYPE:Skirt
;WIDTH:0.52
G1 X123.121 Y139.218 E0.06788
G1 X122.726 Y140.995 E0.13577
G1 X122.726 Y189.02 E1.92657
G1 X122.864 Y190.089 E1.96675
G1 X123.7 Y191.706 E2.03463
G1 X125.142 Y192.817 E2.10252
G1 X126.919 Y193.213 E2.1704
G1 X203.081 Y193.213 E5.01045
M73 P0 R149
G1 X204.15 Y193.074 E5.05063
G1 X205.768 Y192.239 E5.11851
G1 X206.879 Y190.797 E5.1864
G1 X207.274 Y189.02 E5.25428
G1 X207.274 Y159.774 E6.34486
G1 X206.558 Y157.43 E6.43622
G1 X193.904 Y138.652 E7.28059
G1 X192.204 Y137.198 E7.36401
G1 X190.427 Y136.803 E7.4319
G1 X126.919 Y136.803 E9.80007
G1 X125.85 Y136.941 E9.84025
G1 X124.232 Y137.776 E9.90814
G1 X124.624 Y138.105 F9000
G1 F1800
G1 X123.598 Y139.329 E9.96771
G1 X123.203 Y140.995 E10.03157
G1 X123.203 Y189.02 E11.82237
G1 X123.94 Y191.241 E11.90963
G1 X125.252 Y192.341 E11.97348
G1 X126.919 Y192.736 E12.03734
G1 X203.081 Y192.736 E14.87738
G1 X205.302 Y191.999 E14.96464
G1 X206.402 Y190.686 E15.02849
G1 X206.797 Y189.02 E15.09235
G1 X206.797 Y159.774 E16.18293
G1 X206.163 Y157.697 E16.26389
G1 X193.508 Y138.919 E17.10826
G1 X192.093 Y137.674 E17.17853
G1 X190.427 Y137.28 E17.24239
G1 X126.919 Y137.28 E19.61056
G1 X124.698 Y138.017 E19.69782
G1 X124.624 Y138.105 E19.7021
G1 X124.998 Y138.451 F9000
G1 F1800
G1 X124.074 Y139.448 E19.75277
G1 X123.68 Y140.995 E19.81232
G1 X123.68 Y189.02 E21.60312
G1 X124.199 Y190.779 E21.67151
G1 X125.371 Y191.865 E21.73107
G1 X126.919 Y192.259 E21.79063
G1 X203.081 Y192.259 E24.63067
G1 X204.84 Y191.739 E24.69906
G1 X205.926 Y190.568 E24.75862
G1 X206.32 Y189.02 E24.81817
G1 X206.32 Y159.774 E25.90875
G1 X205.767 Y157.964 E25.97932
G1 X193.113 Y139.186 E26.82369
G1 X191.975 Y138.151 E26.88105
G1 X190.427 Y137.757 E26.9406
G1 X126.919 Y137.757 E29.30878
G1 X125.16 Y138.276 E29.37717
G1 X124.998 Y138.451 E29.38605
G92 E0
G1 E-0.5 F3000
; printing object rear ash tray insert v11.stl id:0 copy 0
EXCLUDE_OBJECT_START NAME=rear_ash_tray_insert_v11_stl_id_0_copy_0
; acceleration to travel
M204 S3000
G1 X160.407 Y152.308 F9000
; decel to extrusion
M204 S1000
G1 X172.21 Y156.928
; end travel
G1 E0 F1800
;TYPE:Internal perimeter
;WIDTH:0.5
G1 X172.197 Y156.83 E0.00351
G1 X171.919 Y156.159 E0.02946
G1 X171.477 Y155.583 E0.05541
G1 X170.901 Y155.141 E0.08136
G1 X170.23 Y154.863 E0.10731
G1 X169.592 Y154.779 E0.13028
G1 X168.698 Y154.779 E0.16221
G1 X168.152 Y154.837 E0.18183
G1 X167.561 Y155.041 E0.20418
G1 X167.031 Y155.373 E0.22652
G1 X166.589 Y155.815 E0.24886
G1 X166.257 Y156.346 E0.27121
G1 X166.053 Y156.937 E0.29355
G1 X165.994 Y157.483 E0.31317
G1 X165.994 Y164.206 E0.55337
G1 X166.078 Y164.843 E0.57633
G1 X166.356 Y165.514 E0.60228
G1 X166.798 Y166.091 E0.62824
G1 X167.374 Y166.533 E0.65419
G1 X168.046 Y166.811 E0.68014
G1 X168.683 Y166.895 E0.7031
G1 X169.592 Y166.895 E0.73559
G1 X170.23 Y166.811 E0.75856
G1 X170.901 Y166.533 E0.78451
G1 X171.477 Y166.091 E0.81046
G1 X171.919 Y165.514 E0.83641
G1 X172.197 Y164.843 E0.86236
G1 X172.281 Y164.206 E0.88533
G1 X172.281 Y157.468 E1.12607
G1 X172.21 Y156.928 E1.14552
G1 X171.758 Y156.998 F9000
G1 F1800
G1 X171.752 Y156.95 E1.14728
G1 X171.52 Y156.39 E1.16893
G1 X171.151 Y155.909 E1.19058
G1 X170.67 Y155.54 E1.21223
G1 X170.11 Y155.308 E1.23388
G1 X169.562 Y155.236 E1.25363
G1 X168.723 Y155.236 E1.28363
G1 X168.253 Y155.286 E1.30052
G1 X167.76 Y155.456 E1.31915
G1 X167.317 Y155.733 E1.33778
G1 X166.949 Y156.102 E1.35642
G1 X166.672 Y156.544 E1.37505
G1 X166.502 Y157.037 E1.39368
G1 X166.451 Y157.507 E1.41058
G1 X166.451 Y164.176 E1.64883
G1 X166.523 Y164.724 E1.66858
G1 X166.755 Y165.284 E1.69023
G1 X167.124 Y165.765 E1.71188
G1 X167.605 Y166.134 E1.73353
G1 X168.165 Y166.366 E1.75518
G1 X168.713 Y166.438 E1.77493
G1 X169.562 Y166.438 E1.80528
G1 X170.11 Y166.366 E1.82502
G1 X170.67 Y166.134 E1.84667
G1 X171.151 Y165.765 E1.86833
G1 X171.52 Y165.284 E1.88998
G1 X171.752 Y164.724 E1.91163
G1 X171.824 Y164.176 E1.93137
G1 X171.824 Y157.498 E2.16997
G1 X171.758 Y156.998 E2.18796
G1 X171.307 Y157.069 F9000
;TYPE:External perimeter
G1 F1800
G1 X171.121 Y156.62 E2.20531
G1 X170.825 Y156.235 E2.22267
G1 X170.44 Y155.939 E2.24002
G1 X169.991 Y155.753 E2.25737
G1 X169.532 Y155.693 E2.27389
G1 X168.747 Y155.693 E2.30195
G1 X168.353 Y155.735 E2.31612
G1 X167.958 Y155.872 E2.33104
G1 X167.604 Y156.093 E2.34596
G1 X167.309 Y156.388 E2.36088
G1 X167.087 Y156.742 E2.37581
G1 X166.95 Y157.137 E2.39073
G1 X166.908 Y157.532 E2.4049
G1 X166.908 Y164.146 E2.64121
G1 X166.969 Y164.605 E2.65773
G1 X167.154 Y165.053 E2.67508
G1 X167.45 Y165.439 E2.69244
G1 X167.835 Y165.734 E2.70979
G1 X168.284 Y165.92 E2.72714
G1 X168.743 Y165.981 E2.74367
G1 X169.532 Y165.981 E2.77187
G1 X169.991 Y165.92 E2.7884
G1 X170.44 Y165.734 E2.80575
G1 X170.825 Y165.439 E2.8231
G1 X171.121 Y165.053 E2.84046
G1 X171.307 Y164.605 E2.85781
G1 X171.367 Y164.146 E2.87433
G1 X171.367 Y157.527 E3.11079
G1 X171.307 Y157.069 E3.12731
;WIPE_START
M204 S4000
G1 X171.577 Y156.774 F9000
;WIPE_END
G92 E0
G1 E-0.5 F3000
; acceleration to travel
M204 S3000
G1 X184.244 Y157.714 F9000
; decel to extrusion
M204 S1000
G1 X188.466 Y158.028
; end travel
G1 E0 F1800
;TYPE:Internal perimeter
G1 X177.757 Y158.028 E0.38259
G1 X177.757 Y176.636 E1.04739
G1 X188.466 Y176.636 E1.42998
G1 X188.466 Y158.028 E2.09478
G1 X188.009 Y158.485 F9000
G1 F1800
G1 X178.214 Y158.485 E2.44471
G1 X178.214 Y176.179 E3.07685
G1 X188.009 Y176.179 E3.42678
G1 X188.009 Y158.485 E4.05892
G1 X187.552 Y158.942 F9000
;TYPE:External perimeter
G1 F1800
G1 X178.671 Y158.942 E4.37619
G1 X178.671 Y175.722 E4.97567
G1 X187.552 Y175.722 E5.29294
G1 X187.552 Y158.942 E5.89243
;WIPE_START
M204 S4000
G1 X187.552 Y158.542 F9000
;WIPE_END
G92 E0
G1 E-0.5 F3000
; acceleration to travel
M204 S3000
G1 X185.444 Y156.596 F9000
; decel to extrusion
M204 S1000
G1 X184.742 Y155.947
; end travel
G1 E0 F1800
;TYPE:Internal perimeter
G1 X185.119 Y155.749 E0.01522
G1 X185.757 Y155.184 E0.04566
G1 X186.241 Y154.483 E0.07611
G1 X186.543 Y153.686 E0.10655
G1 X186.646 Y152.84 E0.13699
G1 X186.595 Y152.417 E0.15221
G1 X186.543 Y151.994 E0.16744
G1 X186.241 Y151.197 E0.19788
G1 X185.757 Y150.496 E0.22832
G1 X185.119 Y149.931 E0.25876
G1 X184.365 Y149.535 E0.28921
G1 X183.537 Y149.331 E0.31965
G1 X182.685 Y149.331 E0.35009
G1 X181.858 Y149.535 E0.38054
G1 X181.103 Y149.931 E0.41098
G1 X180.465 Y150.496 E0.44142
G1 X179.981 Y151.197 E0.47186
G1 X179.679 Y151.994 E0.50231
G1 X179.577 Y152.84 E0.53275
G1 X179.628 Y153.263 E0.54797
G1 X179.679 Y153.686 E0.56319
G1 X179.981 Y154.483 E0.59363
G1 X180.465 Y155.184 E0.62408
G1 X181.103 Y155.749 E0.65452
G1 X181.858 Y156.145 E0.68496
G1 X182.685 Y156.349 E0.71541
G1 X183.537 Y156.349 E0.74585
G1 X184.365 Y156.145 E0.77629
G1 X184.742 Y155.947 E0.79151
G1 X184.529 Y155.542 F9000
G1 F1800
G1 X184.858 Y155.37 E0.80475
G1 X185.412 Y154.879 E0.83123
G1 X185.833 Y154.269 E0.85771
G1 X186.096 Y153.576 E0.88418
G1 X186.185 Y152.84 E0.91066
G1 X186.141 Y152.472 E0.9239
G1 X186.096 Y152.104 E0.93714
G1 X185.833 Y151.411 E0.96361
G1 X185.412 Y150.801 E0.99009
G1 X184.858 Y150.31 E1.01657
G1 X184.201 Y149.965 E1.04305
G1 X183.482 Y149.788 E1.06952
G1 X182.741 Y149.788 E1.096
G1 X182.021 Y149.965 E1.12248
G1 X181.365 Y150.31 E1.14896
G1 X180.81 Y150.801 E1.17543
G1 X180.389 Y151.411 E1.20191
G1 X180.126 Y152.104 E1.22839
G1 X180.037 Y152.84 E1.25486
G1 X180.082 Y153.208 E1.2681
G1 X180.126 Y153.576 E1.28134
G1 X180.389 Y154.269 E1.30782
G1 X180.81 Y154.879 E1.3343
G1 X181.365 Y155.37 E1.36077
G1 X182.021 Y155.714 E1.38725
G1 X182.741 Y155.892 E1.41373
G1 X183.482 Y155.892 E1.44021
G1 X184.201 Y155.714 E1.46668
G1 X184.529 Y155.542 E1.47992
G1 X184.317 Y155.137 F9000
;TYPE:External perimeter
G1 F1800
G1 X184.596 Y154.991 E1.49118
G1 X185.068 Y154.573 E1.51369
G1 X185.426 Y154.055 E1.5362
G1 X185.649 Y153.465 E1.55871
G1 X185.725 Y152.84 E1.58122
G1 X185.687 Y152.527 E1.59248
G1 X185.649 Y152.214 E1.60374
G1 X185.426 Y151.625 E1.62625
G1 X185.068 Y151.107 E1.64876
G1 X184.596 Y150.689 E1.67127
G1 X184.038 Y150.396 E1.69378
G1 X183.426 Y150.245 E1.71629
G1 X182.796 Y150.245 E1.73881
G1 X182.184 Y150.396 E1.76132
G1 X181.698 Y150.651 E1.78095
G1 X181.626 Y150.689 E1.78383
G1 X181.155 Y151.107 E1.80634
G1 X180.797 Y151.625 E1.82885
G1 X180.573 Y152.214 E1.85136
G1 X180.497 Y152.84 E1.87388
G1 X180.535 Y153.153 E1.88513
G1 X180.573 Y153.465 E1.89639
G1 X180.797 Y154.055 E1.9189
G1 X181.155 Y154.573 E1.94141
G1 X181.626 Y154.991 E1.96392
G1 X182.184 Y155.284 E1.98644
G1 X182.49 Y155.359 E1.99769
G1 X182.796 Y155.435 E2.00895
G1 X183.426 Y155.435 E2.03146
G1 X184.038 Y155.284 E2.05397
G1 X184.317 Y155.137 E2.06523
;WIPE_START
M204 S4000
G1 X184.655 Y155.351 F9000
;WIPE_END
G92 E0
G1 E-0.5 F3000
; acceleration to travel
M204 S3000
G1 X186.11 Y174.889 F9000
; decel to extrusion
M204 S1000
G1 X186.595 Y181.401
; end travel
G1 E0 F1800
;TYPE:Internal perimeter
G1 X186.543 Y180.978 E0.01522
G1 X186.241 Y180.181 E0.04566
G1 X185.757 Y179.48 E0.07611
G1 X185.119 Y178.915 E0.10655
G1 X184.365 Y178.519 E0.13699
G1 X183.537 Y178.315 E0.16744
G1 X182.685 Y178.315 E0.19788
G1 X181.858 Y178.519 E0.22832
G1 X181.103 Y178.915 E0.25876
G1 X180.465 Y179.48 E0.28921
G1 X179.981 Y180.181 E0.31965
G1 X179.679 Y180.978 E0.35009
G1 X179.577 Y181.824 E0.38053
G1 X179.628 Y182.247 E0.39576
G1 X179.679 Y182.67 E0.41098
G1 X179.981 Y183.467 E0.44142
G1 X180.465 Y184.168 E0.47186
G1 X181.103 Y184.733 E0.50231
G1 X181.858 Y185.129 E0.53275
G1 X182.685 Y185.333 E0.56319
G1 X183.537 Y185.333 E0.59363
G1 X184.365 Y185.129 E0.62408
G1 X185.119 Y184.733 E0.65452
G1 X185.757 Y184.168 E0.68496
G1 X186.241 Y183.467 E0.71541
G1 X186.543 Y182.67 E0.74585
G1 X186.646 Y181.824 E0.77629
G1 X186.595 Y181.401 E0.79151
G1 X186.141 Y181.456 F9000
G1 F1800
G1 X186.096 Y181.088 E0.80475
G1 X185.833 Y180.395 E0.83123
G1 X185.412 Y179.785 E0.85771
G1 X184.858 Y179.294 E0.88418
G1 X184.201 Y178.95 E0.91066
G1 X183.482 Y178.772 E0.93714
G1 X182.741 Y178.772 E0.96361
G1 X182.021 Y178.95 E0.99009
G1 X181.693 Y179.122 E1.00333
G1 X181.365 Y179.294 E1.01657
G1 X180.81 Y179.785 E1.04305
G1 X180.389 Y180.395 E1.06952
G1 X180.126 Y181.088 E1.096
G1 X180.037 Y181.824 E1.12248
G1 X180.082 Y182.192 E1.13572
G1 X180.126 Y182.56 E1.14896
G1 X180.389 Y183.253 E1.17543
G1 X180.81 Y183.863 E1.20191
G1 X181.365 Y184.354 E1.22839
G1 X182.021 Y184.699 E1.25486
G1 X182.741 Y184.876 E1.28134
G1 X183.482 Y184.876 E1.30782
G1 X184.201 Y184.699 E1.3343
G1 X184.858 Y184.354 E1.36077
G1 X185.412 Y183.863 E1.38725
G1 X185.833 Y183.253 E1.41373
G1 X186.096 Y182.56 E1.44021
G1 X186.185 Y181.824 E1.46668
G1 X186.141 Y181.456 E1.47992
G1 X185.687 Y181.511 F9000
;TYPE:External perimeter
G1 F1800
G1 X185.649 Y181.199 E1.49118
G1 X185.426 Y180.609 E1.51369
G1 X185.068 Y180.091 E1.5362
G1 X184.596 Y179.673 E1.55871
G1 X184.038 Y179.38 E1.58122
G1 X183.732 Y179.305 E1.59248
G1 X183.426 Y179.229 E1.60374
G1 X182.796 Y179.229 E1.62625
G1 X182.184 Y179.38 E1.64876
G1 X181.905 Y179.527 E1.66002
G1 X181.626 Y179.673 E1.67127
G1 X181.155 Y180.091 E1.69378
G1 X180.797 Y180.609 E1.71629
G1 X180.573 Y181.199 E1.73881
G1 X180.497 Y181.824 E1.76132
G1 X180.535 Y182.137 E1.77257
G1 X180.573 Y182.45 E1.78383
G1 X180.797 Y183.039 E1.80634
G1 X181.155 Y183.557 E1.82885
G1 X181.626 Y183.975 E1.85136
G1 X182.184 Y184.268 E1.87388
G1 X182.596 Y184.37 E1.88902
G1 X182.796 Y184.419 E1.89639
G1 X183.426 Y184.419 E1.9189
G1 X184.038 Y184.268 E1.94141
G1 X184.596 Y183.975 E1.96392
G1 X185.068 Y183.557 E1.98644
G1 X185.426 Y183.039 E2.00895
G1 X185.649 Y182.45 E2.03146
G1 X185.725 Y181.824 E2.05397
G1 X185.687 Y181.511 E2.06523
;WIPE_START
M204 S4000
G1 X186.007 Y181.271 F9000
;WIPE_END
G92 E0
G1 E-0.5 F3000
; acceleration to travel
M204 S3000
G1 X160.073 Y175.564 F9000
; decel to extrusion
M204 S1000
G1 X151.428 Y173.661
; end travel
G1 E0 F1800
;TYPE:Internal perimeter
G1 X151.428 Y167.832 E0.20825
G1 X159.327 Y167.832 E0.49046
G1 X159.327 Y148.822 E1.16962
G1 X132.076 Y148.822 E2.1432
G1 X132.076 Y167.832 E2.82236
G1 X139.975 Y167.832 E3.10457
G1 X139.975 Y173.661 E3.31282
G1 X151.428 Y173.661 E3.72197
G1 X150.971 Y173.204 F9000
G1 F1800
G1 X150.971 Y167.375 E3.93022
G1 X158.87 Y167.375 E4.21243
G1 X158.87 Y149.279 E4.85893
G1 X132.533 Y149.279 E5.79985
G1 X132.533 Y167.375 E6.44636
G1 X140.432 Y167.375 E6.72857
G1 X140.432 Y173.204 E6.93681
G1 X150.971 Y173.204 E7.31331
G1 X150.514 Y172.747 F9000
;TYPE:External perimeter
G1 F1800
G1 X150.514 Y166.918 E7.52156
G1 X158.413 Y166.918 E7.80377
G1 X158.413 Y149.736 E8.41761
G1 X132.99 Y149.736 E9.32587
G1 X132.99 Y166.918 E9.93972
G1 X140.889 Y166.918 E10.22193
G1 X140.889 Y172.747 E10.43017
G1 X150.514 Y172.747 E10.77401
;WIPE_START
M204 S4000
G1 X150.914 Y172.747 F9000
;WIPE_END
G92 E0
G1 E-0.5 F3000
; acceleration to travel
M204 S3000
G1 X152.615 Y174.055 F9000
; decel to extrusion
M204 S1000
G1 X153.182 Y174.49
; end travel
G1 E0 F1800
;TYPE:Internal perimeter
G1 X153.182 Y187.856 E0.4775
G1 X128.083 Y187.856 E1.3742
G1 X128.083 Y142.16 E3.00675
G1 X189.263 Y142.16 E5.19246
G1 X189.263 Y160.938 E5.86333
G1 X201.917 Y160.938 E6.31542
G1 X201.917 Y187.856 E7.27709
G1 X176.818 Y187.856 E8.1738
G1 X176.818 Y174.49 E8.65129
G1 X153.182 Y174.49 E9.49569
G1 X153.639 Y174.947 F9000
G1 F1800
G1 X153.639 Y188.313 E9.97318
G1 X127.626 Y188.313 E10.90255
G1 X127.626 Y141.702 E12.56775
M73 P1 R148
G1 X189.72 Y141.702 E14.78612
G1 X189.72 Y160.481 E15.45699
G1 X202.374 Y160.481 E15.90908
M73 P1 R148
G1 X202.374 Y188.313 E16.90342
G1 X176.361 Y188.313 E17.83278
G1 X176.361 Y174.947 E18.31028
G1 X153.639 Y174.947 E19.12201
G1 X154.097 Y175.404 F9000
;TYPE:External perimeter
G1 F1800
G1 X154.097 Y188.77 E19.59951
G1 X127.169 Y188.77 E20.56153
G1 X127.169 Y141.245 E22.25939
G1 X190.177 Y141.245 E24.51042
G1 X190.177 Y160.024 E25.18129
G1 X202.831 Y160.024 E25.63338
G1 X202.831 Y188.77 E26.66037
G1 X175.903 Y188.77 E27.6224
G1 X175.903 Y175.404 E28.0999
G1 X154.097 Y175.404 E28.87897
;WIPE_START
M204 S4000
G1 X153.697 Y175.404 F9000
;WIPE_END
G92 E0
G1 E-0.5 F3000
; acceleration to travel
M204 S3000
G1 X171.39 Y174.534 F9000
; decel to extrusion
M204 S1000
G1 X177.287 Y174.244
; end travel
G1 E0 F1800
;TYPE:Gap fill
;WIDTH:0.560948
G1 X177.287 Y176.883 E0.10685
G92 E0
G1 E-0.5 F3000
; acceleration to travel
M204 S3000
G1 X185.97 Y165.109 F9000
; decel to extrusion
M204 S1000
G1 X188.864 Y161.184
; end travel
G1 E0 F1800
;WIDTH:0.418943
