; generated by SuperSlicer 2.5.59 on 2023-05-09 at 05:05:17 UTC


;
;

;
;
; 

; external perimeters extrusion width = 0.40mm
; perimeters extrusion width = 0.46mm
; infill extrusion width = 0.64mm
; solid infill extrusion width = 0.56mm
; top infill extrusion width = 0.40mm
; support material extrusion width = 0.46mm
; first layer extrusion width = 0.50mm

; external perimeters extrusion width = 0.40mm
; perimeters extrusion width = 0.46mm
; infill extrusion width = 0.64mm
; solid infill extrusion width = 0.56mm
; top infill extrusion width = 0.40mm
; support material extrusion width = 0.46mm
; first layer extrusion width = 0.50mm

; object:{"name":"rear_cover","id":"rear_cover.stl id:0 copy 0","object_center":[144.826663,165.000000,0.000000],"boundingbox_center":[144.826663,165.000000,10.254591],"boundingbox_size":[34.346680,68.701923,20.509182]}
EXCLUDE_OBJECT_DEFINE NAME=rear_cover_stl_id_0_copy_0 CENTER=144.826663,165.000000 POLYGON=[[127.653320,134.649040],[142.876656,130.649032],[146.776656,130.649032],[162.000000,134.649040],[162.000000,187.149040],[161.999840,187.544528],[161.998848,187.940112],[161.996160,188.335728],[161.990944,188.731296],[161.982368,189.126752],[161.969584,189.522000],[161.951760,189.916992],[161.928048,190.311616],[161.897616,190.706016],[161.859424,191.099984],[161.812400,191.492976],[161.755456,191.884528],[161.687520,192.274064],[161.607488,192.661104],[161.514288,193.045072],[161.406800,193.425504],[161.283104,193.801440],[161.141680,194.171296],[160.982176,194.533648],[160.804240,194.887008],[160.607536,195.229952],[160.391664,195.560976],[160.156320,195.878656],[159.901120,196.181520],[159.627104,196.467472],[159.336496,196.735552],[159.030800,196.986000],[158.711472,197.219072],[158.379984,197.435024],[158.037808,197.634128],[157.686400,197.816624],[157.327264,197.982752],[156.961968,198.133792],[156.591504,198.271328],[156.216496,198.396224],[155.837552,198.509296],[155.455296,198.611376],[155.070336,198.703312],[154.683248,198.785936],[154.294672,198.860080],[153.904960,198.926576],[153.514080,198.986080],[153.122192,199.039040],[152.729456,199.085936],[152.336016,199.127248],[151.942000,199.163456],[151.547600,199.195008],[151.152912,199.222432],[150.758080,199.246240],[150.363104,199.266896],[149.968000,199.284576],[149.572800,199.299552],[149.177504,199.312016],[148.782128,199.322240],[148.386688,199.330416],[147.991184,199.336800],[147.595648,199.341632],[147.200064,199.345120],[146.804480,199.347504],[146.408880,199.349008],[146.013280,199.349888],[145.617696,199.350336],[144.826656,199.350960],[144.076720,199.350368],[143.701712,199.349984],[143.326656,199.349248],[133.326664,198.360928],[132.821824,198.183952],[132.326048,197.982752],[131.966904,197.816624],[131.615512,197.634128],[131.273328,197.435024],[130.941848,197.219072],[130.622512,196.986000],[130.316816,196.735552],[130.026216,196.467472],[129.752200,196.181520],[129.496992,195.878656],[129.261640,195.560976],[129.045792,195.229952],[128.849072,194.887008],[128.671144,194.533648],[128.511640,194.171296],[128.370224,193.801440],[128.246520,193.425504],[128.139040,193.045072],[128.045840,192.661104],[127.965808,192.274064],[127.897856,191.884528],[127.840920,191.492976],[127.793896,191.099984],[127.755704,190.706016],[127.725264,190.311616],[127.701552,189.916992],[127.683728,189.522000],[127.670960,189.126752],[127.662384,188.731296],[127.657168,188.335728],[127.654480,187.940112],[127.653480,187.544528],[127.653320,187.149040],[127.653320,134.649040]]
; object:{"name":"rear_cover_right","id":"rear_cover_right.stl id:1 copy 0","object_center":[185.173341,165.000001,0.000000],"boundingbox_center":[185.173341,165.000001,10.254591],"boundingbox_size":[34.346676,68.701923,20.509182]}
EXCLUDE_OBJECT_DEFINE NAME=rear_cover_right_stl_id_1_copy_0 CENTER=185.173341,165.000001 POLYGON=[[168.000000,134.649040],[183.223344,130.649032],[187.123344,130.649032],[202.346688,134.649040],[202.346688,187.149040],[202.346512,187.544512],[202.345520,187.940112],[202.342832,188.335728],[202.337616,188.731296],[202.329040,189.126752],[202.316272,189.522000],[202.298432,189.916992],[202.274736,190.311616],[202.244288,190.706016],[202.206096,191.099984],[202.159072,191.492976],[202.102144,191.884528],[202.034192,192.274064],[201.954160,192.661104],[201.860960,193.045072],[201.753472,193.425504],[201.629776,193.801440],[201.488352,194.171296],[201.328864,194.533648],[201.150928,194.887008],[200.954208,195.229952],[200.738336,195.560976],[200.502992,195.878656],[200.247808,196.181520],[199.973792,196.467472],[199.683184,196.735552],[199.377488,196.986000],[199.058144,197.219072],[198.726672,197.435024],[198.384496,197.634128],[198.033088,197.816624],[197.673952,197.982752],[197.178160,198.183952],[196.673344,198.360928],[186.673344,199.349248],[186.298288,199.349984],[185.923280,199.350368],[185.173344,199.350960],[184.382304,199.350336],[183.986720,199.349888],[183.591120,199.349008],[183.195520,199.347504],[182.799936,199.345120],[182.404352,199.341632],[182.008800,199.336800],[181.613312,199.330416],[181.217872,199.322240],[180.822496,199.312016],[180.427184,199.299552],[180.032000,199.284576],[179.636896,199.266896],[179.241936,199.246240],[178.847088,199.222432],[178.452416,199.195008],[178.057984,199.163456],[177.663984,199.127248],[177.270544,199.085936],[176.877808,199.039040],[176.485920,198.986064],[176.095040,198.926576],[175.705328,198.860080],[175.316736,198.785936],[174.929680,198.703312],[174.544704,198.611376],[174.162448,198.509296],[173.783504,198.396224],[173.408496,198.271328],[173.038048,198.133792],[172.672736,197.982752],[172.313584,197.816624],[171.962192,197.634128],[171.620016,197.435024],[171.288512,197.219072],[170.969200,196.986000],[170.663504,196.735552],[170.372896,196.467472],[170.098880,196.181520],[169.843680,195.878656],[169.608336,195.560976],[169.392464,195.229952],[169.195760,194.887008],[169.017824,194.533648],[168.858320,194.171296],[168.716912,193.801440],[168.593200,193.425504],[168.485712,193.045072],[168.392512,192.661104],[168.312480,192.274064],[168.244544,191.884528],[168.187584,191.492976],[168.140576,191.099984],[168.102384,190.706016],[168.071952,190.311616],[168.048240,189.916992],[168.030416,189.522000],[168.017632,189.126752],[168.009072,188.731296],[168.003840,188.335728],[168.001168,187.940112],[168.000176,187.544512],[168.000000,187.149040],[168.000000,134.649040]]
; plater:{"center":[165.000001,165.000000,0.000000],"boundingbox_center":[165.000001,165.000000,10.254591],"boundingbox_size":[74.693356,68.701924,20.509182]}

M73 P0 R66
;TYPE:Custom
; custom gcode: start_gcode
START_PRINT T_BED=70 T_EXTRUDER=235
; custom gcode end: start_gcode
M107
G21 ; set units to millimeters
G90 ; use absolute coordinates
M82 ; use absolute distances for extrusion
G92 E0
; custom gcode: start_filament_gcode
; Filament gcode
PRESSURE_ADVANCE_SELECT FILAMENT=PETG
; custom gcode end: start_filament_gcode
;_TOOLCHANGE 0
M109 S235 ; set temperature and wait for it to be reached
M190 S70 ; set bed temperature and wait for it to be reached
;LAYER_CHANGE
;Z:0.2
;HEIGHT:0.2
G1 Z0.2 F9000
G1 E-1 F3000
M204 S1000
G1 X136.304 Y122.099 F9000
G1 E0 F1800
;TYPE:Skirt
;WIDTH:0.52
G1 X135.291 Y123.48 E0.06589
G1 X131.249 Y133.021 E0.46461
G1 X130.981 Y134.031 E0.5048
G1 X124.835 Y185.611 E2.5036
G1 X124.809 Y194.884 E2.86044
G1 X124.998 Y196.054 E2.90604
G1 X125.898 Y197.511 E2.97194
G1 X129.293 Y200.907 E3.15672
G1 X130.254 Y201.601 E3.20232
G1 X131.921 Y201.995 E3.26822
G1 X198.079 Y201.995 E5.81396
G1 X199.249 Y201.806 E5.85956
G1 X200.707 Y200.907 E5.92545
G1 X204.102 Y197.511 E6.11024
G1 X204.796 Y196.55 E6.15584
G1 X205.191 Y194.884 E6.22173
G1 X205.164 Y185.611 E6.57858
G1 X199.019 Y134.031 E8.57737
G1 X198.751 Y133.021 E8.61757
G1 X194.709 Y123.48 E9.01628
G1 X194.267 Y122.708 E9.05051
G1 X192.954 Y121.608 E9.11641
G1 X191.288 Y121.213 E9.1823
G1 X138.712 Y121.213 E11.2054
M73 P0 R66
G1 X137.829 Y121.32 E11.23963
G1 X136.304 Y122.099 E11.30552
G1 X136.695 Y122.396 F9000
G1 F1800
G1 X135.73 Y123.666 E11.36688
G1 X131.688 Y133.207 E11.76559
G1 X131.455 Y134.087 E11.80063
G1 X125.309 Y185.667 E13.79942
G1 X125.286 Y194.884 E14.15409
G1 X125.419 Y195.801 E14.18975
G1 X126.235 Y197.174 E14.2512
G1 X129.631 Y200.57 E14.43599
G1 X130.373 Y201.124 E14.47164
G1 X131.921 Y201.518 E14.5331
G1 X198.079 Y201.518 E17.07883
G1 X198.996 Y201.386 E17.11449
G1 X200.369 Y200.57 E17.17594
G1 X203.765 Y197.174 E17.36073
G1 X204.32 Y196.432 E17.39638
G1 X204.714 Y194.884 E17.45784
G1 X204.691 Y185.667 E17.81251
G1 X198.545 Y134.087 E19.8113
M73 P0 R66
G1 X198.312 Y133.207 E19.84634
G1 X194.27 Y123.666 E20.24505
G1 X192.836 Y122.084 E20.3272
G1 X191.288 Y121.69 E20.38866
G1 X138.712 Y121.69 E22.41176
G1 X136.695 Y122.396 E22.49399
G92 E0
G1 E-1 F3000
; printing object rear_cover.stl id:0 copy 0
EXCLUDE_OBJECT_START NAME=rear_cover_stl_id_0_copy_0
; acceleration to travel
M204 S1500
G1 X136.695 Y129.641 F9000
; decel to extrusion
M204 S1000
G1 X136.695 Y134.47
; end travel
G1 E0 F1800
;TYPE:Support material interface
;WIDTH:0.5
G1 X137.443 Y134.47 E0.02761
G1 X137.465 Y135.949 E0.08213
G1 X137.446 Y137.281 E0.13126
G1 X137.447 Y187.181 E1.97088
G1 X137.519 Y188.393 E2.01561
G1 X137.579 Y188.842 E2.03234
G1 X138.066 Y191.035 E2.11513
G1 X138.066 Y134.47 E4.20045
G1 X138.698 Y134.47 E4.22374
G1 X138.664 Y137.301 E4.32809
G1 X138.673 Y143.853 E4.56965
G1 X138.696 Y146.774 E4.67736
G1 X138.696 Y173.824 E5.67457
G1 X138.673 Y176.746 E5.78232
G1 X138.673 Y183.23 E6.02135
G1 X138.693 Y184.651 E6.07374
G1 X138.671 Y187.343 E6.17297
G1 X138.726 Y188.218 E6.20531
G1 X138.786 Y188.605 E6.21972
G1 X138.884 Y188.997 E6.23464
G1 X139.015 Y189.332 E6.2479
G1 X139.261 Y189.748 E6.26572
G1 X139.542 Y190.086 E6.28191
G1 X139.851 Y190.364 E6.29725
G1 X140.184 Y190.597 E6.31222
G1 X140.524 Y190.782 E6.32648
G1 X140.859 Y190.926 E6.33995
G1 X141.14 Y191.022 E6.35089
G1 X141.622 Y191.11 E6.36894
G1 X142.183 Y191.169 E6.38973
G1 X142.717 Y191.198 E6.40946
G1 X144.508 Y191.211 E6.47548
G1 X144.822 Y191.242 E6.48713
G1 X145.154 Y191.21 E6.49943
G1 X146.55 Y191.208 E6.55089
G1 X147.339 Y191.179 E6.58
G1 X147.978 Y191.117 E6.60365
G1 X148.574 Y191.004 E6.62604
G1 X149.127 Y190.785 E6.64794
G1 X149.471 Y190.597 E6.6624
G1 X149.804 Y190.364 E6.67737
G1 X150.112 Y190.085 E6.69271
G1 X150.382 Y189.765 E6.70814
G1 X150.623 Y189.372 E6.72513
G1 X150.766 Y189.006 E6.73962
G1 X150.876 Y188.557 E6.75666
G1 X150.928 Y188.217 E6.76933
G1 X150.982 Y187.334 E6.80198
G1 X150.961 Y186.435 E6.83513
G1 X150.98 Y183.229 E6.95332
G1 X150.98 Y176.746 E7.19229
G1 X150.957 Y173.824 E7.30004
G1 X150.957 Y146.774 E8.29725
G1 X150.98 Y143.851 E8.40501
G1 X150.979 Y135.8 E8.70185
G1 X150.954 Y134.47 E8.75087
G1 X151.587 Y134.47 E8.7742
G1 X151.587 Y191.035 E10.85954
G1 X152.075 Y188.842 E10.94236
G1 X152.135 Y188.392 E10.95908
G1 X152.207 Y187.181 E11.00381
G1 X152.208 Y137.281 E12.84343
G1 X152.188 Y135.949 E12.89255
G1 X152.211 Y134.47 E12.94708
G1 X154.983 Y134.47 E13.04928
G1 X154.983 Y188.571 E15.04379
G1 X154.983 Y192.134 E15.17513
G1 X134.671 Y192.134 E15.92397
G1 X134.671 Y134.47 E18.04982
G1 X136.695 Y134.47 E18.12444
G92 E0
G1 E-1 F3000
; acceleration to travel
M204 S1500
G1 X147.599 Y134.81 F9000
; decel to extrusion
M204 S1000
G1 X154.869 Y135.036
; end travel
G1 E0 F1800
G1 X152.513 Y135.036 E0.08684
G1 X152.505 Y135.544 E0.10557
G1 X154.672 Y135.544 E0.18545
G1 X154.672 Y136.052 E0.20417
G1 X152.5 Y136.052 E0.28423
G1 X152.508 Y136.56 E0.30295
G1 X154.672 Y136.56 E0.38273
G1 X154.672 Y137.067 E0.40145
G1 X152.515 Y137.067 E0.48096
G1 X152.518 Y137.575 E0.49968
G1 X154.672 Y137.575 E0.57908
G1 X154.672 Y138.083 E0.5978
G1 X152.518 Y138.083 E0.67719
G1 X152.518 Y138.591 E0.69592
G1 X154.672 Y138.591 E0.77531
G1 X154.672 Y139.099 E0.79403
G1 X152.518 Y139.099 E0.87343
G1 X152.518 Y139.607 E0.89215
G1 X154.672 Y139.607 E0.97155
G1 X154.672 Y140.115 E0.99027
G1 X152.518 Y140.115 E1.06967
G1 X152.518 Y140.622 E1.08839
G1 X154.672 Y140.622 E1.16778
G1 X154.672 Y141.13 E1.18651
G1 X152.518 Y141.13 E1.2659
G1 X152.518 Y141.638 E1.28463
G1 X154.672 Y141.638 E1.36402
G1 X154.672 Y142.146 E1.38275
G1 X152.518 Y142.146 E1.46214
G1 X152.518 Y142.654 E1.48087
G1 X154.672 Y142.654 E1.56026
G1 X154.672 Y143.162 E1.57899
G1 X152.518 Y143.162 E1.65838
G1 X152.518 Y143.67 E1.67711
G1 X154.672 Y143.67 E1.75651
G1 X154.672 Y144.177 E1.77523
G1 X152.518 Y144.177 E1.85463
G1 X152.518 Y144.685 E1.87335
G1 X154.672 Y144.685 E1.95275
G1 X154.672 Y145.193 E1.97147
G1 X152.518 Y145.193 E2.05087
G1 X152.518 Y145.701 E2.06959
G1 X154.672 Y145.701 E2.14899
G1 X154.672 Y146.209 E2.16772
G1 X152.518 Y146.209 E2.24712
G1 X152.518 Y146.717 E2.26584
G1 X154.672 Y146.717 E2.34524
G1 X154.672 Y147.225 E2.36396
G1 X152.518 Y147.225 E2.44337
G1 X152.518 Y147.733 E2.46209
G1 X154.672 Y147.733 E2.54149
G1 X154.672 Y148.24 E2.56021
G1 X152.518 Y148.24 E2.63961
G1 X152.518 Y148.748 E2.65834
G1 X154.672 Y148.748 E2.73774
G1 X154.672 Y149.256 E2.75646
G1 X152.518 Y149.256 E2.83587
G1 X152.518 Y149.764 E2.85459
G1 X154.672 Y149.764 E2.93399
G1 X154.672 Y150.272 E2.95272
G1 X152.518 Y150.272 E3.03212
G1 X152.518 Y150.78 E3.05084
G1 X154.672 Y150.78 E3.13025
G1 X154.672 Y151.288 E3.14897
G1 X152.518 Y151.288 E3.22837
G1 X152.518 Y151.795 E3.2471
G1 X154.672 Y151.795 E3.3265
G1 X154.672 Y152.303 E3.34522
G1 X152.518 Y152.303 E3.42463
G1 X152.518 Y152.811 E3.44335
G1 X154.672 Y152.811 E3.52276
G1 X154.672 Y153.319 E3.54148
G1 X152.518 Y153.319 E3.62089
G1 X152.518 Y153.827 E3.63961
G1 X154.672 Y153.827 E3.71902
G1 X154.672 Y154.335 E3.73774
G1 X152.518 Y154.335 E3.81715
G1 X152.518 Y154.843 E3.83587
G1 X154.672 Y154.843 E3.91528
G1 X154.672 Y155.351 E3.934
G1 X152.518 Y155.351 E4.01341
G1 X152.518 Y155.858 E4.03213
G1 X154.672 Y155.858 E4.11154
G1 X154.672 Y156.366 E4.13026
G1 X152.518 Y156.366 E4.20967
G1 X152.518 Y156.874 E4.22839
G1 X154.672 Y156.874 E4.3078
G1 X154.672 Y157.382 E4.32652
G1 X152.518 Y157.382 E4.40593
G1 X152.518 Y157.89 E4.42466
G1 X154.672 Y157.89 E4.50406
G1 X154.672 Y158.398 E4.52279
G1 X152.518 Y158.398 E4.6022
G1 X152.518 Y158.906 E4.62092
G1 X154.672 Y158.906 E4.70033
G1 X154.672 Y159.413 E4.71905
G1 X152.518 Y159.413 E4.79847
G1 X152.518 Y159.921 E4.81719
G1 X154.672 Y159.921 E4.8966
G1 X154.672 Y160.429 E4.91532
G1 X152.518 Y160.429 E4.99473
G1 X152.518 Y160.937 E5.01346
G1 X154.672 Y160.937 E5.09287
G1 X154.672 Y161.445 E5.11159
G1 X152.518 Y161.445 E5.191
G1 X152.518 Y161.953 E5.20973
G1 X154.672 Y161.953 E5.28914
G1 X154.672 Y162.461 E5.30786
G1 X152.518 Y162.461 E5.38728
G1 X152.518 Y162.969 E5.406
G1 X154.672 Y162.969 E5.48541
G1 X154.672 Y163.476 E5.50414
G1 X152.518 Y163.476 E5.58355
G1 X152.518 Y163.984 E5.60227
G1 X154.672 Y163.984 E5.68169
G1 X154.672 Y164.492 E5.70041
G1 X152.518 Y164.492 E5.77983
G1 X152.518 Y165 E5.79855
G1 X154.672 Y165 E5.87796
G1 X154.672 Y165.508 E5.89669
G1 X152.518 Y165.508 E5.9761
G1 X152.518 Y166.016 E5.99483
G1 X154.672 Y166.016 E6.07424
G1 X154.672 Y166.524 E6.09296
G1 X152.518 Y166.524 E6.17238
G1 X152.518 Y167.031 E6.1911
G1 X154.672 Y167.031 E6.27052
G1 X154.672 Y167.539 E6.28924
G1 X152.518 Y167.539 E6.36866
G1 X152.518 Y168.047 E6.38738
G1 X154.672 Y168.047 E6.4668
G1 X154.672 Y168.555 E6.48552
G1 X152.518 Y168.555 E6.56494
G1 X152.518 Y169.063 E6.58367
G1 X154.672 Y169.063 E6.66308
G1 X154.672 Y169.571 E6.68181
G1 X152.518 Y169.571 E6.76123
G1 X152.518 Y170.079 E6.77995
G1 X154.672 Y170.079 E6.85937
G1 X154.672 Y170.587 E6.87809
G1 X152.518 Y170.587 E6.95751
G1 X152.518 Y171.094 E6.97623
G1 X154.672 Y171.094 E7.05565
G1 X154.672 Y171.602 E7.07438
G1 X152.518 Y171.602 E7.1538
G1 X152.518 Y172.11 E7.17252
G1 X154.672 Y172.11 E7.25194
G1 X154.672 Y172.618 E7.27066
G1 X152.518 Y172.618 E7.35009
G1 X152.518 Y173.126 E7.36881
G1 X154.672 Y173.126 E7.44823
G1 X154.672 Y173.634 E7.46695
G1 X152.518 Y173.634 E7.54638
G1 X152.518 Y174.142 E7.5651
G1 X154.672 Y174.142 E7.64452
G1 X154.672 Y174.649 E7.66324
