; generated by SuperSlicer 2.5.59 on 2023-03-18 at 17:30:39 UTC


;
;

;
;
; 

; external perimeters extrusion width = 0.40mm
; perimeters extrusion width = 0.46mm
; infill extrusion width = 0.64mm
; solid infill extrusion width = 0.56mm
; top infill extrusion width = 0.40mm
; support material extrusion width = 0.46mm
; first layer extrusion width = 0.50mm

; object:{"name":"rear ash tray insert v7","id":"rear ash tray insert v7.stl id:0 copy 0","object_center":[165.000000,165.000000,0.000000],"boundingbox_center":[165.000000,165.000000,26.650000],"boundingbox_size":[77.900000,53.300000,53.300000]}
EXCLUDE_OBJECT_DEFINE NAME=rear_ash_tray_insert_v7_stl_id_0_copy_0 CENTER=165.000000,165.000000 POLYGON=[[126.050000,138.350000],[191.035008,138.350000],[203.950000,161.617488],[203.950000,191.650000],[126.050000,191.650000],[126.050000,138.350000]]
; plater:{"center":[165.000000,165.000000,0.000000],"boundingbox_center":[165.000000,165.000000,26.650000],"boundingbox_size":[77.900000,53.300000,53.300000]}

M73 P0 R166
;TYPE:Custom
; custom gcode: start_gcode
START_PRINT T_BED=110 T_EXTRUDER=240
; custom gcode end: start_gcode
M107
G21 ; set units to millimeters
G90 ; use absolute coordinates
M82 ; use absolute distances for extrusion
G92 E0
; custom gcode: start_filament_gcode
; Filament gcode

    PRESSURE_ADVANCE_SELECT FILAMENT=ABS
; custom gcode end: start_filament_gcode
;_TOOLCHANGE 0
M104 S240 ; set temperature
M109 S240 ; set temperature and wait for it to be reached
M190 S110 ; set bed temperature and wait for it to be reached
;LAYER_CHANGE
;Z:0.2
;HEIGHT:0.2
G1 Z0.2 F9000
G1 E-0.5 F3000
M204 S1000
G1 X123.938 Y135.489 F9000
G1 E0 F1800
;TYPE:Skirt
;WIDTH:0.52
G1 X122.838 Y136.801 E0.06521
G1 X122.443 Y138.468 E0.13043
G1 X122.443 Y191.55 E2.15194
G1 X123.18 Y193.771 E2.24105
G1 X124.492 Y194.871 E2.30627
G1 X126.159 Y195.266 E2.37148
G1 X203.841 Y195.266 E5.32984
G1 X206.062 Y194.529 E5.41895
G1 X207.162 Y193.216 E5.48417
G1 X207.557 Y191.55 E5.54938
G1 X207.557 Y161.735 E6.6848
G1 X207.09 Y159.932 E6.75574
G1 X194.175 Y136.664 E7.76918
G1 X192.593 Y135.147 E7.85268
G1 X190.926 Y134.752 E7.91789
G1 X126.159 Y134.752 E10.38441
G1 X123.938 Y135.489 E10.47352
G1 X124.316 Y135.839 F9000
G1 F1800
G1 X123.314 Y136.92 E10.52964
G1 X122.92 Y138.468 E10.59046
G1 X122.92 Y191.55 E12.61197
G1 X123.439 Y193.309 E12.68182
G1 X124.611 Y194.395 E12.74264
G1 X126.159 Y194.789 E12.80346
G1 X203.841 Y194.789 E15.76182
G1 X205.6 Y194.269 E15.83167
G1 X206.686 Y193.098 E15.89249
G1 X207.08 Y191.55 E15.95331
G1 X207.08 Y161.735 E17.08874
G1 X206.673 Y160.163 E17.15056
G1 X193.758 Y136.896 E18.164
G1 X192.474 Y135.623 E18.23285
G1 X190.926 Y135.229 E18.29367
G1 X126.159 Y135.229 E20.76019
M73 P0 R166
G1 X124.4 Y135.749 E20.83004
G1 X124.316 Y135.839 E20.83475
G92 E0
G1 E-0.5 F3000
; printing object rear ash tray insert v7.stl id:0 copy 0
EXCLUDE_OBJECT_START NAME=rear_ash_tray_insert_v7_stl_id_0_copy_0
; acceleration to travel
M204 S3000
G1 X167.117 Y142.679 F9000
; decel to extrusion
M204 S1000
G1 X181.385 Y144.959
; end travel
G1 E0 F1800
;TYPE:Support material
;WIDTH:0.5
G1 X181.523 Y144.593 E0.01427
G1 X181.745 Y144.271 E0.02855
G1 X182.038 Y144.012 E0.04282
G1 X182.385 Y143.83 E0.05709
G1 X182.765 Y143.736 E0.07137
G1 X183.156 Y143.736 E0.08564
G1 X183.346 Y143.783 E0.09278
G1 X183.536 Y143.83 E0.09991
G1 X183.882 Y144.012 E0.11419
G1 X184.175 Y144.271 E0.12846
G1 X184.397 Y144.593 E0.14273
G1 X184.536 Y144.959 E0.15701
G1 X184.583 Y145.347 E0.17128
G1 X184.536 Y145.735 E0.18555
G1 X184.397 Y146.101 E0.19982
G1 X184.175 Y146.423 E0.2141
G1 X183.944 Y146.628 E0.22535
G1 X181.999 Y146.647 E0.29633
G1 X181.745 Y146.423 E0.30867
G1 X181.523 Y146.101 E0.32294
G1 X181.385 Y145.735 E0.33722
G1 X181.337 Y145.347 E0.35149
G1 X181.385 Y144.959 E0.36576
; acceleration to travel
M204 S3000
G1 X183.189 Y146.126 F9000
; decel to extrusion
M204 S1000
G1 X183.791 Y146.515
; end travel
G1 F1800
G1 X183.791 Y144.346 E0.44489
G1 X183.704 Y144.269 E0.44913
G1 X183.425 Y144.122 E0.46065
G1 X183.283 Y144.088 E0.46596
G1 X183.283 Y146.323 E0.54753
G1 X182.775 Y146.329 E0.56607
G1 X182.775 Y144.054 E0.64907
G1 X182.496 Y144.122 E0.65958
G1 X182.267 Y144.242 E0.66899
G1 X182.267 Y146.334 E0.7453
G1 X182.115 Y146.335 E0.75085
G1 X181.98 Y146.215 E0.75745
G1 X181.8 Y145.956 E0.76897
G1 X181.76 Y145.848 E0.77318
G1 X181.76 Y144.452 E0.82411
G92 E0
G1 E-0.5 F3000
; acceleration to travel
M204 S3000
G1 X174.649 Y148.634 F9000
; decel to extrusion
M204 S1000
G1 X172.278 Y150.028
; end travel
G1 E0 F1800
;TYPE:Internal perimeter
G1 X172.035 Y149.44 E0.02321
G1 X171.588 Y148.858 E0.05
G1 X171.005 Y148.411 E0.07679
G1 X170.327 Y148.13 E0.10358
G1 X169.682 Y148.045 E0.12731
G1 X168.773 Y148.045 E0.16047
G1 X168.221 Y148.104 E0.18075
G1 X167.623 Y148.311 E0.20382
G1 X167.087 Y148.646 E0.22688
G1 X166.64 Y149.093 E0.24995
G1 X166.305 Y149.629 E0.27301
G1 X166.098 Y150.226 E0.29608
G1 X166.039 Y150.779 E0.31636
G1 X166.039 Y157.633 E0.56644
G1 X166.124 Y158.278 E0.59018
G1 X166.405 Y158.956 E0.61697
G1 X166.852 Y159.539 E0.64376
G1 X167.434 Y159.986 E0.67055
G1 X168.113 Y160.267 E0.69734
G1 X168.758 Y160.352 E0.72108
G1 X169.682 Y160.352 E0.7548
G1 X170.327 Y160.267 E0.77854
G1 X171.005 Y159.986 E0.80533
G1 X171.588 Y159.539 E0.83212
G1 X172.035 Y158.956 E0.8589
G1 X172.316 Y158.278 E0.88569
G1 X172.401 Y157.633 E0.90943
G1 X172.401 Y150.764 E1.16006
G1 X172.316 Y150.119 E1.1838
G1 X172.278 Y150.028 E1.18738
G1 X171.852 Y150.193 F9000
G1 F1800
G1 X171.636 Y149.671 E1.20799
G1 X171.262 Y149.184 E1.23039
G1 X170.775 Y148.81 E1.25279
G1 X170.208 Y148.575 E1.27519
G1 X169.652 Y148.502 E1.29564
G1 X168.798 Y148.502 E1.32681
G1 X168.321 Y148.553 E1.34431
G1 X167.821 Y148.726 E1.36358
G1 X167.374 Y149.006 E1.38286
G1 X167 Y149.379 E1.40213
G1 X166.72 Y149.827 E1.42141
G1 X166.547 Y150.326 E1.44068
G1 X166.496 Y150.803 E1.45818
G1 X166.496 Y157.603 E1.70628
G1 X166.569 Y158.159 E1.72673
G1 X166.804 Y158.726 E1.74913
G1 X167.178 Y159.213 E1.77153
G1 X167.665 Y159.587 E1.79392
G1 X168.232 Y159.822 E1.81632
G1 X168.788 Y159.895 E1.83677
G1 X169.652 Y159.895 E1.86831
G1 X170.208 Y159.822 E1.88876
G1 X170.775 Y159.587 E1.91116
G1 X171.262 Y159.213 E1.93356
G1 X171.636 Y158.726 E1.95595
G1 X171.871 Y158.159 E1.97835
G1 X171.944 Y157.603 E1.9988
G1 X171.944 Y150.794 E2.24725
G1 X171.871 Y150.238 E2.2677
G1 X171.852 Y150.193 E2.26949
G1 X171.425 Y150.357 F9000
;TYPE:External perimeter
G1 F1800
G1 X171.236 Y149.901 E2.2875
G1 X170.936 Y149.51 E2.3055
G1 X170.544 Y149.209 E2.32351
G1 X170.088 Y149.021 E2.34152
G1 X169.622 Y148.959 E2.35868
G1 X168.822 Y148.959 E2.38787
G1 X168.421 Y149.002 E2.40259
G1 X168.02 Y149.141 E2.41807
G1 X167.66 Y149.366 E2.43356
G1 X167.36 Y149.666 E2.44904
G1 X167.135 Y150.026 E2.46453
G1 X166.996 Y150.427 E2.48001
G1 X166.953 Y150.828 E2.49473
G1 X166.953 Y157.573 E2.74084
G1 X167.015 Y158.039 E2.758
G1 X167.203 Y158.495 E2.77601
G1 X167.504 Y158.887 E2.79401
G1 X167.895 Y159.187 E2.81202
G1 X168.351 Y159.376 E2.83003
G1 X168.818 Y159.438 E2.84719
G1 X169.622 Y159.438 E2.87654
G1 X170.088 Y159.376 E2.8937
G1 X170.544 Y159.187 E2.91171
G1 X170.936 Y158.887 E2.92972
G1 X171.236 Y158.495 E2.94772
G1 X171.425 Y158.039 E2.96573
G1 X171.487 Y157.573 E2.98289
G1 X171.487 Y150.824 E3.22915
G1 X171.425 Y150.357 E3.24631
;WIPE_START
M204 S4000
G1 X171.696 Y150.062 F9000
;WIPE_END
G92 E0
G1 E-0.5 F3000
; acceleration to travel
M204 S3000
G1 X176.067 Y151.199 F9000
; decel to extrusion
M204 S1000
G1 X177.524 Y151.578
; end travel
G1 E0 F1800
;TYPE:Internal perimeter
G1 X177.524 Y169.592 E0.65727
G1 X188.396 Y169.592 E1.05394
G1 X188.396 Y150.663 E1.74456
G1 X177.524 Y150.663 E2.14123
G1 X177.524 Y151.578 E2.17458
G1 X177.981 Y151.578 F9000
G1 F1800
G1 X177.981 Y169.135 E2.81517
G1 X187.939 Y169.135 E3.17848
G1 X187.939 Y151.12 E3.83575
G1 X177.981 Y151.12 E4.19907
G1 X177.981 Y151.578 E4.21574
G1 X178.438 Y151.578 F9000
;TYPE:External perimeter
G1 F1800
G1 X178.438 Y168.678 E4.83965
G1 X187.482 Y168.678 E5.16962
G1 X187.482 Y151.578 E5.79353
G1 X178.438 Y151.578 E6.12349
;WIPE_START
M204 S4000
G1 X178.038 Y151.578 F9000
;WIPE_END
G92 E0
G1 E-0.5 F3000
; acceleration to travel
M204 S3000
G1 X184.375 Y146.583 F9000
; decel to extrusion
M204 S1000
G1 X186.488 Y144.919
; end travel
G1 E0 F1800
;TYPE:Internal perimeter
G1 X186.436 Y144.49 E0.01574
G1 X186.13 Y143.683 E0.04723
G1 X185.64 Y142.973 E0.07872
G1 X184.994 Y142.401 E0.1102
G1 X184.229 Y142 E0.14169
G1 X183.392 Y141.793 E0.17317
G1 X182.529 Y141.793 E0.20466
G1 X181.691 Y142 E0.23615
G1 X180.927 Y142.401 E0.26763
G1 X180.281 Y142.973 E0.29912
G1 X179.79 Y143.683 E0.33061
G1 X179.484 Y144.49 E0.36209
G1 X179.38 Y145.347 E0.39358
G1 X179.484 Y146.204 E0.42507
G1 X179.79 Y147.011 E0.45655
G1 X180.281 Y147.721 E0.48804
G1 X180.927 Y148.293 E0.51952
G1 X181.691 Y148.694 E0.55101
G1 X182.529 Y148.901 E0.5825
G1 X183.392 Y148.901 E0.61398
G1 X184.229 Y148.694 E0.64547
G1 X184.612 Y148.494 E0.66121
G1 X184.994 Y148.293 E0.67696
G1 X185.64 Y147.721 E0.70844
G1 X186.13 Y147.011 E0.73993
G1 X186.436 Y146.204 E0.77141
G1 X186.54 Y145.347 E0.8029
G1 X186.488 Y144.919 E0.81864
G1 X186.034 Y144.974 F9000
G1 F1800
G1 X185.989 Y144.601 E0.83236
G1 X185.722 Y143.897 E0.8598
G1 X185.295 Y143.279 E0.88724
G1 X184.732 Y142.78 E0.91467
G1 X184.066 Y142.43 E0.94211
G1 X183.336 Y142.251 E0.96954
G1 X182.584 Y142.251 E0.99698
G1 X181.854 Y142.43 E1.02442
G1 X181.188 Y142.78 E1.05185
G1 X180.625 Y143.279 E1.07929
G1 X180.198 Y143.897 E1.10673
G1 X179.931 Y144.601 E1.13416
G1 X179.841 Y145.347 E1.1616
G1 X179.931 Y146.094 E1.18904
G1 X180.198 Y146.797 E1.21647
G1 X180.625 Y147.415 E1.24391
G1 X181.188 Y147.914 E1.27135
G1 X181.854 Y148.264 E1.29878
G1 X182.584 Y148.444 E1.32622
G1 X183.336 Y148.444 E1.35365
G1 X184.066 Y148.264 E1.38109
G1 X184.399 Y148.089 E1.39481
G1 X184.732 Y147.914 E1.40853
G1 X185.295 Y147.415 E1.43596
G1 X185.722 Y146.797 E1.4634
G1 X185.989 Y146.094 E1.49084
G1 X186.079 Y145.347 E1.51827
G1 X186.034 Y144.974 E1.53199
G1 X185.58 Y145.029 F9000
;TYPE:External perimeter
G1 F1800
G1 X185.542 Y144.711 E1.54368
G1 X185.314 Y144.111 E1.56707
G1 X184.95 Y143.584 E1.59046
G1 X184.47 Y143.159 E1.61384
G1 X183.903 Y142.861 E1.63723
G1 X183.281 Y142.708 E1.66062
G1 X182.64 Y142.708 E1.684
G1 X182.017 Y142.861 E1.70739
G1 X181.45 Y143.159 E1.73078
G1 X180.97 Y143.584 E1.75416
G1 X180.606 Y144.111 E1.77755
G1 X180.379 Y144.711 E1.80094
G1 X180.301 Y145.347 E1.82432
G1 X180.34 Y145.665 E1.83602
G1 X180.379 Y145.983 E1.84771
G1 X180.606 Y146.583 E1.8711
G1 X180.97 Y147.11 E1.89448
G1 X181.45 Y147.535 E1.91787
G1 X182.017 Y147.833 E1.94125
G1 X182.64 Y147.986 E1.96464
G1 X183.281 Y147.986 E1.98803
G1 X183.903 Y147.833 E2.01141
G1 X184.187 Y147.684 E2.02311
G1 X184.47 Y147.535 E2.0348
G1 X184.95 Y147.11 E2.05819
G1 X185.314 Y146.583 E2.08157
G1 X185.542 Y145.983 E2.10496
G1 X185.619 Y145.347 E2.12835
G1 X185.58 Y145.029 E2.14004
;WIPE_START
M204 S4000
G1 X185.9 Y144.789 F9000
;WIPE_END
G92 E0
G1 E-0.5 F3000
; acceleration to travel
M204 S3000
G1 X186.341 Y167.057 F9000
; decel to extrusion
M204 S1000
G1 X186.488 Y174.48
; end travel
G1 E0 F1800
;TYPE:Internal perimeter
G1 X186.436 Y174.051 E0.01574
G1 X186.13 Y173.244 E0.04723
G1 X185.64 Y172.534 E0.07872
G1 X184.994 Y171.962 E0.1102
G1 X184.229 Y171.561 E0.14169
G1 X183.392 Y171.354 E0.17317
G1 X182.529 Y171.354 E0.20466
G1 X181.691 Y171.561 E0.23615
G1 X180.927 Y171.962 E0.26763
G1 X180.281 Y172.534 E0.29912
G1 X179.79 Y173.244 E0.33061
G1 X179.484 Y174.051 E0.36209
G1 X179.38 Y174.908 E0.39358
G1 X179.484 Y175.765 E0.42507
G1 X179.79 Y176.572 E0.45655
G1 X180.281 Y177.282 E0.48804
G1 X180.927 Y177.854 E0.51952
G1 X181.691 Y178.255 E0.55101
G1 X182.529 Y178.462 E0.5825
G1 X183.392 Y178.462 E0.61398
G1 X184.229 Y178.255 E0.64547
G1 X184.994 Y177.854 E0.67696
G1 X185.64 Y177.282 E0.70844
G1 X186.13 Y176.572 E0.73993
G1 X186.436 Y175.765 E0.77141
G1 X186.54 Y174.908 E0.8029
G1 X186.488 Y174.48 E0.81864
G1 X186.034 Y174.535 F9000
G1 F1800
G1 X185.989 Y174.162 E0.83236
G1 X185.722 Y173.458 E0.8598
G1 X185.295 Y172.84 E0.88724
G1 X184.732 Y172.341 E0.91467
G1 X184.066 Y171.991 E0.94211
G1 X183.336 Y171.812 E0.96954
G1 X182.584 Y171.812 E0.99698
G1 X181.854 Y171.991 E1.02442
G1 X181.188 Y172.341 E1.05185
G1 X180.625 Y172.84 E1.07929
G1 X180.198 Y173.458 E1.10673
G1 X179.931 Y174.162 E1.13416
G1 X179.841 Y174.908 E1.1616
G1 X179.931 Y175.654 E1.18904
G1 X180.198 Y176.358 E1.21647
G1 X180.625 Y176.976 E1.24391
G1 X181.188 Y177.475 E1.27134
G1 X181.854 Y177.825 E1.29878
G1 X182.584 Y178.005 E1.32622
G1 X183.336 Y178.005 E1.35365
G1 X184.066 Y177.825 E1.38109
G1 X184.732 Y177.475 E1.40853
G1 X185.295 Y176.976 E1.43596
G1 X185.722 Y176.358 E1.4634
G1 X185.989 Y175.655 E1.49084
G1 X186.079 Y174.908 E1.51827
G1 X186.034 Y174.535 E1.53199
G1 X185.58 Y174.59 F9000
;TYPE:External perimeter
G1 F1800
G1 X185.542 Y174.272 E1.54368
G1 X185.314 Y173.672 E1.56707
G1 X184.95 Y173.145 E1.59046
G1 X184.47 Y172.72 E1.61384
G1 X183.903 Y172.422 E1.63723
G1 X183.281 Y172.269 E1.66062
G1 X182.64 Y172.269 E1.684
G1 X182.017 Y172.422 E1.70739
G1 X181.45 Y172.72 E1.73078
G1 X180.97 Y173.145 E1.75416
G1 X180.606 Y173.672 E1.77755
G1 X180.379 Y174.272 E1.80094
G1 X180.301 Y174.908 E1.82432
G1 X180.34 Y175.226 E1.83602
G1 X180.379 Y175.544 E1.84771
G1 X180.606 Y176.144 E1.8711
G1 X180.97 Y176.671 E1.89448
G1 X181.45 Y177.096 E1.91787
G1 X182.017 Y177.394 E1.94125
G1 X182.64 Y177.547 E1.96464
G1 X183.281 Y177.547 E1.98803
G1 X183.903 Y177.394 E2.01141
G1 X184.47 Y177.096 E2.0348
G1 X184.95 Y176.671 E2.05819
G1 X185.314 Y176.144 E2.08157
G1 X185.542 Y175.544 E2.10496
G1 X185.619 Y174.908 E2.12835
G1 X185.58 Y174.59 E2.14004
;WIPE_START
M204 S4000
G1 X185.9 Y174.35 F9000
;WIPE_END
G92 E0
G1 E-0.5 F3000
; acceleration to travel
M204 S3000
G1 X165.867 Y171.022 F9000
; decel to extrusion
M204 S1000
G1 X159.189 Y169.913
; end travel
G1 E0 F1800
;TYPE:Internal perimeter
G1 X159.189 Y150.575 E0.70558
G1 X131.446 Y150.575 E1.71782
G1 X131.446 Y169.913 E2.4234
G1 X142.031 Y169.913 E2.8096
G1 X142.031 Y163.968 E3.02651
G1 X148.604 Y163.968 E3.26636
G1 X148.604 Y169.913 E3.48327
G1 X159.189 Y169.913 E3.86947
G1 X158.732 Y169.456 F9000
G1 F1800
G1 X158.732 Y151.032 E4.54169
G1 X131.903 Y151.032 E5.52058
G1 X131.903 Y169.456 E6.19281
G1 X141.574 Y169.456 E6.54565
G1 X141.574 Y163.511 E6.76256
G1 X149.062 Y163.511 E7.03576
G1 X149.062 Y169.456 E7.25267
G1 X158.732 Y169.456 E7.60552
G1 X158.275 Y168.999 F9000
;TYPE:External perimeter
G1 F1800
G1 X158.275 Y151.489 E8.24439
G1 X132.36 Y151.489 E9.18993
G1 X132.36 Y168.999 E9.8288
G1 X141.117 Y168.999 E10.14829
G1 X141.117 Y163.054 E10.3652
G1 X149.519 Y163.054 E10.67175
G1 X149.519 Y168.999 E10.88866
G1 X158.275 Y168.999 E11.20815
;WIPE_START
M204 S4000
G1 X158.675 Y168.999 F9000
;WIPE_END
G92 E0
G1 E-0.5 F3000
; acceleration to travel
M204 S3000
G1 X154.399 Y174.815 F9000
; decel to extrusion
M204 S1000
G1 X152.973 Y176.753
; end travel
G1 E0 F1800
;TYPE:Internal perimeter
G1 X152.973 Y190.386 E0.4974
G1 X127.323 Y190.386 E1.43328
G1 X127.323 Y139.632 E3.2851
G1 X189.762 Y139.632 E5.56327
G1 X189.762 Y162.899 E6.4122
G1 X202.677 Y162.899 E6.88342
G1 X202.677 Y190.386 E7.8863
G1 X177.027 Y190.386 E8.82218
G1 X177.027 Y176.753 E9.31958
G1 X152.973 Y176.753 E10.19719
G1 X153.43 Y177.21 F9000
G1 F1800
G1 X153.43 Y190.843 E10.69459
G1 X126.866 Y190.843 E11.66383
G1 X126.866 Y139.175 E13.549
G1 X190.219 Y139.175 E15.86052
G1 X190.219 Y162.442 E16.70946
G1 X203.134 Y162.442 E17.18068
G1 X203.134 Y190.843 E18.2169
G1 X176.57 Y190.843 E19.18615
G1 X176.57 Y177.21 E19.68354
G1 X153.43 Y177.21 E20.5278
G1 X153.888 Y177.667 F9000
;TYPE:External perimeter
G1 F1800
G1 X153.888 Y191.3 E21.02519
G1 X126.409 Y191.3 E22.02779
G1 X126.409 Y138.718 E23.94631
G1 X190.676 Y138.718 E26.29119
G1 X190.676 Y161.985 E27.14013
G1 X203.591 Y161.985 E27.61135
G1 X203.591 Y191.3 E28.68093
G1 X176.113 Y191.3 E29.68352
G1 X176.113 Y177.667 E30.18092
G1 X153.888 Y177.667 E30.99182
;WIPE_START
