; HEADER_BLOCK_START
; generated by OrcaSlicer 1.6.2 on 2023-05-17 at 20:57:41
; total layer number: 68
; HEADER_BLOCK_END

; THUMBNAIL_BLOCK_START
; THUMBNAIL_BLOCK_END

; external perimeters extrusion width = 0.40mm
; perimeters extrusion width = 0.40mm
; infill extrusion width = 0.45mm
; solid infill extrusion width = 0.40mm
; top infill extrusion width = 0.40mm
; support material extrusion width = 0.40mm
; first layer extrusion width = 0.50mm

; EXECUTABLE_BLOCK_START
EXCLUDE_OBJECT_DEFINE NAME=S-shaped_hook_swivel_v6.stl_id_0_copy_0 CENTER=170,160 POLYGON=[[128.509,179],[128.547,177.692],[128.661,176.389],[128.851,175.095],[129.034,174.125],[129.19,173.598],[129.417,173.097],[129.71,172.631],[130.064,172.211],[182.146,120.129],[182.38,119.91],[182.632,119.71],[182.898,119.531],[183.178,119.375],[183.641,119.175],[184.125,119.035],[185.095,118.851],[186.389,118.661],[187.692,118.547],[189,118.509],[190.308,118.547],[191.611,118.661],[192.905,118.851],[194.187,119.115],[195.45,119.454],[196.692,119.866],[197.908,120.349],[199.094,120.902],[200.245,121.522],[201.359,122.209],[202.431,122.96],[203.457,123.771],[204.434,124.641],[205.359,125.566],[206.229,126.543],[207.04,127.569],[207.791,128.641],[208.478,129.755],[209.098,130.906],[209.651,132.092],[210.134,133.308],[210.546,134.55],[210.885,135.813],[211.149,137.095],[211.339,138.389],[211.453,139.692],[211.491,141],[211.453,142.308],[211.339,143.611],[211.149,144.905],[210.885,146.187],[210.546,147.45],[210.134,148.692],[209.651,149.908],[209.098,151.094],[208.478,152.245],[207.791,153.359],[207.04,154.431],[206.229,155.457],[205.359,156.434],[167.359,194.434],[166.434,195.359],[165.457,196.229],[164.431,197.04],[163.359,197.791],[162.245,198.478],[161.094,199.098],[159.908,199.651],[158.692,200.134],[157.45,200.546],[156.187,200.885],[154.905,201.149],[153.611,201.339],[152.308,201.453],[151,201.491],[149.692,201.453],[148.389,201.339],[147.095,201.149],[145.813,200.885],[144.55,200.546],[143.308,200.134],[142.092,199.651],[140.906,199.098],[139.755,198.478],[138.641,197.791],[137.569,197.04],[136.543,196.229],[135.566,195.359],[134.641,194.434],[133.771,193.457],[132.96,192.431],[132.209,191.359],[131.522,190.245],[130.902,189.094],[130.349,187.908],[129.866,186.692],[129.454,185.45],[129.115,184.187],[128.851,182.905],[128.661,181.611],[128.547,180.308],[128.509,179]]
M73 P0 R25
;TYPE:Custom
START_PRINT T_BED=70 T_EXTRUDER=240
G90
G21
M83 ; use relative distances for extrusion
; filament start gcode
PRESSURE_ADVANCE_SELECT FILAMENT=PETG
M106 S0
;LAYER_CHANGE
;Z:0.2
;HEIGHT:0.2
M204 S1000
G1 E-1 F3000
G1 Z.2 F9000
G1 X148.654 Y148.654
G1 E1 F1800
;TYPE:Skirt
;WIDTH:0.5
G1 F3000
G1 X179.368 Y117.94 E1.48575
G1 X181.428 Y117.087 E.07629
G1 X198.284 Y117.087 E.57655
G1 X199.537 Y117.37 E.04394
G1 X205.536 Y120.227 E.2273
G1 X206.449 Y120.909 E.03898
G1 X209.021 Y123.766 E.13148
G1 X209.407 Y124.31 E.02284
G1 X212.552 Y130.024 E.2231
G1 X212.913 Y131.429 E.04962
G1 X212.913 Y151.429 E.6841
G1 X212.374 Y153.118 E.06065
G1 X202.874 Y166.475 E.56065
G1 X176.846 Y192.56 E1.26047
G1 X163.118 Y202.374 E.57724
G1 X161.429 Y202.913 E.06065
G1 X141.716 Y202.913 E.67428
G1 X140.463 Y202.63 E.04394
G1 X134.464 Y199.773 E.2273
G1 X133.657 Y199.203 E.03379
G1 X130.798 Y196.346 E.13825
G1 X130.251 Y195.588 E.03197
G1 X127.394 Y189.874 E.21853
G1 X127.087 Y188.571 E.0458
G1 X127.087 Y171.428 E.58637
G1 X127.94 Y169.368 E.07629
G1 X148.612 Y148.696 E.99996
G1 X148.935 Y149.02 F9000
G1 F3000
G1 X179.691 Y118.263 E1.4878
G1 X181.428 Y117.544 E.06433
G1 X198.284 Y117.544 E.57655
G1 X199.34 Y117.783 E.03705
G1 X205.34 Y120.64 E.2273
G1 X206.11 Y121.214 E.03286
G1 X208.681 Y124.071 E.13148
G1 X209.007 Y124.53 E.01926
G1 X212.152 Y130.245 E.2231
G1 X212.456 Y131.429 E.04184
G1 X212.456 Y151.429 E.6841
G1 X212.001 Y152.853 E.05114
G1 X202.502 Y166.21 E.56065
G1 X176.523 Y192.237 E1.25786
G1 X162.853 Y202.001 E.57464
G1 X161.429 Y202.456 E.05114
G1 X141.716 Y202.456 E.67428
G1 X140.66 Y202.218 E.03705
G1 X134.66 Y199.36 E.2273
G1 X133.98 Y198.88 E.02849
G1 X131.121 Y196.023 E.13825
G1 X130.66 Y195.384 E.02695
G1 X127.803 Y189.67 E.21853
G1 X127.544 Y188.571 E.03862
G1 X127.544 Y171.428 E.58637
G1 X128.263 Y169.691 E.06433
G1 X148.892 Y149.062 E.9979
; printing object S-shaped_hook_swivel_v6.stl id:0 copy 0
EXCLUDE_OBJECT_START NAME=S-shaped_hook_swivel_v6.stl_id_0_copy_0
G1 E-1
G1 Z.4 F9000
G1 X160.945 Y166.846
G1 Z.2
G1 E1 F1800
;TYPE:Support
G1 F3000
G1 X160.113 Y167.685 E.04041
G1 X160.053 Y167.772 E.00362
G1 X159.95 Y167.996 E.00846
G1 X159.921 Y167.958 E.00162
G1 X159.779 Y167.706 E.00991
G1 X159.701 Y167.488 E.00792
G1 X159.697 Y167.426 E.00213
G1 X159.702 Y167.342 E.00289
G1 X159.704 Y167.337 E.00018
G1 X159.764 Y167.252 E.00357
G1 X160.595 Y166.417 E.04028
G1 X160.902 Y166.793 E.01659
G1 E-1
G1 Z.4 F9000
G1 X160.293 Y169
G1 Z.2
G1 E1 F1800
G1 F3000
G1 X160.368 Y169.103 E.00437
G1 X160.399 Y169.14 E.00163
G1 X160.86 Y169.601 E.02231
G1 X160.897 Y169.632 E.00163
G1 X161 Y169.707 E.00437
G1 X161 Y171.815 E.0721
G1 X160.823 Y171.67 E.00781
G1 X160.703 Y171.599 E.00479
G1 X160.36 Y171.364 E.01423
G1 X160.283 Y171.306 E.00328
G1 X159.5 Y170.658 E.03475
G1 X159.5 Y170.5 E.00543
G1 X159.342 Y170.5 E.00543
G1 X158.694 Y169.717 E.03475
G1 X158.636 Y169.64 E.00328
G1 X158.401 Y169.297 E.01423
G1 X158.33 Y169.177 E.00479
G1 X158.185 Y169 E.00781
G1 X160.225 Y169 E.06976
G1 X160.09 Y169.411 F9000
G1 F3000
G1 X160.097 Y169.419 E.00035
G1 X160.581 Y169.903 E.02343
G1 X160.589 Y169.91 E.00035
G1 X160.589 Y171.021 E.03801
G1 X160.538 Y170.983 E.00217
G1 X159.912 Y170.465 E.02781
G1 X159.912 Y170.088 E.01288
G1 X159.535 Y170.088 E.01288
G1 X159.017 Y169.462 E.02781
G1 X158.979 Y169.411 E.00217
G1 X160.09 Y169.411 E.03801
G1 X161.429 Y170.192 F9000
;TYPE:Support interface
G1 F3000
G1 X161.429 Y171.428 E.04231
G1 X162.286 Y171.428 E.02932
G1 X162.286 Y170.674 E.02581
G1 X162.398 Y170.714 E.00407
G1 X162.45 Y170.725 E.0018
G1 X162.561 Y170.732 E.00382
G1 X162.587 Y170.732 E.00087
G1 X162.729 Y170.723 E.00489
G1 X162.794 Y170.706 E.00229
G1 X162.921 Y170.65 E.00476
G1 X162.947 Y170.636 E.00101
G1 X163.014 Y170.592 E.00274
G1 X163.045 Y170.567 E.00135
G1 X163.143 Y170.469 E.00476
G1 X163.143 Y171.428 E.03282
G1 X164 Y171.428 E.02932
G1 X164 Y169.613 E.06211
G1 X164.858 Y168.756 E.04144
G1 X164.858 Y171.428 E.0914
G1 X165.715 Y171.428 E.02932
G1 X165.715 Y167.9 E.12069
G1 X166.445 Y167.17 E.03533
G1 E-1
G1 Z.4 F9000
G1 X163.593 Y169.414
M73 P1 R25
G1 Z.2
G1 E1 F1800
;TYPE:Support
G1 F3000
G1 X162.76 Y170.246 E.0403
G1 X162.729 Y170.266 E.00125
G1 X162.658 Y170.298 E.00267
G1 X162.574 Y170.303 E.00289
G1 X162.512 Y170.299 E.00213
G1 X162.294 Y170.221 E.00792
G1 X162.042 Y170.079 E.00991
G1 X161.998 Y170.046 E.00186
G1 X162.181 Y169.994 E.0065
G1 X162.312 Y169.918 E.0052
G1 X163.17 Y169.068 E.0413
G1 X163.54 Y169.37 E.01633
G1 E-1
G1 Z.4 F9000
G1 X164.107 Y171.857
G1 Z.2
G1 E1 F1800
G1 F3000
G1 X166.714 Y171.857 E.08917
G1 X166.714 Y176.714 E.16613
G1 X163.857 Y176.714 E.09773
G1 X163.857 Y178.714 E.06841
G1 X162.357 Y178.714 E.0513
G1 X162.357 Y172.922 E.1981
G1 X161.052 Y171.857 E.05764
G1 X164.039 Y171.857 E.10216
G1 X166.303 Y172.268 F9000
G1 F3000
G1 X166.303 Y176.302 E.13799
G1 X163.446 Y176.302 E.09773
G1 X163.446 Y178.302 E.06841
G1 X162.769 Y178.302 E.02316
G1 X162.769 Y172.727 E.19071
G1 X162.207 Y172.268 E.02482
G1 X164.107 Y172.268 E.06501
G1 X166.303 Y172.268 E.0751
G1 X165.795 Y172.776 F9000
G1 F3000
G1 X165.795 Y175.795 E.10325
G1 X163.277 Y175.795 E.08614
G1 X163.277 Y172.776 E.10325
G1 X164.107 Y172.776 E.02841
G1 X165.795 Y172.776 E.05773
G1 X165.287 Y173.284 F9000
G1 F3000
G1 X165.287 Y175.287 E.0685
G1 X163.785 Y175.287 E.0514
G1 X163.785 Y173.284 E.0685
G1 X164.107 Y173.284 E.01104
G1 X165.287 Y173.284 E.04036
G1 X164.779 Y173.792 F9000
G1 F3000
G1 X164.779 Y174.779 E.03376
G1 X164.292 Y174.779 E.01666
G1 X164.292 Y173.792 E.03376
G1 X164.779 Y173.792 E.01666
G1 E-1
G1 Z.4 F9000
G1 X164.679 Y177.142
G1 Z.2
G1 E1 F1800
;TYPE:Support interface
G1 F3000
G1 X164.286 Y177.142 E.01345
G1 X164.286 Y185.714 E.29319
G1 X164 Y185.714 E.00976
G1 X164 Y197.142 E.39091
G1 X163.143 Y197.142 E.02932
G1 X163.143 Y185.714 E.39091
G1 X162.286 Y185.714 E.02932
G1 X162.286 Y197.142 E.39091
G1 X161.608 Y197.142 E.02321
G1 E-1
G1 Z.4 F9000
G1 X164.286 Y194.285
G1 Z.2
G1 E1 F1800
G1 F3000
G1 X164.858 Y194.285 E.01955
G1 X164.858 Y177.142 E.58637
G1 X165.715 Y177.142 E.02932
G1 X165.715 Y194.285 E.58637
G1 X166.572 Y194.285 E.02932
G1 X166.572 Y177.142 E.58637
M73 P1 R24
G1 X167.143 Y177.142 E.01954
G1 X167.143 Y171.428 E.19546
G1 X166.572 Y171.428 E.01954
G1 X166.572 Y167.044 E.14998
G1 X167.429 Y166.188 E.04144
G1 X167.429 Y191.428 E.86336
G1 X168.286 Y191.428 E.02932
G1 X168.286 Y165.331 E.89265
G1 X169.143 Y164.475 E.04144
G1 X169.143 Y191.428 E.92194
G1 X170 Y191.428 E.02932
G1 X170 Y163.61 E.95152
G1 X170.857 Y162.738 E.04182
G1 X170.857 Y185.714 E.78589
G1 X171.714 Y185.714 E.02932
G1 X171.714 Y161.395 E.83182
G1 X171.765 Y161.405 E.00176
G1 X172.001 Y161.413 E.00808
G1 X172.065 Y161.404 E.00222
G1 X172.148 Y161.378 E.00299
G1 X172.204 Y161.349 E.00214
G1 X172.328 Y161.258 E.00528
G1 X172.349 Y161.24 E.00092
G1 X172.571 Y161.021 E.01069
G1 X172.571 Y185.714 E.84463
G1 X172.857 Y185.714 E.00978
G1 X172.857 Y162.857 E.78183
G1 X173.428 Y162.857 E.01954
G1 X173.428 Y160.177 E.09167
G1 X174.217 Y159.4 E.03788
G1 X174.285 Y159.398 E.00233
G1 X174.285 Y162.857 E.11832
G1 X175.142 Y162.857 E.02932
G1 X175.142 Y159.372 E.11923
G1 X175.821 Y159.351 E.02322
G1 X175.142 Y158.603 F9000
G1 F3000
G1 X175.142 Y158.473 E.00446
G1 X176 Y157.612 E.04155
G1 X176 Y158.595 E.0336
G1 X176.037 Y158.594 E.0013
G1 X176.053 Y159.343 E.02563
G1 X176 Y159.345 E.00183
G1 X176 Y162.857 E.12013
G1 X176.857 Y162.857 E.02932
G1 X176.857 Y156.751 E.20885
G1 X177.714 Y155.89 E.04155
G1 X177.714 Y162.857 E.2383
G1 X178.571 Y162.857 E.02932
G1 X178.571 Y155.03 E.26775
G1 X179.428 Y154.169 E.04155
G1 X179.428 Y162.857 E.2972
G1 X180.285 Y162.857 E.02932
G1 X180.285 Y153.308 E.32664
G1 X180.856 Y152.734 E.0277
G1 X180.985 Y151.797 F9000
G1 F3000
G1 X180.976 Y151.773 E.00089
G1 X180.932 Y151.687 E.0033
G1 X180.924 Y151.673 E.00053
G1 X180.78 Y151.442 E.00933
G1 X180.771 Y151.429 E.00054
G1 X181.142 Y151.429 E.0127
G1 X181.142 Y162.857 E.39091
G1 X181.999 Y162.857 E.02932
G1 X181.999 Y157.143 E.19546
G1 X182.856 Y157.143 E.02932
G1 X182.856 Y162.857 E.19546
G1 X183.713 Y162.857 E.02932
G1 X183.713 Y157.143 E.19546
G1 X184.57 Y157.143 E.02932
G1 X184.57 Y162.857 E.19546
G1 X185.427 Y162.857 E.02932
G1 X185.427 Y157.143 E.19546
G1 X186.285 Y157.143 E.02932
G1 X186.285 Y162.857 E.19546
G1 X187.142 Y162.857 E.02932
G1 X187.142 Y157.143 E.19546
G1 X187.142 Y157.143 E.00003
G1 X187.142 Y154.286 E.09773
G1 X187.999 Y154.286 E.02929
G1 X187.999 Y162.857 E.29319
G1 X188.856 Y162.857 E.02932
G1 X188.856 Y154.286 E.29319
M73 P2 R24
G1 X189.713 Y154.286 E.02932
G1 X189.713 Y162.857 E.29319
G1 X190.57 Y162.857 E.02932
G1 X190.57 Y154.286 E.29319
G1 X191.427 Y154.286 E.02932
G1 X191.427 Y162.857 E.29319
G1 X192.284 Y162.857 E.02932
G1 X192.284 Y154.286 E.29319
G1 X193.141 Y154.286 E.02932
G1 X193.141 Y162.857 E.29319
G1 X193.998 Y162.857 E.02932
G1 X193.998 Y154.286 E.29319
G1 X194.855 Y154.286 E.02932
G1 X194.855 Y162.857 E.29319
G1 X195.712 Y162.857 E.02932
G1 X195.712 Y154.286 E.29319
G1 X195.714 Y154.286 E.00005
G1 X195.714 Y151.429 E.09773
G1 X196.569 Y151.429 E.02927
G1 X196.569 Y160 E.29319
G1 X197.427 Y160 E.02932
G1 X197.427 Y151.429 E.29319
G1 X198.284 Y151.429 E.02932
G1 X198.284 Y160 E.29319
G1 X198.749 Y160 E.01593
G1 X199.141 Y160 E.01339
G1 X199.141 Y148.572 E.39091
G1 X199.998 Y148.572 E.02932
G1 X199.998 Y160 E.39091
G1 X200.855 Y160 E.02932
G1 X200.855 Y148.572 E.39091
G1 X201.426 Y148.572 E.01955
G1 E-1
G1 Z.4 F9000
G1 X201.428 Y146.291
G1 Z.2
G1 E1 F1800
G1 F3000
G1 X201.428 Y145.715 E.01973
G1 X201.712 Y145.715 E.00972
G1 X201.712 Y157.143 E.39091
G1 X202.569 Y157.143 E.02932
G1 X202.569 Y145.715 E.39091
G1 X203.426 Y145.715 E.02932
G1 X203.426 Y157.143 E.39091
G1 X204.283 Y157.143 E.02932
G1 X204.283 Y145.715 E.39091
G1 X204.285 Y145.715 E.00006
G1 X204.285 Y142.679 E.10384
G1 X204.285 Y140.179 E.08551
G1 X204.285 Y137.143 E.10384
G1 X204.283 Y137.143 E.00006
G1 X204.283 Y122.858 E.48864
G1 X203.426 Y122.858 E.02932
G1 X203.426 Y137.143 E.48864
G1 X202.569 Y137.143 E.02932
G1 X202.569 Y122.858 E.48864
G1 X201.712 Y122.858 E.02932
G1 X201.712 Y137.143 E.48864
G1 X201.428 Y137.143 E.00972
G1 X201.428 Y136.567 E.01973
G1 X200.999 Y137.572 F9000
;TYPE:Support
G1 F3000
G1 X203.856 Y137.572 E.09773
G1 X203.856 Y140.179 E.08917
G1 X203.856 Y142.679 E.08551
G1 X203.856 Y145.286 E.08917
G1 X200.999 Y145.286 E.09773
G1 X200.999 Y147.286 E.06841
G1 X199.499 Y147.286 E.0513
G1 X199.499 Y135.572 E.40068
G1 X200.999 Y135.572 E.0513
G1 X200.999 Y137.503 E.06607
G1 X199.911 Y146.875 F9000
G1 F3000
G1 X199.911 Y135.983 E.37254
G1 X200.588 Y135.983 E.02316
G1 X200.588 Y137.983 E.06841
G1 X203.445 Y137.983 E.09773
G1 X203.445 Y140.179 E.0751
G1 X203.445 Y142.679 E.08551
G1 X203.445 Y144.875 E.0751
G1 X200.588 Y144.875 E.09773
G1 X200.588 Y146.875 E.06841
G1 X199.911 Y146.875 E.02316
G1 X200.419 Y144.367 F9000
G1 F3000
G1 X200.419 Y138.491 E.20097
G1 X202.937 Y138.491 E.08614
G1 X202.937 Y140.179 E.05773
G1 X202.937 Y142.679 E.08551
G1 X202.937 Y144.367 E.05773
G1 X200.419 Y144.367 E.08614
G1 X200.927 Y143.859 F9000
G1 F3000
G1 X200.927 Y138.999 E.16623
G1 X202.429 Y138.999 E.0514
G1 X202.429 Y140.179 E.04036
G1 X202.429 Y142.679 E.08551
G1 X202.429 Y143.859 E.04036
G1 X200.927 Y143.859 E.0514
G1 X201.434 Y143.351 F9000
G1 F3000
G1 X201.434 Y139.507 E.13149
G1 X201.921 Y139.507 E.01666
G1 X201.921 Y140.179 E.02299
G1 X201.921 Y142.679 E.08551
G1 X201.921 Y143.351 E.02299
G1 X201.434 Y143.351 E.01666
G1 E-1
G1 Z.4 F9000
G1 X209.604 Y151.429
G1 Z.2
G1 E1 F1800
;TYPE:Support interface
G1 F3000
G1 X209.999 Y151.429 E.01351
G1 X209.999 Y131.429 E.6841
G1 X209.426 Y131.429 E.01962
G1 X209.426 Y151.429 E.6841
G1 X208.569 Y151.429 E.02932
G1 X208.569 Y131.429 E.6841
G1 X207.711 Y131.429 E.02932
G1 X207.711 Y151.429 E.6841
G1 X207.142 Y151.429 E.01948
G1 X207.142 Y154.286 E.09773
G1 X206.854 Y154.286 E.00984
G1 X206.854 Y125.715 E.97728
G1 X205.997 Y125.715 E.02932
G1 X205.997 Y154.286 E.97728
G1 X205.14 Y154.286 E.02932
G1 X205.14 Y125.715 E.97728
G1 X204.569 Y125.715 E.01955
G1 E-1
G1 Z.4 F9000
G1 X201.533 Y122.858
G1 Z.2
G1 E1 F1800
G1 F3000
G1 X200.855 Y122.858 E.02321
G1 X200.855 Y131.429 E.29319
M73 P3 R24
G1 X199.998 Y131.429 E.02932
G1 X199.998 Y122.858 E.29319
G1 X199.141 Y122.858 E.02932
G1 X199.141 Y131.429 E.29319
G1 X198.571 Y131.429 E.01949
G1 X198.571 Y128.572 E.09773
G1 X198.284 Y128.572 E.00982
G1 X198.284 Y120.001 E.29319
G1 X197.427 Y120.001 E.02932
G1 X197.427 Y128.572 E.29319
G1 X196.569 Y128.572 E.02932
G1 X196.569 Y120.001 E.29319
G1 X195.712 Y120.001 E.02932
G1 X195.712 Y128.572 E.29319
G1 X194.855 Y128.572 E.02932
G1 X194.855 Y120.001 E.29319
G1 X193.998 Y120.001 E.02932
G1 X193.998 Y128.572 E.29319
G1 X193.141 Y128.572 E.02932
G1 X193.141 Y120.001 E.29319
G1 X192.284 Y120.001 E.02932
G1 X192.284 Y125.715 E.19546
G1 X191.427 Y125.715 E.02932
G1 X191.427 Y120.001 E.19546
G1 X190.57 Y120.001 E.02932
G1 X190.57 Y125.715 E.19546
G1 X189.821 Y125.715 E.02562
G1 X189.713 Y125.715 E.0037
G1 X189.713 Y120.001 E.19546
G1 X188.856 Y120.001 E.02932
G1 X188.856 Y125.715 E.19546
G1 X187.999 Y125.715 E.02932
G1 X187.999 Y120.001 E.19546
G1 X187.142 Y120.001 E.02932
G1 X187.142 Y125.715 E.19546
G1 X186.285 Y125.715 E.02932
G1 X186.285 Y120.001 E.19546
G1 X185.427 Y120.001 E.02932
G1 X185.427 Y125.715 E.19546
G1 X184.57 Y125.715 E.02932
G1 X184.57 Y120.001 E.19546
G1 X183.713 Y120.001 E.02932
G1 X183.713 Y125.715 E.19546
G1 X182.856 Y125.715 E.02932
G1 X182.856 Y120.001 E.19546
G1 X181.999 Y120.001 E.02932
G1 X181.999 Y125.715 E.19546
G1 X181.428 Y125.715 E.01952
G1 X181.428 Y120.001 E.19546
G1 X181.821 Y120.001 E.01342
G1 E-1
