; generated by SuperSlicer 2.5.59 on 2023-02-25 at 19:18:18 UTC


;
;

;
;
; 

; external perimeters extrusion width = 0.40mm
; perimeters extrusion width = 0.46mm
; infill extrusion width = 0.64mm
; solid infill extrusion width = 0.56mm
; top infill extrusion width = 0.40mm
; support material extrusion width = 0.46mm
; first layer extrusion width = 0.50mm

; external perimeters extrusion width = 0.40mm
; perimeters extrusion width = 0.46mm
; infill extrusion width = 0.64mm
; solid infill extrusion width = 0.56mm
; top infill extrusion width = 0.40mm
; support material extrusion width = 0.46mm
; first layer extrusion width = 0.50mm

; external perimeters extrusion width = 0.40mm
; perimeters extrusion width = 0.46mm
; infill extrusion width = 0.64mm
; solid infill extrusion width = 0.56mm
; top infill extrusion width = 0.40mm
; support material extrusion width = 0.46mm
; first layer extrusion width = 0.50mm

; external perimeters extrusion width = 0.40mm
; perimeters extrusion width = 0.46mm
; infill extrusion width = 0.64mm
; solid infill extrusion width = 0.56mm
; top infill extrusion width = 0.40mm
; support material extrusion width = 0.46mm
; first layer extrusion width = 0.50mm

; object:{"name":"Side_200mm","id":"Side_200mm.stl id:0 copy 0","object_center":[124.712688,103.694991,0.000000],"boundingbox_center":[124.712688,103.694991,5.000000],"boundingbox_size":[200.000000,60.000000,10.000000]}
; object:{"name":"Joining_connector","id":"Joining_connector.stl id:1 copy 0","object_center":[132.243905,208.805010,0.000000],"boundingbox_center":[132.243905,208.805010,2.500000],"boundingbox_size":[59.918518,95.000000,5.000000]}
; object:{"name":"Connector","id":"Connector.stl id:2 copy 0","object_center":[86.284645,187.194992,0.000000],"boundingbox_center":[86.284645,187.194992,2.500000],"boundingbox_size":[20.000000,95.000000,5.000000]}
; object:{"name":"Side_140mm","id":"Side_140mm.stl id:3 copy 0","object_center":[234.787313,174.694991,0.000000],"boundingbox_center":[234.787313,174.694991,5.000000],"boundingbox_size":[141.000000,70.000000,10.000000]}
; plater:{"center":[165.000000,165.000000,0.000000],"boundingbox_center":[165.000000,165.000000,5.000000],"boundingbox_size":[280.574625,182.610019,10.000000]}

M73 P0 R193


; Pre-Processed for Cancel-Object support by preprocess_cancellation v0.2.0
; 4 known objects
EXCLUDE_OBJECT_DEFINE NAME=Side_200mm_stl_id_0_copy_0 CENTER=126.937,89.436 POLYGON=[[24.913,73.895],[24.913,133.495],[224.513,133.495],[224.513,73.895]]
EXCLUDE_OBJECT_DEFINE NAME=Connector_stl_id_2_copy_0 CENTER=86.264,187.380 POLYGON=[[76.485,139.895],[76.485,234.495],[96.085,234.495],[96.085,139.895]]
EXCLUDE_OBJECT_DEFINE NAME=Joining_connector_stl_id_1_copy_0 CENTER=132.251,209.031 POLYGON=[[102.485,161.505],[102.485,256.105],[162.003,256.105],[162.003,161.505]]
EXCLUDE_OBJECT_DEFINE NAME=Side_140mm_stl_id_3_copy_0 CENTER=238.833,155.978 POLYGON=[[164.487,139.895],[164.487,209.495],[305.087,209.495],[305.087,139.895]]
;TYPE:Custom
; custom gcode: start_gcode
START_PRINT T_BED=70 T_EXTRUDER=255
; custom gcode end: start_gcode
M107
G21 ; set units to millimeters
G90 ; use absolute coordinates
M82 ; use absolute distances for extrusion
G92 E0
; custom gcode: start_filament_gcode
; Filament gcode
PRESSURE_ADVANCE_SELECT FILAMENT=PETG
; custom gcode end: start_filament_gcode
;_TOOLCHANGE 0
M104 S255 ; set temperature
M109 S255 ; set temperature and wait for it to be reached
M190 S70 ; set bed temperature and wait for it to be reached
;LAYER_CHANGE
;Z:0.2
;HEIGHT:0.2
G1 Z0.2 F9000
M73 P0 R193
G1 E-1 F3000
M204 S1000
G1 X23.405 Y70.546 F9000
G1 E0 F1800
;TYPE:Skirt
;WIDTH:0.52
G1 X22.592 Y70.816 E0.03263
G1 X21.492 Y72.129 E0.09784
G1 X21.097 Y73.795 E0.16306
G1 X21.097 Y133.595 E2.44039
G1 X21.504 Y135.285 E2.50658
G1 X73.075 Y236.285 E6.82533
G1 X74.01 Y237.452 E6.88228
G1 X100.01 Y259.062 E8.16978
G1 X102.385 Y259.921 E8.26595
G1 X162.103 Y259.921 E10.54018
G1 X163.259 Y259.736 E10.58474
G1 X305.702 Y213.126 E16.29238
G1 X306.736 Y212.597 E16.3366
G1 X307.85 Y211.297 E16.40181
G1 X308.262 Y209.635 E16.46703
G1 X308.903 Y149.635 E18.75211
G1 X308.903 Y139.795 E19.12683
G1 X308.581 Y138.282 E19.18575
G1 X307.542 Y136.921 E19.25096
G1 X226.967 Y70.921 E23.21745
G1 X224.613 Y70.079 E23.31267
G1 X24.813 Y70.079 E30.92157
G1 X23.405 Y70.546 E30.97805
G1 X23.52 Y70.938 F9000
G1 F1800
G1 X23.054 Y71.076 E30.99659
G1 X21.968 Y72.247 E31.05741
G1 X21.574 Y73.795 E31.11823
G1 X21.574 Y133.595 E33.39557
G1 X21.928 Y135.068 E33.45326
G1 X73.5 Y236.068 E37.77201
G1 X74.315 Y237.086 E37.82164
G1 X100.315 Y258.696 E39.10915
G1 X102.385 Y259.444 E39.19297
G1 X162.103 Y259.444 E41.4672
G1 X163.11 Y259.283 E41.50604
G1 X305.554 Y212.673 E47.21368
G1 X307.375 Y211.173 E47.30352
G1 X307.785 Y209.63 E47.36434
G1 X308.426 Y149.63 E49.64943
G1 X308.426 Y139.795 E50.02395
G1 X308.187 Y138.575 E50.07129
G1 X307.239 Y137.29 E50.13211
G1 X226.665 Y71.29 E54.0986
M73 P0 R193
G1 X224.613 Y70.556 E54.18159
G1 X24.813 Y70.556 E61.79049
G1 X23.52 Y70.938 E61.8418
G92 E0
G1 E-1 F3000
; printing object Side_200mm.stl id:0 copy 0
EXCLUDE_OBJECT_START NAME=Side_200mm_stl_id_0_copy_0
; acceleration to travel
M204 S3000
G1 X47.847 Y73.954 F9000
; decel to extrusion
M204 S1000
G1 X55.956 Y74.959
; end travel
G1 E0 F1800
;TYPE:Internal perimeter
;WIDTH:0.5
G1 X193.469 Y74.959 E5.01732
G1 X193.469 Y82.431 E5.28993
G1 X190.079 Y82.431 E5.41364
G1 X190.079 Y132.431 E7.23795
G1 X189.607 Y132.431 E7.25516
G1 X189.607 Y82.431 E9.07946
G1 X157.353 Y82.431 E10.25629
G1 X157.353 Y132.431 E12.0806
G1 X156.881 Y132.431 E12.09781
G1 X156.881 Y82.431 E13.92211
G1 X124.627 Y82.431 E15.09894
G1 X124.627 Y132.431 E16.92325
G1 X124.155 Y132.431 E16.94046
G1 X124.155 Y82.431 E18.76476
G1 X91.901 Y82.431 E19.94159
G1 X91.901 Y132.431 E21.7659
G1 X91.429 Y132.431 E21.78311
G1 X91.429 Y82.431 E23.60741
G1 X59.175 Y82.431 E24.78424
G1 X59.175 Y132.431 E26.60855
G1 X58.703 Y132.431 E26.62576
G1 X58.703 Y82.431 E28.45006
G1 X55.956 Y82.431 E28.55028
G1 X55.956 Y74.959 E28.82289
G92 E0
G1 E-1 F3000
; acceleration to travel
M204 S3000
G1 X159.434 Y75.266 F9000
; decel to extrusion
M204 S1000
G1 X193.926 Y75.368
; end travel
G1 E0 F1800
G1 X193.926 Y82.022 E0.24278
G1 X215.581 Y82.022 E1.03286
G1 X215.581 Y75.368 E1.27564
G1 X193.926 Y75.368 E2.06572
G1 X194.383 Y75.825 F9000
;TYPE:External perimeter
G1 F1800
G1 X194.383 Y81.565 E2.27515
G1 X215.123 Y81.565 E3.03187
G1 X215.123 Y75.825 E3.2413
G1 X194.383 Y75.825 E3.99802
;WIPE_START
M204 S4000
G1 X193.983 Y75.825 F9000
;WIPE_END
G92 E0
G1 E-1 F3000
; acceleration to travel
M204 S3000
G1 X210.524 Y75.176 F9000
; decel to extrusion
M204 S1000
G1 X216.038 Y74.959
; end travel
G1 E0 F1800
;TYPE:Internal perimeter
G1 X223.449 Y74.959 E0.2704
G1 X223.449 Y82.431 E0.54301
G1 X222.805 Y82.431 E0.56651
G1 X222.805 Y132.431 E2.39081
G1 X222.333 Y132.431 E2.40802
G1 X222.333 Y82.431 E4.23232
G1 X216.038 Y82.431 E4.46201
G1 X216.038 Y74.959 E4.73463
G92 E0
G1 E-1 F3000
; acceleration to travel
M204 S3000
G1 X95.634 Y75.266 F9000
; decel to extrusion
M204 S1000
G1 X55.499 Y75.368
; end travel
G1 E0 F1800
G1 X33.845 Y75.368 E0.79008
M73 P1 R192
G1 X33.845 Y82.022 E1.03286
G1 X55.499 Y82.022 E1.82293
G1 X55.499 Y75.368 E2.06572
G1 X55.042 Y75.825 F9000
;TYPE:External perimeter
G1 F1800
G1 X34.302 Y75.825 E2.82244
G1 X34.302 Y81.565 E3.03187
G1 X55.042 Y81.565 E3.78859
G1 X55.042 Y75.825 E3.99802
;WIPE_START
M204 S4000
G1 X55.042 Y75.425 F9000
;WIPE_END
G92 E0
G1 E-1 F3000
; acceleration to travel
M204 S3000
G1 X33.597 Y80.679 F9000
; decel to extrusion
M204 S1000
G1 X26.449 Y82.431
; end travel
G1 E0 F1800
;TYPE:Internal perimeter
G1 X26.449 Y132.431 E1.8243
G1 X25.977 Y132.431 E1.84151
G1 X25.977 Y74.959 E3.93843
G1 X33.388 Y74.959 E4.20883
G1 X33.388 Y82.431 E4.48144
G1 X26.449 Y82.431 E4.73463
G1 X26.906 Y82.888 F9000
G1 F1800
G1 X26.906 Y132.888 E6.55893
G1 X25.52 Y132.888 E6.60949
G1 X25.52 Y74.502 E8.73976
G1 X223.906 Y74.502 E15.97808
M73 P1 R191
G1 X223.906 Y82.888 E16.28405
G1 X223.262 Y82.888 E16.30755
G1 X223.262 Y132.888 E18.13185
G1 X221.876 Y132.888 E18.18241
G1 X221.876 Y82.888 E20.00672
G1 X190.536 Y82.888 E21.1502
G1 X190.536 Y132.888 E22.9745
G1 X189.15 Y132.888 E23.02507
G1 X189.15 Y82.888 E24.84937
G1 X157.81 Y82.888 E25.99285
G1 X157.81 Y132.888 E27.81715
G1 X156.424 Y132.888 E27.86772
G1 X156.424 Y82.888 E29.69202
G1 X125.084 Y82.888 E30.8355
G1 X125.084 Y132.888 E32.6598
G1 X123.698 Y132.888 E32.71037
G1 X123.698 Y82.888 E34.53467
G1 X92.358 Y82.888 E35.67815
G1 X92.358 Y132.888 E37.50245
G1 X90.972 Y132.888 E37.55302
G1 X90.972 Y82.888 E39.37732
G1 X59.632 Y82.888 E40.5208
G1 X59.632 Y132.888 E42.3451
G1 X58.246 Y132.888 E42.39567
G1 X58.246 Y82.888 E44.21997
G1 X26.906 Y82.888 E45.36345
G1 X27.363 Y83.345 F9000
;TYPE:External perimeter
G1 F1800
G1 X27.363 Y133.345 E47.18775
G1 X25.063 Y133.345 E47.27167
G1 X25.063 Y74.045 E49.4353
G1 X224.363 Y74.045 E56.70697
G1 X224.363 Y83.345 E57.04629
G1 X223.719 Y83.345 E57.06979
G1 X223.719 Y133.345 E58.89409
G1 X221.419 Y133.345 E58.97801
G1 X221.419 Y83.345 E60.80231
G1 X190.993 Y83.345 E61.91244
G1 X190.993 Y133.345 E63.73674
G1 X188.693 Y133.345 E63.82066
G1 X188.693 Y83.345 E65.64496
G1 X158.267 Y83.345 E66.75509
G1 X158.267 Y133.345 E68.57939
G1 X155.967 Y133.345 E68.66331
G1 X155.967 Y83.345 E70.48761
G1 X125.541 Y83.345 E71.59774
G1 X125.541 Y133.345 E73.42204
G1 X123.241 Y133.345 E73.50596
G1 X123.241 Y83.345 E75.33026
M73 P1 R191
G1 X92.815 Y83.345 E76.44039
G1 X92.815 Y133.345 E78.26469
G1 X90.515 Y133.345 E78.34861
G1 X90.515 Y83.345 E80.17291
G1 X60.089 Y83.345 E81.28304
G1 X60.089 Y133.345 E83.10734
G1 X57.789 Y133.345 E83.19126
G1 X57.789 Y83.345 E85.01557
G1 X27.363 Y83.345 E86.12569
;WIPE_START
M204 S4000
G1 X26.963 Y83.345 F9000
;WIPE_END
G92 E0
G1 E-1 F3000
; acceleration to travel
M204 S3000
G1 X31.939 Y82.677 F9000
; decel to extrusion
M204 S1000
G1 X33.598 Y82.455
; end travel
G1 E0 F1800
;TYPE:Gap fill
;WIDTH:0.487685
G1 X44.672 Y82.455 E0.39315
G1 X55.523 Y82.455 E0.7784
G1 X55.634 Y82.455 E0.78235
G1 X55.746 Y82.455 E0.78629
G92 E0
G1 E-1 F3000
; acceleration to travel
M204 S3000
G1 X55.746 Y76.815 F9000
; decel to extrusion
M204 S1000
G1 X55.746 Y74.935
; end travel
G1 E0 F1800
G1 X55.634 Y74.935 E0.00395
G1 X55.523 Y74.935 E0.0079
G1 X33.598 Y74.935 E0.78629
; acceleration to travel
M204 S3000
G1 X32.678 Y75.052 F9000
; decel to extrusion
M204 S1000
G1 X32.327 Y75.096
; end travel
;TYPE:Solid infill
;WIDTH:0.505775
G1 F3600
G1 X33.251 Y76.02 E0.83452
G1 X33.251 Y76.667 F9000
G1 F3600
G1 X31.68 Y75.096 E0.91649
G1 X31.034 Y75.096 F9000
G1 F3600
G1 X33.251 Y77.313 E1.03219
G1 X33.251 Y77.959 F9000
G1 F3600
G1 X30.388 Y75.096 E1.18164
G1 X29.741 Y75.096 F9000
G1 F3600
G1 X33.251 Y78.606 E1.36482
G1 X33.251 Y79.252 F9000
G1 F3600
G1 X29.095 Y75.096 E1.58174
G1 X28.448 Y75.096 F9000
G1 F3600
G1 X33.251 Y79.899 E1.83241
G1 X33.251 Y80.545 F9000
G1 F3600
G1 X27.802 Y75.096 E2.11681
G1 X27.155 Y75.096 F9000
G1 F3600
G1 X33.251 Y81.191 E2.43495
G1 X33.251 Y81.838 F9000
G1 F3600
G1 X26.509 Y75.096 E2.78683
G1 X26.114 Y75.348 F9000
G1 F3600
G1 X33.06 Y82.294 E3.14939
G1 X32.414 Y82.294 F9000
G1 F3600
G1 X26.114 Y75.994 E3.4782
G1 X26.114 Y76.64 F9000
G1 F3600
G1 X31.767 Y82.294 E3.77328
G1 X31.121 Y82.294 F9000
G1 F3600
G1 X26.114 Y77.287 E4.03462
G1 X26.114 Y77.933 F9000
G1 F3600
G1 X30.475 Y82.294 E4.26223
G1 X29.828 Y82.294 F9000
G1 F3600
G1 X26.114 Y78.58 E4.45609
G1 X26.114 Y79.226 F9000
G1 F3600
G1 X29.182 Y82.294 E4.61621
G1 X28.535 Y82.294 F9000
G1 F3600
G1 X26.114 Y79.872 E4.74259
G1 X26.114 Y80.519 F9000
G1 F3600
G1 X27.889 Y82.294 E4.83524
G1 X27.242 Y82.294 F9000
G1 F3600
G1 X26.114 Y81.165 E4.89414
G1 X26.114 Y81.812 F9000
G1 F3600
G1 X26.596 Y82.294 E4.91931
G92 E0
G1 E-1 F3000
; acceleration to travel
M204 S3000
G1 X151.648 Y77.589 F9000
; decel to extrusion
M204 S1000
G1 X193.332 Y76.02
; end travel
G1 E0 F1800
;WIDTH:0.502395
G1 F3600
G1 X192.408 Y75.096 E0.0479
G1 X191.762 Y75.096 F9000
G1 F3600
G1 X193.332 Y76.667 E0.12932
G1 X193.332 Y77.313 F9000
G1 F3600
G1 X191.115 Y75.096 E0.24426
G1 X190.469 Y75.096 F9000
G1 F3600
G1 X193.332 Y77.959 E0.3927
G1 X193.332 Y78.606 F9000
G1 F3600
G1 X189.823 Y75.096 E0.57466
G1 X189.176 Y75.096 F9000
G1 F3600
G1 X193.332 Y79.252 E0.79013
G1 X193.332 Y79.899 F9000
G1 F3600
G1 X188.53 Y75.096 E1.03912
G1 X187.883 Y75.096 F9000
G1 F3600
G1 X193.332 Y80.545 E1.32162
G1 X193.332 Y81.191 F9000
G1 F3600
G1 X187.237 Y75.096 E1.63764
G1 X186.591 Y75.096 F9000
G1 F3600
G1 X193.332 Y81.838 E1.98717
G1 X193.142 Y82.294 F9000
G1 F3600
G1 X185.944 Y75.096 E2.36033
G1 X185.298 Y75.096 F9000
G1 F3600
G1 X192.495 Y82.294 E2.73349
G1 X191.849 Y82.294 F9000
G1 F3600
G1 X184.651 Y75.096 E3.10666
G1 X184.005 Y75.096 F9000
G1 F3600
G1 X191.202 Y82.294 E3.47982
G1 X190.556 Y82.294 F9000
G1 F3600
G1 X183.358 Y75.096 E3.85298
G1 X182.712 Y75.096 F9000
G1 F3600
G1 X189.91 Y82.294 E4.22615
G1 X189.263 Y82.294 F9000
G1 F3600
G1 X182.066 Y75.096 E4.59931
G1 X181.419 Y75.096 F9000
G1 F3600
G1 X188.617 Y82.294 E4.97248
G1 X187.97 Y82.294 F9000
G1 F3600
G1 X180.773 Y75.096 E5.34564
G1 X180.126 Y75.096 F9000
G1 F3600
G1 X187.324 Y82.294 E5.7188
G1 X186.678 Y82.294 F9000
G1 F3600
G1 X179.48 Y75.096 E6.09197
G1 X178.834 Y75.096 F9000
G1 F3600
G1 X186.031 Y82.294 E6.46513
G1 X185.385 Y82.294 F9000
G1 F3600
G1 X178.187 Y75.096 E6.83829
G1 X177.541 Y75.096 F9000
G1 F3600
G1 X184.738 Y82.294 E7.21146
G1 X184.092 Y82.294 F9000
G1 F3600
G1 X176.894 Y75.096 E7.58462
G1 X176.248 Y75.096 F9000
G1 F3600
G1 X183.446 Y82.294 E7.95778
G1 X182.799 Y82.294 F9000
G1 F3600
G1 X175.602 Y75.096 E8.33095
G1 X174.955 Y75.096 F9000
G1 F3600
G1 X182.153 Y82.294 E8.70411
G1 X181.506 Y82.294 F9000
G1 F3600
G1 X174.309 Y75.096 E9.07727
G1 X173.662 Y75.096 F9000
G1 F3600
G1 X180.86 Y82.294 E9.45044
G1 X180.213 Y82.294 F9000
G1 F3600
G1 X173.016 Y75.096 E9.8236
G1 X172.37 Y75.096 F9000
G1 F3600
G1 X179.567 Y82.294 E10.19676
G1 X178.921 Y82.294 F9000
G1 F3600
G1 X171.723 Y75.096 E10.56993
G1 X171.077 Y75.096 F9000
G1 F3600
G1 X178.274 Y82.294 E10.94309
G1 X177.628 Y82.294 F9000
G1 F3600
G1 X170.43 Y75.096 E11.31625
G1 X169.784 Y75.096 F9000
G1 F3600
G1 X176.981 Y82.294 E11.68942
G1 X176.335 Y82.294 F9000
G1 F3600
G1 X169.138 Y75.096 E12.06258
G1 X168.491 Y75.096 F9000
G1 F3600
G1 X175.689 Y82.294 E12.43575
G1 X175.042 Y82.294 F9000
G1 F3600
G1 X167.845 Y75.096 E12.80891
G1 X167.198 Y75.096 F9000
G1 F3600
G1 X174.396 Y82.294 E13.18207
G1 X173.749 Y82.294 F9000
G1 F3600
G1 X166.552 Y75.096 E13.55524
G1 X165.905 Y75.096 F9000
G1 F3600
G1 X173.103 Y82.294 E13.9284
G1 X172.457 Y82.294 F9000
G1 F3600
G1 X165.259 Y75.096 E14.30156
G1 X164.613 Y75.096 F9000
G1 F3600
G1 X171.81 Y82.294 E14.67473
G1 X171.164 Y82.294 F9000
G1 F3600
G1 X163.966 Y75.096 E15.04789
G1 X163.32 Y75.096 F9000
G1 F3600
G1 X170.517 Y82.294 E15.42105
G1 X169.871 Y82.294 F9000
G1 F3600
G1 X162.673 Y75.096 E15.79422
G1 X162.027 Y75.096 F9000
G1 F3600
G1 X169.225 Y82.294 E16.16738
G1 X168.578 Y82.294 F9000
G1 F3600
G1 X161.381 Y75.096 E16.54054
G1 X160.734 Y75.096 F9000
G1 F3600
G1 X167.932 Y82.294 E16.91371
G1 X167.285 Y82.294 F9000
G1 F3600
G1 X160.088 Y75.096 E17.28687
G1 X159.441 Y75.096 F9000
G1 F3600
G1 X166.639 Y82.294 E17.66003
G1 X165.993 Y82.294 F9000
G1 F3600
G1 X158.795 Y75.096 E18.0332
G1 X158.149 Y75.096 F9000
G1 F3600
G1 X165.346 Y82.294 E18.40636
G1 X164.7 Y82.294 F9000
G1 F3600
G1 X157.502 Y75.096 E18.77952
G1 X156.856 Y75.096 F9000
G1 F3600
G1 X164.053 Y82.294 E19.15269
G1 X163.407 Y82.294 F9000
G1 F3600
G1 X156.209 Y75.096 E19.52585
G1 X155.563 Y75.096 F9000
G1 F3600
G1 X162.76 Y82.294 E19.89902
G1 X162.114 Y82.294 F9000
G1 F3600
G1 X154.917 Y75.096 E20.27218
G1 X154.27 Y75.096 F9000
G1 F3600
G1 X161.468 Y82.294 E20.64534
G1 X160.821 Y82.294 F9000
G1 F3600
G1 X153.624 Y75.096 E21.01851
G1 X152.977 Y75.096 F9000
G1 F3600
G1 X160.175 Y82.294 E21.39167
G1 X159.528 Y82.294 F9000
G1 F3600
G1 X152.331 Y75.096 E21.76483
G1 X151.685 Y75.096 F9000
G1 F3600
