; HEADER_BLOCK_START
; generated by OrcaSlicer 1.6.6 on 2023-08-29 at 07:52:15
; total layer number: 125
; HEADER_BLOCK_END

; THUMBNAIL_BLOCK_START
; THUMBNAIL_BLOCK_END

; external perimeters extrusion width = 0.40mm
; perimeters extrusion width = 0.46mm
; infill extrusion width = 0.64mm
; solid infill extrusion width = 0.56mm
; top infill extrusion width = 0.40mm
; support material extrusion width = 0.46mm
; first layer extrusion width = 0.50mm

; EXECUTABLE_BLOCK_START
EXCLUDE_OBJECT_DEFINE NAME=Sign_Thick.stl_id_0_copy_0 CENTER=165,165 POLYGON=[[110.024,136.578],[110.044,136.328],[110.102,136.084],[110.198,135.852],[110.33,135.638],[110.493,135.447],[110.684,135.284],[110.898,135.153],[111.13,135.057],[111.374,134.998],[111.624,134.978],[218.376,134.978],[218.626,134.998],[218.87,135.057],[219.102,135.153],[219.316,135.284],[219.507,135.447],[219.67,135.638],[219.802,135.852],[219.898,136.084],[219.956,136.328],[219.976,136.578],[219.976,179.828],[219.953,180.098],[219.885,180.361],[219.773,180.608],[219.622,180.833],[219.434,181.028],[219.216,181.19],[218.975,181.312],[180.367,194.983],[180.245,195.012],[180.12,195.022],[149.88,195.022],[149.755,195.012],[149.633,194.983],[111.025,181.312],[110.784,181.19],[110.566,181.028],[110.378,180.833],[110.227,180.608],[110.115,180.361],[110.047,180.098],[110.024,179.828],[110.024,136.578]]
M73 P0 R69
M73 C66
;TYPE:Custom
START_PRINT T_BED=60 T_EXTRUDER=220
G90
G21
M83 ; use relative distances for extrusion
; filament start gcode

    PRESSURE_ADVANCE_SELECT FILAMENT=PLA
M106 S0
;LAYER_CHANGE
;Z:0.2
;HEIGHT:0.2
;BEFORE_LAYER_CHANGE
;0.2
G92 E0

SET_VELOCITY_LIMIT ACCEL=5000 ACCEL_TO_DECEL=2500
G1 E-.8 F1800
G1 X106.383 Y134.148 F12000
G1 Z.2
G1 E.8 F1800
;TYPE:Skirt
;WIDTH:0.5
G1 F3000
G1 X109.706 Y132.595 E.1366
G1 X110.708 Y132.256 E.03941
G1 X111.624 Y132.156 E.03432
G1 X218.605 Y132.165 E3.98463
G1 X219.265 Y132.251 E.02481
G1 X219.957 Y132.452 E.02684
G1 X223.617 Y134.148 E.15023
G1 X224.775 Y135.123 E.05638
G1 X225.297 Y136.788 E.06499
G1 X225.297 Y181.544 E1.66699
G1 X224.904 Y183.006 E.05638
G1 X223.268 Y184.32 E.07818
G1 X180.918 Y197.797 E1.65532
G1 X180.12 Y197.887 E.02989
G1 X149.88 Y197.887 E1.12633
G1 X148.763 Y197.713 E.0421
G1 X106.732 Y184.32 E1.64304
G1 X105.459 Y183.502 E.05638
G1 X104.703 Y181.544 E.07818
G1 X104.703 Y136.788 E1.66699
G1 X105.096 Y135.326 E.05638
G1 X106.354 Y134.175 E.0635
G1 X106.577 Y134.562 F12000
G1 F3000
G1 X109.899 Y133.009 E.1366
G1 X110.815 Y132.7 E.03599
G1 X111.624 Y132.614 E.03032
G1 X218.569 Y132.621 E3.98329
G1 X219.782 Y132.874 E.04617
G1 X223.423 Y134.562 E.14948
G1 X224.463 Y135.481 E.05169
G1 X224.84 Y136.788 E.05067
G1 X224.84 Y181.544 E1.66699
G1 X224.448 Y182.875 E.05169
G1 X223.129 Y183.885 E.06188
G1 X180.811 Y197.353 E1.65408
G1 X180.12 Y197.43 E.02589
G1 X149.88 Y197.43 E1.12633
G1 X148.902 Y197.277 E.03687
G1 X106.871 Y183.885 E1.64304
G1 X105.722 Y183.107 E.05169
G1 X105.16 Y181.544 E.06188
G1 X105.16 Y136.788 E1.66699
G1 X105.552 Y135.457 E.05169
G1 X106.547 Y134.588 E.04918
; printing object Sign Thick.stl id:0 copy 0
G1 E-.8 F1800
EXCLUDE_OBJECT_START NAME=Sign_Thick.stl_id_0_copy_0
G1 X109.516 Y179.841 F12000
G1 E.8 F1800
;TYPE:Support
G1 F3000
G2 X110.408 Y181.544 I2.148 J-.04 E.07423
G1 X107.617 Y181.544 E.10396
G1 X107.617 Y136.788 E1.66699
G1 X109.516 Y136.788 E.07074
G1 X109.516 Y179.773 E1.60102
G1 X109.472 Y181.132 F12000
G1 F3000
G1 X108.028 Y181.132 E.05376
G1 X108.028 Y137.199 E1.63635
G1 X109.105 Y137.199 E.0401
G1 X109.105 Y179.85 E1.58857
G2 X109.472 Y181.132 I2.739 J-.089 E.05019
G1 E-.8 F1800
G1 X111.127 Y180.583 F12000
G1 X214.59 Y181.515
G1 X222.383 Y181.544
G1 E.8 F1800
G1 F3000
G1 X219.592 Y181.544 E.10396
G2 X220.484 Y179.841 I-1.256 J-1.743 E.07423
G1 X220.484 Y136.788 E1.60357
G1 X222.383 Y136.788 E.07074
G1 X222.383 Y181.475 E1.66444
G1 X220.528 Y181.132 F12000
G1 F3000
G2 X220.895 Y179.85 I-2.373 J-1.372 E.05019
G1 X220.895 Y137.199 E1.58857
G1 X221.972 Y137.199 E.0401
G1 X221.972 Y181.132 E1.63635
G1 X220.528 Y181.132 E.05376
G1 E-.8 F1800
G1 X218.852 Y180.599 F12000
G1 X180.947 Y185.958
G1 X180.772 Y185.994
G1 X180.626 Y186.066
G1 X180.51 Y186.154
G1 X180.493 Y186.173
G1 X180.683 Y186.34
G1 E.8 F1800
;TYPE:Outer wall
G1 F3000
G2 X180.52 Y186.728 I.345 J.374 E.01618
G1 X180.521 Y194.208 E.2786
G3 X180.106 Y194.623 I-.416 J-.001 E.02425
G1 X149.894 Y194.623 E1.1253
G3 X149.479 Y194.208 I.001 J-.416 E.02425
G1 X149.48 Y186.73 E.27853
G2 X149.018 Y186.206 I-.509 J-.017 E.02864
G1 X141.864 Y185.651 E.26725
G1 X134.193 Y184.828 E.28738
G1 X126.55 Y183.771 E.28738
G1 X118.943 Y182.481 E.28738
G1 X111.39 Y180.962 E.28692
G3 X110.466 Y179.814 I.244 J-1.142 E.05941
G1 X110.466 Y136.592 E1.60984
G3 X111.638 Y135.421 I1.165 J-.006 E.06863
G1 X218.362 Y135.421 E3.97508
G1 X218.548 Y135.435 E.00696
G3 X219.534 Y136.593 I-.184 J1.154 E.06164
G1 X219.534 Y179.813 E1.6098
G3 X218.61 Y180.962 I-1.168 J.007 E.05941
G1 X211.057 Y182.481 E.28692
G1 X203.45 Y183.771 E.28738
G1 X195.807 Y184.828 E.28738
G1 X188.136 Y185.651 E.28738
G1 X180.982 Y186.206 E.26725
G2 X180.714 Y186.314 I.047 J.507 E.01091
G1 X180.392 Y185.983 F12000
;TYPE:Inner wall
G1 F3000
G1 X180.371 Y186.006 E.00114
G2 X180.063 Y186.708 I.659 J.708 E.02937
G1 X180.064 Y194.166 E.27777
G1 X149.936 Y194.166 E1.12215
G1 X149.937 Y186.712 E.27762
G2 X149.082 Y185.753 I-.967 J.001 E.05235
G1 X141.906 Y185.196 E.26806
G1 X134.248 Y184.374 E.28687
G1 X126.619 Y183.319 E.28686
G1 X119.026 Y182.032 E.28686
G1 X111.503 Y180.518 E.28581
G3 X110.923 Y179.794 I.165 J-.726 E.03729
G1 X110.923 Y136.61 E1.60845
G3 X111.656 Y135.878 I.729 J-.003 E.04289
G1 X218.478 Y135.888 E3.97873
G3 X219.077 Y136.612 I-.111 J.701 E.03824
G1 X219.077 Y179.794 E1.60836
G3 X218.497 Y180.518 I-.745 J-.002 E.03729
G1 X210.974 Y182.032 E.28581
G1 X203.381 Y183.319 E.28686
G1 X195.752 Y184.374 E.28686
G1 X188.094 Y185.196 E.28687
G1 X180.918 Y185.753 E.26806
G2 X180.519 Y185.893 I.112 J.96 E.01588
G1 X180.425 Y185.96 E.00432
G1 X180.103 Y185.629 F12000
G1 F3000
G1 X180.059 Y185.672 E.00228
G2 X179.606 Y186.688 I.973 J1.042 E.04256
G1 X179.607 Y193.709 E.26149
G1 X150.393 Y193.709 E1.0881
G1 X150.394 Y186.694 E.26126
G2 X149.145 Y185.299 I-1.426 J.02 E.07606
G1 X141.948 Y184.741 E.26887
G1 X134.304 Y183.921 E.28636
G1 X126.689 Y182.867 E.28634
G1 X119.109 Y181.582 E.28634
G1 X111.615 Y180.075 E.2847
G3 X111.381 Y179.775 I.038 J-.272 E.01569
G1 X111.381 Y136.628 E1.60705
G3 X111.674 Y136.335 I.265 J-.028 E.01769
G1 X218.408 Y136.341 E3.97544
G3 X218.619 Y136.632 I-.04 J.252 E.01486
G1 X218.619 Y179.775 E1.60691
M73 P1 R69
G3 X218.385 Y180.075 I-.273 J.028 E.01569
G1 X210.891 Y181.582 E.2847
G1 X203.311 Y182.867 E.28634
G1 X195.696 Y183.921 E.28634
G1 X188.052 Y184.741 E.28636
G1 X180.855 Y185.299 E.26887
G2 X180.279 Y185.503 I.177 J1.415 E.02292
G1 X180.135 Y185.606 E.00658
G1 X179.813 Y185.275 F12000
G1 F3000
G1 X179.742 Y185.333 E.00343
G2 X179.149 Y186.668 I1.307 J1.38 E.05583
G1 X179.15 Y193.252 E.24522
G1 X150.85 Y193.252 E1.05404
G1 X150.851 Y186.676 E.2449
G1 X150.83 Y186.404 E.01018
G1 X150.711 Y185.972 E.01669
G2 X149.209 Y184.846 I-1.738 J.754 E.07313
G1 X141.99 Y184.286 E.26968
G1 X134.36 Y183.467 E.28585
G1 X126.758 Y182.415 E.28582
G1 X119.192 Y181.133 E.28582
G1 X111.838 Y179.653 E.27943
G1 X111.838 Y136.792 E1.59642
G1 X218.162 Y136.792 E3.96019
G1 X218.162 Y179.653 E1.59642
G1 X210.808 Y181.133 E.27943
G1 X203.242 Y182.415 E.28582
G1 X195.64 Y183.467 E.28582
G1 X188.009 Y184.286 E.28585
G1 X180.791 Y184.846 E.26967
M73 C65
G1 X180.409 Y184.924 E.01454
G2 X180.034 Y185.107 I.641 J1.79 E.01554
G1 X179.845 Y185.251 E.00886
G1 E-.8 F1800
G1 X217.101 Y136.929 F12000
G1 E.8 F1800
;TYPE:Bottom surface
;WIDTH:0.500232
G1 F6300
G1 X217.82 Y137.648 E.03788
G1 X217.82 Y138.294 E.0241
G1 X216.66 Y137.135 E.06112
G1 X216.013 Y137.135 E.0241
G1 X217.82 Y138.941 E.09521
G1 X217.82 Y139.588 E.0241
G1 X215.366 Y137.135 E.12929
G1 X214.72 Y137.135 E.0241
G1 X217.82 Y140.235 E.16337
G1 X217.82 Y140.881 E.0241
G1 X214.073 Y137.135 E.19746
G1 X213.426 Y137.135 E.0241
G1 X217.82 Y141.528 E.23154
G1 X217.82 Y142.175 E.0241
G1 X212.779 Y137.135 E.26563
G1 X212.133 Y137.135 E.0241
G1 X217.82 Y142.822 E.29971
G1 X217.82 Y143.468 E.0241
G1 X211.486 Y137.135 E.33379
G1 X210.839 Y137.135 E.0241
G1 X217.82 Y144.115 E.36788
G1 X217.82 Y144.762 E.0241
G1 X210.192 Y137.135 E.40196
G1 X209.546 Y137.135 E.0241
G1 X217.82 Y145.409 E.43604
G1 X217.82 Y146.055 E.0241
G1 X208.899 Y137.135 E.47013
G1 X208.252 Y137.135 E.0241
G1 X217.82 Y146.702 E.50421
G1 X217.82 Y147.349 E.0241
G1 X207.605 Y137.135 E.53829
G1 X206.959 Y137.135 E.0241
G1 X217.82 Y147.996 E.57238
G1 X217.82 Y148.642 E.0241
G1 X206.312 Y137.135 E.60646
G1 X205.665 Y137.135 E.0241
G1 X217.82 Y149.289 E.64055
G1 X217.82 Y149.936 E.0241
G1 X205.018 Y137.135 E.67463
G1 X204.372 Y137.135 E.0241
G1 X217.82 Y150.582 E.70871
G1 X217.82 Y151.229 E.0241
G1 X203.725 Y137.135 E.7428
G1 X203.078 Y137.135 E.0241
G1 X217.82 Y151.876 E.77688
G1 X217.82 Y152.523 E.0241
G1 X202.432 Y137.135 E.81096
G1 X201.785 Y137.135 E.0241
G1 X217.82 Y153.169 E.84505
G1 X217.82 Y153.816 E.0241
G1 X201.138 Y137.135 E.87913
G1 X200.491 Y137.135 E.0241
G1 X217.82 Y154.463 E.91321
G1 X217.82 Y155.11 E.0241
G1 X199.845 Y137.135 E.9473
G1 X199.198 Y137.135 E.0241
G1 X217.82 Y155.756 E.98138
G1 X217.82 Y156.403 E.0241
G1 X198.551 Y137.135 E1.01546
G1 X197.904 Y137.135 E.0241
G1 X217.82 Y157.05 E1.04955
G1 X217.82 Y157.697 E.0241
G1 X197.258 Y137.135 E1.08363
G1 X196.611 Y137.135 E.0241
G1 X217.82 Y158.343 E1.11772
G1 X217.82 Y158.99 E.0241
G1 X195.964 Y137.135 E1.1518
G1 X195.317 Y137.135 E.0241
G1 X217.82 Y159.637 E1.18588
G1 X217.82 Y160.284 E.0241
G1 X194.671 Y137.135 E1.21997
G1 X194.024 Y137.135 E.0241
G1 X217.82 Y160.93 E1.25405
G1 X217.82 Y161.577 E.0241
G1 X193.377 Y137.135 E1.28813
M73 P1 R68
G1 X192.73 Y137.135 E.0241
G1 X217.82 Y162.224 E1.32222
G1 X217.82 Y162.87 E.0241
G1 X192.084 Y137.135 E1.3563
G1 X191.437 Y137.135 E.0241
G1 X217.82 Y163.517 E1.39038
G1 X217.82 Y164.164 E.0241
G1 X190.79 Y137.135 E1.42447
G1 X190.144 Y137.135 E.0241
G1 X217.82 Y164.811 E1.45855
G1 X217.82 Y165.457 E.0241
G1 X189.497 Y137.135 E1.49263
G1 X188.85 Y137.135 E.0241
G1 X217.82 Y166.104 E1.52672
G1 X217.82 Y166.751 E.0241
G1 X188.203 Y137.135 E1.5608
G1 X187.557 Y137.135 E.0241
G1 X217.82 Y167.398 E1.59489
G1 X217.82 Y168.044 E.0241
G1 X186.91 Y137.135 E1.62897
G1 X186.263 Y137.135 E.0241
G1 X217.82 Y168.691 E1.66305
G1 X217.82 Y169.338 E.0241
G1 X185.616 Y137.135 E1.69714
G1 X184.97 Y137.135 E.0241
G1 X217.82 Y169.985 E1.73122
G1 X217.82 Y170.631 E.0241
G1 X184.323 Y137.135 E1.7653
G1 X183.676 Y137.135 E.0241
G1 X217.82 Y171.278 E1.79939
G1 X217.82 Y171.925 E.0241
G1 X183.029 Y137.135 E1.83347
G1 X182.383 Y137.135 E.0241
G1 X217.82 Y172.572 E1.86755
G1 X217.82 Y173.218 E.0241
G1 X181.736 Y137.135 E1.90164
G1 X181.089 Y137.135 E.0241
G1 X217.82 Y173.865 E1.93572
G1 X217.82 Y174.512 E.0241
G1 X180.442 Y137.135 E1.9698
G1 X179.796 Y137.135 E.0241
G1 X217.82 Y175.158 E2.00389
G1 X217.82 Y175.805 E.0241
G1 X179.149 Y137.135 E2.03797
G1 X178.502 Y137.135 E.0241
G1 X217.82 Y176.452 E2.07206
G1 X217.82 Y177.099 E.0241
G1 X177.856 Y137.135 E2.10614
G1 X177.209 Y137.135 E.0241
G1 X217.82 Y177.745 E2.14022
G1 X217.82 Y178.392 E.0241
G1 X176.562 Y137.135 E2.17431
G1 X175.915 Y137.135 E.0241
G1 X217.82 Y179.039 E2.20839
G1 X217.82 Y179.372 E.01243
G1 X217.559 Y179.425 E.00991
G1 X175.269 Y137.135 E2.22873
G1 X174.622 Y137.135 E.0241
G1 X217.02 Y179.533 E2.23444
G1 X216.482 Y179.642 E.02047
G1 X173.975 Y137.135 E2.24015
G1 X173.328 Y137.135 E.0241
G1 X215.944 Y179.75 E2.24586
G1 X215.405 Y179.858 E.02047
G1 X172.682 Y137.135 E2.25156
G1 X172.035 Y137.135 E.0241
G1 X214.867 Y179.966 E2.25727
G1 X214.328 Y180.075 E.02047
G1 X171.388 Y137.135 E2.26298
G1 X170.741 Y137.135 E.0241
G1 X213.79 Y180.183 E2.26869
G1 X213.251 Y180.291 E.02047
G1 X170.095 Y137.135 E2.27439
G1 X169.448 Y137.135 E.0241
G1 X212.713 Y180.4 E2.2801
G1 X212.174 Y180.508 E.02047
G1 X168.801 Y137.135 E2.28581
G1 X168.154 Y137.135 E.0241
G1 X211.636 Y180.616 E2.29152
G1 X211.098 Y180.725 E.02047
G1 X167.508 Y137.135 E2.29722
G1 X166.861 Y137.135 E.0241
G1 X210.554 Y180.828 E2.30267
G1 X210.001 Y180.922 E.0209
G1 X166.214 Y137.135 E2.30761
G1 X165.568 Y137.135 E.0241
G1 X209.448 Y181.015 E2.31255
G1 X208.895 Y181.109 E.0209
G1 X164.921 Y137.135 E2.31749
G1 X164.274 Y137.135 E.0241
G1 X208.342 Y181.203 E2.32243
G1 X207.789 Y181.297 E.0209
G1 X163.627 Y137.135 E2.32737
G1 X162.981 Y137.135 E.0241
G1 X207.236 Y181.39 E2.33232
G1 X206.683 Y181.484 E.0209
G1 X162.334 Y137.135 E2.33726
M73 P2 R68
G1 X161.687 Y137.135 E.0241
G1 X206.13 Y181.578 E2.3422
G1 X205.577 Y181.672 E.0209
G1 X161.04 Y137.135 E2.34714
G1 X160.394 Y137.135 E.0241
G1 X205.024 Y181.765 E2.35208
G1 X204.471 Y181.859 E.0209
G1 X159.747 Y137.135 E2.35702
G1 X159.1 Y137.135 E.0241
G1 X203.919 Y181.953 E2.36196
G1 X203.366 Y182.047 E.0209
G1 X158.453 Y137.135 E2.36691
G1 X157.807 Y137.135 E.0241
G1 X202.802 Y182.13 E2.3713
G1 X202.234 Y182.209 E.02137
G1 X157.16 Y137.135 E2.37544
G1 X156.513 Y137.135 E.0241
G1 X201.666 Y182.287 E2.37959
G1 X201.098 Y182.366 E.02137
G1 X155.866 Y137.135 E2.38373
G1 X155.22 Y137.135 E.0241
G1 X200.53 Y182.445 E2.38787
G1 X199.961 Y182.523 E.02137
G1 X154.573 Y137.135 E2.39201
G1 X153.926 Y137.135 E.0241
G1 X199.393 Y182.602 E2.39615
G1 X198.825 Y182.68 E.02137
G1 X153.28 Y137.135 E2.40029
G1 X152.633 Y137.135 E.0241
G1 X198.257 Y182.759 E2.40443
G1 X197.689 Y182.837 E.02137
G1 X151.986 Y137.135 E2.40857
G1 X151.339 Y137.135 E.0241
G1 X197.121 Y182.916 E2.41272
G1 X196.553 Y182.995 E.02137
G1 X150.693 Y137.135 E2.41686
G1 X150.046 Y137.135 E.0241
G1 X195.984 Y183.073 E2.421
G3 X195.411 Y183.147 I-1.49 J-9.351 E.02154
G1 X149.399 Y137.135 E2.42487
G1 X148.752 Y137.135 E.0241
G1 X194.827 Y183.209 E2.42818
G1 X194.243 Y183.272 E.02189
G1 X148.106 Y137.135 E2.43148
G1 X147.459 Y137.135 E.0241
G1 X193.659 Y183.335 E2.43478
G1 X193.075 Y183.397 E.02189
G1 X146.812 Y137.135 E2.43809
G1 X146.165 Y137.135 E.0241
G1 X192.491 Y183.46 E2.44139
G1 X191.907 Y183.523 E.02189
G1 X145.519 Y137.135 E2.44469
G1 X144.872 Y137.135 E.0241
G1 X191.323 Y183.585 E2.448
G1 X190.739 Y183.648 E.02189
G1 X144.225 Y137.135 E2.4513
G1 X143.578 Y137.135 E.0241
G1 X190.155 Y183.711 E2.4546
G1 X189.571 Y183.773 E.02189
G1 X142.932 Y137.135 E2.45791
G1 X142.285 Y137.135 E.0241
G1 X188.987 Y183.836 E2.46121
G1 X188.402 Y183.899 E.02189
G1 X141.638 Y137.135 E2.46451
G1 X140.992 Y137.135 E.0241
G1 X187.814 Y183.957 E2.46759
G1 X187.214 Y184.004 E.02243
G1 X140.345 Y137.135 E2.47004
G1 X139.698 Y137.135 E.0241
G1 X186.614 Y184.05 E2.47249
G1 X186.014 Y184.097 E.02243
G1 X139.051 Y137.135 E2.47495
G1 X138.405 Y137.135 E.0241
G1 X185.413 Y184.143 E2.4774
G1 X184.813 Y184.19 E.02243
G1 X137.758 Y137.135 E2.47986
G1 X137.111 Y137.135 E.0241
G1 X184.213 Y184.237 E2.48231
M73 C64
G1 X183.613 Y184.283 E.02243
G1 X136.464 Y137.135 E2.48477
G1 X135.818 Y137.135 E.0241
G1 X183.013 Y184.33 E2.48722
G1 X182.413 Y184.376 E.02243
G1 X135.171 Y137.135 E2.48967
G1 X134.524 Y137.135 E.0241
G1 X181.812 Y184.423 E2.49213
G1 X181.212 Y184.469 E.02243
G1 X133.877 Y137.135 E2.49458
G1 X133.231 Y137.135 E.0241
G1 X180.626 Y184.53 E2.49776
G1 X180.297 Y184.597 E.01249
G1 X180.129 Y184.679 E.007
G1 X132.584 Y137.135 E2.50564
G1 X131.937 Y137.135 E.0241
G1 X179.719 Y184.916 E2.51813
G2 X179.379 Y185.223 I.583 J.986 E.01718
G1 X131.29 Y137.135 E2.5343
G1 X130.644 Y137.135 E.0241
G1 X179.108 Y185.599 E2.55409
G2 X178.912 Y186.05 I.817 J.621 E.01851
G1 X129.997 Y137.135 E2.57788
G1 X129.35 Y137.135 E.0241
G1 X178.811 Y186.596 E2.60664
M73 P2 R67
G2 X178.806 Y187.237 I3.632 J.349 E.02395
G1 X128.704 Y137.135 E2.64046
G1 X128.057 Y137.135 E.0241
G1 X178.806 Y187.884 E2.67454
G1 X178.806 Y188.531 E.0241
G1 X127.41 Y137.135 E2.70863
G1 X126.763 Y137.135 E.0241
G1 X178.806 Y189.178 E2.74272
G1 X178.807 Y189.825 E.0241
G1 X126.117 Y137.135 E2.77681
G1 X125.47 Y137.135 E.0241
