; HEADER_BLOCK_START
; generated by OrcaSlicer 1.6.4-beta3 on 2023-08-21 at 12:44:06
; total layer number: 159
; HEADER_BLOCK_END

; THUMBNAIL_BLOCK_START
; THUMBNAIL_BLOCK_END

; external perimeters extrusion width = 0.40mm
; perimeters extrusion width = 0.46mm
; infill extrusion width = 0.64mm
; solid infill extrusion width = 0.56mm
; top infill extrusion width = 0.40mm
; first layer extrusion width = 0.50mm

; EXECUTABLE_BLOCK_START
EXCLUDE_OBJECT_DEFINE NAME=spool_holder_top-bowden(1).stl_id_0_copy_0 CENTER=165,165 POLYGON=[[145,114],[185,114],[185,198],[175,216],[155,216],[145,198],[145,114]]
M73 P0 R57
;TYPE:Custom
START_PRINT T_BED=110 T_EXTRUDER=260
G90
G21
M83 ; use relative distances for extrusion
; Filament gcode
PRESSURE_ADVANCE_SELECT FILAMENT=ASA
M106 S0
;LAYER_CHANGE
;Z:0.2
;HEIGHT:0.2
;BEFORE_LAYER_CHANGE
;0.2
G92 E0

SET_VELOCITY_LIMIT ACCEL=5000 ACCEL_TO_DECEL=2500
G1 E-.5 F3000
G1 X146.719 Y112.538 F12000
G1 Z.2
G1 E.5 F1800
;TYPE:Skirt
;WIDTH:0.5
G1 F3000
G1 X147.793 Y111.471 E.0535
G1 X149.24 Y111.086 E.05295
G1 X180.76 Y111.086 E1.11407
G1 X182.221 Y111.479 E.0535
G1 X183.289 Y112.552 E.0535
G1 X183.674 Y114 E.05295
G1 X183.674 Y198 E2.96905
G1 X183.535 Y198.888 E.03177
G1 X177.776 Y216.888 E.668
G1 X176.956 Y218.161 E.0535
G1 X175 Y218.914 E.07408
G1 X155 Y218.914 E.70692
G1 X153.538 Y218.521 E.0535
G1 X152.224 Y216.888 E.07408
G1 X146.465 Y198.888 E.668
G1 X146.326 Y198 E.03177
G1 X146.326 Y114 E2.96905
G1 X146.709 Y112.577 E.05209
G1 X147.163 Y112.71 F12000
G1 F3000
G1 X147.175 Y112.669 E.00154
G1 X148.226 Y111.762 E.04905
G1 X149.24 Y111.543 E.03669
G1 X180.76 Y111.543 E1.11407
G1 X182.091 Y111.935 E.04905
G1 X182.997 Y112.985 E.04905
G1 X183.217 Y114 E.03669
G1 X183.217 Y198 E2.96905
G1 X183.1 Y198.749 E.02679
G1 X177.34 Y216.749 E.668
G1 X176.561 Y217.897 E.04905
G1 X175 Y218.457 E.05863
G1 X155 Y218.457 E.70692
G1 X153.669 Y218.065 E.04905
G1 X152.66 Y216.749 E.05863
G1 X146.9 Y198.749 E.668
G1 X146.783 Y198 E.02679
G1 X146.783 Y114 E2.96905
G1 X147.152 Y112.749 E.0461
; printing object spool_holder_top-bowden(1).stl id:0 copy 0
G1 E-.5
EXCLUDE_OBJECT_START NAME=spool_holder_top-bowden(1).stl_id_0_copy_0
G1 X174.65 Y197.65 F12000
G1 E.5 F1800
;TYPE:Outer wall
G1 F3000
G1 X174.65 Y215.65 E.63623
G1 X155.35 Y215.65 E.68218
G1 X155.35 Y197.65 E.63623
G1 X149.59 Y197.65 E.20357
G1 X149.59 Y114.35 E2.94431
G1 X180.41 Y114.35 E1.08932
G1 X180.41 Y197.65 E2.94431
G1 X174.69 Y197.65 E.20216
G1 X174.193 Y197.193 F12000
;TYPE:Inner wall
G1 F3000
G1 X174.193 Y215.193 E.63623
G1 X155.807 Y215.193 E.64986
G1 X155.807 Y197.193 E.63623
G1 X150.048 Y197.193 E.20357
G1 X150.048 Y114.807 E2.912
G1 X179.952 Y114.807 E1.05701
G1 X179.952 Y197.193 E2.912
G1 X174.233 Y197.193 E.20216
G1 X173.736 Y196.736 F12000
G1 F3000
G1 X173.736 Y214.736 E.63623
G1 X156.264 Y214.736 E.61755
G1 X156.264 Y196.736 E.63623
G1 X150.505 Y196.736 E.20357
G1 X150.505 Y115.264 E2.87969
G1 X179.495 Y115.264 E1.0247
G1 X179.495 Y196.736 E2.87969
G1 X173.776 Y196.736 E.20216
G1 X173.279 Y196.279 F12000
G1 F3000
G1 X173.279 Y214.279 E.63623
G1 X156.721 Y214.279 E.58524
G1 X156.721 Y196.279 E.63623
G1 X150.962 Y196.279 E.20357
G1 X150.962 Y115.721 E2.84738
G1 X179.038 Y115.721 E.99239
G1 X179.038 Y196.279 E2.84738
G1 X173.319 Y196.279 E.20216
G1 E-.5
G1 X164.963 Y205.076 F12000
G1 E.5 F1800
;TYPE:Outer wall
G1 F3000
G1 X165 Y205.071 E.00133
G1 X165.532 Y205.141 E.01895
G1 X166.027 Y205.346 E.01895
G1 X166.452 Y205.673 E.01895
G1 X166.779 Y206.098 E.01895
G1 X166.984 Y206.593 E.01895
G1 X167.054 Y207.125 E.01895
G1 X166.984 Y207.657 E.01895
G1 X166.779 Y208.152 E.01895
G1 X166.452 Y208.577 E.01895
G1 X166.027 Y208.904 E.01895
G1 X165.532 Y209.109 E.01895
G1 X165 Y209.179 E.01895
G1 X164.468 Y209.109 E.01895
G1 X163.973 Y208.904 E.01895
G1 X163.548 Y208.577 E.01895
G1 X163.221 Y208.152 E.01895
G1 X163.016 Y207.657 E.01895
G1 X162.946 Y207.125 E.01895
G1 X163.016 Y206.593 E.01895
G1 X163.221 Y206.098 E.01895
G1 X163.548 Y205.673 E.01895
G1 X163.973 Y205.346 E.01895
G1 X164.468 Y205.141 E.01895
G1 X164.923 Y205.081 E.01621
G1 X165.046 Y204.616 F12000
;TYPE:Inner wall
G1 F3000
G1 X165.651 Y204.696 E.02158
G1 X166.257 Y204.947 E.0232
G1 X166.778 Y205.347 E.0232
G1 X167.178 Y205.868 E.0232
G1 X167.429 Y206.474 E.0232
G1 X167.515 Y207.125 E.0232
G1 X167.429 Y207.776 E.0232
G1 X167.178 Y208.382 E.0232
G1 X166.778 Y208.903 E.0232
G1 X166.257 Y209.303 E.0232
G1 X165.651 Y209.554 E.02321
G1 X165 Y209.64 E.0232
G1 X164.349 Y209.554 E.0232
G1 X163.743 Y209.303 E.02321
G1 X163.222 Y208.903 E.0232
G1 X162.822 Y208.382 E.0232
G1 X162.571 Y207.776 E.0232
G1 X162.485 Y207.125 E.0232
G1 X162.571 Y206.474 E.0232
G1 X162.822 Y205.868 E.0232
G1 X163.222 Y205.347 E.0232
G1 X163.743 Y204.947 E.0232
G1 X164.349 Y204.696 E.0232
M73 P1 R57
G1 X165 Y204.61 E.0232
G1 X165.006 Y204.611 E.00021
G1 X165.094 Y204.162 F12000
G1 F3000
G1 X165.77 Y204.251 E.0241
G1 X166.488 Y204.548 E.02746
G1 X167.104 Y205.021 E.02746
G1 X167.577 Y205.637 E.02746
G1 X167.874 Y206.355 E.02746
G1 X167.976 Y207.125 E.02746
G1 X167.874 Y207.895 E.02746
G1 X167.577 Y208.613 E.02746
G1 X167.104 Y209.229 E.02746
G1 X166.488 Y209.702 E.02746
G1 X165.77 Y209.999 E.02746
G1 X165 Y210.101 E.02746
G1 X164.23 Y209.999 E.02745
G1 X163.512 Y209.702 E.02746
G1 X162.896 Y209.229 E.02746
G1 X162.423 Y208.613 E.02746
G1 X162.126 Y207.895 E.02746
G1 X162.024 Y207.125 E.02746
G1 X162.126 Y206.355 E.02746
G1 X162.423 Y205.637 E.02746
G1 X162.896 Y205.021 E.02746
G1 X163.512 Y204.548 E.02746
G1 X164.23 Y204.251 E.02746
G1 X165 Y204.149 E.02746
G1 X165.055 Y204.156 E.00195
G1 X164.857 Y203.707 F12000
G1 F3000
G1 X165 Y203.688 E.00509
G1 X165.89 Y203.805 E.03171
G1 X166.718 Y204.149 E.03171
G1 X167.43 Y204.695 E.03171
G1 X167.976 Y205.407 E.03171
G1 X168.32 Y206.236 E.03171
G1 X168.437 Y207.125 E.03171
G1 X168.32 Y208.014 E.03171
G1 X167.976 Y208.843 E.03171
G1 X167.43 Y209.555 E.03171
G1 X166.718 Y210.101 E.03171
G1 X165.889 Y210.445 E.03171
G1 X165 Y210.562 E.03171
G1 X164.111 Y210.445 E.03171
G1 X163.282 Y210.101 E.03171
G1 X162.57 Y209.555 E.03171
G1 X162.024 Y208.843 E.03171
G1 X161.68 Y208.014 E.03171
G1 X161.563 Y207.125 E.03171
G1 X161.68 Y206.235 E.03171
G1 X162.024 Y205.407 E.03171
G1 X162.57 Y204.695 E.03171
G1 X163.282 Y204.149 E.03171
G1 X164.11 Y203.805 E.03171
G1 X164.817 Y203.712 E.0252
G1 E-.5
G1 X178.901 Y116.784 F12000
G1 E.5 F1800
;TYPE:Internal solid infill
;WIDTH:0.500705
G1 F3000
G1 X178.181 Y116.064 E.03604
G1 X177.534 Y116.064 E.02292
G1 X178.695 Y117.226 E.05815
G1 X178.695 Y117.873 E.02292
G1 X176.887 Y116.064 E.09056
G1 X176.239 Y116.064 E.02292
G1 X178.695 Y118.52 E.12297
G1 X178.695 Y119.168 E.02292
G1 X175.592 Y116.064 E.15538
G1 X174.944 Y116.064 E.02292
G1 X178.695 Y119.815 E.1878
G1 X178.695 Y120.463 E.02292
G1 X174.297 Y116.064 E.22021
G1 X173.65 Y116.064 E.02292
G1 X178.695 Y121.11 E.25262
G1 X178.695 Y121.757 E.02292
G1 X173.002 Y116.064 E.28503
G1 X172.355 Y116.064 E.02292
G1 X178.695 Y122.405 E.31744
G1 X178.695 Y123.052 E.02292
G1 X171.707 Y116.064 E.34985
G1 X171.06 Y116.064 E.02292
G1 X178.695 Y123.7 E.38227
M73 P1 R56
G1 X178.695 Y124.347 E.02292
G1 X170.413 Y116.064 E.41468
G1 X169.765 Y116.064 E.02292
G1 X178.695 Y124.994 E.44709
G1 X178.695 Y125.642 E.02292
G1 X169.118 Y116.064 E.4795
G1 X168.47 Y116.064 E.02292
G1 X178.695 Y126.289 E.51191
G1 X178.695 Y126.937 E.02292
G1 X167.823 Y116.064 E.54432
G1 X167.175 Y116.064 E.02292
G1 X178.695 Y127.584 E.57673
G1 X178.695 Y128.231 E.02292
G1 X166.528 Y116.064 E.60915
G1 X165.881 Y116.064 E.02292
G1 X178.695 Y128.879 E.64156
G1 X178.695 Y129.526 E.02292
G1 X165.233 Y116.064 E.67397
G1 X164.586 Y116.064 E.02292
G1 X178.695 Y130.174 E.70638
G1 X178.695 Y130.821 E.02292
G1 X163.938 Y116.064 E.73879
G1 X163.291 Y116.064 E.02292
G1 X178.695 Y131.468 E.7712
G1 X178.695 Y132.116 E.02292
G1 X162.644 Y116.064 E.80362
G1 X161.996 Y116.064 E.02292
G1 X178.695 Y132.763 E.83603
G1 X178.695 Y133.411 E.02292
G1 X161.349 Y116.064 E.86844
G1 X160.701 Y116.064 E.02292
G1 X178.695 Y134.058 E.90085
G1 X178.695 Y134.705 E.02292
G1 X160.054 Y116.064 E.93326
G1 X159.407 Y116.064 E.02292
G1 X178.695 Y135.353 E.96567
G1 X178.695 Y136 E.02292
G1 X158.759 Y116.064 E.99808
G1 X158.112 Y116.064 E.02292
G1 X178.695 Y136.648 E1.0305
G1 X178.695 Y137.295 E.02292
G1 X157.464 Y116.064 E1.06291
G1 X156.817 Y116.064 E.02292
G1 X178.695 Y137.943 E1.09532
G1 X178.695 Y138.59 E.02292
G1 X156.17 Y116.064 E1.12773
G1 X155.522 Y116.064 E.02292
G1 X178.695 Y139.237 E1.16014
G1 X178.695 Y139.885 E.02292
G1 X154.875 Y116.064 E1.19255
G1 X154.227 Y116.064 E.02292
G1 X178.695 Y140.532 E1.22497
G1 X178.695 Y141.18 E.02292
G1 X153.58 Y116.064 E1.25738
G1 X152.933 Y116.064 E.02292
G1 X178.695 Y141.827 E1.28979
G1 X178.695 Y142.474 E.02292
G1 X152.285 Y116.064 E1.3222
G1 X151.638 Y116.064 E.02292
G1 X178.695 Y143.122 E1.35461
G1 X178.695 Y143.769 E.02292
G1 X151.305 Y116.378 E1.37129
G1 X151.305 Y117.026 E.02292
G1 X178.695 Y144.417 E1.37129
G1 X178.695 Y145.064 E.02292
G1 X151.305 Y117.673 E1.37129
G1 X151.305 Y118.32 E.02292
G1 X178.695 Y145.711 E1.37129
G1 X178.695 Y146.359 E.02292
G1 X151.305 Y118.968 E1.37129
G1 X151.305 Y119.615 E.02292
G1 X178.695 Y147.006 E1.37129
G1 X178.695 Y147.654 E.02292
G1 X151.305 Y120.263 E1.37129
G1 X151.305 Y120.91 E.02292
G1 X178.695 Y148.301 E1.37129
G1 X178.695 Y148.948 E.02292
G1 X151.305 Y121.557 E1.37129
G1 X151.305 Y122.205 E.02292
G1 X178.695 Y149.596 E1.37129
G1 X178.695 Y150.243 E.02292
G1 X151.305 Y122.852 E1.37129
G1 X151.305 Y123.5 E.02292
G1 X178.695 Y150.891 E1.37129
G1 X178.695 Y151.538 E.02292
G1 X151.305 Y124.147 E1.37129
G1 X151.305 Y124.795 E.02292
G1 X178.695 Y152.185 E1.37129
G1 X178.695 Y152.833 E.02292
G1 X151.305 Y125.442 E1.37129
G1 X151.305 Y126.089 E.02292
G1 X178.695 Y153.48 E1.37129
G1 X178.695 Y154.128 E.02292
G1 X151.305 Y126.737 E1.37129
G1 X151.305 Y127.384 E.02292
G1 X178.695 Y154.775 E1.37129
G1 X178.695 Y155.422 E.02292
G1 X151.305 Y128.032 E1.37129
G1 X151.305 Y128.679 E.02292
G1 X178.695 Y156.07 E1.37129
M73 P2 R56
G1 X178.695 Y156.717 E.02292
G1 X151.305 Y129.326 E1.37129
G1 X151.305 Y129.974 E.02292
G1 X178.695 Y157.365 E1.37129
G1 X178.695 Y158.012 E.02292
G1 X151.305 Y130.621 E1.37129
G1 X151.305 Y131.269 E.02292
G1 X178.695 Y158.66 E1.37129
G1 X178.695 Y159.307 E.02292
G1 X151.305 Y131.916 E1.37129
G1 X151.305 Y132.563 E.02292
G1 X178.695 Y159.954 E1.37129
G1 X178.695 Y160.602 E.02292
G1 X151.305 Y133.211 E1.37129
G1 X151.305 Y133.858 E.02292
G1 X178.695 Y161.249 E1.37129
G1 X178.695 Y161.897 E.02292
G1 X151.305 Y134.506 E1.37129
G1 X151.305 Y135.153 E.02292
G1 X178.695 Y162.544 E1.37129
G1 X178.695 Y163.191 E.02292
G1 X151.305 Y135.8 E1.37129
G1 X151.305 Y136.448 E.02292
G1 X178.695 Y163.839 E1.37129
G1 X178.695 Y164.486 E.02292
G1 X151.305 Y137.095 E1.37129
G1 X151.305 Y137.743 E.02292
G1 X178.695 Y165.134 E1.37129
G1 X178.695 Y165.781 E.02292
G1 X151.305 Y138.39 E1.37129
G1 X151.305 Y139.037 E.02292
G1 X178.695 Y166.428 E1.37129
G1 X178.695 Y167.076 E.02292
G1 X151.305 Y139.685 E1.37129
G1 X151.305 Y140.332 E.02292
G1 X178.695 Y167.723 E1.37129
G1 X178.695 Y168.371 E.02292
G1 X151.305 Y140.98 E1.37129
G1 X151.305 Y141.627 E.02292
G1 X178.695 Y169.018 E1.37129
G1 X178.695 Y169.665 E.02292
G1 X151.305 Y142.274 E1.37129
G1 X151.305 Y142.922 E.02292
G1 X178.695 Y170.313 E1.37129
G1 X178.695 Y170.96 E.02292
G1 X151.305 Y143.569 E1.37129
G1 X151.305 Y144.217 E.02292
G1 X178.695 Y171.608 E1.37129
G1 X178.695 Y172.255 E.02292
G1 X151.305 Y144.864 E1.37129
G1 X151.305 Y145.511 E.02292
G1 X178.695 Y172.902 E1.37129
G1 X178.695 Y173.55 E.02292
G1 X151.305 Y146.159 E1.37129
G1 X151.305 Y146.806 E.02292
G1 X178.695 Y174.197 E1.37129
G1 X178.695 Y174.845 E.02292
G1 X151.305 Y147.454 E1.37129
G1 X151.305 Y148.101 E.02292
G1 X178.695 Y175.492 E1.37129
G1 X178.695 Y176.139 E.02292
G1 X151.305 Y148.749 E1.37129
G1 X151.305 Y149.396 E.02292
G1 X178.695 Y176.787 E1.37129
G1 X178.695 Y177.434 E.02292
G1 X151.305 Y150.043 E1.37129
G1 X151.305 Y150.691 E.02292
G1 X178.695 Y178.082 E1.37129
G1 X178.695 Y178.729 E.02292
G1 X151.305 Y151.338 E1.37129
G1 X151.305 Y151.986 E.02292
G1 X178.695 Y179.376 E1.37129
M73 P2 R55
G1 X178.695 Y180.024 E.02292
G1 X151.305 Y152.633 E1.37129
G1 X151.305 Y153.28 E.02292
G1 X178.695 Y180.671 E1.37129
G1 X178.695 Y181.319 E.02292
G1 X151.305 Y153.928 E1.37129
G1 X151.305 Y154.575 E.02292
G1 X178.695 Y181.966 E1.37129
G1 X178.695 Y182.614 E.02292
G1 X151.305 Y155.223 E1.37129
G1 X151.305 Y155.87 E.02292
G1 X178.695 Y183.261 E1.37129
G1 X178.695 Y183.908 E.02292
G1 X151.305 Y156.517 E1.37129
M73 P3 R55
G1 X151.305 Y157.165 E.02292
G1 X178.695 Y184.556 E1.37129
G1 X178.695 Y185.203 E.02292
G1 X151.305 Y157.812 E1.37129
G1 X151.305 Y158.46 E.02292
G1 X178.695 Y185.851 E1.37129
G1 X178.695 Y186.498 E.02292
G1 X151.305 Y159.107 E1.37129
G1 X151.305 Y159.754 E.02292
G1 X178.695 Y187.145 E1.37129
G1 X178.695 Y187.793 E.02292
G1 X151.305 Y160.402 E1.37129
G1 X151.305 Y161.049 E.02292
G1 X178.695 Y188.44 E1.37129
G1 X178.695 Y189.088 E.02292
G1 X151.305 Y161.697 E1.37129
G1 X151.305 Y162.344 E.02292
G1 X178.695 Y189.735 E1.37129
G1 X178.695 Y190.382 E.02292
G1 X151.305 Y162.991 E1.37129
G1 X151.305 Y163.639 E.02292
G1 X178.695 Y191.03 E1.37129
G1 X178.695 Y191.677 E.02292
G1 X151.305 Y164.286 E1.37129
G1 X151.305 Y164.934 E.02292
G1 X178.695 Y192.325 E1.37129
G1 X178.695 Y192.972 E.02292
G1 X151.305 Y165.581 E1.37129
G1 X151.305 Y166.228 E.02292
G1 X178.695 Y193.619 E1.37129
G1 X178.695 Y194.267 E.02292
G1 X151.305 Y166.876 E1.37129
G1 X151.305 Y167.523 E.02292
G1 X178.695 Y194.914 E1.37129
G1 X178.695 Y195.562 E.02292
G1 X151.305 Y168.171 E1.37129
G1 X151.305 Y168.818 E.02292
G1 X178.422 Y195.936 E1.35762
G1 X177.775 Y195.936 E.02292
G1 X151.305 Y169.466 E1.32521
G1 X151.305 Y170.113 E.02292
G1 X177.128 Y195.936 E1.2928
G1 X176.48 Y195.936 E.02292
G1 X151.305 Y170.76 E1.26039
G1 X151.305 Y171.408 E.02292
G1 X175.833 Y195.936 E1.22798
G1 X175.185 Y195.936 E.02292
G1 X151.305 Y172.055 E1.19557
G1 X151.305 Y172.703 E.02292
G1 X174.538 Y195.936 E1.16315
G1 X173.891 Y195.936 E.02292
G1 X151.305 Y173.35 E1.13074
G1 X151.305 Y173.997 E.02292
G1 X173.243 Y195.936 E1.09833
G1 X172.936 Y195.936 E.01088
G1 X172.936 Y196.276 E.01204
G1 X151.305 Y174.645 E1.08295
G1 X151.305 Y175.292 E.02292
G1 X172.936 Y196.924 E1.08295
G1 X172.936 Y197.571 E.02292
G1 X151.305 Y175.94 E1.08295
G1 X151.305 Y176.587 E.02292
G1 X172.936 Y198.218 E1.08295
G1 X172.936 Y198.866 E.02292
G1 X151.305 Y177.234 E1.08295
G1 X151.305 Y177.882 E.02292
G1 X172.936 Y199.513 E1.08295
G1 X172.936 Y200.161 E.02292
G1 X151.305 Y178.529 E1.08295
G1 X151.305 Y179.177 E.02292
G1 X172.936 Y200.808 E1.08295
G1 X172.936 Y201.455 E.02292
G1 X151.305 Y179.824 E1.08295
G1 X151.305 Y180.471 E.02292
G1 X172.936 Y202.103 E1.08295
G1 X172.936 Y202.75 E.02292
G1 X151.305 Y181.119 E1.08295
G1 X151.305 Y181.766 E.02292
G1 X172.936 Y203.398 E1.08295
G1 X172.936 Y204.045 E.02292
G1 X151.305 Y182.414 E1.08295
G1 X151.305 Y183.061 E.02292
G1 X172.936 Y204.692 E1.08295
G1 X172.936 Y205.34 E.02292
G1 X151.305 Y183.708 E1.08295
G1 X151.305 Y184.356 E.02292
G1 X172.936 Y205.987 E1.08295
G1 X172.936 Y206.635 E.02292
G1 X151.305 Y185.003 E1.08295
G1 X151.305 Y185.651 E.02292
G1 X172.936 Y207.282 E1.08295
G1 X172.936 Y207.929 E.02292
G1 X151.305 Y186.298 E1.08295
G1 X151.305 Y186.945 E.02292
G1 X172.936 Y208.577 E1.08295
G1 X172.936 Y209.224 E.02292
G1 X151.305 Y187.593 E1.08295
G1 X151.305 Y188.24 E.02292
G1 X172.936 Y209.872 E1.08295
M73 P4 R55
G1 X172.936 Y210.519 E.02292
G1 X168.667 Y206.251 E.2137
G1 X168.766 Y206.996 E.02662
G1 X172.936 Y211.167 E.20879
G1 X172.936 Y211.814 E.02292
G1 X168.72 Y207.598 E.21106
G1 X168.654 Y208.104 E.01806
G1 X168.632 Y208.157 E.00203
G1 X172.936 Y212.461 E.21549
G1 X172.936 Y213.109 E.02292
G1 X168.442 Y208.615 E.22498
G1 X168.276 Y209.016 E.01538
G1 X168.241 Y209.061 E.00201
G1 X172.936 Y213.756 E.23504
G1 X172.936 Y213.936 E.00637
G1 X172.468 Y213.936 E.01655
G1 X167.96 Y209.428 E.2257
