; HEADER_BLOCK_START
; generated by OrcaSlicer 1.6.4-beta3 on 2023-08-21 at 10:24:27
; total layer number: 159
; HEADER_BLOCK_END

; THUMBNAIL_BLOCK_START
; THUMBNAIL_BLOCK_END

; external perimeters extrusion width = 0.40mm
; perimeters extrusion width = 0.46mm
; infill extrusion width = 0.64mm
; solid infill extrusion width = 0.56mm
; top infill extrusion width = 0.40mm
; first layer extrusion width = 0.50mm

; external perimeters extrusion width = 0.40mm
; perimeters extrusion width = 0.46mm
; infill extrusion width = 0.64mm
; solid infill extrusion width = 0.56mm
; top infill extrusion width = 0.40mm
; first layer extrusion width = 0.50mm

; EXECUTABLE_BLOCK_START
EXCLUDE_OBJECT_DEFINE NAME=Spool_Holder.STL_id_0_copy_0 CENTER=187.5,170 POLYGON=[[159.888,124],[215.112,124],[215.112,134],[205.528,215.5],[205.028,216],[169.972,216],[169.472,215.5],[159.888,134],[159.888,124]]
EXCLUDE_OBJECT_DEFINE NAME=spool_holer_top_.stl_id_1_copy_0 CENTER=134.888,165 POLYGON=[[114.888,114],[154.888,114],[154.888,198],[144.888,216],[124.888,216],[114.888,198],[114.888,114]]
M73 P0 R112
;TYPE:Custom
START_PRINT T_BED=110 T_EXTRUDER=260
G90
G21
M83 ; use relative distances for extrusion
; Filament gcode
PRESSURE_ADVANCE_SELECT FILAMENT=ASA
M106 S0
;LAYER_CHANGE
;Z:0.2
;HEIGHT:0.2
;BEFORE_LAYER_CHANGE
;0.2
G92 E0

SET_VELOCITY_LIMIT ACCEL=5000 ACCEL_TO_DECEL=2500
G1 E-.5 F3000
G1 X116.608 Y112.538 F12000
M73 P0 R111
G1 Z.2
G1 E.5 F1800
;TYPE:Skirt
;WIDTH:0.5
G1 F3000
G1 X117.681 Y111.471 E.0535
G1 X119.129 Y111.086 E.05295
G1 X151.115 Y111.123 E1.13058
G1 X215.179 Y121.523 E2.29405
G1 X216.559 Y122.146 E.0535
G1 X217.44 Y123.376 E.0535
G1 X217.626 Y124.4 E.03677
G1 X217.592 Y134.043 E.34084
G1 X204.98 Y216.043 E2.93244
G1 X204.37 Y217.428 E.0535
G1 X203.146 Y218.32 E.0535
G1 X202.12 Y218.514 E.03691
G1 X144.908 Y218.914 E2.02225
G1 X124.888 Y218.914 E.70764
G1 X123.426 Y218.521 E.0535
G1 X122.113 Y216.888 E.07408
G1 X116.353 Y198.888 E.668
G1 X116.214 Y198 E.03177
G1 X116.214 Y114 E2.96905
G1 X116.597 Y112.577 E.05209
G1 X117.051 Y112.71 F12000
G1 F3000
G1 X117.063 Y112.669 E.00154
G1 X118.114 Y111.762 E.04905
G1 X119.129 Y111.543 E.03669
G1 X151.041 Y111.575 E1.12799
G1 X215.106 Y121.975 E2.29405
G1 X216.357 Y122.575 E.04905
G1 X217.169 Y124.4 E.07061
G1 X217.14 Y133.974 E.33839
G1 X204.529 Y215.974 E2.93244
G1 X203.939 Y217.23 E.04905
G1 X202.117 Y218.057 E.07072
G1 X144.905 Y218.457 E2.02225
G1 X124.888 Y218.457 E.70752
G1 X123.557 Y218.065 E.04905
G1 X122.548 Y216.749 E.05863
G1 X116.788 Y198.749 E.668
G1 X116.671 Y198 E.02679
G1 X116.671 Y114 E2.96905
G1 X117.04 Y112.749 E.0461
; printing object Spool_Holder.STL id:0 copy 0
G1 E-.5
EXCLUDE_OBJECT_START NAME=Spool_Holder.STL_id_0_copy_0
G1 X175.586 Y133.375 F12000
G1 E.5 F1800
;TYPE:Outer wall
G1 F3000
G1 X175.393 Y133.316 E.00711
G2 X174.918 Y133.25 I-.658 J2.997 E.01696
G1 X160.638 Y133.25 E.50475
G1 X160.638 Y124.75 E.30044
G1 X214.362 Y124.75 E1.89891
G1 X214.362 Y133.25 E.30044
G1 X200.083 Y133.25 E.5047
G2 X197.218 Y135.95 I.207 J3.09 E.1508
G1 X197.218 Y207.036 E2.5126
G2 X200.277 Y209.75 I2.936 J-.228 E.15977
G1 X201.75 Y209.75 E.05208
G1 X201.75 Y215.25 E.1944
G1 X173.25 Y215.25 E1.00736
G1 X173.25 Y209.75 E.1944
G2 X175.131 Y209.74 I.737 J-36.576 E.06648
G2 X177.782 Y207.036 I-.298 J-2.944 E.14524
G1 X177.782 Y135.951 E2.51254
G2 X175.878 Y133.465 I-3.047 J.361 E.11619
G1 X175.624 Y133.387 E.00938
G1 X176.319 Y133.164 F12000
;TYPE:Inner wall
G1 F3000
G1 X176.297 Y133.152 E.00087
G2 X174.941 Y132.793 I-1.563 J3.162 E.04993
G1 X161.095 Y132.793 E.48939
G1 X161.095 Y125.207 E.26813
G1 X213.905 Y125.207 E1.8666
G1 X213.905 Y132.793 E.26813
G1 X200.061 Y132.793 E.48931
G2 X196.761 Y135.918 I.233 J3.552 E.17426
G1 X196.761 Y207.062 E2.51464
G2 X200.282 Y210.207 I3.393 J-.255 E.18443
G1 X201.293 Y210.207 E.03574
G1 X201.293 Y214.793 E.16209
G1 X173.707 Y214.793 E.97505
G1 X173.707 Y210.207 E.16209
G2 X175.324 Y210.177 I.506 J-16.271 E.05719
G2 X178.239 Y207.062 I-.48 J-3.371 E.16298
G1 X178.239 Y135.921 E2.51451
G2 X176.669 Y133.365 I-3.505 J.393 E.10955
G1 X176.354 Y133.184 E.01284
G1 X176.545 Y132.767 F12000
G1 F3000
G1 X176.5 Y132.742 E.00182
G2 X174.963 Y132.336 I-1.767 J3.574 E.05655
G1 X161.552 Y132.336 E.47403
G1 X161.552 Y125.664 E.23582
G1 X213.448 Y125.664 E1.83429
G1 X213.448 Y132.336 E.23582
G1 X200.04 Y132.336 E.47392
G2 X196.304 Y135.886 I.229 J3.982 E.19807
G1 X196.304 Y207.087 E2.51668
G2 X200.287 Y210.664 I3.85 J-.282 E.2091
G1 X200.836 Y210.664 E.01939
G1 X200.836 Y214.336 E.12978
G1 X174.164 Y214.336 E.94273
G1 X174.164 Y210.664 E.12978
G2 X175.776 Y210.554 I.375 J-6.39 E.05726
G2 X178.696 Y207.087 I-.935 J-3.751 E.17122
G1 X178.696 Y135.891 E2.51647
G2 X176.919 Y132.982 I-3.964 J.424 E.12451
G1 X176.58 Y132.787 E.01385
G1 X176.771 Y132.37 F12000
G1 F3000
G1 X176.702 Y132.332 E.00278
G2 X174.986 Y131.879 I-1.971 J3.985 E.06316
G1 X162.009 Y131.879 E.45867
G1 X162.009 Y126.121 E.20351
G1 X212.991 Y126.121 E1.80198
G1 X212.991 Y131.879 E.2035
G1 X200.018 Y131.879 E.45852
G2 X195.846 Y135.854 I.252 J4.441 E.22157
G1 X195.846 Y207.113 E2.51872
G2 X200.379 Y211.119 I4.311 J-.31 E.23682
G1 X200.379 Y213.879 E.09754
G1 X174.621 Y213.879 E.91042
G1 X174.621 Y211.119 E.09754
G2 X179.154 Y207.113 I.222 J-4.316 E.23684
G1 X179.154 Y135.861 E2.51844
G2 X177.17 Y132.6 I-4.423 J.456 E.13946
G1 X176.806 Y132.39 E.01486
G1 E-.5
G1 X181.2 Y155.407 F12000
G1 E.5 F1800
;TYPE:Outer wall
G1 F3000
G1 X181.175 Y155.006 E.0142
G1 X181.175 Y138.995 E.56592
G3 X184.834 Y135.178 I3.827 J.007 E.20632
G1 X190.102 Y135.176 E.18622
G3 X193.825 Y138.962 I-.123 J3.844 E.20714
G1 X193.825 Y155.006 E.5671
G3 X190.07 Y158.824 I-3.83 J-.012 E.20961
G1 X184.992 Y158.825 E.17946
G3 X181.206 Y155.472 I.027 J-3.844 E.19508
G1 X181.204 Y155.447 E.00089
G1 X180.749 Y155.504 F12000
;TYPE:Inner wall
G1 F3000
G1 X180.718 Y155.013 E.01738
G1 X180.718 Y138.991 E.56634
G3 X184.814 Y134.722 I4.285 J.012 E.23082
G1 X190.116 Y134.719 E.18741
G3 X194.282 Y138.953 I-.139 J4.303 E.23168
G1 X194.282 Y155.013 E.56767
G3 X190.081 Y159.282 I-4.288 J-.019 E.23435
G1 X184.985 Y159.282 E.18013
G3 X180.755 Y155.544 I.037 J-4.303 E.21762
G1 X180.293 Y155.534 F12000
G1 F3000
G1 X180.261 Y155.02 E.01821
G1 X180.261 Y138.986 E.56676
G3 X184.794 Y134.265 I4.742 J.017 E.25532
G1 X190.13 Y134.262 E.18861
G3 X194.739 Y138.944 I-.156 J4.763 E.25622
G1 X194.739 Y155.02 E.56823
G3 X190.092 Y159.739 I-4.745 J-.026 E.2591
G1 X184.977 Y159.739 E.1808
G3 X180.3 Y155.586 I.047 J-4.763 E.24118
G1 X180.298 Y155.574 E.00044
G1 X179.838 Y155.565 F12000
G1 F3000
G1 X179.804 Y155.027 E.01905
G1 X179.804 Y138.981 E.56718
G3 X184.774 Y133.808 I5.199 J.022 E.27982
G1 X190.144 Y133.805 E.1898
G3 X195.196 Y138.935 I-.172 J5.222 E.28076
G1 X195.196 Y155.027 E.56879
G3 X190.103 Y160.196 I-5.202 J-.033 E.28385
G1 X184.969 Y160.196 E.18147
G3 X179.846 Y155.643 I.056 J-5.222 E.26423
G1 X179.842 Y155.605 E.00137
G1 E-.5
G1 X180.839 Y180.646 F12000
G1 X180.851 Y180.925
G1 X180.879 Y181.181
G1 X180.93 Y181.465
G1 X180.999 Y181.746
G1 X181.08 Y181.996
G1 X181.183 Y182.258
G1 X181.296 Y182.496
G1 X181.433 Y182.743
G1 X184.418 Y187.881
G1 X184.469 Y188.214
G1 E.5 F1800
;TYPE:Outer wall
G1 F3000
G1 X184.5 Y188.208 E.00111
G3 X184.833 Y188.179 I.502 J3.794 E.0118
G1 X190.102 Y188.176 E.18624
G3 X193.825 Y191.961 I-.12 J3.842 E.20715
G1 X193.825 Y206.006 E.49645
G3 X190.039 Y209.825 I-3.827 J-.008 E.21074
G1 X184.93 Y209.824 E.18058
G3 X181.175 Y206.039 I.09 J-3.845 E.20825
G1 X181.175 Y191.995 E.49638
G3 X184.01 Y188.306 I3.827 J.007 E.17679
G1 X184.43 Y188.222 E.01515
G1 X184.415 Y187.759 F12000
;TYPE:Inner wall
G1 F3000
G1 X184.441 Y187.755 E.00092
G3 X184.813 Y187.722 I.561 J4.248 E.01321
G1 X190.116 Y187.719 E.18744
G3 X194.282 Y191.951 I-.136 J4.301 E.23166
G1 X194.282 Y206.013 E.49704
G3 X190.049 Y210.282 I-4.284 J-.015 E.23552
G1 X184.92 Y210.282 E.18131
G3 X180.718 Y206.049 I.103 J-4.304 E.23287
G1 X180.718 Y191.991 E.49691
G3 X183.892 Y187.864 I4.285 J.012 E.19776
G1 X184.376 Y187.767 E.01746
G1 X184.328 Y187.312 F12000
G1 F3000
G1 X184.381 Y187.301 E.00191
G3 X184.793 Y187.265 I.621 J4.701 E.01462
G1 X190.13 Y187.262 E.18863
G3 X194.739 Y191.941 I-.152 J4.76 E.25618
G1 X194.739 Y206.02 E.49764
G3 X190.059 Y210.739 I-4.741 J-.022 E.2603
G1 X184.909 Y210.739 E.18204
G3 X180.261 Y206.059 I.116 J-4.763 E.25749
G1 X180.261 Y191.986 E.49744
G3 X183.773 Y187.422 I4.742 J.017 E.21874
G1 X184.289 Y187.319 E.01858
G1 X184.241 Y186.864 F12000
G1 F3000
G1 X184.321 Y186.848 E.0029
G3 X184.773 Y186.808 I.681 J5.154 E.01603
G1 X190.144 Y186.805 E.18982
G3 X195.196 Y191.931 I-.168 J5.219 E.28069
G1 X195.196 Y206.027 E.49824
G3 X190.069 Y211.196 I-5.199 J-.029 E.28508
G1 X184.898 Y211.196 E.18278
G3 X179.804 Y206.069 I.129 J-5.222 E.28211
G1 X179.804 Y191.981 E.49796
G3 X183.655 Y186.981 I5.199 J.022 E.23971
G1 X184.202 Y186.872 E.01971
G1 E-.5
G1 X191.419 Y184.512 F12000
G1 X191.591 Y184.445
G1 X191.732 Y184.384
G1 X191.986 Y184.257
G1 X192.236 Y184.11
G1 X192.475 Y183.945
G1 X192.703 Y183.764
G1 X192.917 Y183.567
G1 X193.042 Y183.439
G1 X193.142 Y183.329
G1 X193.256 Y183.191
G1 X193.349 Y183.07
G1 X193.51 Y182.836
G1 X193.655 Y182.59
G1 X193.739 Y182.425
G1 X193.804 Y182.286
G1 X193.911 Y182.022
G1 X193.968 Y181.853
G1 X194.012 Y181.706
G1 X194.078 Y181.43
G1 X194.126 Y181.143
G1 X194.134 Y181.057
G1 X193.798 Y181.025
G1 E.5 F1800
;TYPE:Outer wall
G1 F3000
G1 X193.792 Y181.099 E.00264
G3 X190.039 Y184.425 I-3.794 J-.501 E.19328
G1 X184.931 Y184.424 E.18055
G3 X181.175 Y180.639 I.089 J-3.845 E.20828
G1 X181.175 Y166.595 E.49638
G3 X184.833 Y162.779 I3.827 J.007 E.20628
G1 X190.101 Y162.776 E.18622
G3 X193.825 Y166.561 I-.119 J3.842 E.20717
G1 X193.825 Y180.606 E.49645
G1 X193.8 Y180.985 E.01341
G1 X194.248 Y181.133 F12000
;TYPE:Inner wall
G1 F3000
G1 X194.246 Y181.159 E.00093
G3 X190.049 Y184.882 I-4.247 J-.56 E.21619
G1 X184.921 Y184.882 E.18126
G3 X180.718 Y180.649 I.101 J-4.304 E.23293
G1 X180.718 Y166.591 E.49691
G3 X184.813 Y162.322 I4.285 J.012 E.23078
G1 X190.114 Y162.319 E.18738
G3 X194.282 Y166.551 I-.134 J4.301 E.23172
G1 X194.282 Y180.613 E.49704
G1 X194.251 Y181.093 E.01698
G1 X194.703 Y181.165 F12000
G1 F3000
G1 X194.699 Y181.219 E.00192
G3 X190.059 Y185.339 I-4.7 J-.62 E.2391
G1 X184.911 Y185.339 E.18196
G3 X180.261 Y180.659 I.113 J-4.763 E.25758
G1 X180.261 Y166.586 E.49744
G3 X184.793 Y161.865 I4.742 J.017 E.25528
G1 X190.127 Y161.862 E.18855
G3 X194.739 Y166.541 I-.149 J4.76 E.25626
G1 X194.739 Y180.62 E.49764
G1 X194.706 Y181.125 E.01787
G1 X195.159 Y181.197 F12000
G1 F3000
G1 X195.152 Y181.278 E.00289
G3 X190.069 Y185.796 I-5.154 J-.68 E.26201
G1 X184.901 Y185.796 E.18266
G3 X179.804 Y180.669 I.125 J-5.222 E.28222
G1 X179.804 Y166.581 E.49796
G3 X184.773 Y161.408 I5.199 J.022 E.27978
G1 X190.14 Y161.405 E.18971
G3 X195.196 Y166.531 I-.164 J5.219 E.28081
G1 X195.196 Y180.627 E.49824
G1 X195.161 Y181.157 E.01876
G1 X195.499 Y181.32 F12000
;TYPE:Gap infill
;WIDTH:0.237136
G1 F3000
G1 X195.521 Y180.631 E.01035
G1 X195.514 Y166.167 E.21722
;WIDTH:0.252585
G1 X195.494 Y165.819 E.00566
;WIDTH:0.290018
G1 X195.478 Y165.632 E.00359
;WIDTH:0.324579
G1 X195.46 Y165.434 E.00433
;WIDTH:0.357816
G1 X195.437 Y165.247 E.00459
;WIDTH:0.406845
G1 X195.413 Y165.046 E.00569
;WIDTH:0.453461
G1 X195.372 Y164.784 E.00841
;WIDTH:0.496802
G1 X195.331 Y164.522 E.0093
G1 E-.5
G1 X194.863 Y157.169 F12000
G1 E.5 F1800
;TYPE:Internal solid infill
;WIDTH:0.509462
G1 F3000
G1 X195.504 Y157.809 E.03267
G1 X195.504 Y158.469 E.0238
G1 X194.795 Y157.76 E.03614
G3 X194.544 Y158.169 I-2.795 J-1.441 E.01732
G1 X195.504 Y159.129 E.04898
G1 X195.504 Y159.788 E.0238
G1 X194.253 Y158.538 E.06379
G3 X193.944 Y158.888 I-2.076 J-1.524 E.01689
G1 X195.504 Y160.448 E.07959
G1 X195.504 Y161.108 E.0238
G1 X193.602 Y159.206 E.09703
G3 X193.233 Y159.497 I-4.568 J-5.416 E.01695
G1 X195.504 Y161.768 E.11585
G1 X195.504 Y162.428 E.0238
G1 X192.834 Y159.757 E.13623
G3 X192.405 Y159.988 I-1.768 J-2.773 E.01759
G1 X195.504 Y163.087 E.15812
G1 X195.504 Y163.747 E.0238
G1 X191.942 Y160.186 E.18172
G3 X191.443 Y160.346 I-1.326 J-3.264 E.01893
G1 X195.46 Y164.364 E.20497
G1 E-.5
G1 X192.18 Y161.744 F12000
G1 E.5 F1800
G1 F3000
G1 X190.898 Y160.461 E.06543
G3 X190.301 Y160.524 I-.564 J-2.505 E.02171
G1 X190.914 Y161.137 E.03129
G1 X190.182 Y161.065 E.02655
G1 X189.656 Y160.539 E.02684
G1 X188.996 Y160.539 E.0238
G1 X189.52 Y161.063 E.02673
G1 X188.861 Y161.063 E.02379
G1 X188.336 Y160.539 E.02675
G1 X187.677 Y160.539 E.0238
G1 X188.201 Y161.063 E.02677
G1 X187.542 Y161.064 E.02379
G1 X187.017 Y160.539 E.02678
G1 X186.357 Y160.539 E.0238
G1 X186.883 Y161.064 E.0268
G1 X186.223 Y161.065 E.02379
G1 X185.698 Y160.539 E.02682
G1 X185.038 Y160.539 E.0238
G1 X185.564 Y161.065 E.02684
G1 X184.904 Y161.065 E.02379
G1 X184.336 Y160.497 E.029
G3 X183.503 Y160.324 I.567 J-4.822 E.03072
G1 X184.286 Y161.107 E.03993
G2 X183.73 Y161.21 I1.916 J11.817 E.02041
G1 X182.417 Y159.898 E.06697
G3 X180.575 Y158.335 I2.879 J-5.261 E.08778
G1 X180.178 Y157.728 E.02615
G1 X180.112 Y157.592 E.00545
G1 X179.904 Y157.384 E.01061
G1 X179.496 Y157.456 E.01493
G1 X179.496 Y157.637 E.00651
G1 X183.218 Y161.359 E.1899
G2 X182.747 Y161.547 I.624 J2.247 E.01835
G1 X179.496 Y158.296 E.16585
G1 X179.496 Y158.956 E.0238
G1 X182.305 Y161.765 E.1433
M73 P0 R110
G2 X181.896 Y162.015 I.939 J1.994 E.01735
G1 X179.496 Y159.616 E.12241
G1 X179.496 Y160.276 E.0238
G1 X181.517 Y162.296 E.10309
G2 X181.167 Y162.606 I1.593 J2.157 E.01689
G1 X179.496 Y160.936 E.08521
G1 X179.496 Y161.595 E.0238
G1 X180.844 Y162.943 E.06876
G2 X180.554 Y163.313 I1.545 J1.507 E.01699
G1 X179.496 Y162.255 E.05399
G1 X179.496 Y162.915 E.0238
G1 X180.283 Y163.701 E.04012
G2 X180.047 Y164.125 I2.306 J1.559 E.01753
G1 X179.291 Y163.369 E.03859
G1 X179.672 Y164.518 F12000
;TYPE:Gap infill
;WIDTH:0.540538
G1 F3000
G1 X179.608 Y164.905 E.01509
;WIDTH:0.495453
G1 X179.591 Y165.024 E.00419
;WIDTH:0.459412
G1 X179.573 Y165.15 E.00412
;WIDTH:0.425627
G1 X179.559 Y165.269 E.00353
;WIDTH:0.39549
G1 X179.544 Y165.394 E.00344
;WIDTH:0.365866
G1 X179.52 Y165.637 E.00609
;WIDTH:0.318557
G1 X179.502 Y165.879 E.00517
;WIDTH:0.236936
G1 X179.479 Y166.578 E.0105
G1 X179.486 Y181.033 E.21686
;WIDTH:0.252584
G1 X179.506 Y181.381 E.00565
;WIDTH:0.290014
G1 X179.522 Y181.568 E.00359
;WIDTH:0.324582
G1 X179.54 Y181.766 E.00433
;WIDTH:0.357826
G1 X179.563 Y181.954 E.0046
;WIDTH:0.407005
G1 X179.588 Y182.155 E.00571
;WIDTH:0.453748
G1 X179.628 Y182.416 E.0084
;WIDTH:0.497027
G1 X179.669 Y182.678 E.00929
G1 E-.5
G1 X182.913 Y185.499 F12000
G1 E.5 F1800
;TYPE:Internal solid infill
;WIDTH:0.527608
G1 F3000
G1 X183.975 Y186.561 E.0563
G2 X183.422 Y186.693 I.48 J3.23 E.02135
G1 X179.742 Y183.013 E.19505
G1 X179.496 Y183.052 E.00933
G1 X179.496 Y183.453 E.01503
G1 X182.913 Y186.87 E.18112
G2 X182.444 Y187.085 I.998 J2.793 E.0194
G1 X179.496 Y184.138 E.15622
G1 X179.496 Y184.824 E.02569
G1 X182.01 Y187.337 E.13323
G1 X181.614 Y187.627 E.01838
G1 X179.496 Y185.509 E.11227
G1 X179.496 Y186.195 E.02569
G1 X181.24 Y187.938 E.09243
G2 X180.899 Y188.283 I1.799 J2.121 E.01819
G1 X179.496 Y186.88 E.07436
G1 X179.496 Y187.565 E.02569
G1 X180.592 Y188.662 E.0581
G2 X180.306 Y189.061 I1.679 J1.507 E.01845
G1 X179.496 Y188.251 E.04292
G1 X179.496 Y188.936 E.02569
G1 X180.214 Y189.654 E.03804
G1 X179.672 Y189.918 F12000
;TYPE:Gap infill
;WIDTH:0.540538
G1 F3000
G1 X179.608 Y190.305 E.01509
;WIDTH:0.495425
G1 X179.591 Y190.424 E.00418
;WIDTH:0.459425
G1 X179.573 Y190.55 E.00412
;WIDTH:0.425676
G1 X179.559 Y190.669 E.00353
;WIDTH:0.395528
G1 X179.544 Y190.794 E.00344
;WIDTH:0.365893
G1 X179.52 Y191.037 E.00609
;WIDTH:0.318563
G1 X179.502 Y191.279 E.00517
;WIDTH:0.236934
G1 X179.479 Y191.978 E.0105
G1 X179.487 Y206.434 E.21688
;WIDTH:0.252633
G1 X179.506 Y206.788 E.00575
;WIDTH:0.291021
G1 X179.521 Y206.957 E.00325
;WIDTH:0.3272
G1 X179.538 Y207.167 E.00464
;WIDTH:0.361696
G1 X179.545 Y207.274 E.00263
;WIDTH:0.399572
G1 X179.552 Y207.381 E.00295
;WIDTH:0.461985
G1 X179.559 Y207.487 E.00346
