; generated by SuperSlicer 2.5.59 on 2023-03-12 at 20:39:27 UTC


;
;

;
;
; 

; external perimeters extrusion width = 0.40mm
; perimeters extrusion width = 0.46mm
; infill extrusion width = 0.64mm
; solid infill extrusion width = 0.56mm
; top infill extrusion width = 0.40mm
; support material extrusion width = 0.46mm
; first layer extrusion width = 0.50mm

; object:{"name":"Stackable_Container_bin_DiagonalStripes","id":"Stackable_Container_bin_DiagonalStripes.stl id:0 copy 0","object_center":[165.000000,165.000000,0.000000],"boundingbox_center":[165.000000,165.000000,23.972000],"boundingbox_size":[113.900002,83.391998,47.944000]}
EXCLUDE_OBJECT_DEFINE NAME=Stackable_Container_bin_DiagonalStripes_stl_id_0_copy_0 CENTER=165.000000,165.000000 POLYGON=[[108.050000,125.004000],[120.250000,123.304000],[221.950000,123.304000],[221.950000,206.696000],[120.250000,206.696000],[108.050000,204.996000],[108.050000,125.004000]]
; plater:{"center":[165.000000,165.000000,0.000000],"boundingbox_center":[165.000000,165.000000,23.972000],"boundingbox_size":[113.900002,83.391998,47.944000]}

M73 P0 R146
;TYPE:Custom
; custom gcode: start_gcode
START_PRINT T_BED=60 T_EXTRUDER=200
; custom gcode end: start_gcode
M107
G21 ; set units to millimeters
G90 ; use absolute coordinates
M82 ; use absolute distances for extrusion
G92 E0
; custom gcode: start_filament_gcode
; Filament gcode

    PRESSURE_ADVANCE_SELECT FILAMENT=PLA
; custom gcode end: start_filament_gcode
;_TOOLCHANGE 0
M104 S200 ; set temperature
M109 S200 ; set temperature and wait for it to be reached
M190 S60 ; set bed temperature and wait for it to be reached
;LAYER_CHANGE
;Z:0.2
;HEIGHT:0.2
G1 Z0.2 F9000
M73 P0 R146
G1 E-0.8 F3000
M204 S1000
G1 X118.059 Y122.125 F9000
G1 E0 F1800
;TYPE:Skirt
;WIDTH:0.52
G1 X116.959 Y123.438 E0.06793
G1 X116.564 Y125.104 E0.13586
G1 X116.564 Y204.896 E3.30116
G1 X117.301 Y207.117 E3.39399
G1 X118.614 Y208.217 E3.46192
G1 X120.28 Y208.612 E3.52985
G1 X220.15 Y208.612 E7.49163
G1 X222.371 Y207.875 E7.58445
G1 X223.471 Y206.562 E7.65238
G1 X223.866 Y204.896 E7.72032
G1 X223.866 Y125.104 E10.88561
G1 X223.129 Y122.883 E10.97844
G1 X221.816 Y121.783 E11.04637
G1 X220.15 Y121.388 E11.1143
G1 X120.28 Y121.388 E15.07608
G1 X118.059 Y122.125 E15.16891
G1 X118.437 Y122.475 F9000
G1 F1800
G1 X117.435 Y123.556 E15.22736
G1 X117.041 Y125.104 E15.29072
G1 X117.041 Y204.896 E18.45601
G1 X117.561 Y206.655 E18.52877
G1 X118.732 Y207.741 E18.59213
G1 X120.28 Y208.135 E18.65548
G1 X220.15 Y208.135 E22.61726
G1 X221.909 Y207.615 E22.69002
G1 X222.995 Y206.444 E22.75337
G1 X223.389 Y204.896 E22.81673
G1 X223.389 Y125.104 E25.98203
G1 X222.869 Y123.345 E26.05478
G1 X221.698 Y122.259 E26.11814
G1 X220.15 Y121.865 E26.1815
G1 X120.28 Y121.865 E30.14328
G1 X118.521 Y122.385 E30.21603
G1 X118.437 Y122.475 E30.22094
G92 E0
G1 E-0.8 F3000
; printing object Stackable_Container_bin_DiagonalStripes.stl id:0 copy 0
EXCLUDE_OBJECT_START NAME=Stackable_Container_bin_DiagonalStripes_stl_id_0_copy_0
; acceleration to travel
M204 S3000
G1 X120.692 Y125.32 F9000
; decel to extrusion
M204 S1000
G1 X121.444 Y126.268
; end travel
G1 E0 F1800
;TYPE:Internal perimeter
;WIDTH:0.5
G1 X136.726 Y126.268 E0.58083
G1 X139.726 Y129.267 E0.74205
G1 X190.774 Y129.267 E2.68216
G1 X193.774 Y126.268 E2.84338
G1 X218.986 Y126.268 E3.8016
G1 X218.986 Y146.478 E4.56972
G1 X215.986 Y149.477 E4.73094
G1 X215.986 Y180.523 E5.91086
G1 X218.986 Y183.522 E6.07208
G1 X218.986 Y203.732 E6.84019
G1 X193.774 Y203.732 E7.79842
G1 X190.774 Y200.733 E7.95964
G1 X139.726 Y200.733 E9.89975
G1 X136.726 Y203.732 E10.06097
G1 X121.444 Y203.732 E10.6418
G1 X121.444 Y126.268 E13.58591
G1 X120.987 Y125.811 F9000
G1 F1800
G1 X136.916 Y125.811 E14.1913
G1 X137.013 Y125.908 E14.19651
G1 X139.916 Y128.81 E14.35252
G1 X190.584 Y128.81 E16.27824
G1 X193.584 Y125.811 E16.43946
G1 X219.443 Y125.811 E17.42226
G1 X219.443 Y146.668 E18.21494
G1 X216.443 Y149.667 E18.37616
G1 X216.443 Y180.333 E19.54169
M73 P1 R145
G1 X219.443 Y183.332 E19.70291
G1 X219.443 Y204.189 E20.49559
G1 X193.584 Y204.189 E21.47838
G1 X190.584 Y201.19 E21.6396
G1 X139.916 Y201.19 E23.56532
G1 X136.916 Y204.189 E23.72655
G1 X120.987 Y204.189 E24.33194
G1 X120.987 Y125.811 E27.31079
G1 X120.53 Y125.354 F9000
;TYPE:External perimeter
G1 F1800
G1 X137.105 Y125.354 E27.94075
G1 X137.336 Y125.585 E27.95315
G1 X140.105 Y128.353 E28.10197
G1 X190.395 Y128.353 E30.0133
G1 X193.395 Y125.354 E30.17452
G1 X219.9 Y125.354 E31.18188
G1 X219.9 Y146.857 E31.99913
G1 X216.9 Y149.856 E32.16035
G1 X216.9 Y180.144 E33.31149
G1 X219.9 Y183.143 E33.47271
G1 X219.9 Y204.646 E34.28996
G1 X193.395 Y204.646 E35.29732
G1 X190.395 Y201.647 E35.45854
G1 X140.105 Y201.647 E37.36987
G1 X137.105 Y204.646 E37.53109
G1 X120.53 Y204.646 E38.16105
G1 X120.53 Y125.354 E41.17465
;WIPE_START
M204 S4000
G1 X120.876 Y125.554 F9000
;WIPE_END
G92 E0
G1 E-0.8 F3000
; acceleration to travel
M204 S3000
G1 X191.822 Y126.84 F9000
; decel to extrusion
M204 S1000
M73 P1 R145
G1 X218.849 Y127.329
; end travel
G1 E0 F1800
;TYPE:Solid infill
;WIDTH:0.500479
G1 F3600
G1 X217.925 Y126.405 E0.04971
G1 X217.278 Y126.405 F9000
G1 F3600
G1 X218.849 Y127.976 E0.1342
G1 X218.849 Y128.622 F9000
G1 F3600
G1 X216.632 Y126.405 E0.25346
G1 X215.986 Y126.405 F9000
G1 F3600
G1 X218.849 Y129.268 E0.4075
G1 X218.849 Y129.915 F9000
G1 F3600
G1 X215.339 Y126.405 E0.59632
G1 X214.693 Y126.405 F9000
G1 F3600
G1 X218.849 Y130.561 E0.81992
G1 X218.849 Y131.208 F9000
G1 F3600
G1 X214.046 Y126.405 E1.07829
G1 X213.4 Y126.405 F9000
G1 F3600
G1 X218.849 Y131.854 E1.37144
G1 X218.849 Y132.5 F9000
G1 F3600
G1 X212.754 Y126.405 E1.69937
G1 X212.107 Y126.405 F9000
G1 F3600
G1 X218.849 Y133.147 E2.06207
G1 X218.849 Y133.793 F9000
G1 F3600
G1 X211.461 Y126.405 E2.45955
G1 X210.814 Y126.405 F9000
G1 F3600
G1 X218.849 Y134.44 E2.89181
G1 X218.849 Y135.086 F9000
G1 F3600
G1 X210.168 Y126.405 E3.35885
G1 X209.521 Y126.405 F9000
G1 F3600
G1 X218.849 Y135.733 E3.86066
G1 X218.849 Y136.379 F9000
G1 F3600
G1 X208.875 Y126.405 E4.39725
G1 X208.229 Y126.405 F9000
G1 F3600
G1 X218.849 Y137.025 E4.96862
G1 X218.849 Y137.672 F9000
G1 F3600
G1 X207.582 Y126.405 E5.57476
G1 X206.936 Y126.405 F9000
G1 F3600
G1 X218.849 Y138.318 E6.21568
G1 X218.849 Y138.965 F9000
G1 F3600
G1 X206.289 Y126.405 E6.89138
G1 X205.643 Y126.405 F9000
G1 F3600
G1 X218.849 Y139.611 E7.60185
G1 X218.849 Y140.257 F9000
G1 F3600
G1 X204.997 Y126.405 E8.34711
G1 X204.35 Y126.405 F9000
G1 F3600
G1 X218.849 Y140.904 E9.12714
G1 X218.849 Y141.55 F9000
G1 F3600
G1 X203.704 Y126.405 E9.94194
G1 X203.057 Y126.405 F9000
G1 F3600
G1 X218.849 Y142.197 E10.79153
G1 X218.849 Y142.843 F9000
G1 F3600
G1 X202.411 Y126.405 E11.67589
G1 X201.765 Y126.405 F9000
G1 F3600
G1 X218.849 Y143.489 E12.59502
G1 X218.849 Y144.136 F9000
G1 F3600
G1 X201.118 Y126.405 E13.54894
G1 X200.472 Y126.405 F9000
G1 F3600
G1 X218.849 Y144.782 E14.53763
G1 X218.849 Y145.429 F9000
G1 F3600
G1 X199.825 Y126.405 E15.5611
G1 X199.179 Y126.405 F9000
G1 F3600
G1 X218.849 Y146.075 E16.61935
G1 X218.699 Y146.571 F9000
G1 F3600
G1 X198.533 Y126.405 E17.7043
G1 X197.886 Y126.405 F9000
G1 F3600
G1 X218.375 Y146.895 E18.80663
G1 X218.052 Y147.218 F9000
G1 F3600
G1 X197.24 Y126.405 E19.92636
G1 X196.593 Y126.405 F9000
G1 F3600
G1 X217.729 Y147.541 E21.06347
G1 X217.406 Y147.864 F9000
G1 F3600
G1 X195.947 Y126.405 E22.21796
G1 X195.301 Y126.405 F9000
G1 F3600
G1 X217.082 Y148.187 E23.38984
G1 X216.759 Y148.51 F9000
G1 F3600
G1 X194.654 Y126.405 E24.5791
G1 X194.008 Y126.405 F9000
G1 F3600
G1 X216.436 Y148.833 E25.78576
G1 X216.113 Y149.157 F9000
G1 F3600
G1 X193.596 Y126.64 E26.99718
G1 X193.272 Y126.963 F9000
G1 F3600
G1 X215.849 Y149.539 E28.21179
G1 X215.849 Y150.186 F9000
G1 F3600
G1 X192.949 Y127.286 E29.4438
G1 X192.626 Y127.609 F9000
G1 F3600
G1 X215.849 Y150.832 E30.6932
G1 X215.849 Y151.478 F9000
G1 F3600
G1 X192.303 Y127.932 E31.95999
G1 X191.979 Y128.255 F9000
G1 F3600
G1 X215.849 Y152.125 E33.24417
G1 X215.849 Y152.771 F9000
G1 F3600
G1 X191.656 Y128.579 E34.54574
G1 X191.333 Y128.902 F9000
G1 F3600
G1 X215.849 Y153.418 E35.86471
G1 X215.849 Y154.064 F9000
G1 F3600
G1 X191.01 Y129.225 E37.20106
G1 X190.543 Y129.404 F9000
G1 F3600
G1 X215.849 Y154.71 E38.56255
G1 X215.849 Y155.357 F9000
G1 F3600
G1 X189.896 Y129.404 E39.95881
G1 X189.25 Y129.404 F9000
G1 F3600
G1 X215.849 Y156.003 E41.38985
G1 X215.849 Y156.65 F9000
G1 F3600
G1 X188.603 Y129.404 E42.85566
G1 X187.957 Y129.404 F9000
G1 F3600
G1 X215.849 Y157.296 E44.35625
G1 X215.849 Y157.942 F9000
G1 F3600
G1 X187.311 Y129.404 E45.89162
G1 X186.664 Y129.404 F9000
G1 F3600
G1 X215.849 Y158.589 E47.46177
G1 X215.849 Y159.235 F9000
G1 F3600
G1 X186.018 Y129.404 E49.06669
G1 X185.371 Y129.404 F9000
G1 F3600
G1 X215.849 Y159.882 E50.70639
G1 X215.849 Y160.528 F9000
G1 F3600
G1 X184.725 Y129.404 E52.38087
G1 X184.079 Y129.404 F9000
G1 F3600
G1 X215.849 Y161.174 E54.09013
G1 X215.849 Y161.821 F9000
G1 F3600
G1 X183.432 Y129.404 E55.83416
G1 X182.786 Y129.404 F9000
G1 F3600
G1 X215.849 Y162.467 E57.61297
G1 X215.849 Y163.114 F9000
G1 F3600
G1 X182.139 Y129.404 E59.42656
G1 X181.493 Y129.404 F9000
G1 F3600
G1 X215.849 Y163.76 E61.27492
G1 X215.849 Y164.406 F9000
G1 F3600
G1 X180.847 Y129.404 E63.15806
G1 X180.2 Y129.404 F9000
G1 F3600
G1 X215.849 Y165.053 E65.07598
G1 X215.849 Y165.699 F9000
G1 F3600
G1 X179.554 Y129.404 E67.02867
G1 X178.907 Y129.404 F9000
G1 F3600
G1 X215.849 Y166.346 E69.01614
G1 X215.849 Y166.992 F9000
G1 F3600
G1 X178.261 Y129.404 E71.03839
G1 X177.614 Y129.404 F9000
G1 F3600
G1 X215.849 Y167.639 E73.09542
G1 X215.849 Y168.285 F9000
G1 F3600
G1 X176.968 Y129.404 E75.18722
G1 X176.322 Y129.404 F9000
G1 F3600
G1 X215.849 Y168.931 E77.3138
G1 X215.849 Y169.578 F9000
G1 F3600
G1 X175.675 Y129.404 E79.47516
M73 P1 R144
G1 X175.029 Y129.404 F9000
G1 F3600
G1 X215.849 Y170.224 E81.67129
G1 X215.849 Y170.871 F9000
G1 F3600
G1 X174.382 Y129.404 E83.9022
G1 X173.736 Y129.404 F9000
G1 F3600
G1 X215.849 Y171.517 E86.16789
G1 X215.849 Y172.163 F9000
G1 F3600
G1 X173.09 Y129.404 E88.46836
G1 X172.443 Y129.404 F9000
G1 F3600
G1 X215.849 Y172.81 E90.8036
G1 X215.849 Y173.456 F9000
G1 F3600
G1 X171.797 Y129.404 E93.17362
G1 X171.15 Y129.404 F9000
G1 F3600
G1 X215.849 Y174.103 E95.57842
G1 X215.849 Y174.749 F9000
G1 F3600
G1 X170.504 Y129.404 E98.01799
G1 X169.858 Y129.404 F9000
G1 F3600
G1 X215.849 Y175.395 E100.49234
G1 X215.849 Y176.042 F9000
G1 F3600
G1 X169.211 Y129.404 E103.00147
G1 X168.565 Y129.404 F9000
G1 F3600
G1 X215.849 Y176.688 E105.54538
G1 X215.849 Y177.335 F9000
G1 F3600
G1 X167.918 Y129.404 E108.12406
G1 X167.272 Y129.404 F9000
G1 F3600
G1 X215.849 Y177.981 E110.73752
G1 X215.849 Y178.627 F9000
G1 F3600
G1 X166.626 Y129.404 E113.38576
G1 X165.979 Y129.404 F9000
G1 F3600
G1 X215.849 Y179.274 E116.06877
G1 X215.849 Y179.92 F9000
G1 F3600
G1 X165.333 Y129.404 E118.78656
G1 X164.686 Y129.404 F9000
G1 F3600
G1 X215.849 Y180.567 E121.53913
G92 E0
G1 E-0.8 F3000
; acceleration to travel
M204 S3000
G1 X218.099 Y183.301 F9000
; decel to extrusion
M204 S1000
G1 X218.849 Y184.213
; end travel
G1 E0 F1800
G1 F3600
G1 X164.04 Y129.404 E2.94875
G1 X163.394 Y129.404 F9000
G1 F3600
G1 X218.849 Y184.859 E5.93227
G1 X218.849 Y185.506 F9000
G1 F3600
G1 X162.747 Y129.404 E8.95057
G1 X162.101 Y129.404 F9000
G1 F3600
G1 X218.849 Y186.152 E12.00365
G1 X218.849 Y186.799 F9000
G1 F3600
G1 X161.454 Y129.404 E15.0915
G1 X160.808 Y129.404 F9000
G1 F3600
G1 X218.849 Y187.445 E18.21414
G1 X218.849 Y188.092 F9000
G1 F3600
G1 X160.161 Y129.404 E21.37155
G1 X159.515 Y129.404 F9000
G1 F3600
G1 X218.849 Y188.738 E24.56373
G1 X218.849 Y189.384 F9000
G1 F3600
G1 X158.869 Y129.404 E27.7907
G1 X158.222 Y129.404 F9000
G1 F3600
G1 X218.849 Y190.031 E31.05244
G1 X218.849 Y190.677 F9000
G1 F3600
G1 X157.576 Y129.404 E34.34895
G1 X156.929 Y129.404 F9000
G1 F3600
G1 X218.849 Y191.324 E37.68025
G1 X218.849 Y191.97 F9000
G1 F3600
G1 X156.283 Y129.404 E41.04632
G1 X155.637 Y129.404 F9000
G1 F3600
G1 X218.849 Y192.616 E44.44717
G1 X218.849 Y193.263 F9000
G1 F3600
G1 X154.99 Y129.404 E47.8828
G1 X154.344 Y129.404 F9000
G1 F3600
G1 X218.849 Y193.909 E51.3532
M73 P2 R143
G1 X218.849 Y194.556 F9000
G1 F3600
G1 X153.697 Y129.404 E54.85838
G1 X153.051 Y129.404 F9000
G1 F3600
G1 X218.849 Y195.202 E58.39834
G1 X218.849 Y195.848 F9000
G1 F3600
G1 X152.405 Y129.404 E61.97307
G1 X151.758 Y129.404 F9000
G1 F3600
G1 X218.849 Y196.495 E65.58258
G1 X218.849 Y197.141 F9000
G1 F3600
G1 X151.112 Y129.404 E69.22687
G1 X150.465 Y129.404 F9000
G1 F3600
G1 X218.849 Y197.788 E72.90594
G1 X218.849 Y198.434 F9000
G1 F3600
G1 X149.819 Y129.404 E76.61978
G1 X149.173 Y129.404 F9000
G1 F3600
G1 X218.849 Y199.08 E80.3684
G1 X218.849 Y199.727 F9000
G1 F3600
G1 X148.526 Y129.404 E84.1518
G1 X147.88 Y129.404 F9000
G1 F3600
G1 X218.849 Y200.373 E87.96997
M73 P2 R143
G1 X218.849 Y201.02 F9000
G1 F3600
G1 X147.233 Y129.404 E91.82292
G1 X146.587 Y129.404 F9000
G1 F3600
G1 X218.849 Y201.666 E95.71065
G1 X218.849 Y202.312 F9000
G1 F3600
G1 X145.941 Y129.404 E99.63315
G1 X145.294 Y129.404 F9000
G1 F3600
G1 X218.849 Y202.959 E103.59044
G1 X218.838 Y203.595 F9000
G1 F3600
G1 X144.648 Y129.404 E107.58193
G1 X144.001 Y129.404 F9000
G1 F3600
G1 X218.192 Y203.595 E111.57342
G1 X217.545 Y203.595 F9000
G1 F3600
G1 X143.355 Y129.404 E115.56491
G1 X142.708 Y129.404 F9000
G1 F3600
G1 X216.899 Y203.595 E119.5564
G1 X216.253 Y203.595 F9000
G1 F3600
G1 X142.062 Y129.404 E123.54789
G1 X141.416 Y129.404 F9000
G1 F3600
G1 X215.606 Y203.595 E127.53939
G1 X214.96 Y203.595 F9000
G1 F3600
G1 X140.769 Y129.404 E131.53088
G1 X140.123 Y129.404 F9000
G1 F3600
G1 X214.313 Y203.595 E135.52237
G1 X213.667 Y203.595 F9000
G1 F3600
G1 X136.477 Y126.405 E139.67521
G1 X135.831 Y126.405 F9000
G1 F3600
G1 X213.021 Y203.595 E143.82805
G1 X212.374 Y203.595 F9000
G1 F3600
G1 X135.185 Y126.405 E147.98089
G1 X134.538 Y126.405 F9000
G1 F3600
G1 X211.728 Y203.595 E152.13373
G1 X211.081 Y203.595 F9000
G1 F3600
G1 X133.892 Y126.405 E156.28657
G1 X133.245 Y126.405 F9000
G1 F3600
G1 X210.435 Y203.595 E160.43941
G1 X209.788 Y203.595 F9000
G1 F3600
G1 X132.599 Y126.405 E164.59224
G1 X131.953 Y126.405 F9000
G1 F3600
G1 X209.142 Y203.595 E168.74508
G1 X208.496 Y203.595 F9000
G1 F3600
G1 X131.306 Y126.405 E172.89792
G1 X130.66 Y126.405 F9000
G1 F3600
G1 X207.849 Y203.595 E177.05076
G1 X207.203 Y203.595 F9000
G1 F3600
G1 X130.013 Y126.405 E181.2036
G1 X129.367 Y126.405 F9000
G1 F3600
G1 X206.556 Y203.595 E185.35644
G1 X205.91 Y203.595 F9000
G1 F3600
G1 X128.721 Y126.405 E189.50928
G1 X128.074 Y126.405 F9000
G1 F3600
G1 X205.264 Y203.595 E193.66212
G1 X204.617 Y203.595 F9000
G1 F3600
G1 X127.428 Y126.405 E197.81496
G1 X126.781 Y126.405 F9000
G1 F3600
G1 X203.971 Y203.595 E201.9678
G1 X203.324 Y203.595 F9000
G1 F3600
G1 X126.135 Y126.405 E206.12064
G1 X125.489 Y126.405 F9000
G1 F3600
G1 X202.678 Y203.595 E210.27348
G1 X202.032 Y203.595 F9000
G1 F3600
G1 X124.842 Y126.405 E214.42632
G1 X124.196 Y126.405 F9000
G1 F3600
G1 X201.385 Y203.595 E218.57916
M73 P3 R142
G1 X200.739 Y203.595 F9000
G1 F3600
G1 X123.549 Y126.405 E222.732
G1 X122.903 Y126.405 F9000
G1 F3600
G1 X200.092 Y203.595 E226.88484
G1 X199.446 Y203.595 F9000
G1 F3600
G1 X122.256 Y126.405 E231.03768
G1 X121.61 Y126.405 F9000
G1 F3600
G1 X198.8 Y203.595 E235.19051
M73 P3 R142
G1 X198.153 Y203.595 F9000
G1 F3600
G1 X121.581 Y127.023 E239.31013
G1 X121.581 Y127.669 F9000
G1 F3600
G1 X197.507 Y203.595 E243.39496
G1 X196.86 Y203.595 F9000
G1 F3600
G1 X121.581 Y128.316 E247.44502
G1 X121.581 Y128.962 F9000
G1 F3600
G1 X196.214 Y203.595 E251.46031
G1 X195.568 Y203.595 F9000
G1 F3600
G1 X121.581 Y129.608 E255.44081
G1 X121.581 Y130.255 F9000
G1 F3600
G1 X194.921 Y203.595 E259.38654
G1 X194.275 Y203.595 F9000
G1 F3600
G1 X121.581 Y130.901 E263.29749
G1 X121.581 Y131.548 F9000
G1 F3600
G1 X190.629 Y200.596 E267.01232
G1 X189.983 Y200.596 F9000
G1 F3600
G1 X121.581 Y132.194 E270.69236
G1 X121.581 Y132.84 F9000
G1 F3600
G1 X189.336 Y200.596 E274.33764
G1 X188.69 Y200.596 F9000
G1 F3600
G1 X121.581 Y133.487 E277.94813
