; HEADER_BLOCK_START
; generated by OrcaSlicer 1.6.6 on 2023-09-07 at 20:53:07
; total layer number: 687
; HEADER_BLOCK_END

; THUMBNAIL_BLOCK_START
; THUMBNAIL_BLOCK_END

; external perimeters extrusion width = 0.40mm
; perimeters extrusion width = 0.46mm
; infill extrusion width = 0.64mm
; solid infill extrusion width = 0.56mm
; top infill extrusion width = 0.40mm
; support material extrusion width = 0.46mm
; first layer extrusion width = 0.50mm

; EXECUTABLE_BLOCK_START
EXCLUDE_OBJECT_DEFINE NAME=stand1.stl_id_0_copy_0 CENTER=165,165 POLYGON=[[99.3969,128.998],[99.431,128.739],[99.5309,128.498],[100.654,126.553],[100.813,126.346],[101.02,126.187],[163.377,90.1851],[163.618,90.0852],[163.877,90.0511],[166.123,90.0511],[166.382,90.0852],[166.511,90.1336],[166.623,90.1851],[228.98,126.187],[229.187,126.346],[229.346,126.553],[230.469,128.498],[230.569,128.739],[230.603,128.998],[230.603,201.002],[230.569,201.261],[230.469,201.502],[229.346,203.447],[229.187,203.654],[228.98,203.813],[166.623,239.815],[166.382,239.915],[166.123,239.949],[163.877,239.949],[163.618,239.915],[163.489,239.866],[163.377,239.815],[101.02,203.813],[100.813,203.654],[100.654,203.447],[99.531,201.502],[99.4311,201.261],[99.397,201.002],[99.3969,128.998]]
M73 P0 R58
M73 C10
;TYPE:Custom
START_PRINT T_BED=110 T_EXTRUDER=260
G90
G21
M83 ; use relative distances for extrusion
; Filament gcode

    PRESSURE_ADVANCE_SELECT FILAMENT=ABS
M106 S0
;LAYER_CHANGE
;Z:0.2
;HEIGHT:0.2
;BEFORE_LAYER_CHANGE
;0.2
G92 E0

SET_VELOCITY_LIMIT ACCEL=5000 ACCEL_TO_DECEL=2500
G1 E-.5 F2400
G1 X99.154 Y124.71 F12000
G1 Z.2
G1 E.5 F1800
;TYPE:Skirt
;WIDTH:0.5
G1 F3000
G1 X99.807 Y124.196 E.02923
G1 X162.212 Y88.166 E2.53603
G1 X163.377 Y87.762 E.04342
G1 X166.123 Y87.719 E.09664
G1 X166.679 Y87.773 E.01966
G1 X167.366 Y87.953 E.02501
G1 X167.793 Y88.155 E.0166
G1 X230.193 Y124.196 E2.53612
G1 X230.846 Y124.71 E.02922
G1 X231.362 Y125.371 E.02953
G1 X232.701 Y127.786 E.0972
G1 X232.934 Y128.998 E.04342
G1 X232.934 Y201.002 E2.53411
G1 X232.811 Y201.858 E.03042
G1 X232.491 Y202.664 E.03052
G1 X231.362 Y204.629 E.07977
G1 X230.846 Y205.29 E.02953
G1 X230.193 Y205.804 E.02923
G1 X167.788 Y241.834 E2.53603
G1 X166.623 Y242.238 E.04342
G1 X163.877 Y242.281 E.09664
G1 X163.129 Y242.19 E.02652
G1 X162.207 Y241.845 E.03463
G1 X99.807 Y205.804 E2.53612
G1 X99.154 Y205.29 E.02922
G1 X98.638 Y204.629 E.02953
G1 X97.299 Y202.214 E.09719
G1 X97.066 Y201.002 E.04343
G1 X97.066 Y128.998 E2.53411
G1 X97.189 Y128.142 E.03042
G1 X97.509 Y127.336 E.03052
G1 X98.638 Y125.371 E.07977
G1 X99.13 Y124.741 E.02812
G1 X99.485 Y125.025 F12000
G1 F3000
G1 X100.036 Y124.592 E.02465
G1 X162.44 Y88.562 E2.53603
G1 X163.143 Y88.283 E.02662
G1 X163.877 Y88.176 E.02611
G1 X166.592 Y88.221 E.09555
G1 X167.564 Y88.551 E.03613
G1 X229.965 Y124.592 E2.53612
G1 X230.515 Y125.025 E.02463
G1 X230.965 Y125.599 E.02569
G1 X232.272 Y127.944 E.09446
G1 X232.477 Y128.998 E.0378
G1 X232.477 Y201.002 E2.53411
G1 X232.367 Y201.75 E.02662
G1 X232.095 Y202.436 E.02595
G1 X230.965 Y204.401 E.07977
G1 X230.515 Y204.975 E.02569
G1 X229.964 Y205.408 E.02465
G1 X167.56 Y241.438 E2.53603
G1 X166.544 Y241.788 E.0378
G1 X163.877 Y241.824 E.09388
G1 X163.216 Y241.741 E.02344
G1 X162.436 Y241.449 E.02932
G1 X100.035 Y205.408 E2.53612
G1 X99.485 Y204.975 E.02463
G1 X99.035 Y204.401 E.02569
G1 X97.728 Y202.057 E.09445
G1 X97.523 Y201.002 E.03781
G1 X97.523 Y128.998 E2.53411
G1 X97.633 Y128.25 E.02662
G1 X97.905 Y127.564 E.02595
G1 X99.035 Y125.599 E.07977
G1 X99.46 Y125.056 E.02428
; printing object stand1.stl id:0 copy 0
G1 E-.5 F2400
EXCLUDE_OBJECT_START NAME=stand1.stl_id_0_copy_0
G1 X165.603 Y160.806 F12000
G1 E.5 F1800
;TYPE:Support
G1 F3000
G3 X165 Y160.763 I-.603 J4.188 E.91439
G1 X165.535 Y160.801 E.01886
G1 X164.463 Y161.214 F12000
G1 F3000
G3 X163.922 Y161.331 I.533 J3.782 E.82507
M73 C9
G1 X164.463 Y161.214 E.01947
G1 X164.535 Y161.718 F12000
G1 F3000
G3 X164.065 Y161.82 I.462 J3.278 E.71519
G1 X164.535 Y161.718 E.01692
G1 X164.607 Y162.222 F12000
G1 F3000
G3 X164.208 Y162.308 I.39 J2.775 E.6053
G1 X164.607 Y162.222 E.01436
G1 X164.679 Y162.726 F12000
G1 F3000
G3 X164.351 Y162.797 I.319 J2.272 E.49541
G1 X164.679 Y162.726 E.0118
G1 X164.751 Y163.23 F12000
G1 F3000
G3 X164.494 Y163.286 I.247 J1.768 E.38552
G1 X164.751 Y163.23 E.00925
G1 X164.823 Y163.734 F12000
G1 F3000
G3 X164.637 Y163.774 I.176 J1.265 E.27563
G1 X164.823 Y163.734 E.00669
G1 X164.895 Y164.238 F12000
G1 F3000
G3 X164.78 Y164.263 I.104 J.761 E.16574
G1 X164.895 Y164.238 E.00413
G1 X164.981 Y164.739 F12000
G1 F3000
G3 X164.906 Y164.756 I.019 J.26 E.05492
G1 X164.981 Y164.739 E.0027
G1 E-.5 F2400
G1 X160.504 Y161.809 F12000
G1 X150.215 Y155.477
G1 X150.383 Y155.186
G1 E.5 F1800
;TYPE:Outer wall
G1 F3000
G1 X150.719 Y154.708 E.02057
G1 X150.873 Y154.797 E.00625
G1 X151.529 Y153.659 E.04623
G3 X161.914 Y147.664 I13.469 J11.339 E.43062
G1 X163.227 Y147.664 E.04622
G1 X163.227 Y147.486 E.00625
G1 X163.809 Y147.434 E.02057
G1 X163.809 Y91.086 E1.98312
G3 X163.912 Y90.983 I.105 J.002 E.00564
G1 X166.137 Y90.992 E.07832
G1 X166.191 Y91.06 E.00305
G1 X166.191 Y147.434 E1.984
G1 X166.773 Y147.486 E.02057
G1 X166.773 Y147.664 E.00625
G1 X168.086 Y147.664 E.04623
G3 X178.47 Y153.658 I-3.086 J17.337 E.43058
G1 X179.127 Y154.796 E.04626
G1 X179.281 Y154.708 E.00625
G1 X179.617 Y155.186 E.02057
G1 X228.412 Y127.014 E1.98295
G3 X228.546 Y127.028 I.056 J.113 E.005
G1 X229.645 Y128.934 E.07742
G3 X229.607 Y129.074 I-.092 J.051 E.00564
G1 X180.808 Y157.248 E1.98312
G1 X181.054 Y157.778 E.02057
G1 X180.9 Y157.867 E.00625
G1 X181.557 Y159.004 E.04621
G3 X181.557 Y170.996 I-16.554 J5.996 E.43064
G1 X180.9 Y172.133 E.04622
G1 X181.054 Y172.222 E.00625
G1 X180.808 Y172.752 E.02056
G1 X229.607 Y200.926 E1.98313
G3 X229.645 Y201.066 I-.054 J.09 E.00564
G1 X228.546 Y202.972 E.07742
G3 X228.412 Y202.986 I-.078 J-.099 E.005
G1 X179.617 Y174.814 E1.98295
G1 X179.281 Y175.292 E.02057
G1 X179.127 Y175.204 E.00625
G1 X178.471 Y176.341 E.04623
G3 X168.086 Y182.336 I-13.464 J-11.329 E.43064
G1 X166.773 Y182.336 E.04622
G1 X166.773 Y182.514 E.00625
G1 X166.191 Y182.566 E.02057
G1 X166.191 Y238.914 E1.98312
G3 X166.088 Y239.017 I-.105 J-.002 E.00564
G1 X163.911 Y239.017 E.07663
G3 X163.809 Y238.94 I-.006 J-.098 E.0049
G1 X163.809 Y182.566 E1.984
G1 X163.227 Y182.514 E.02056
G1 X163.227 Y182.336 E.00625
G1 X161.914 Y182.336 E.04623
G3 X151.529 Y176.341 I3.079 J-17.324 E.43064
G1 X150.873 Y175.204 E.04622
G1 X150.719 Y175.292 E.00625
G1 X150.383 Y174.814 E.02056
G1 X101.588 Y202.986 E1.98295
M73 P1 R58
G3 X101.454 Y202.972 I-.056 J-.113 E.005
G1 X100.355 Y201.066 E.07742
G3 X100.393 Y200.926 I.092 J-.051 E.00564
G1 X149.192 Y172.752 E1.98312
G1 X148.946 Y172.222 E.02057
G1 X149.1 Y172.133 E.00625
G1 X148.443 Y170.995 E.04622
G3 X148.443 Y159.004 I16.555 J-5.995 E.43062
G1 X149.1 Y157.867 E.04622
G1 X148.946 Y157.778 E.00625
G1 X149.192 Y157.248 E.02057
G1 X100.393 Y129.074 E1.98312
G3 X100.355 Y128.934 I.054 J-.09 E.00564
G1 X101.454 Y127.028 E.07742
G3 X101.588 Y127.014 I.078 J.099 E.005
G1 X150.348 Y155.166 E1.98154
M73 P1 R57
G1 X150.5 Y155.781 F12000
;TYPE:Inner wall
G1 F3000
G1 X150.516 Y155.791 E.00067
G1 X150.852 Y155.313 E.02057
G1 X151.04 Y155.421 E.00762
G1 X151.901 Y153.929 E.06062
G3 X161.962 Y148.121 I13.087 J11.051 E.41713
G1 X163.684 Y148.121 E.06061
G1 X163.684 Y147.904 E.00762
G1 X164.266 Y147.852 E.02057
G1 X164.266 Y91.44 E1.98535
G1 X165.734 Y91.44 E.05164
G1 X165.734 Y147.852 E1.98535
G1 X166.316 Y147.904 E.02057
G1 X166.316 Y148.121 E.00762
G1 X168.038 Y148.121 E.06062
G3 X178.098 Y153.928 I-3.028 J16.861 E.41708
G1 X178.96 Y155.421 E.06066
G1 X179.148 Y155.313 E.00762
G1 X179.484 Y155.791 E.02056
G1 X228.339 Y127.584 E1.9854
G1 X229.072 Y128.855 E.05164
G1 X180.217 Y157.061 E1.98536
G1 X180.463 Y157.592 E.02057
G1 X180.276 Y157.7 E.00762
G1 X181.137 Y159.191 E.0606
G3 X181.137 Y170.809 I-16.112 J5.809 E.41714
G1 X180.276 Y172.3 E.06061
G1 X180.463 Y172.408 E.00762
G1 X180.217 Y172.938 E.02056
G1 X229.072 Y201.145 E1.98537
G1 X228.339 Y202.416 E.05164
G1 X179.484 Y174.209 E1.9854
G1 X179.148 Y174.687 E.02057
G1 X178.96 Y174.579 E.00762
G1 X178.099 Y176.071 E.06062
G3 X168.038 Y181.879 I-13.083 J-11.043 E.41714
G1 X166.316 Y181.879 E.06061
G1 X166.316 Y182.096 E.00762
G1 X165.734 Y182.148 E.02057
G1 X165.734 Y238.56 E1.98535
G1 X164.266 Y238.56 E.05164
G1 X164.266 Y182.148 E1.98535
G1 X163.684 Y182.096 E.02056
G1 X163.684 Y181.879 E.00762
G1 X161.962 Y181.879 E.06062
G3 X151.901 Y176.071 I3.022 J-16.851 E.41714
G1 X151.04 Y174.579 E.06061
G1 X150.852 Y174.687 E.00762
G1 X150.516 Y174.209 E.02056
G1 X101.661 Y202.416 E1.9854
G1 X100.928 Y201.145 E.05164
G1 X149.783 Y172.939 E1.98536
G1 X149.537 Y172.408 E.02057
G1 X149.724 Y172.3 E.00762
G1 X148.863 Y170.808 E.06061
G3 X148.863 Y159.191 I16.114 J-5.808 E.41713
G1 X149.724 Y157.7 E.06061
G1 X149.537 Y157.591 E.00762
G1 X149.783 Y157.061 E.02057
G1 X100.928 Y128.855 E1.98536
G1 X101.661 Y127.584 E.05164
G1 X150.465 Y155.761 E1.98332
G1 X150.672 Y156.364 F12000
G1 F3000
G1 X150.986 Y155.917 E.01923
G1 X151.207 Y156.045 E.009
G1 X152.273 Y154.199 E.07502
G3 X162.01 Y148.578 I12.705 J10.763 E.40363
G1 X164.141 Y148.578 E.075
G1 X164.141 Y148.322 E.009
G1 X164.723 Y148.27 E.02057
G1 X164.723 Y91.897 E1.98398
G1 X165.277 Y91.897 E.01947
G1 X165.277 Y148.27 E1.98398
G1 X165.859 Y148.322 E.02057
G1 X165.859 Y148.578 E.009
G1 X167.99 Y148.578 E.07502
G3 X177.727 Y154.199 I-2.969 J16.387 E.40359
G1 X178.793 Y156.045 E.07505
G1 X179.014 Y155.917 E.009
G1 X179.35 Y156.395 E.02056
G1 X228.171 Y128.208 E1.98402
G1 X228.448 Y128.688 E.01947
G1 X179.627 Y156.875 E1.984
G1 X179.873 Y157.405 E.02058
G1 X179.652 Y157.533 E.00899
G1 X180.717 Y159.378 E.07498
G3 X180.717 Y170.622 I-15.672 J5.622 E.40365
G1 X179.651 Y172.468 E.075
G1 X179.873 Y172.595 E.00898
G1 X179.626 Y173.125 E.02056
G1 X228.448 Y201.312 E1.98402
G1 X228.171 Y201.791 E.01947
G1 X179.35 Y173.604 E1.98402
G1 X179.014 Y174.083 E.02056
G1 X178.793 Y173.955 E.009
G1 X177.727 Y175.801 E.07502
G3 X167.99 Y181.422 I-12.702 J-10.757 E.40364
G1 X165.859 Y181.422 E.075
G1 X165.859 Y181.678 E.009
G1 X165.277 Y181.73 E.02057
G1 X165.277 Y238.103 E1.98398
G1 X164.723 Y238.103 E.01947
G1 X164.723 Y181.73 E1.98398
G1 X164.141 Y181.678 E.02056
G1 X164.141 Y181.422 E.009
G1 X162.01 Y181.422 E.07502
G3 X152.273 Y175.8 I2.965 J-16.379 E.40364
G1 X151.207 Y173.955 E.075
G1 X150.986 Y174.083 E.009
G1 X150.65 Y173.605 E.02056
G1 X101.829 Y201.792 E1.98402
G1 X101.552 Y201.312 E.01947
G1 X150.373 Y173.125 E1.984
G1 X150.127 Y172.595 E.02058
G1 X150.348 Y172.467 E.00899
G1 X149.283 Y170.622 E.075
G3 X149.283 Y159.378 I15.673 J-5.622 E.40363
G1 X150.349 Y157.532 E.075
G1 X150.127 Y157.405 E.009
G1 X150.373 Y156.875 E.02057
G1 X101.552 Y128.688 E1.984
G1 X101.829 Y128.209 E.01947
M73 P2 R57
G1 X150.648 Y156.395 E1.98395
G1 X150.774 Y157.097 F12000
G1 F3000
G1 X150.888 Y156.852 E.00951
G3 X151.119 Y156.522 I1.962 J1.133 E.01421
G1 X151.374 Y156.67 E.01037
G1 X152.645 Y154.47 E.08941
G3 X162.058 Y149.035 I12.323 J10.475 E.39014
G1 X164.598 Y149.035 E.0894
G1 X164.598 Y148.74 E.01037
G3 X165.402 Y148.74 I.402 J2.229 E.02841
G1 X165.402 Y149.035 E.01037
G1 X167.942 Y149.035 E.08941
G3 X177.355 Y154.469 I-2.911 J15.913 E.3901
G1 X178.626 Y156.67 E.08944
G1 X178.881 Y156.522 E.01037
G3 X179.282 Y157.218 I-1.731 J1.463 E.02844
G1 X179.027 Y157.366 E.01037
G1 X180.297 Y159.565 E.08937
G3 X180.297 Y170.435 I-15.233 J5.435 E.39015
G1 X179.027 Y172.635 E.0894
G1 X179.282 Y172.782 E.01035
G3 X178.881 Y173.478 I-2.135 J-.767 E.02841
G1 X178.626 Y173.33 E.01037
G1 X177.355 Y175.531 E.08941
G3 X167.942 Y180.965 I-12.322 J-10.472 E.39014
G1 X165.402 Y180.965 E.0894
G1 X165.402 Y181.26 E.01037
G3 X164.598 Y181.26 I-.402 J-2.229 E.02842
G1 X164.598 Y180.965 E.01037
G1 X162.058 Y180.965 E.08941
G3 X152.645 Y175.53 I2.909 J-15.907 E.39014
G1 X151.374 Y173.33 E.0894
G1 X151.119 Y173.478 E.01037
G3 X150.718 Y172.782 I1.731 J-1.463 E.02844
G1 X150.973 Y172.634 E.01037
G1 X149.703 Y170.435 E.08939
G3 X149.703 Y159.565 I15.234 J-5.435 E.39014
G1 X150.973 Y157.365 E.0894
G1 X150.718 Y157.218 E.01037
G1 X150.757 Y157.134 E.00327
G1 E-.5 F2400
G1 X165.786 Y159.53 F12000
G1 X166.557 Y159.698
G1 X167.295 Y159.974
G1 X167.987 Y160.351
G1 X168.619 Y160.824
G1 X169.138 Y161.343
G1 X168.9 Y161.58
G1 E.5 F1800
;TYPE:Outer wall
G1 F3000
G1 X168.922 Y161.602 E.00107
G1 X169.365 Y162.195 E.02606
G1 X169.72 Y162.844 E.02606
G1 X169.979 Y163.538 E.02606
G1 X170.136 Y164.262 E.02607
G1 X170.189 Y165.008 E.02633
G1 X170.136 Y165.739 E.02577
G1 X169.979 Y166.462 E.02606
G1 X169.72 Y167.156 E.02606
G1 X169.365 Y167.805 E.02606
G1 X168.922 Y168.398 E.02607
G1 X168.392 Y168.927 E.02633
G1 X167.805 Y169.365 E.02577
G1 X167.156 Y169.72 E.02606
G1 X166.462 Y169.979 E.02606
G1 X165.738 Y170.136 E.02606
G1 X165 Y170.189 E.02606
G1 X164.261 Y170.136 E.02606
G1 X163.538 Y169.979 E.02607
G1 X162.837 Y169.716 E.02633
G1 X162.195 Y169.365 E.02577
G1 X161.602 Y168.922 E.02607
G1 X161.073 Y168.392 E.02633
G1 X160.635 Y167.805 E.02577
G1 X160.28 Y167.156 E.02606
G1 X160.021 Y166.462 E.02606
G1 X159.864 Y165.738 E.02606
G1 X159.811 Y165 E.02606
G1 X159.864 Y164.262 E.02606
G1 X160.021 Y163.538 E.02606
G1 X160.28 Y162.844 E.02606
G1 X160.635 Y162.195 E.02606
G1 X161.078 Y161.602 E.02606
G1 X161.602 Y161.078 E.02606
G1 X162.195 Y160.635 E.02606
G1 X162.844 Y160.28 E.02606
G1 X163.538 Y160.021 E.02607
G1 X164.27 Y159.863 E.02633
G1 X164.635 Y159.837 E.01288
G1 X165 Y159.811 E.01289
G1 X165.739 Y159.864 E.02606
G1 X166.462 Y160.021 E.02606
G1 X167.156 Y160.28 E.02606
G1 X167.805 Y160.635 E.02606
G1 X168.398 Y161.078 E.02606
G1 X168.872 Y161.552 E.02358
G1 X169.248 Y161.282 F12000
;TYPE:Inner wall
G1 F3000
G1 X169.268 Y161.302 E.001
G1 X169.751 Y161.947 E.02836
G1 X170.137 Y162.654 E.02836
G1 X170.419 Y163.409 E.02836
G1 X170.59 Y164.197 E.02838
G1 X170.647 Y165.008 E.02863
G1 X170.59 Y165.804 E.02806
G1 X170.419 Y166.591 E.02836
G1 X170.137 Y167.346 E.02836
G1 X169.751 Y168.053 E.02836
G1 X169.268 Y168.699 E.02838
G1 X168.691 Y169.273 E.02863
G1 X168.053 Y169.751 E.02806
G1 X167.346 Y170.137 E.02836
G1 X166.591 Y170.419 E.02836
G1 X165.804 Y170.59 E.02836
G1 X165 Y170.647 E.02836
G1 X164.196 Y170.59 E.02836
G1 X163.408 Y170.419 E.02838
G1 X162.647 Y170.133 E.02863
G1 X161.947 Y169.751 E.02806
G1 X161.301 Y169.268 E.02838
G1 X160.727 Y168.691 E.02863
G1 X160.249 Y168.053 E.02806
G1 X159.863 Y167.346 E.02836
G1 X159.581 Y166.591 E.02836
G1 X159.41 Y165.804 E.02836
G1 X159.353 Y165 E.02836
G1 X159.41 Y164.196 E.02836
G1 X159.581 Y163.409 E.02836
G1 X159.863 Y162.654 E.02836
G1 X160.249 Y161.947 E.02836
G1 X160.732 Y161.302 E.02836
G1 X161.302 Y160.732 E.02836
G1 X161.947 Y160.249 E.02836
G1 X162.654 Y159.863 E.02836
G1 X163.41 Y159.581 E.02838
G1 X164.205 Y159.409 E.02863
G1 X164.602 Y159.381 E.01402
G1 X165 Y159.353 E.01404
G1 X165.804 Y159.41 E.02836
G1 X166.591 Y159.581 E.02836
G1 X167.346 Y159.863 E.02836
G1 X168.053 Y160.249 E.02836
G1 X168.698 Y160.732 E.02836
G1 X169.22 Y161.253 E.02595
G1 X169.574 Y160.961 F12000
G1 F3000
G1 X169.614 Y161.002 E.00203
G1 X170.136 Y161.699 E.03066
G1 X170.554 Y162.464 E.03066
G1 X170.858 Y163.28 E.03066
G1 X171.044 Y164.132 E.0307
G1 X171.105 Y165.009 E.03093
G1 X171.044 Y165.869 E.03035
G1 X170.858 Y166.72 E.03066
G1 X170.554 Y167.536 E.03066
G1 X170.136 Y168.301 E.03066
G1 X169.614 Y168.999 E.0307
G1 X168.991 Y169.62 E.03093
G1 X168.301 Y170.136 E.03035
G1 X167.536 Y170.554 E.03066
G1 X166.72 Y170.858 E.03066
G1 X165.869 Y171.044 E.03066
G1 X165 Y171.106 E.03066
G1 X164.131 Y171.044 E.03066
G1 X163.279 Y170.858 E.0307
G1 X162.456 Y170.55 E.03093
G1 X161.699 Y170.136 E.03035
G1 X161.001 Y169.614 E.0307
G1 X160.38 Y168.991 E.03093
G1 X159.864 Y168.301 E.03035
G1 X159.446 Y167.536 E.03066
G1 X159.142 Y166.72 E.03066
G1 X158.956 Y165.869 E.03066
G1 X158.894 Y165 E.03066
G1 X158.956 Y164.131 E.03066
G1 X159.142 Y163.28 E.03066
G1 X159.446 Y162.464 E.03066
G1 X159.864 Y161.699 E.03066
