; generated by SuperSlicer 2.5.59 on 2023-04-17 at 06:01:37 UTC


;
;

;
;
; 

; external perimeters extrusion width = 0.40mm
; perimeters extrusion width = 0.46mm
; infill extrusion width = 0.64mm
; solid infill extrusion width = 0.56mm
; top infill extrusion width = 0.40mm
; first layer extrusion width = 0.50mm

; external perimeters extrusion width = 0.40mm
; perimeters extrusion width = 0.46mm
; infill extrusion width = 0.64mm
; solid infill extrusion width = 0.56mm
; top infill extrusion width = 0.40mm
; first layer extrusion width = 0.50mm

; object:{"name":"Steam_Deck_Stick_Saver_tabbed","id":"Steam_Deck_Stick_Saver_tabbed.stl id:0 copy 0","object_center":[162.559390,152.224064,0.000000],"boundingbox_center":[162.559390,152.224064,2.212503],"boundingbox_size":[30.881203,20.021931,4.425005]}
EXCLUDE_OBJECT_DEFINE NAME=Steam_Deck_Stick_Saver_tabbed_stl_id_0_copy_0 CENTER=162.559390,152.224064 POLYGON=[[147.118784,149.306736],[147.139152,149.022096],[147.199792,148.743248],[147.299536,148.475888],[147.436272,148.225456],[147.607280,147.997008],[147.809072,147.795232],[148.037504,147.624224],[148.287968,147.487456],[148.555328,147.387744],[166.002592,142.562816],[166.430224,142.457648],[166.859680,142.371328],[167.289424,142.303776],[167.717888,142.254928],[168.143472,142.224736],[168.564688,142.213088],[168.984592,142.219968],[169.409216,142.245408],[169.837088,142.289456],[170.266640,142.352208],[170.696320,142.433712],[171.124576,142.534048],[171.549840,142.653264],[171.970544,142.791440],[172.385136,142.948656],[172.792112,143.124848],[173.190288,143.319184],[173.578592,143.530496],[173.956000,143.757664],[174.321408,143.999520],[174.673808,144.254880],[175.012144,144.522640],[175.335328,144.801632],[175.642336,145.090704],[175.934976,145.391600],[176.217840,145.708944],[176.489888,146.041792],[176.749968,146.389120],[176.996944,146.749840],[177.229664,147.122944],[177.446976,147.507344],[177.647728,147.902000],[177.830752,148.305840],[177.995248,148.717680],[177.999984,155.717696],[177.836032,156.129776],[177.653568,156.533872],[177.453344,156.928816],[177.236528,157.313552],[177.004256,157.687008],[176.757696,158.048144],[176.497984,158.395888],[176.226304,158.729184],[175.943760,159.047008],[175.651424,159.348384],[175.344944,159.637760],[175.022240,159.917072],[174.684352,160.185184],[174.332368,160.440944],[173.967312,160.683232],[173.590272,160.910864],[173.202288,161.122672],[172.804400,161.317536],[172.397680,161.494304],[171.983296,161.652096],[171.562752,161.790864],[171.137600,161.910656],[170.709408,162.011568],[170.279760,162.093648],[169.850160,162.156960],[169.422224,162.201584],[168.997488,162.227584],[168.577440,162.235024],[168.156400,162.223952],[167.730912,162.194320],[167.302528,162.146048],[166.872800,162.079072],[166.443296,161.993312],[166.015600,161.888736],[148.555328,157.225712],[148.287968,157.126000],[148.037504,156.989232],[147.809072,156.818224],[147.607280,156.616448],[147.436272,156.388000],[147.299536,156.137552],[147.199792,155.870192],[147.139152,155.591360],[147.118784,155.306736],[147.118784,149.306736]]
; object:{"name":"Steam_Deck_Stick_Saver_tabbed","id":"Steam_Deck_Stick_Saver_tabbed.stl id:1 copy 0","object_center":[167.440419,177.775961,0.000000],"boundingbox_center":[167.440419,177.775961,2.212503],"boundingbox_size":[30.881203,20.021931,4.425005]}
EXCLUDE_OBJECT_DEFINE NAME=Steam_Deck_Stick_Saver_tabbed_stl_id_1_copy_0 CENTER=167.440419,177.775961 POLYGON=[[151.999824,174.858608],[152.020176,174.573984],[152.080832,174.295152],[152.180544,174.027792],[152.317312,173.777344],[152.488320,173.548912],[152.690096,173.347120],[152.918528,173.176112],[153.168976,173.039360],[153.436336,172.939632],[170.883616,168.114720],[171.311248,168.009536],[171.740720,167.923216],[172.170464,167.855664],[172.598912,167.806832],[173.024512,167.776624],[173.445712,167.764992],[173.865616,167.771872],[174.290240,167.797296],[174.718112,167.841360],[175.147664,167.904096],[175.577344,167.985600],[176.005600,168.085936],[176.430864,168.205152],[176.851568,168.343344],[177.266176,168.500544],[177.673136,168.676736],[178.071328,168.871072],[178.459632,169.082400],[178.837024,169.309552],[179.202432,169.551408],[179.554848,169.806784],[179.893168,170.074544],[180.216352,170.353536],[180.523360,170.642592],[180.816016,170.943504],[181.098864,171.260832],[181.370912,171.593696],[181.630992,171.941008],[181.877968,172.301744],[182.110688,172.674832],[182.328000,173.059232],[182.528752,173.453888],[182.711776,173.857728],[182.876288,174.269584],[182.881008,181.269600],[182.717072,181.681664],[182.534592,182.085776],[182.334368,182.480720],[182.117552,182.865456],[181.885280,183.238912],[181.638736,183.600032],[181.379024,183.947792],[181.107328,184.281104],[180.824800,184.598912],[180.532448,184.900288],[180.225968,185.189648],[179.903264,185.468960],[179.565392,185.737072],[179.213392,185.992848],[178.848336,186.235120],[178.471296,186.462736],[178.083312,186.674560],[177.685424,186.869424],[177.278704,187.046208],[176.864320,187.204000],[176.443776,187.342752],[176.018624,187.462560],[175.590432,187.563456],[175.160784,187.645536],[174.731184,187.708848],[174.303248,187.753472],[173.878512,187.779488],[173.458464,187.786928],[173.037424,187.775856],[172.611936,187.746224],[172.183552,187.697936],[171.753824,187.630960],[171.324320,187.545216],[170.896624,187.440624],[153.436336,182.777600],[153.168976,182.677888],[152.918528,182.541120],[152.690096,182.370112],[152.488320,182.168336],[152.317312,181.939904],[152.180544,181.689456],[152.080832,181.422096],[152.020176,181.143248],[151.999824,180.858608],[151.999824,174.858608]]
; plater:{"center":[164.999904,165.000012,0.000000],"boundingbox_center":[164.999904,165.000012,2.212503],"boundingbox_size":[35.762232,45.573828,4.425005]}

M73 P0 R10
;TYPE:Custom
; custom gcode: start_gcode
START_PRINT T_BED=60 T_EXTRUDER=220
; custom gcode end: start_gcode
M107
G21 ; set units to millimeters
G90 ; use absolute coordinates
M82 ; use absolute distances for extrusion
G92 E0
; custom gcode: start_filament_gcode
; Filament gcode
; custom gcode end: start_filament_gcode
;_TOOLCHANGE 0
M104 S220 ; set temperature
M109 S220 ; set temperature and wait for it to be reached
M190 S60 ; set bed temperature and wait for it to be reached
;LAYER_CHANGE
;Z:0.2
;HEIGHT:0.2
G1 Z0.2 F9000
M204 S1000
M73 P0 R10
G1 X144.573 Y144.569
;TYPE:Skirt
;WIDTH:0.52
G1 F1800
G1 X143.945 Y145.264 E0.03717
G1 X143.292 Y146.28 E0.08505
G1 X142.733 Y147.779 E0.14852
G1 X142.549 Y149.31 E0.20971
G1 X142.581 Y155.91 E0.47153
G1 X147.614 Y182.386 E1.54064
G1 X148.173 Y183.886 E1.60412
G1 X148.663 Y184.684 E1.64128
G1 X149.262 Y185.405 E1.67844
G1 X149.957 Y186.033 E1.71561
G1 X150.735 Y186.555 E1.75277
G1 X151.579 Y186.962 E1.78994
G1 X152.737 Y187.302 E1.83781
G1 X172.091 Y189.985 E2.61292
G1 X173.353 Y190.064 E2.66309
G1 X174.846 Y189.991 E2.72237
G1 X176.102 Y189.786 E2.77288
G1 X177.541 Y189.382 E2.83216
G1 X179.232 Y188.646 E2.90532
G1 X180.326 Y187.995 E2.95582
G1 X181.516 Y187.091 E3.01511
G1 X182.436 Y186.211 E3.06561
M73 P1 R10
G1 X183.394 Y185.065 E3.12487
G1 X184.235 Y183.793 E3.18534
G1 X184.94 Y181.326 E3.28713
G1 X184.939 Y174.224 E3.56884
G1 X184.856 Y173.349 E3.60374
G1 X179.975 Y147.797 E4.6357
G1 X179.353 Y146.205 E4.70347
G1 X178.495 Y144.911 E4.76509
G1 X177.52 Y143.751 E4.8252
G1 X176.581 Y142.864 E4.87642
G1 X175.069 Y141.764 E4.95063
G1 X173.732 Y141.049 E5.01076
G1 X172.531 Y140.574 E5.06199
G1 X170.717 Y140.115 E5.1362
G1 X169.211 Y139.949 E5.19633
G1 X167.038 Y140.036 E5.28258
G1 X148.17 Y142.806 E6.03909
G1 X146.952 Y143.109 E6.08889
G1 X145.854 Y143.61 E6.13677
G1 X144.573 Y144.569 E6.20025
G1 X144.91 Y144.906 F9000
G1 F1800
G1 X144.327 Y145.55 E6.23471
G1 X143.711 Y146.508 E6.27989
G1 X143.199 Y147.88 E6.33799
G1 X143.026 Y149.31 E6.39513
G1 X143.056 Y155.876 E6.6556
G1 X148.08 Y182.285 E7.72201
G1 X148.592 Y183.657 E7.7801
G1 X149.045 Y184.398 E7.81456
G1 X149.599 Y185.067 E7.84903
G1 X150.46 Y185.813 E7.89421
G1 X151.201 Y186.267 E7.92867
G1 X151.999 Y186.61 E7.96314
G1 X153.157 Y186.892 E8.0104
G1 X172.156 Y189.512 E8.77122
G1 X173.348 Y189.587 E8.81858
G1 X174.805 Y189.516 E8.87644
G1 X175.99 Y189.323 E8.92411
G1 X177.395 Y188.928 E8.98197
G1 X179.019 Y188.219 E9.05229
G1 X180.052 Y187.604 E9.09995
G1 X181.213 Y186.722 E9.15781
G1 X182.082 Y185.892 E9.20548
G1 X183.017 Y184.773 E9.26332
G1 X183.83 Y183.541 E9.32186
G1 X184.463 Y181.326 E9.41326
G1 X184.462 Y174.224 E9.69497
G1 X184.388 Y173.438 E9.7263
G1 X179.507 Y147.886 E10.75826
M73 P2 R10
G1 X178.948 Y146.458 E10.81911
G1 X178.118 Y145.204 E10.87875
G1 X177.166 Y144.072 E10.93742
G1 X176.281 Y143.234 E10.98577
G1 X174.828 Y142.175 E11.05709
G1 X173.523 Y141.478 E11.11578
G1 X172.39 Y141.03 E11.16413
G1 X170.647 Y140.587 E11.23546
G1 X169.176 Y140.425 E11.29415
G1 X167.107 Y140.508 E11.37629
G1 X148.239 Y143.278 E12.1328
G1 X147.118 Y143.556 E12.17861
G1 X146.082 Y144.029 E12.22379
G1 X144.91 Y144.906 E12.28188
G1 X145.247 Y145.244 F9000
G1 F1800
G1 X144.709 Y145.836 E12.31365
G1 X144.13 Y146.737 E12.35613
G1 X143.665 Y147.982 E12.40883
G1 X143.503 Y149.31 E12.46193
G1 X143.532 Y155.842 E12.72105
G1 X148.546 Y182.184 E13.78476
G1 X149.011 Y183.429 E13.83746
G1 X149.427 Y184.112 E13.86923
G1 X149.937 Y184.73 E13.90099
G1 X150.746 Y185.431 E13.94347
G1 X151.43 Y185.848 E13.97524
G1 X152.166 Y186.163 E14.007
G1 X153.222 Y186.42 E14.05011
G1 X172.221 Y189.039 E14.81093
G1 X173.342 Y189.11 E14.85549
G1 X174.763 Y189.041 E14.91193
G1 X176.435 Y188.725 E14.97941
G1 X177.51 Y188.378 E15.02424
G1 X178.807 Y187.792 E15.08067
G1 X179.778 Y187.214 E15.1255
G1 X180.91 Y186.353 E15.18194
G1 X181.727 Y185.573 E15.22676
G1 X182.639 Y184.481 E15.28318
G1 X183.425 Y183.289 E15.33981
G1 X183.985 Y181.326 E15.4208
G1 X183.985 Y174.225 E15.70251
G1 X183.919 Y173.528 E15.73028
G1 X179.038 Y147.976 E16.76224
G1 X178.543 Y146.71 E16.81616
G1 X177.742 Y145.497 E16.87383
G1 X176.813 Y144.392 E16.93106
G1 X175.981 Y143.605 E16.97653
G1 X174.587 Y142.587 E17.04497
G1 X173.314 Y141.907 E17.10222
G1 X172.249 Y141.486 E17.14769
G1 X170.577 Y141.059 E17.21613
G1 X169.142 Y140.901 E17.27338
G1 X167.177 Y140.98 E17.35142
M73 P3 R10
G1 X148.309 Y143.75 E18.10792
G1 X147.285 Y144.003 E18.14975
G1 X146.311 Y144.447 E18.19223
G1 X145.247 Y145.244 E18.24493
G1 X145.585 Y145.581 F9000
G1 F1800
G1 X145.09 Y146.122 E18.274
G1 X144.548 Y146.965 E18.31378
G1 X144.131 Y148.083 E18.3611
G1 X143.98 Y149.31 E18.41015
G1 X144.008 Y155.808 E18.66791
G1 X149.013 Y182.082 E19.72893
G1 X149.429 Y183.2 E19.77625
G1 X149.809 Y183.826 E19.80531
G1 X150.274 Y184.393 E19.83438
G1 X151.032 Y185.049 E19.87416
G1 X151.659 Y185.429 E19.90322
G1 X152.333 Y185.716 E19.93229
G1 X153.287 Y185.947 E19.97124
G1 X172.287 Y188.567 E20.73206
G1 X173.337 Y188.633 E20.77381
G1 X174.722 Y188.565 E20.82883
G1 X175.767 Y188.395 E20.87082
G1 X177.102 Y188.019 E20.92583
G1 X178.594 Y187.365 E20.99048
G1 X179.503 Y186.824 E21.03246
G1 X180.608 Y185.984 E21.08748
G1 X181.373 Y185.253 E21.12946
G1 X182.262 Y184.189 E21.18447
G1 X183.02 Y183.037 E21.23917
G1 X183.508 Y181.326 E21.30976
G1 X183.508 Y174.225 E21.59147
G1 X183.45 Y173.617 E21.61568
G1 X178.569 Y148.065 E22.64763
G1 X178.138 Y146.962 E22.69463
G1 X177.365 Y145.79 E22.75033
G1 X176.46 Y144.713 E22.80612
G1 X175.68 Y143.975 E22.8487
G1 X174.346 Y142.999 E22.91427
G1 X173.106 Y142.336 E22.97008
G1 X172.107 Y141.941 E23.01266
G1 X170.506 Y141.531 E23.07823
G1 X169.108 Y141.377 E23.13404
G1 X167.246 Y141.452 E23.20796
G1 X148.378 Y144.222 E23.96447
G1 X147.452 Y144.45 E24.0023
G1 X146.54 Y144.866 E24.04208
G1 X145.585 Y145.581 E24.0894
G92 E0
; printing object Steam_Deck_Stick_Saver_tabbed.stl id:0 copy 0
EXCLUDE_OBJECT_START NAME=Steam_Deck_Stick_Saver_tabbed_stl_id_0_copy_0
; acceleration to travel
M204 S3000
G1 X158.69 Y147.823 F9000
; decel to extrusion
M204 S1000
G1 X163.058 Y148.571
; end travel
;TYPE:Internal perimeter
;WIDTH:0.5
G1 F1800
G1 X163.589 Y148.571 E0.02016
G1 X163.252 Y149.088 E0.04363
G1 X162.976 Y149.618 E0.06633
G1 X162.752 Y150.172 E0.08904
G1 X162.582 Y150.745 E0.11175
M73 P4 R10
G1 X162.468 Y151.331 E0.13446
G1 X162.41 Y151.926 E0.15717
G1 X162.41 Y152.524 E0.17988
G1 X162.468 Y153.118 E0.20258
G1 X162.582 Y153.705 E0.22529
G1 X162.752 Y154.277 E0.248
G1 X162.976 Y154.831 E0.27071
G1 X163.253 Y155.361 E0.29342
G1 X163.697 Y156.043 E0.32433
G1 X149.164 Y156.043 E0.87666
G1 X148.928 Y156.013 E0.88568
G1 X148.725 Y155.92 E0.8942
G1 X148.568 Y155.784 E0.90209
G1 X148.456 Y155.61 E0.90997
G1 X148.392 Y155.395 E0.91849
G1 X148.383 Y155.262 E0.92356
G1 X148.383 Y149.352 E1.14816
G1 X148.392 Y149.219 E1.15323
G1 X148.456 Y149.004 E1.16175
G1 X148.568 Y148.829 E1.16964
G1 X148.8 Y148.648 E1.18083
G1 X149.031 Y148.58 E1.18998
G1 X149.164 Y148.571 E1.19504
G1 X163.058 Y148.571 E1.72312
G1 X162.94 Y148.114 F9000
G1 F1800
G1 X163.026 Y148.114 E1.7264
G1 X163.638 Y147.428 E1.76132
G1 X164.018 Y147.063 E1.78134
G1 X164.424 Y146.728 E1.80135
G1 X164.854 Y146.424 E1.82137
G1 X165.306 Y146.155 E1.84138
G1 X165.778 Y145.92 E1.8614
G1 X166.266 Y145.722 E1.88141
G1 X166.768 Y145.562 E1.90142
G1 X167.28 Y145.441 E1.92144
G1 X167.8 Y145.359 E1.94145
G1 X168.325 Y145.316 E1.96147
G1 X168.852 Y145.314 E1.98148
G1 X169.114 Y145.333 E1.99149
G1 X169.377 Y145.352 E2.00149
G1 X169.898 Y145.429 E2.02151
G1 X170.411 Y145.547 E2.04152
G1 X170.914 Y145.702 E2.06154
G1 X171.404 Y145.896 E2.08155
G1 X171.877 Y146.126 E2.10156
G1 X172.332 Y146.392 E2.12158
G1 X172.765 Y146.692 E2.14159
G1 X173.174 Y147.023 E2.16161
G1 X173.557 Y147.385 E2.18162
G1 X174.054 Y147.932 E2.20971
G1 X172.432 Y147.919 E2.27135
G1 X172.279 Y147.78 E2.27919
G1 X171.836 Y147.449 E2.30023
G1 X171.362 Y147.162 E2.32126
G1 X170.863 Y146.922 E2.3423
G1 X170.344 Y146.731 E2.36334
G1 X169.809 Y146.591 E2.38437
G1 X169.262 Y146.503 E2.40541
G1 X168.71 Y146.467 E2.42645
G1 X168.157 Y146.485 E2.44748
G1 X167.608 Y146.556 E2.46852
G1 X167.068 Y146.679 E2.48955
G1 X166.543 Y146.854 E2.51059
G1 X166.037 Y147.078 E2.53163
G1 X165.554 Y147.349 E2.55266
G1 X165.101 Y147.666 E2.5737
G1 X164.679 Y148.025 E2.59474
G1 X164.294 Y148.423 E2.61577
G1 X163.949 Y148.855 E2.63681
G1 X163.647 Y149.319 E2.65785
G1 X163.391 Y149.81 E2.67888
G1 X163.184 Y150.323 E2.69992
G1 X163.026 Y150.854 E2.72096
G1 X162.92 Y151.397 E2.74199
G1 X162.867 Y151.948 E2.76303
G1 X162.867 Y152.501 E2.78406
G1 X162.921 Y153.052 E2.8051
G1 X163.026 Y153.596 E2.82614
G1 X163.184 Y154.126 E2.84717
G1 X163.392 Y154.639 E2.86821
G1 X163.648 Y155.13 E2.88925
G1 X163.95 Y155.594 E2.91028
G1 X164.295 Y156.027 E2.93132
G1 X164.68 Y156.424 E2.95236
G1 X165.102 Y156.783 E2.97339
G1 X165.556 Y157.099 E2.99443
G1 X166.038 Y157.371 E3.01547
G1 X166.544 Y157.595 E3.0365
G1 X167.069 Y157.769 E3.05754
G1 X167.609 Y157.892 E3.07857
G1 X168.158 Y157.963 E3.09961
G1 X168.711 Y157.981 E3.12065
G1 X169.264 Y157.945 E3.14168
G1 X169.81 Y157.857 E3.16272
G1 X170.345 Y157.717 E3.18376
G1 X170.865 Y157.525 E3.20479
G1 X171.363 Y157.285 E3.22583
G1 X171.837 Y156.998 E3.24687
G1 X172.28 Y156.667 E3.2679
G1 X172.433 Y156.528 E3.27575
G1 X174.053 Y156.514 E3.33732
G1 X173.578 Y157.041 E3.3643
G1 X173.203 Y157.4 E3.38403
G1 X172.801 Y157.729 E3.40376
G1 X172.377 Y158.027 E3.42349
G1 X171.931 Y158.293 E3.44322
G1 X171.466 Y158.524 E3.46295
G1 X170.985 Y158.72 E3.48269
G1 X170.491 Y158.88 E3.50242
G1 X169.986 Y159.001 E3.52215
G1 X169.474 Y159.085 E3.54188
G1 X168.957 Y159.13 E3.56161
G1 X168.437 Y159.136 E3.58134
G1 X167.919 Y159.103 E3.60107
G1 X167.405 Y159.031 E3.62081
G1 X166.898 Y158.921 E3.64054
G1 X166.4 Y158.773 E3.66027
G1 X165.915 Y158.588 E3.68
G1 X165.445 Y158.367 E3.69973
G1 X164.993 Y158.112 E3.71946
G1 X164.562 Y157.823 E3.73919
G1 X164.153 Y157.503 E3.75892
G1 X163.77 Y157.153 E3.77866
G1 X163.154 Y156.5 E3.81278
G1 X149.148 Y156.5 E4.34509
G1 X148.949 Y156.485 E4.35265
G1 X148.783 Y156.449 E4.35911
G1 X148.475 Y156.309 E4.37199
G1 X148.219 Y156.087 E4.38487
G1 X148.036 Y155.801 E4.39775
