; generated by SuperSlicer 2.5.59 on 2023-01-29 at 21:42:53 UTC


;
;

;
;
; 

; external perimeters extrusion width = 0.40mm
; perimeters extrusion width = 0.46mm
; infill extrusion width = 0.64mm
; solid infill extrusion width = 0.56mm
; top infill extrusion width = 0.40mm
; support material extrusion width = 0.46mm
; first layer extrusion width = 0.50mm

; external perimeters extrusion width = 0.40mm
; perimeters extrusion width = 0.46mm
; infill extrusion width = 0.64mm
; solid infill extrusion width = 0.56mm
; top infill extrusion width = 0.40mm
; support material extrusion width = 0.46mm
; first layer extrusion width = 0.50mm

; external perimeters extrusion width = 0.40mm
; perimeters extrusion width = 0.46mm
; infill extrusion width = 0.64mm
; solid infill extrusion width = 0.56mm
; top infill extrusion width = 0.40mm
; support material extrusion width = 0.46mm
; first layer extrusion width = 0.50mm

; external perimeters extrusion width = 0.40mm
; perimeters extrusion width = 0.46mm
; infill extrusion width = 0.64mm
; solid infill extrusion width = 0.56mm
; top infill extrusion width = 0.40mm
; support material extrusion width = 0.46mm
; first layer extrusion width = 0.50mm

; object:{"name":"Super8_Reel_Adapter","id":"Super8_Reel_Adapter.stl id:0 copy 0","object_center":[152.100068,177.875186,0.000000],"boundingbox_center":[152.100068,177.875186,6.187500],"boundingbox_size":[19.799564,19.750372,12.375000]}
; object:{"name":"Super8_Reel_Adapter","id":"Super8_Reel_Adapter.stl id:1 copy 0","object_center":[152.100068,152.124814,0.000000],"boundingbox_center":[152.100068,152.124814,6.187500],"boundingbox_size":[19.799564,19.750372,12.375000]}
; object:{"name":"Super8_Reel_Adapter","id":"Super8_Reel_Adapter.stl id:2 copy 0","object_center":[177.899932,177.875186,0.000000],"boundingbox_center":[177.899932,177.875186,6.187500],"boundingbox_size":[19.799564,19.750372,12.375000]}
; object:{"name":"Super8_Reel_Adapter","id":"Super8_Reel_Adapter.stl id:3 copy 0","object_center":[177.899933,152.124814,0.000000],"boundingbox_center":[177.899933,152.124814,6.187500],"boundingbox_size":[19.799564,19.750372,12.375000]}
; plater:{"center":[165.000000,165.000000,0.000000],"boundingbox_center":[165.000000,165.000000,6.187500],"boundingbox_size":[45.599429,45.500744,12.375000]}

M73 P0 R24


; Pre-Processed for Cancel-Object support by preprocess_cancellation v0.2.0
; 4 known objects
EXCLUDE_OBJECT_DEFINE NAME=Super8_Reel_Adapter_stl_id_0_copy_0 CENTER=152.125,177.545 POLYGON=[[142.407,168.209],[142.407,187.519],[161.8,187.519],[161.8,168.209]]
EXCLUDE_OBJECT_DEFINE NAME=Super8_Reel_Adapter_stl_id_1_copy_0 CENTER=152.133,151.795 POLYGON=[[142.407,142.459],[142.407,161.769],[161.8,161.769],[161.8,142.459]]
EXCLUDE_OBJECT_DEFINE NAME=Super8_Reel_Adapter_stl_id_3_copy_0 CENTER=177.933,151.795 POLYGON=[[168.207,142.459],[168.207,161.769],[187.6,161.769],[187.6,142.459]]
EXCLUDE_OBJECT_DEFINE NAME=Super8_Reel_Adapter_stl_id_2_copy_0 CENTER=177.925,177.545 POLYGON=[[168.207,168.209],[168.207,187.519],[187.6,187.519],[187.6,168.209]]
;TYPE:Custom
; custom gcode: start_gcode
START_PRINT T_BED=60 T_EXTRUDER=200
; custom gcode end: start_gcode
M107
G21 ; set units to millimeters
G90 ; use absolute coordinates
M82 ; use absolute distances for extrusion
G92 E0
; custom gcode: start_filament_gcode
; Filament gcode

    PRESSURE_ADVANCE_SELECT FILAMENT=PLA
; custom gcode end: start_filament_gcode
;_TOOLCHANGE 0
M104 S200 ; set temperature
M109 S200 ; set temperature and wait for it to be reached
M190 S60 ; set bed temperature and wait for it to be reached
;LAYER_CHANGE
;Z:0.2
;HEIGHT:0.2
G1 Z0.2 F9000
M73 P0 R24
G1 E-0.8 F3000
M204 S1000
G1 X142.547 Y141.929 F9000
G1 E0 F1800
;TYPE:Skirt
;WIDTH:0.52
G1 X141.475 Y143.046 E0.05775
G1 X140.569 Y144.228 E0.11328
G1 X139.528 Y146.012 E0.1903
G1 X138.945 Y147.383 E0.24583
G1 X138.42 Y149.222 E0.31713
G1 X138.138 Y151.267 E0.39415
G1 X138.114 Y178.261 E1.4007
G1 X138.196 Y179.445 E1.44499
G1 X138.459 Y181.003 E1.50387
G1 X138.779 Y182.175 E1.54919
G1 X139.331 Y183.622 E1.60693
G1 X140.014 Y184.945 E1.66247
G1 X140.671 Y185.968 E1.70779
G1 X141.983 Y187.562 E1.7848
G1 X143.066 Y188.585 E1.84033
G1 X144.304 Y189.516 E1.89808
G1 X145.959 Y190.472 E1.96938
G1 X147.331 Y191.052 E2.02492
G1 X149.32 Y191.611 E2.10193
G1 X151.01 Y191.828 E2.16549
G1 X179.59 Y191.784 E3.23121
G1 X181.509 Y191.416 E3.30408
G1 X182.669 Y191.052 E3.3494
G1 X184.12 Y190.431 E3.40828
G1 X185.185 Y189.844 E3.4536
G1 X186.194 Y189.166 E3.49892
G1 X187.762 Y187.823 E3.57593
G1 X188.817 Y186.648 E3.63481
G1 X189.535 Y185.667 E3.68013
G1 X190.552 Y183.87 E3.75714
G1 X191.144 Y182.406 E3.81602
G1 X191.663 Y180.407 E3.89303
G1 X191.858 Y178.84 E3.95192
G1 X191.892 Y152.084 E4.94965
G1 X191.782 Y150.42 E5.01182
G1 X191.499 Y148.866 E5.0707
G1 X191.055 Y147.383 E5.12845
G1 X190.627 Y146.342 E5.17042
G1 X190.075 Y145.259 E5.21574
G1 X189.431 Y144.228 E5.26105
G1 X188.245 Y142.729 E5.33236
G1 X186.529 Y141.138 E5.41961
G1 X184.71 Y139.929 E5.50107
G1 X182.835 Y139.059 E5.57812
G1 X180.737 Y138.451 E5.65957
G1 X178.689 Y138.182 E5.73659
G1 X151.674 Y138.166 E6.74396
M73 P1 R24
G1 X150.101 Y138.303 E6.80284
G1 X148.907 Y138.529 E6.84816
G1 X147.421 Y138.963 E6.9059
G1 X146.046 Y139.537 E6.96144
G1 X144.975 Y140.11 E7.00676
G1 X143.686 Y140.97 E7.0645
G1 X142.547 Y141.929 E7.12004
G1 X142.883 Y142.268 F9000
G1 F1800
G1 X141.832 Y143.362 E7.17663
G1 X140.97 Y144.486 E7.22946
G1 X139.95 Y146.235 E7.30493
G1 X139.396 Y147.539 E7.35776
G1 X138.889 Y149.307 E7.42636
G1 X138.613 Y151.312 E7.50183
G1 X138.591 Y178.261 E8.50672
G1 X138.671 Y179.407 E8.54958
G1 X138.92 Y180.883 E8.60537
G1 X139.229 Y182.015 E8.64915
G1 X139.77 Y183.433 E8.70573
G1 X140.418 Y184.693 E8.75857
G1 X141.052 Y185.681 E8.80234
G1 X142.338 Y187.244 E8.87781
G1 X143.369 Y188.216 E8.93064
G1 X144.581 Y189.128 E8.98723
G1 X146.175 Y190.047 E9.05583
G1 X147.48 Y190.599 E9.10866
G1 X149.429 Y191.146 E9.18413
G1 X151.01 Y191.35 E9.24359
G1 X179.522 Y191.312 E10.30677
G1 X181.4 Y190.952 E10.37809
G1 X182.52 Y190.599 E10.42187
G1 X183.895 Y190.01 E10.47766
G1 X184.924 Y189.444 E10.52144
G1 X185.899 Y188.791 E10.56521
G1 X187.436 Y187.474 E10.64067
G1 X188.436 Y186.361 E10.69647
G1 X189.131 Y185.415 E10.74024
G1 X190.127 Y183.653 E10.81571
G1 X190.688 Y182.266 E10.8715
G1 X191.197 Y180.307 E10.94697
G1 X191.381 Y178.822 E11.00277
G1 X191.415 Y152.084 E11.99984
G1 X191.307 Y150.464 E12.06035
G1 X191.111 Y149.307 E12.10412
G1 X190.517 Y147.312 E12.18172
G1 X189.49 Y145.203 E12.26922
G1 X188.168 Y143.362 E12.35374
G1 X186.878 Y142.05 E12.42234
G1 X186.032 Y141.355 E12.46315
G1 X184.77 Y140.513 E12.51973
G1 X182.653 Y139.5 E12.60724
G1 X180.655 Y138.92 E12.68484
G1 X178.648 Y138.657 E12.76031
G1 X151.674 Y138.643 E13.76613
G1 X150.184 Y138.773 E13.82193
G1 X149.03 Y138.99 E13.8657
G1 X147.573 Y139.415 E13.92228
G1 X146.266 Y139.961 E13.97512
G1 X145.23 Y140.513 E14.01889
G1 X143.968 Y141.355 E14.07548
G1 X142.883 Y142.268 E14.12831
G1 X143.22 Y142.606 F9000
G1 F1800
G1 X142.19 Y143.678 E14.18374
G1 X141.371 Y144.744 E14.23387
G1 X140.373 Y146.457 E14.30779
G1 X139.847 Y147.694 E14.35792
G1 X139.359 Y149.393 E14.42382
G1 X139.088 Y151.357 E14.49774
G1 X139.079 Y178.52 E15.51066
G1 X139.323 Y180.488 E15.58458
G1 X139.596 Y181.587 E15.62681
G1 X140.041 Y182.856 E15.67694
G1 X140.823 Y184.44 E15.74284
G1 X141.433 Y185.394 E15.78507
G1 X142.693 Y186.925 E15.85899
G1 X143.671 Y187.847 E15.90912
G1 X144.859 Y188.74 E15.96455
G1 X146.391 Y189.622 E16.03045
G1 X147.629 Y190.145 E16.08058
G1 X149.538 Y190.682 E16.1545
G1 X151.01 Y190.873 E16.20987
G1 X179.453 Y190.84 E17.2705
G1 X181.291 Y190.487 E17.34028
G1 X182.371 Y190.145 E17.38251
G1 X183.67 Y189.589 E17.43521
G1 X184.663 Y189.045 E17.47745
G1 X185.605 Y188.416 E17.51967
G1 X187.11 Y187.126 E17.59359
G1 X188.055 Y186.074 E17.6463
G1 X188.726 Y185.162 E17.68853
G1 X189.702 Y183.437 E17.76245
G1 X190.232 Y182.126 E17.81516
G1 X190.73 Y180.208 E17.88908
G1 X190.905 Y178.805 E17.94178
G1 X190.938 Y152.084 E18.9382
G1 X190.832 Y150.509 E18.99705
G1 X190.641 Y149.393 E19.03928
G1 X190.078 Y147.497 E19.11302
G1 X189.089 Y145.461 E19.19744
G1 X187.945 Y143.84 E19.2714
G1 X186.572 Y142.417 E19.34514
G1 X185.751 Y141.741 E19.38479
G1 X184.515 Y140.916 E19.44022
G1 X182.471 Y139.941 E19.52464
G1 X180.572 Y139.39 E19.59838
G1 X178.607 Y139.133 E19.6723
G1 X151.674 Y139.12 E20.67658
M73 P1 R24
G1 X150.266 Y139.243 E20.72929
G1 X149.153 Y139.451 E20.77152
G1 X147.726 Y139.867 E20.82695
G1 X146.485 Y140.385 E20.87708
G1 X145.485 Y140.916 E20.91931
G1 X144.249 Y141.741 E20.97473
G1 X143.22 Y142.606 E21.02486
G92 E0
G1 E-0.8 F3000
; printing object Super8_Reel_Adapter.stl id:0 copy 0
EXCLUDE_OBJECT_START NAME=Super8_Reel_Adapter_stl_id_0_copy_0
; acceleration to travel
M204 S3000
G1 X151.571 Y175.331 F9000
; decel to extrusion
M204 S1000
G1 X154.354 Y186.24
; end travel
G1 E0 F1800
;TYPE:Internal perimeter
;WIDTH:0.5
G1 X154.354 Y182.665 E0.12772
G1 X154.865 Y182.393 E0.14839
G1 X155.255 Y182.127 E0.16526
G1 X155.611 Y181.837 E0.18165
G1 X155.939 Y181.517 E0.19804
G1 X156.248 Y181.159 E0.21492
G1 X156.623 Y180.616 E0.23851
G1 X156.847 Y180.2 E0.25538
G1 X157.029 Y179.779 E0.27177
G1 X157.178 Y179.33 E0.28865
G1 X157.317 Y178.685 E0.31224
G1 X157.365 Y178.215 E0.32912
G1 X157.373 Y177.743 E0.346
G1 X157.312 Y177.085 E0.36959
G1 X157.215 Y176.609 E0.38696
G1 X157.009 Y175.967 E0.41104
G1 X156.716 Y175.344 E0.43562
G1 X156.344 Y174.766 E0.46019
G1 X155.909 Y174.25 E0.48428
G1 X155.557 Y173.915 E0.50165
G1 X155.021 Y173.506 E0.52573
G1 X154.425 Y173.163 E0.55031
G1 X153.789 Y172.901 E0.57489
G1 X153.124 Y172.724 E0.59946
G1 X152.442 Y172.635 E0.62404
G1 X151.754 Y172.635 E0.64862
G1 X151.072 Y172.725 E0.67319
G1 X150.408 Y172.902 E0.69777
G1 X149.772 Y173.165 E0.72235
G1 X149.188 Y173.501 E0.74643
G1 X148.795 Y173.788 E0.7638
G1 X148.297 Y174.243 E0.78788
G1 X147.854 Y174.768 E0.81246
G1 X147.482 Y175.348 E0.83703
G1 X147.195 Y175.958 E0.86112
G1 X147.037 Y176.417 E0.87849
G1 X146.889 Y177.075 E0.90257
G1 X146.826 Y177.76 E0.92715
G1 X146.852 Y178.434 E0.95124
G1 X146.921 Y178.901 E0.96811
G1 X147.031 Y179.36 E0.98499
G1 X147.253 Y179.982 E1.00858
G1 X147.459 Y180.407 E1.02546
G1 X147.702 Y180.813 E1.04234
G1 X148.108 Y181.35 E1.06642
G1 X148.581 Y181.831 E1.09051
G1 X148.948 Y182.129 E1.10738
G1 X149.338 Y182.395 E1.12426
G1 X149.846 Y182.664 E1.1448
G1 X149.846 Y186.24 E1.27252
G1 X149.051 Y185.979 E1.3024
G1 X148.349 Y185.678 E1.32969
G1 X148.039 Y185.521 E1.34211
G1 X147.382 Y185.132 E1.3694
G1 X146.761 Y184.687 E1.39669
G1 X146.492 Y184.466 E1.40911
G1 X145.934 Y183.945 E1.4364
G1 X145.433 Y183.387 E1.4632
G1 X144.982 Y182.787 E1.49
G1 X144.584 Y182.151 E1.51679
G1 X144.237 Y181.47 E1.54408
G1 X144.1 Y181.151 E1.5565
G1 X143.845 Y180.431 E1.58379
G1 X143.656 Y179.705 E1.61059
G1 X143.531 Y178.965 E1.63739
G1 X143.471 Y178.218 E1.66419
G1 X143.476 Y177.468 E1.69099
G1 X143.546 Y176.721 E1.71778
G1 X143.681 Y175.983 E1.74458
G1 X143.883 Y175.246 E1.77187
G1 X143.996 Y174.918 E1.78429
G1 X144.292 Y174.213 E1.81158
G1 X144.641 Y173.55 E1.83838
G1 X145.047 Y172.919 E1.86518
G1 X145.514 Y172.315 E1.89247
G1 X145.745 Y172.054 E1.90489
G1 X146.287 Y171.516 E1.93218
G1 X146.873 Y171.026 E1.95947
G1 X147.154 Y170.822 E1.97189
G1 X147.799 Y170.413 E1.99918
G1 X148.465 Y170.068 E2.02597
G1 X149.172 Y169.776 E2.05326
G1 X149.501 Y169.665 E2.06569
G1 X150.239 Y169.468 E2.09297
G1 X150.978 Y169.339 E2.11977
G1 X151.725 Y169.274 E2.14657
G1 X152.475 Y169.274 E2.17337
G1 X152.849 Y169.306 E2.18677
G1 X153.222 Y169.339 E2.20017
G1 X153.961 Y169.468 E2.22696
G1 X154.699 Y169.665 E2.25425
G1 X155.029 Y169.776 E2.26667
G1 X155.735 Y170.068 E2.29396
G1 X156.401 Y170.413 E2.32076
G1 X157.046 Y170.822 E2.34805
G1 X157.327 Y171.026 E2.36047
G1 X157.914 Y171.516 E2.38776
G1 X158.455 Y172.054 E2.41505
G1 X158.686 Y172.315 E2.42747
G1 X159.153 Y172.919 E2.45476
G1 X159.559 Y173.55 E2.48156
G1 X159.908 Y174.213 E2.50836
G1 X160.204 Y174.918 E2.53565
G1 X160.317 Y175.246 E2.54807
G1 X160.519 Y175.983 E2.57536
G1 X160.654 Y176.721 E2.60216
G1 X160.725 Y177.481 E2.62945
G1 X160.735 Y177.829 E2.64187
G1 X160.707 Y178.592 E2.66916
G1 X160.614 Y179.337 E2.69595
G1 X160.458 Y180.07 E2.72275
G1 X160.238 Y180.787 E2.74955
G1 X159.956 Y181.483 E2.77635
G1 X159.616 Y182.151 E2.80315
G1 X159.219 Y182.787 E2.82994
G1 X158.767 Y183.387 E2.85674
G1 X158.266 Y183.945 E2.88354
G1 X157.718 Y184.457 E2.91034
G1 X157.128 Y184.92 E2.93713
G1 X156.5 Y185.33 E2.96393
G1 X155.838 Y185.683 E2.99073
G1 X155.149 Y185.979 E3.01753
G1 X154.354 Y186.24 E3.04741
G1 X153.897 Y186.809 F9000
G1 F1800
G1 X153.897 Y182.361 E3.2063
G1 X154.085 Y182.29 E3.21349
G1 X154.628 Y182.001 E3.23546
G1 X154.982 Y181.76 E3.25074
G1 X155.306 Y181.495 E3.2657
G1 X155.606 Y181.203 E3.28067
G1 X155.886 Y180.88 E3.29595
G1 X156.232 Y180.377 E3.31776
G1 X156.435 Y180 E3.33304
G1 X156.601 Y179.616 E3.34801
G1 X156.736 Y179.21 E3.36329
G1 X156.865 Y178.613 E3.3851
G1 X156.909 Y178.188 E3.40038
G1 X156.916 Y177.76 E3.41566
G1 X156.859 Y177.152 E3.43747
G1 X156.772 Y176.724 E3.45306
G1 X156.583 Y176.134 E3.47519
G1 X156.315 Y175.566 E3.49764
G1 X155.976 Y175.038 E3.52008
G1 X155.576 Y174.564 E3.54221
G1 X155.26 Y174.263 E3.5578
G1 X154.768 Y173.888 E3.57993
G1 X154.223 Y173.575 E3.60237
G1 X153.642 Y173.335 E3.62481
G1 X153.035 Y173.173 E3.64726
G1 X152.412 Y173.092 E3.6697
G1 X151.784 Y173.092 E3.69214
G1 X151.161 Y173.174 E3.71459
G1 X150.555 Y173.336 E3.73703
G1 X149.974 Y173.576 E3.75947
G1 X149.437 Y173.885 E3.7816
G1 X149.085 Y174.143 E3.79719
G1 X148.627 Y174.56 E3.81932
G1 X148.222 Y175.04 E3.84176
G1 X147.883 Y175.569 E3.86421
G1 X147.619 Y176.13 E3.88634
G1 X147.478 Y176.542 E3.90193
G1 X147.341 Y177.147 E3.92406
G1 X147.283 Y177.772 E3.9465
G1 X147.307 Y178.391 E3.96863
G1 X147.37 Y178.814 E3.98391
G1 X147.47 Y179.23 E3.99919
G1 X147.675 Y179.805 E4.021
G1 X147.862 Y180.19 E4.03628
G1 X148.081 Y180.557 E4.05156
G1 X148.455 Y181.051 E4.07369
G1 X148.89 Y181.492 E4.09582
G1 X149.221 Y181.762 E4.11109
G1 X149.575 Y182.003 E4.12637
G1 X150.118 Y182.291 E4.14834
G1 X150.303 Y182.361 E4.15542
G1 X150.303 Y186.809 E4.3143
G1 X149.64 Y186.653 E4.33862
G1 X148.89 Y186.407 E4.36684
G1 X148.156 Y186.092 E4.39537
G1 X147.819 Y185.922 E4.40886
G1 X147.132 Y185.515 E4.43739
G1 X146.483 Y185.05 E4.46592
G1 X146.191 Y184.81 E4.47941
G1 X145.607 Y184.265 E4.50794
G1 X145.079 Y183.677 E4.53616
G1 X144.604 Y183.046 E4.56438
G1 X144.186 Y182.376 E4.59259
G1 X143.823 Y181.665 E4.62113
G1 X143.674 Y181.318 E4.63461
G1 X143.407 Y180.565 E4.66314
G1 X143.209 Y179.801 E4.69136
G1 X143.077 Y179.022 E4.71958
G1 X143.014 Y178.235 E4.7478
G1 X143.019 Y177.445 E4.77601
G1 X143.093 Y176.658 E4.80423
G1 X143.235 Y175.881 E4.83245
G1 X143.446 Y175.111 E4.86098
G1 X143.569 Y174.754 E4.87447
G1 X143.878 Y174.018 E4.903
G1 X144.246 Y173.319 E4.93122
G1 X144.673 Y172.655 E4.95944
G1 X145.162 Y172.023 E4.98797
G1 X145.412 Y171.74 E5.00145
G1 X145.979 Y171.177 E5.02998
G1 X146.592 Y170.666 E5.05852
G1 X146.897 Y170.443 E5.072
G1 X147.571 Y170.016 E5.10053
G1 X148.273 Y169.653 E5.12875
G1 X149.011 Y169.348 E5.15728
G1 X149.369 Y169.227 E5.17077
G1 X150.14 Y169.022 E5.1993
G1 X150.918 Y168.885 E5.22752
G1 X151.705 Y168.816 E5.25574
G1 X152.495 Y168.816 E5.28395
G1 X152.888 Y168.851 E5.29806
G1 X153.282 Y168.885 E5.31217
G1 X154.06 Y169.022 E5.34039
G1 X154.831 Y169.227 E5.36892
G1 X155.189 Y169.348 E5.38241
G1 X155.927 Y169.653 E5.41094
G1 X156.629 Y170.016 E5.43916
G1 X157.303 Y170.443 E5.46769
G1 X157.608 Y170.666 E5.48117
G1 X158.222 Y171.177 E5.50971
G1 X158.788 Y171.74 E5.53824
G1 X159.038 Y172.023 E5.55172
G1 X159.527 Y172.655 E5.58025
G1 X159.954 Y173.319 E5.60847
G1 X160.322 Y174.018 E5.63669
G1 X160.631 Y174.754 E5.66522
G1 X160.754 Y175.111 E5.67871
G1 X160.965 Y175.881 E5.70724
G1 X161.107 Y176.658 E5.73546
G1 X161.182 Y177.454 E5.76399
G1 X161.192 Y177.831 E5.77747
G1 X161.163 Y178.629 E5.80601
G1 X161.065 Y179.413 E5.83422
