; generated by SuperSlicer 2.5.59 on 2023-02-25 at 06:47:33 UTC


;
;

;
;
; 

; external perimeters extrusion width = 0.40mm
; perimeters extrusion width = 0.46mm
; infill extrusion width = 0.64mm
; solid infill extrusion width = 0.56mm
; top infill extrusion width = 0.40mm
; support material extrusion width = 0.46mm
; first layer extrusion width = 0.50mm

; object:{"name":"support_test_piece","id":"support_test_piece.stl id:0 copy 0","object_center":[165.000000,165.000000,0.000000],"boundingbox_center":[165.000000,165.000000,6.000000],"boundingbox_size":[35.000000,30.000000,12.000000]}
; plater:{"center":[165.000000,165.000000,0.000000],"boundingbox_center":[165.000000,165.000000,6.000000],"boundingbox_size":[35.000000,30.000000,12.000000]}

M73 P0 R28


; Pre-Processed for Cancel-Object support by preprocess_cancellation v0.2.0
; 1 known objects
EXCLUDE_OBJECT_DEFINE NAME=support_test_piece_stl_id_0_copy_0 CENTER=168.910,163.229 POLYGON=[[144.979,147.479],[144.979,182.521],[185.021,182.521],[185.021,147.479]]
;TYPE:Custom
; custom gcode: start_gcode
START_PRINT T_BED=70 T_EXTRUDER=255
; custom gcode end: start_gcode
M107
G21 ; set units to millimeters
G90 ; use absolute coordinates
M82 ; use absolute distances for extrusion
G92 E0
; custom gcode: start_filament_gcode
; Filament gcode
PRESSURE_ADVANCE_SELECT FILAMENT=PETG
; custom gcode end: start_filament_gcode
;_TOOLCHANGE 0
M104 S255 ; set temperature
M109 S255 ; set temperature and wait for it to be reached
M190 S70 ; set bed temperature and wait for it to be reached
;LAYER_CHANGE
;Z:0.2
;HEIGHT:0.2
G1 Z0.2 F9000
M73 P0 R28
G1 E-1 F3000
M204 S1000
G1 X142.292 Y144.259 F9000
G1 E0 F1800
;TYPE:Skirt
;WIDTH:0.52
G1 X141.181 Y145.702 E0.07222
G1 X140.786 Y147.479 E0.14443
G1 X140.786 Y182.402 E1.52984
M73 P0 R28
G1 X140.918 Y183.447 E1.57161
G1 X141.744 Y185.07 E1.64383
G1 X143.179 Y186.189 E1.71604
G1 X144.954 Y186.595 E1.78826
G1 X165.187 Y186.714 E2.59092
G1 X185.021 Y186.714 E3.37773
G1 X186.09 Y186.576 E3.42048
G1 X187.708 Y185.741 E3.4927
G1 X188.819 Y184.299 E3.56491
G1 X189.214 Y182.521 E3.63713
G1 X189.174 Y168.433 E4.19602
G1 X186.553 Y149.524 E4.95328
G1 X185.979 Y147.917 E5.02098
G1 X184.717 Y146.606 E5.0932
G1 X183.017 Y145.953 E5.16542
G1 X165.405 Y143.332 E5.87177
G1 X144.979 Y143.286 E6.68209
G1 X143.91 Y143.424 E6.72483
G1 X142.292 Y144.259 E6.79705
G1 X142.684 Y144.588 F9000
G1 F1800
G1 X141.658 Y145.812 E6.86043
G1 X141.263 Y147.479 E6.92836
G1 X141.263 Y182.402 E8.31377
G1 X141.987 Y184.606 E8.40577
G1 X143.293 Y185.713 E8.4737
G1 X144.957 Y186.118 E8.54163
G1 X165.19 Y186.237 E9.34429
G1 X185.021 Y186.237 E10.13099
G1 X187.242 Y185.5 E10.22381
G1 X188.342 Y184.188 E10.29175
G1 X188.737 Y182.521 E10.35968
G1 X188.702 Y168.498 E10.91597
G1 X186.08 Y149.59 E11.67323
G1 X185.673 Y148.342 E11.72531
G1 X184.537 Y147.061 E11.79324
G1 X182.947 Y146.425 E11.86117
M73 P1 R28
G1 X165.335 Y143.803 E12.56752
G1 X144.979 Y143.763 E13.37505
G1 X142.758 Y144.5 E13.46788
G1 X142.684 Y144.588 E13.47243
G1 X143.058 Y144.934 F9000
G1 F1800
G1 X142.134 Y145.931 E13.52634
G1 X141.74 Y147.479 E13.5897
G1 X141.74 Y182.402 E14.9751
G1 X142.249 Y184.145 E15.04713
G1 X143.414 Y185.238 E15.11048
G1 X144.959 Y185.641 E15.17384
G1 X165.193 Y185.76 E15.9765
G1 X185.021 Y185.76 E16.76309
G1 X186.78 Y185.241 E16.83584
G1 X187.866 Y184.069 E16.8992
G1 X188.26 Y182.521 E16.96256
G1 X188.229 Y168.564 E17.51625
G1 X185.608 Y149.655 E18.27351
G1 X185.349 Y148.76 E18.31047
G1 X184.35 Y147.514 E18.37383
G1 X182.877 Y146.897 E18.43719
G1 X165.265 Y144.275 E19.14354
G1 X144.979 Y144.24 E19.94828
G1 X143.22 Y144.759 E20.02104
G1 X143.058 Y144.934 E20.03049
G92 E0
G1 E-1 F3000
; printing object support_test_piece.stl id:0 copy 0
EXCLUDE_OBJECT_START NAME=support_test_piece_stl_id_0_copy_0
; acceleration to travel
M204 S3000
G1 X146.561 Y162.016 F9000
; decel to extrusion
M204 S1000
G1 X147.728 Y167.71
; end travel
G1 E0 F1800
;TYPE:Support material interface
;WIDTH:0.5
G1 X147.984 Y167.71 E0.00971
G1 X162.038 Y167.71 E0.54386
G1 X162.038 Y168.33 E0.56743
G1 X147.728 Y168.33 E1.11129
G1 X147.728 Y167.71 E1.13487
G1 X147.021 Y167.71 F9000
;TYPE:Support material
G1 F1800
G1 X147.021 Y169.038 E1.18532
G1 X161.821 Y169.038 E1.74782
G1 X161.821 Y180.222 E2.17292
G1 X162.278 Y180.679 E2.19743
G1 X167.722 Y180.679 E2.40437
G1 X168.179 Y180.222 E2.42889
G1 X168.179 Y169.009 E2.85505
G1 X185.021 Y169.008 E3.49519
G1 X185.021 Y182.521 E4.00877
G1 X165.212 Y182.521 E4.76166
G1 X165.212 Y182.402 E4.76619
G1 X144.979 Y182.402 E5.53518
G1 X144.979 Y179.643 E5.64007
G1 X144.979 Y164.778 E6.20504
G1 X144.979 Y147.479 E6.8625
G1 X164.788 Y147.479 E7.61539
G1 X164.788 Y149.321 E7.68543
G1 X162.278 Y149.321 E7.78085
G1 X161.821 Y149.778 E7.80536
G1 X161.821 Y164.321 E8.35812
G1 X147.278 Y164.321 E8.91088
G1 X146.821 Y164.778 E8.9354
G1 X146.821 Y167.232 E9.0287
G1 X147.021 Y167.432 E9.03943
G1 X147.021 Y167.71 E9.05
G92 E0
G1 E-1 F3000
; acceleration to travel
M204 S3000
G1 X174.979 Y178.733 F9000
; decel to extrusion
M204 S1000
M73 P2 R28
G1 X184.299 Y182.407
; end travel
G1 E0 F1800
G1 X184.299 Y169.319 E0.49742
G1 X183.791 Y169.319 E0.51672
G1 X183.791 Y182.211 E1.00667
G1 X183.283 Y182.211 E1.02597
G1 X183.283 Y169.319 E1.51592
G1 X182.775 Y169.319 E1.53523
G1 X182.775 Y182.211 E2.02517
G1 X182.267 Y182.211 E2.04447
G1 X182.267 Y169.319 E2.53442
G1 X181.76 Y169.319 E2.55372
G1 X181.76 Y182.211 E3.04367
G1 X181.252 Y182.211 E3.06297
G1 X181.252 Y169.32 E3.55292
G1 X180.744 Y169.32 E3.57222
G1 X180.744 Y182.211 E4.06216
G1 X180.236 Y182.211 E4.08146
G1 X180.236 Y169.32 E4.57141
G1 X179.728 Y169.32 E4.59071
G1 X179.728 Y182.211 E5.08065
G1 X179.22 Y182.211 E5.09995
G1 X179.22 Y169.32 E5.58989
G1 X178.712 Y169.32 E5.60919
G1 X178.712 Y182.211 E6.09913
G1 X178.205 Y182.211 E6.11843
G1 X178.205 Y169.32 E6.60837
G1 X177.697 Y169.32 E6.62767
G1 X177.697 Y182.211 E7.11761
G1 X177.189 Y182.211 E7.13691
G1 X177.189 Y169.32 E7.62685
G1 X176.681 Y169.32 E7.64615
G1 X176.681 Y182.211 E8.13609
G1 X176.173 Y182.211 E8.15539
G1 X176.173 Y169.32 E8.64532
G1 X175.665 Y169.32 E8.66462
G1 X175.665 Y182.211 E9.15456
G1 X175.157 Y182.211 E9.17386
G1 X175.157 Y169.32 E9.66379
G1 X174.649 Y169.32 E9.68309
G1 X174.649 Y182.211 E10.17302
G1 X174.142 Y182.211 E10.19233
G1 X174.142 Y169.32 E10.68226
G1 X173.634 Y169.32 E10.70156
G1 X173.634 Y182.211 E11.19149
G1 X173.126 Y182.211 E11.21079
G1 X173.126 Y169.32 E11.70072
G1 X172.618 Y169.32 E11.72002
G1 X172.618 Y182.211 E12.20994
G1 X172.11 Y182.211 E12.22925
G1 X172.11 Y169.32 E12.71917
G1 X171.602 Y169.32 E12.73847
G1 X171.602 Y182.211 E13.2284
G1 X171.094 Y182.211 E13.2477
G1 X171.094 Y169.32 E13.73762
G1 X170.587 Y169.32 E13.75693
G1 X170.587 Y182.211 E14.24685
G1 X170.079 Y182.211 E14.26615
G1 X170.079 Y169.32 E14.75607
G1 X169.571 Y169.32 E14.77537
G1 X169.571 Y182.211 E15.26529
G1 X169.063 Y182.211 E15.2846
G1 X169.063 Y169.32 E15.77452
G1 X168.555 Y169.32 E15.79382
G1 X168.555 Y182.211 E16.28374
G1 X168.047 Y182.211 E16.30304
G1 X168.047 Y180.793 E16.3569
G1 X167.851 Y180.989 E16.36744
G1 X167.539 Y180.989 E16.37929
G1 X167.539 Y182.211 E16.42571
G1 X167.031 Y182.211 E16.44501
G1 X167.031 Y180.989 E16.49143
G1 X166.524 Y180.989 E16.51073
G1 X166.524 Y182.211 E16.55714
G1 X166.016 Y182.211 E16.57645
G1 X166.016 Y180.989 E16.62286
G1 X165.508 Y180.989 E16.64217
G1 X165.508 Y182.091 E16.68405
M73 P3 R28
G1 X165 Y182.091 E16.70335
G1 X165 Y180.989 E16.74524
G1 X164.492 Y180.989 E16.76454
G1 X164.492 Y182.091 E16.80643
G1 X163.984 Y182.091 E16.82573
G1 X163.984 Y180.989 E16.86762
G1 X163.476 Y180.989 E16.88692
G1 X163.476 Y182.091 E16.92881
G1 X162.969 Y182.091 E16.94811
G1 X162.969 Y180.989 E16.99
G1 X162.461 Y180.989 E17.0093
G1 X162.461 Y182.091 E17.05119
G1 X161.953 Y182.091 E17.07049
G1 X161.953 Y180.793 E17.11983
G1 X161.511 Y180.351 E17.14359
G1 X161.511 Y169.348 E17.56177
G1 X161.445 Y169.348 E17.56427
G1 X161.445 Y182.091 E18.04859
G1 X160.937 Y182.091 E18.06789
G1 X160.937 Y169.348 E18.55221
G1 X160.429 Y169.348 E18.57151
G1 X160.429 Y182.091 E19.05583
G1 X159.921 Y182.091 E19.07513
G1 X159.921 Y169.348 E19.55945
G1 X159.413 Y169.348 E19.57875
G1 X159.413 Y182.091 E20.06307
G1 X158.906 Y182.091 E20.08237
G1 X158.906 Y169.348 E20.56669
G1 X158.398 Y169.348 E20.58599
G1 X158.398 Y182.091 E21.07031
G1 X157.89 Y182.091 E21.08961
G1 X157.89 Y169.348 E21.57393
G1 X157.382 Y169.348 E21.59323
G1 X157.382 Y182.091 E22.07755
G1 X156.874 Y182.091 E22.09685
G1 X156.874 Y169.348 E22.58117
G1 X156.366 Y169.348 E22.60047
G1 X156.366 Y182.091 E23.08479
G1 X155.858 Y182.091 E23.1041
G1 X155.858 Y169.348 E23.58841
G1 X155.351 Y169.348 E23.60772
G1 X155.351 Y182.091 E24.09203
G1 X154.843 Y182.091 E24.11134
G1 X154.843 Y169.348 E24.59566
G1 X154.335 Y169.348 E24.61496
G1 X154.335 Y182.091 E25.09928
G1 X153.827 Y182.091 E25.11858
G1 X153.827 Y169.348 E25.6029
G1 X153.319 Y169.348 E25.6222
G1 X153.319 Y182.091 E26.10652
G1 X152.811 Y182.091 E26.12582
G1 X152.811 Y169.348 E26.61014
G1 X152.303 Y169.348 E26.62944
G1 X152.303 Y182.091 E27.11376
G1 X151.795 Y182.091 E27.13306
G1 X151.795 Y169.348 E27.61738
G1 X151.288 Y169.348 E27.63668
G1 X151.288 Y182.091 E28.121
G1 X150.78 Y182.091 E28.1403
G1 X150.78 Y169.348 E28.62462
G1 X150.272 Y169.348 E28.64392
G1 X150.272 Y182.091 E29.12824
G1 X149.764 Y182.091 E29.14754
G1 X149.764 Y169.348 E29.63186
G1 X149.256 Y169.348 E29.65116
G1 X149.256 Y182.091 E30.13548
G1 X148.748 Y182.091 E30.15479
G1 X148.748 Y169.348 E30.6391
G1 X148.24 Y169.348 E30.65841
G1 X148.24 Y182.091 E31.14273
G1 X147.733 Y182.091 E31.16203
G1 X147.733 Y169.348 E31.64635
G1 X147.225 Y169.348 E31.66565
G1 X147.225 Y182.091 E32.14997
G1 X146.717 Y182.091 E32.16927
G1 X146.717 Y169.348 E32.65359
G1 X146.71 Y169.348 E32.65383
G1 X146.71 Y167.561 E32.72176
G1 X146.511 Y167.361 E32.7325
G1 X146.511 Y164.649 E32.83559
G1 X146.717 Y164.443 E32.84667
G1 X146.717 Y147.789 E33.4796
G1 X147.225 Y147.789 E33.4989
G1 X147.225 Y164.011 E34.11541
M73 P4 R27
G1 X147.733 Y164.011 E34.13471
G1 X147.733 Y147.789 E34.75122
G1 X148.24 Y147.789 E34.77053
G1 X148.24 Y164.011 E35.38704
G1 X148.748 Y164.011 E35.40634
G1 X148.748 Y147.789 E36.02285
G1 X149.256 Y147.789 E36.04215
G1 X149.256 Y164.011 E36.65866
M73 P4 R27
G1 X149.764 Y164.011 E36.67796
G1 X149.764 Y147.789 E37.29447
G1 X150.272 Y147.789 E37.31377
G1 X150.272 Y164.011 E37.93028
G1 X150.78 Y164.011 E37.94959
G1 X150.78 Y147.789 E38.5661
G1 X151.288 Y147.789 E38.5854
G1 X151.288 Y164.011 E39.20191
G1 X151.795 Y164.011 E39.22121
G1 X151.795 Y147.789 E39.83772
G1 X152.303 Y147.789 E39.85702
G1 X152.303 Y164.011 E40.47353
G1 X152.811 Y164.011 E40.49284
G1 X152.811 Y147.789 E41.10935
G1 X153.319 Y147.789 E41.12865
G1 X153.319 Y164.011 E41.74516
G1 X153.827 Y164.011 E41.76446
G1 X153.827 Y147.789 E42.38097
G1 X154.335 Y147.789 E42.40027
G1 X154.335 Y164.011 E43.01678
G1 X154.843 Y164.011 E43.03609
G1 X154.843 Y147.789 E43.6526
G1 X155.351 Y147.789 E43.6719
G1 X155.351 Y164.011 E44.28841
G1 X155.858 Y164.011 E44.30771
G1 X155.858 Y147.789 E44.92422
G1 X156.366 Y147.789 E44.94352
G1 X156.366 Y164.011 E45.56003
G1 X156.874 Y164.011 E45.57933
G1 X156.874 Y147.789 E46.19584
G1 X157.382 Y147.789 E46.21515
G1 X157.382 Y164.011 E46.83166
G1 X157.89 Y164.011 E46.85096
G1 X157.89 Y147.789 E47.46747
G1 X158.398 Y147.789 E47.48677
G1 X158.398 Y164.011 E48.10328
G1 X158.906 Y164.011 E48.12258
G1 X158.906 Y147.789 E48.73909
G1 X159.413 Y147.789 E48.7584
G1 X159.413 Y164.011 E49.37491
G1 X159.921 Y164.011 E49.39421
G1 X159.921 Y147.789 E50.01072
G1 X160.429 Y147.789 E50.03002
G1 X160.429 Y164.011 E50.64653
G1 X160.937 Y164.011 E50.66583
G1 X160.937 Y147.789 E51.28234
M73 P5 R27
G1 X161.445 Y147.789 E51.30165
G1 X161.445 Y164.011 E51.91816
G1 X161.511 Y164.011 E51.92065
G1 X161.511 Y149.649 E52.4665
G1 X161.953 Y149.207 E52.49026
G1 X161.953 Y147.789 E52.54412
G1 X162.461 Y147.789 E52.56343
G1 X162.461 Y149.011 E52.60984
G1 X162.969 Y149.011 E52.62914
G1 X162.969 Y147.789 E52.67556
G1 X163.476 Y147.789 E52.69486
G1 X163.476 Y149.011 E52.74128
G1 X163.984 Y149.011 E52.76058
G1 X163.984 Y147.593 E52.81446
G92 E0
G1 E-1 F3000
; acceleration to travel
M204 S3000
G1 X150.653 Y173.614 F9000
; decel to extrusion
M204 S1000
G1 X146.209 Y182.288
; end travel
G1 E0 F1800
G1 X146.209 Y147.789 E1.31117
G1 X145.701 Y147.789 E1.33047
G1 X145.701 Y182.288 E2.64163
G92 E0
G1 E-1 F3000
; acceleration to travel
M204 S3000
G1 X163.241 Y167.605 F9000
; decel to extrusion
M204 S1000
G1 X169.088 Y162.711
; end travel
G1 E0 F1800
G1 X168.874 Y162.428 E0.01349
G1 X168.638 Y162.06 E0.03011
G1 X168.449 Y161.696 E0.04569
G1 X168.329 Y161.422 E0.05705
G1 X168.237 Y161.144 E0.06819
G1 X168.147 Y160.871 E0.07911
G1 X168.095 Y160.629 E0.08854
G1 X168.045 Y160.393 E0.0977
G1 X168.038 Y160.311 E0.10082
G1 X168.012 Y159.991 E0.11301
G1 X167.98 Y159.592 E0.12825
G1 X167.995 Y159.329 E0.13824
G1 X168.005 Y159.142 E0.14538
G1 X168.01 Y159.062 E0.1484
G1 X168.069 Y158.732 E0.16115
G1 X168.127 Y158.408 E0.17368
G1 X168.236 Y158.074 E0.18702
G1 X168.249 Y158.034 E0.18862
G1 X168.345 Y157.741 E0.20035
G1 X168.361 Y157.708 E0.20172
G1 X168.492 Y157.441 E0.21304
G1 X168.565 Y157.291 E0.21939
G1 X168.642 Y157.135 E0.22599
G1 X168.649 Y157.124 E0.2265
G1 X168.771 Y156.935 E0.23505
G1 X168.907 Y156.725 E0.24453
G1 X169.124 Y156.445 E0.258
G1 X169.418 Y156.124 E0.27455
G1 X169.549 Y156.007 E0.28122
G1 X169.633 Y155.932 E0.28553
G1 X169.852 Y155.737 E0.29664
G1 X170.098 Y155.556 E0.30825
G1 X170.433 Y155.342 E0.32336
G1 X170.729 Y155.197 E0.33588
G1 X171.018 Y155.054 E0.34812
G1 X171.322 Y154.951 E0.36034
G1 X171.627 Y154.848 E0.37257
G1 X171.942 Y154.785 E0.38479
G1 X172.257 Y154.722 E0.39702
G1 X172.579 Y154.701 E0.40925
G1 X172.9 Y154.68 E0.42149
G1 X173.221 Y154.701 E0.43372
G1 X173.543 Y154.722 E0.44596
G1 X173.858 Y154.785 E0.45818
G1 X174.173 Y154.848 E0.47041
G1 X174.478 Y154.951 E0.48263
G1 X174.792 Y155.058 E0.49524
G1 X174.975 Y155.141 E0.50287
G1 X175.362 Y155.34 E0.51942
G1 X175.702 Y155.556 E0.53473
G1 X175.948 Y155.737 E0.54635
G1 X176.167 Y155.932 E0.55746
G1 X176.382 Y156.124 E0.56843
G1 X176.676 Y156.445 E0.58499
G1 X176.893 Y156.725 E0.59846
G1 X176.955 Y156.821 E0.60277
G1 X177.029 Y156.935 E0.60794
G1 X177.158 Y157.135 E0.61699
G1 X177.308 Y157.441 E0.62994
G1 X177.445 Y157.72 E0.64177
G1 X177.456 Y157.743 E0.64274
G1 X177.554 Y158.034 E0.6544
G1 X177.651 Y158.322 E0.66596
G1 X177.721 Y158.692 E0.68027
G1 X177.791 Y159.065 E0.69469
G1 X177.805 Y159.329 E0.70475
G1 X177.821 Y159.607 E0.7153
G1 X177.814 Y159.793 E0.72241
G1 X177.784 Y160.1 E0.73409
G1 X177.757 Y160.388 E0.74509
G1 X177.705 Y160.629 E0.75446
G1 X177.653 Y160.871 E0.76389
G1 X177.563 Y161.144 E0.77481
G1 X177.472 Y161.419 E0.78582
G1 X177.347 Y161.696 E0.79736
G1 X177.31 Y161.779 E0.80084
G1 X177.163 Y162.058 E0.81281
G1 X176.926 Y162.428 E0.82951
G1 X176.712 Y162.711 E0.843
G1 X176.544 Y162.897 E0.85252
G1 X176.453 Y162.997 E0.85766
G1 X176.38 Y163.078 E0.86181
G1 X176.183 Y163.255 E0.87186
G1 X175.986 Y163.432 E0.88194
G1 X175.811 Y163.56 E0.89019
G1 X175.627 Y163.694 E0.89884
G1 X175.551 Y163.742 E0.90226
G1 X175.368 Y163.857 E0.91044
G1 X175.071 Y164.003 E0.92303
G1 X174.782 Y164.146 E0.93527
G1 X174.478 Y164.249 E0.94749
G1 X174.403 Y164.274 E0.9505
G1 X174.173 Y164.352 E0.95971
G1 X173.858 Y164.415 E0.97194
G1 X173.543 Y164.478 E0.98416
G1 X173.221 Y164.499 E0.9964
G1 X172.9 Y164.52 E1.00863
G1 X172.579 Y164.499 E1.02087
G1 X172.257 Y164.478 E1.0331
G1 X171.942 Y164.415 E1.04533
G1 X171.627 Y164.352 E1.05755
G1 X171.322 Y164.249 E1.06977
G1 X171.018 Y164.146 E1.082
G1 X170.867 Y164.072 E1.08836
G1 X170.729 Y164.003 E1.09423
G1 X170.634 Y163.956 E1.09825
G1 X170.432 Y163.857 E1.10683
G1 X170.173 Y163.694 E1.11842
G1 X169.989 Y163.56 E1.12708
G1 X169.814 Y163.432 E1.13532
G1 X169.617 Y163.255 E1.1454
G1 X169.42 Y163.078 E1.15545
G1 X169.377 Y163.03 E1.15791
G1 X169.256 Y162.897 E1.16475
G1 X169.088 Y162.711 E1.17426
; acceleration to travel
M204 S3000
G1 X171.423 Y160.759 F9000
; decel to extrusion
