; HEADER_BLOCK_START
; generated by OrcaSlicer 1.6.2 on 2023-05-16 at 22:47:56
; total layer number: 75
; HEADER_BLOCK_END

; THUMBNAIL_BLOCK_START
; THUMBNAIL_BLOCK_END

; external perimeters extrusion width = 0.40mm
; perimeters extrusion width = 0.45mm
; infill extrusion width = 0.45mm
; solid infill extrusion width = 0.40mm
; top infill extrusion width = 0.40mm
; first layer extrusion width = 0.50mm

; EXECUTABLE_BLOCK_START
EXCLUDE_OBJECT_DEFINE NAME=swivel_hook(1).stl_id_0_copy_0 CENTER=165,165 POLYGON=[[137.25,164.25],[161.371,153.75],[173.25,149.25],[180,149.25],[192.75,164.25],[192.75,170.25],[172.5,180.75],[161.371,180.75],[137.25,170.25],[137.25,164.25]]
M73 P0 R23
;TYPE:Custom
START_PRINT T_BED=70 T_EXTRUDER=240
G90
G21
M83 ; use relative distances for extrusion
; filament start gcode
PRESSURE_ADVANCE_SELECT FILAMENT=PETG
M106 S0
;LAYER_CHANGE
;Z:0.2
;HEIGHT:0.2
SET_VELOCITY_LIMIT ACCEL_TO_DECEL=500
M204 S1000
G1 E-1 F3000
G1 Z.2 F9000
G1 X139.916 Y161.603
G1 E1 F1800
;TYPE:Skirt
;WIDTH:0.5
G1 F3000
G1 X162.731 Y151.103 E.9068
G1 X163.95 Y150.836 E.04503
G1 X172.5 Y150.836 E.30872
G1 X174.074 Y151.297 E.05921
G1 X190.439 Y161.797 E.70205
G1 X191.457 Y162.918 E.05465
G1 X191.779 Y164.25 E.0495
G1 X191.779 Y170.25 E.21664
G1 X191.386 Y171.712 E.05465
G1 X190.439 Y172.703 E.0495
G1 X174.074 Y183.203 E.70205
G1 X172.5 Y183.664 E.05921
G1 X163.95 Y183.664 E.30872
G1 X162.731 Y183.397 E.04503
G1 X139.916 Y172.897 E.9068
G1 X138.753 Y171.929 E.05465
G1 X138.221 Y170.25 E.0636
G1 X138.221 Y164.25 E.21664
G1 X138.614 Y162.788 E.05465
G1 X139.872 Y161.643 E.06143
G1 X140.108 Y162.018 F9000
G1 F3000
G1 X162.922 Y151.518 E.9068
G1 X163.95 Y151.293 E.03797
G1 X172.5 Y151.293 E.30872
G1 X173.827 Y151.682 E.04992
G1 X190.192 Y162.182 E.70205
G1 X191.101 Y163.231 E.0501
G1 X191.322 Y164.25 E.03766
G1 X191.322 Y170.25 E.21664
G1 X190.93 Y171.581 E.0501
G1 X190.192 Y172.318 E.03766
G1 X173.827 Y182.818 E.70205
G1 X172.5 Y183.207 E.04992
G1 X163.95 Y183.207 E.30872
G1 X162.922 Y182.982 E.03797
G1 X140.108 Y172.482 E.9068
G1 X139.062 Y171.57 E.0501
G1 X138.678 Y170.25 E.04962
G1 X138.678 Y164.25 E.21664
G1 X139.07 Y162.919 E.0501
G1 X140.062 Y162.057 E.04746
; printing object swivel_hook(1).stl id:0 copy 0
EXCLUDE_OBJECT_START NAME=swivel_hook(1).stl_id_0_copy_0
G1 E-1
G1 Z.4 F9000
G1 X179.799 Y169.086
G1 Z.2
G1 E1 F1800
;TYPE:Inner wall
;WIDTH:0.499999
G1 F3000
G1 X179.799 Y165.414 E.13257
G1 X187.701 Y165.414 E.28531
G1 X187.701 Y167.25 E.06628
G1 X187.701 Y169.086 E.06628
G1 X179.859 Y169.086 E.28314
G1 X179.342 Y169.543 F9000
G1 F3000
G1 X179.342 Y164.957 E.16558
G1 X188.158 Y164.957 E.31832
G1 X188.158 Y167.25 E.08279
G1 X188.158 Y169.543 E.08279
G1 X179.402 Y169.543 E.31615
G1 X178.885 Y170 F9000
;TYPE:Outer wall
G1 F3000
G1 X178.885 Y164.5 E.19858
G1 X188.615 Y164.5 E.35132
G1 X188.615 Y167.25 E.09929
G1 X188.615 Y170 E.09929
G1 X178.945 Y170 E.34916
G1 X178.918 Y169.927
G1 E-1
G1 Z.4 F9000
G1 X186.629 Y165.551
G1 Z.2
G1 E1 F1800
;TYPE:Bottom surface
;WIDTH:0.505315
G1 F6300
G1 X187.358 Y166.281 E.03769
G1 X187.358 Y166.935 E.02389
G1 X186.18 Y165.757 E.06084
G1 X185.527 Y165.757 E.02389
G1 X187.358 Y167.589 E.09462
G1 X187.358 Y168.243 E.02389
G1 X184.873 Y165.757 E.1284
G1 X184.219 Y165.757 E.02389
G1 X187.205 Y168.743 E.15425
G1 X186.551 Y168.743 E.02389
G1 X183.565 Y165.757 E.15425
G1 X182.911 Y165.757 E.02389
G1 X185.897 Y168.743 E.15425
G1 X185.243 Y168.743 E.02389
G1 X182.257 Y165.757 E.15425
G1 X181.603 Y165.757 E.02389
G1 X184.589 Y168.743 E.15425
G1 X183.935 Y168.743 E.02389
G1 X180.949 Y165.757 E.15425
G1 X180.295 Y165.757 E.02389
G1 X183.281 Y168.743 E.15425
G1 X182.627 Y168.743 E.02389
G1 X180.142 Y166.258 E.12839
G1 X180.142 Y166.911 E.02389
G1 X181.973 Y168.743 E.09461
G1 X181.319 Y168.743 E.02389
G1 X180.142 Y167.565 E.06083
G1 X180.142 Y168.219 E.02389
G1 X180.871 Y168.949 E.03768
G1 E-1 F3000
G1 Z.4 F9000
G1 X180.871 Y169.564
G1 X171.814 Y179.586
G1 X171.336 Y179.586
G1 Z.2
G1 E1 F1800
;TYPE:Inner wall
;WIDTH:0.499999
G1 F3000
G1 X168.747 Y179.586 E.09347
;WIDTH:0.535767
G1 X168.505 Y179.568 E.00944
;WIDTH:0.571535
G1 X168.263 Y179.55 E.01013
;WIDTH:0.607302
G1 X168.021 Y179.532 E.01081
G1 X165.513 Y179.532 E.11184
G1 X165.175 Y179.55 E.01507
;WIDTH:0.571535
G1 X164.838 Y179.568 E.01411
;WIDTH:0.535767
G1 X164.5 Y179.586 E.01316
;WIDTH:0.499999
G1 X164.294 Y179.577 E.00746
G1 X163.538 Y178.99 E.03456
G1 X162.82 Y178.357 E.03456
G1 X162.143 Y177.68 E.03456
G1 X161.51 Y176.962 E.03456
G1 X160.923 Y176.206 E.03456
G1 X160.385 Y175.414 E.03456
G1 X159.898 Y174.59 E.03456
G1 X159.464 Y173.737 E.03456
G1 X159.083 Y172.859 E.03456
G1 X158.759 Y171.958 E.03456
G1 X158.492 Y171.039 E.03456
G1 X158.283 Y170.105 E.03456
G1 X158.134 Y169.16 E.03456
G1 X158.043 Y168.207 E.03456
G1 X158.013 Y167.25 E.03456
G1 X158.043 Y166.293 E.03456
G1 X158.134 Y165.34 E.03456
G1 X158.283 Y164.395 E.03456
G1 X158.492 Y163.461 E.03456
G1 X158.759 Y162.542 E.03456
G1 X159.083 Y161.641 E.03456
G1 X159.464 Y160.763 E.03456
G1 X159.898 Y159.91 E.03456
G1 X160.385 Y159.086 E.03456
G1 X160.923 Y158.294 E.03456
G1 X161.51 Y157.538 E.03456
G1 X162.143 Y156.82 E.03456
G1 X162.82 Y156.143 E.03456
G1 X163.538 Y155.51 E.03456
G1 X164.293 Y154.924 E.0345
G1 X164.5 Y154.914 E.0075
;WIDTH:0.535767
G1 X164.838 Y154.932 E.01316
;WIDTH:0.571535
G1 X165.175 Y154.95 E.01411
;WIDTH:0.607302
G1 X165.513 Y154.968 E.01507
G1 X168.021 Y154.968 E.11184
G1 X168.263 Y154.95 E.01081
;WIDTH:0.571535
G1 X168.505 Y154.932 E.01013
;WIDTH:0.535767
G1 X168.747 Y154.914 E.00944
;WIDTH:0.499999
G1 X171.336 Y154.914 E.09347
G1 X171.336 Y156.051 E.04106
G1 X171.336 Y179.526 E.84757
M73 P1 R23
G1 X171.793 Y180.043 F9000
G1 F3000
G1 X164.167 Y180.043 E.27534
G1 X163.184 Y179.288 E.04475
G1 X162.448 Y178.632 E.03559
G1 X161.755 Y177.931 E.03559
G1 X161.107 Y177.188 E.03559
G1 X160.507 Y176.406 E.03559
G1 X159.957 Y175.588 E.0356
G1 X159.483 Y174.783 E.03372
G1 X159.017 Y173.856 E.03746
G1 X158.63 Y172.949 E.0356
G1 X158.301 Y172.02 E.03559
G1 X158.031 Y171.072 E.03559
G1 X157.821 Y170.109 E.0356
G1 X157.672 Y169.135 E.03559
G1 X157.584 Y168.153 E.0356
G1 X157.559 Y167.167 E.03559
G1 X157.595 Y166.182 E.0356
G1 X157.693 Y165.201 E.03559
G1 X157.852 Y164.229 E.0356
G1 X158.072 Y163.268 E.03559
G1 X158.352 Y162.323 E.03559
G1 X158.691 Y161.397 E.03559
G1 X159.087 Y160.494 E.0356
G1 X159.539 Y159.618 E.03558
G1 X160.046 Y158.772 E.0356
G1 X160.604 Y157.96 E.03559
G1 X161.212 Y157.184 E.03559
G1 X161.868 Y156.448 E.03559
G1 X162.569 Y155.755 E.03559
G1 X163.312 Y155.107 E.03559
G1 X164.167 Y154.457 E.03879
G1 X171.793 Y154.457 E.27534
G1 X171.793 Y156.051 E.05757
G1 X171.793 Y179.983 E.86407
G1 X172.25 Y180.5 F9000
;TYPE:Outer wall
G1 F3000
G1 X164.026 Y180.5 E.29692
G1 X163.757 Y180.317 E.01178
G1 X162.955 Y179.695 E.03663
G1 X162.194 Y179.024 E.03664
G1 X161.476 Y178.306 E.03663
G1 X160.805 Y177.545 E.03664
G1 X160.183 Y176.743 E.03663
G1 X159.613 Y175.904 E.03664
G1 X159.097 Y175.031 E.03663
G1 X158.636 Y174.127 E.03663
G1 X158.233 Y173.196 E.03663
G1 X157.889 Y172.241 E.03663
G1 X157.606 Y171.267 E.03664
G1 X157.385 Y170.276 E.03663
G1 X157.226 Y169.274 E.03663
G1 X157.131 Y168.264 E.03663
G1 X157.099 Y167.25 E.03663
G1 X157.131 Y166.236 E.03663
G1 X157.226 Y165.226 E.03664
G1 X157.385 Y164.224 E.03663
G1 X157.606 Y163.233 E.03663
G1 X157.889 Y162.259 E.03664
G1 X158.233 Y161.304 E.03664
G1 X158.636 Y160.373 E.03663
G1 X159.097 Y159.469 E.03664
G1 X159.613 Y158.596 E.03663
G1 X160.183 Y157.757 E.03664
G1 X160.805 Y156.955 E.03663
G1 X161.476 Y156.194 E.03664
G1 X162.194 Y155.476 E.03663
G1 X162.955 Y154.805 E.03664
G1 X163.606 Y154.3 E.02977
G1 X164.026 Y154 E.01864
G1 X172.25 Y154 E.29692
G1 X172.25 Y156.051 E.07407
G1 X172.25 Y180.44 E.88057
G1 X172.181 Y180.46
G1 E-1
G1 Z.4 F9000
G1 X164.997 Y178.751
G1 Z.2
G1 E1 F1800
;TYPE:Inner wall
;WIDTH:0.535767
G1 F3000
G1 X164.813 Y178.674 E.00777
;WIDTH:0.499999
G1 X164.223 Y178.217 E.02692
G1 X163.553 Y177.629 E.03221
G1 X162.92 Y177 E.03222
G1 X162.328 Y176.332 E.03222
G1 X161.78 Y175.628 E.03222
G1 X161.276 Y174.891 E.03222
G1 X160.942 Y174.331 E.02356
G1 X160.42 Y173.345 E.04027
G1 X160.056 Y172.512 E.03281
G1 X159.752 Y171.673 E.03222
G1 X159.501 Y170.817 E.03222
G1 X159.304 Y169.947 E.03222
G1 X159.162 Y169.066 E.03222
G1 X159.076 Y168.178 E.03222
G1 X159.046 Y167.286 E.03222
G1 X159.071 Y166.394 E.03222
G1 X159.153 Y165.505 E.03222
G1 X159.291 Y164.624 E.03222
G1 X159.483 Y163.752 E.03222
G1 X159.73 Y162.895 E.03222
G1 X160.03 Y162.054 E.03222
G1 X160.382 Y161.235 E.03222
G1 X160.785 Y160.438 E.03222
G1 X161.238 Y159.669 E.03221
G1 X161.737 Y158.93 E.03222
G1 X162.283 Y158.224 E.03222
G1 X162.871 Y157.553 E.03222
G1 X163.5 Y156.92 E.03222
G1 X164.168 Y156.328 E.03222
G1 X164.798 Y155.837 E.02886
;WIDTH:0.539501
G1 X164.967 Y155.739 E.00765
;WIDTH:0.579003
G1 X165.136 Y155.642 E.00826
;WIDTH:0.618505
G1 X165.305 Y155.545 E.00887
G1 X165.513 Y155.532 E.00946
;WIDTH:0.607302
G1 X168.021 Y155.532 E.11184
G1 X168.198 Y155.593 E.00832
;WIDTH:0.571535
G1 X168.374 Y155.655 E.00779
;WIDTH:0.535767
G1 X168.55 Y155.716 E.00727
;WIDTH:0.499999
G1 X168.925 Y156.03 E.01765
G1 X169.113 Y156.389 E.01464
G1 X169.164 Y156.729 E.01239
G1 X169.164 Y177.771 E.75977
G1 X169.113 Y178.111 E.01239
G1 X168.925 Y178.47 E.01464
G1 X168.55 Y178.784 E.01765
;WIDTH:0.539501
G1 X168.443 Y178.841 E.00476
;WIDTH:0.579003
G1 X168.336 Y178.898 E.00514
;WIDTH:0.618505
G1 X168.229 Y178.955 E.00552
G1 X168.021 Y178.968 E.00946
;WIDTH:0.607302
G1 X165.513 Y178.968 E.11184
G1 X165.279 Y178.87 E.01129
;WIDTH:0.571535
G1 X165.052 Y178.775 E.0103
G1 X165.2 Y178.346 F9000
;WIDTH:0.499999
G1 F3000
G1 X165.078 Y178.302 E.00466
G1 X164.504 Y177.856 E.02627
G1 X163.855 Y177.286 E.03118
G1 X163.243 Y176.676 E.03118
G1 X162.671 Y176.03 E.03118
G1 X162.141 Y175.348 E.03118
G1 X161.654 Y174.634 E.03118
G1 X161.335 Y174.098 E.02253
G1 X160.825 Y173.132 E.03947
G1 X160.476 Y172.331 E.03154
G1 X160.182 Y171.519 E.03118
G1 X159.94 Y170.69 E.03118
G1 X159.75 Y169.847 E.03118
G1 X159.614 Y168.994 E.03118
G1 X159.531 Y168.135 E.03118
G1 X159.503 Y167.272 E.03118
G1 X159.528 Y166.408 E.03118
G1 X159.608 Y165.548 E.03118
G1 X159.742 Y164.695 E.03118
G1 X159.929 Y163.852 E.03119
G1 X160.169 Y163.022 E.03118
G1 X160.46 Y162.209 E.03118
G1 X160.802 Y161.416 E.03118
G1 X161.193 Y160.646 E.03118
G1 X161.631 Y159.902 E.03118
G1 X162.116 Y159.187 E.03119
G1 X162.644 Y158.504 E.03118
G1 X163.214 Y157.855 E.03118
G1 X163.824 Y157.243 E.03118
G1 X164.47 Y156.671 E.03118
G1 X165.078 Y156.198 E.02782
G1 X165.394 Y156.053 E.01255
G1 X168.021 Y156.043 E.09485
G1 X168.339 Y156.121 E.0118
G1 X168.564 Y156.309 E.01059
G1 X168.676 Y156.525 E.00878
G1 X168.707 Y156.729 E.00744
G1 X168.707 Y177.771 E.75977
G1 X168.676 Y177.975 E.00744
G1 X168.564 Y178.191 E.00878
G1 X168.339 Y178.379 E.01059
G1 X168.14 Y178.447 E.00759
G1 X165.513 Y178.457 E.09485
G1 X165.257 Y178.366 E.00983
G1 X165.05 Y177.702 F9000
;TYPE:Outer wall
G1 F3000
G1 X164.784 Y177.495 E.01217
G1 X164.157 Y176.943 E.03015
G1 X163.567 Y176.353 E.03015
G1 X163.014 Y175.727 E.03015
G1 X162.502 Y175.068 E.03015
G1 X162.032 Y174.378 E.03015
G1 X161.729 Y173.865 E.02149
G1 X161.229 Y172.918 E.03866
G1 X160.895 Y172.149 E.03027
G1 X160.612 Y171.364 E.03015
G1 X160.379 Y170.562 E.03015
G1 X160.196 Y169.747 E.03015
G1 X160.065 Y168.923 E.03015
G1 X159.986 Y168.092 E.03015
G1 X159.959 Y167.257 E.03015
G1 X159.985 Y166.423 E.03015
G1 X160.063 Y165.591 E.03015
G1 X160.193 Y164.767 E.03014
G1 X160.375 Y163.952 E.03015
G1 X160.608 Y163.15 E.03015
G1 X160.89 Y162.364 E.03014
G1 X161.221 Y161.598 E.03015
G1 X161.6 Y160.854 E.03015
G1 X162.025 Y160.135 E.03014
G1 X162.494 Y159.444 E.03015
G1 X163.005 Y158.784 E.03015
G1 X163.557 Y158.157 E.03015
G1 X164.147 Y157.567 E.03015
G1 X164.773 Y157.014 E.03015
G1 X165.359 Y156.559 E.02678
G1 X165.513 Y156.5 E.00596
G1 X168.021 Y156.5 E.09057
M73 P1 R22
G1 X168.202 Y156.589 E.00727
G1 X168.25 Y156.729 E.00533
G1 X168.25 Y177.771 E.75977
G1 X168.202 Y177.911 E.00533
G1 X168.061 Y177.997 E.00596
G1 X165.513 Y178 E.092
G1 X165.359 Y177.941 E.00596
G1 X165.098 Y177.739 E.01193
G1 X164.989 Y177.729
G1 E-1
G1 Z.4 F9000
G1 X164.831 Y178.083
G1 X165.285 Y178.436
G1 X168.686 Y178.436
G1 X171.199 Y155.987
G1 Z.2
G1 E1 F1800
;TYPE:Bottom surface
;WIDTH:0.505539
G1 F6300
G1 X170.469 Y155.257 E.03773
G1 X169.814 Y155.257 E.02391
G1 X170.993 Y156.436 E.06091
G1 X170.993 Y157.09 E.02391
G1 X169.16 Y155.257 E.09472
G1 X168.756 Y155.257 E.01479
G1 X168.538 Y155.289 E.00803
G1 X170.993 Y157.744 E.12687
G1 X170.993 Y158.398 E.02391
G1 X169.507 Y156.912 E.0768
G1 X169.507 Y157.566 E.02391
G1 X170.993 Y159.053 E.0768
G1 X170.993 Y159.707 E.02391
G1 X169.507 Y158.221 E.0768
G1 X169.507 Y158.875 E.02391
G1 X170.993 Y160.361 E.0768
G1 X170.993 Y161.015 E.02391
G1 X169.507 Y159.529 E.0768
G1 X169.507 Y160.183 E.02391
G1 X170.993 Y161.669 E.0768
G1 X170.993 Y162.324 E.02391
G1 X169.507 Y160.838 E.0768
G1 X169.507 Y161.492 E.02391
G1 X170.993 Y162.978 E.0768
G1 X170.993 Y163.632 E.02391
G1 X169.507 Y162.146 E.0768
G1 X169.507 Y162.8 E.02391
G1 X170.993 Y164.286 E.0768
G1 X170.993 Y164.941 E.02391
G1 X169.507 Y163.455 E.0768
G1 X169.507 Y164.109 E.02391
G1 X170.993 Y165.595 E.0768
G1 X170.993 Y166.249 E.02391
G1 X169.507 Y164.763 E.0768
G1 X169.507 Y165.417 E.02391
G1 X170.993 Y166.903 E.0768
G1 X170.993 Y167.558 E.02391
G1 X169.507 Y166.072 E.0768
G1 X169.507 Y166.726 E.02391
G1 X170.993 Y168.212 E.0768
G1 X170.993 Y168.866 E.02391
G1 X169.507 Y167.38 E.0768
G1 X169.507 Y168.034 E.02391
G1 X170.993 Y169.52 E.0768
G1 X170.993 Y170.175 E.02391
G1 X169.507 Y168.689 E.0768
G1 X169.507 Y169.343 E.02391
G1 X170.993 Y170.829 E.0768
G1 X170.993 Y171.483 E.02391
G1 X169.507 Y169.997 E.0768
G1 X169.507 Y170.651 E.02391
G1 X170.993 Y172.137 E.0768
G1 X170.993 Y172.792 E.02391
G1 X169.507 Y171.305 E.0768
G1 X169.507 Y171.96 E.02391
G1 X170.993 Y173.446 E.0768
G1 X170.993 Y174.1 E.02391
G1 X169.507 Y172.614 E.0768
G1 X169.507 Y173.268 E.02391
G1 X170.993 Y174.754 E.0768
G1 X170.993 Y175.409 E.02391
G1 X169.507 Y173.922 E.0768
G1 X169.507 Y174.577 E.02391
G1 X170.993 Y176.063 E.0768
G1 X170.993 Y176.717 E.02391
G1 X169.507 Y175.231 E.0768
G1 X169.507 Y175.885 E.02391
G1 X170.993 Y177.371 E.0768
G1 X170.993 Y178.026 E.02391
G1 X169.507 Y176.539 E.0768
G1 X169.507 Y177.194 E.02391
G1 X170.993 Y178.68 E.0768
G1 X170.993 Y179.243 E.02058
G1 X170.902 Y179.243 E.00332
G1 X169.501 Y177.842 E.0724
G1 X169.485 Y178.027 E.00678
G1 X169.439 Y178.219 E.00723
G1 X169.365 Y178.36 E.00582
G1 X170.248 Y179.243 E.04562
G1 X169.594 Y179.243 E.02391
G1 X169.108 Y178.758 E.02509
G1 X168.752 Y179.056 E.01697
G1 X169.145 Y179.449 E.02031
G1 E-1 F3000
G1 Z.4 F9000
G1 X161.354 Y177.508
G1 X158.214 Y162.702
G1 X164.432 Y155.051
G1 Z.2
G1 E1 F1800
;WIDTH:0.509732
G1 F6300
G1 X164.803 Y155.422 E.01935
G1 X164.418 Y155.698 E.01745
G1 X164.172 Y155.452 E.01283
G1 X163.801 Y155.74 E.01735
G1 X164.047 Y155.986 E.01283
G1 X163.693 Y156.292 E.01726
G1 X163.447 Y156.047 E.01281
G1 X163.096 Y156.356 E.01725
G1 X163.341 Y156.601 E.01275
G1 X163.009 Y156.929 E.01721
G1 X162.764 Y156.684 E.01279
G1 X162.434 Y157.014 E.01721
G1 X162.678 Y157.258 E.01275
G1 X162.367 Y157.607 E.01724
M73 P2 R22
G1 X162.122 Y157.362 E.01276
G1 X161.812 Y157.713 E.01725
G1 X162.058 Y157.958 E.01279
G1 X161.769 Y158.329 E.01735
G1 X161.522 Y158.082 E.01289
G1 X161.233 Y158.454 E.01735
G1 X161.48 Y158.701 E.01286
G1 X161.213 Y159.094 E.01752
G1 X160.964 Y158.845 E.01298
G1 X160.697 Y159.238 E.01752
G1 X160.947 Y159.488 E.01307
G1 X160.702 Y159.903 E.01777
G1 X160.449 Y159.651 E.01316
G1 X160.204 Y160.066 E.01777
G1 X160.461 Y160.322 E.01338
G1 X160.238 Y160.76 E.0181
G1 X159.981 Y160.503 E.01341
G1 X159.774 Y160.909 E.01681
G1 X159.76 Y160.942 E.00132
G1 X160.023 Y161.205 E.01371
G1 X159.823 Y161.665 E.01851
G1 X159.56 Y161.402 E.01371
G1 X159.402 Y161.767 E.01466
G1 X159.366 Y161.868 E.00396
G1 X159.636 Y162.138 E.01409
G1 X159.461 Y162.624 E.01902
G1 X159.191 Y162.354 E.01409
