; HEADER_BLOCK_START
; generated by OrcaSlicer 1.6.3 on 2023-07-02 at 14:10:25
; total layer number: 180
; HEADER_BLOCK_END

; THUMBNAIL_BLOCK_START
; THUMBNAIL_BLOCK_END

; external perimeters extrusion width = 0.42mm
; perimeters extrusion width = 0.45mm
; infill extrusion width = 0.45mm
; solid infill extrusion width = 0.42mm
; top infill extrusion width = 0.42mm
; support material extrusion width = 0.42mm
; first layer extrusion width = 0.50mm

; EXECUTABLE_BLOCK_START
EXCLUDE_OBJECT_DEFINE NAME=swivel_hook(2).stl_id_0_copy_0 CENTER=165,165 POLYGON=[[109.5,163.5],[157.742,142.5],[181.5,133.5],[195,133.5],[220.5,163.5],[220.5,175.5],[180,196.5],[157.742,196.5],[109.5,175.5],[109.5,163.5]]
M73 P0 R71
M73 C10
;TYPE:Custom
START_PRINT T_BED=110 T_EXTRUDER=260
G90
G21
M83 ; use relative distances for extrusion
; filament start gcode

    PRESSURE_ADVANCE_SELECT FILAMENT=ABS
M106 S0
;LAYER_CHANGE
;Z:0.2
;HEIGHT:0.2
;BEFORE_LAYER_CHANGE
;0.2
G92 E0

G1 E-.5 F2400
M204 S1000
G1 X116.197 Y160.853 F12000
G1 Z.2
G1 E.5 F1800
;TYPE:Skirt
;WIDTH:0.5
G1 F7200
G1 X161.763 Y139.853 E1.76576
G1 X162.983 Y139.586 E.04395
G1 X180 Y139.586 E.5989
G1 X181.579 Y140.051 E.05792
G1 X214.162 Y161.051 E1.36426
G1 X215.178 Y162.173 E.05327
G1 X215.497 Y163.5 E.04804
G1 X215.497 Y175.5 E.42233
G1 X215.104 Y176.962 E.05327
G1 X214.162 Y177.949 E.04804
G1 X181.579 Y198.949 E1.36426
G1 X180 Y199.414 E.05792
G1 X162.983 Y199.414 E.5989
G1 X161.763 Y199.147 E.04395
G1 X116.197 Y178.147 E1.76576
G1 X115.034 Y177.178 E.05327
G1 X114.503 Y175.5 E.06194
G1 X114.503 Y163.5 E.42233
G1 X114.896 Y162.038 E.05327
G1 X116.153 Y160.894 E.05983
G1 X116.388 Y161.269 F12000
G1 F7200
G1 X161.954 Y140.269 E1.76576
G1 X162.983 Y140.043 E.03705
G1 X180 Y140.043 E.5989
G1 X181.331 Y140.435 E.04883
G1 X213.914 Y161.435 E1.36426
G1 X214.821 Y162.485 E.04884
G1 X215.04 Y163.5 E.03654
G1 X215.04 Y175.5 E.42233
G1 X214.648 Y176.831 E.04884
G1 X213.914 Y177.565 E.03654
G1 X181.331 Y198.565 E1.36426
G1 X180 Y198.957 E.04883
G1 X162.983 Y198.957 E.5989
G1 X161.954 Y198.731 E.03705
G1 X116.388 Y177.731 E1.76576
G1 X115.343 Y176.818 E.04884
G1 X114.96 Y175.5 E.04833
G1 X114.96 Y163.5 E.42233
G1 X115.352 Y162.169 E.04884
G1 X116.343 Y161.308 E.04621
; printing object swivel_hook(2).stl id:0 copy 0
EXCLUDE_OBJECT_START NAME=swivel_hook(2).stl_id_0_copy_0
G1 E-.35 F2400
;WIPE_START
G1 F7200
G1 X118.159 Y160.47 E-.1425
;WIPE_END
G1 E-.0075 F2400
G1 X148.737 Y163.241 F12000
G1 E.5 F1800
;TYPE:Support
G1 F7200
G2 X148.706 Y175.57 I32.616 J6.246 E.43644
G1 X140.045 Y175.57 E.30483
G1 X140.045 Y163.062 E.44021
G1 X148.777 Y163.062 E.30731
G1 X148.752 Y163.174 E.00404
G1 X148.283 Y163.473 F12000
G1 F7200
G2 X148.225 Y175.158 I33.577 J6.011 E.4133
G1 X140.456 Y175.158 E.2734
G1 X140.456 Y163.473 E.41125
G1 X148.283 Y163.473 E.27545
G1 X147.688 Y163.981 F12000
G1 F7200
G2 X147.63 Y174.65 I33.921 J5.521 E.37704
G1 X140.964 Y174.65 E.2346
G1 X140.964 Y163.981 E.37551
G1 X147.688 Y163.981 E.23665
G1 X147.094 Y164.489 F12000
G1 F7200
G2 X147.027 Y174.143 I33.8 J5.06 E.34091
G1 X141.472 Y174.143 E.19552
G1 X141.472 Y164.489 E.33976
G1 X147.094 Y164.489 E.19785
G1 X146.494 Y164.997 F12000
G1 F7200
G2 X146.459 Y173.635 I37.233 J4.47 E.30469
G1 X141.98 Y173.635 E.15764
G1 X141.98 Y164.997 E.30401
G1 X146.494 Y164.997 E.15887
G1 X145.936 Y165.504 F12000
G1 F7200
G2 X145.901 Y173.127 I33.401 J3.964 E.26884
G1 X142.488 Y173.127 E.12013
G1 X142.488 Y165.504 E.26826
G1 X145.936 Y165.504 E.12136
G1 X145.378 Y166.012 F12000
G1 F7200
G2 X145.343 Y172.619 I32.721 J3.476 E.23291
G1 X142.996 Y172.619 E.08261
G1 X142.996 Y166.012 E.23252
G1 X145.378 Y166.012 E.08384
G1 X144.82 Y166.52 F12000
G1 F7200
G2 X144.777 Y172.111 I40.959 J3.106 E.19693
G1 X143.503 Y172.111 E.04483
G1 X143.503 Y166.52 E.19677
G1 X144.82 Y166.52 E.04632
G1 E-.35 F2400
;WIPE_START
G1 F7200
G1 X143.503 Y166.52 E-.09378
G1 X143.503 Y167.204 E-.04872
;WIPE_END
G1 E-.0075 F2400
G1 X149.384 Y168.263 F12000
G1 X163.167 Y195.9
G1 X179.4 Y195.9
G1 X179.4 Y173.669
G1 X189.955 Y175.57
G1 E.5 F1800
G1 F7200
G1 X180.6 Y175.57 E.32924
G1 X180.6 Y163.062 E.44021
G1 X189.955 Y163.062 E.32924
G1 X189.955 Y175.501 E.4378
G1 X181.011 Y163.473 F12000
G1 F7200
G1 X189.544 Y163.473 E.30029
G1 X189.544 Y175.158 E.41125
G1 X181.011 Y175.158 E.30029
G1 X181.011 Y163.473 E.41125
G1 X181.519 Y163.981 F12000
G1 F7200
G1 X189.036 Y163.981 E.26454
G1 X189.036 Y174.65 E.37551
G1 X181.519 Y174.65 E.26454
G1 X181.519 Y163.981 E.37551
G1 X182.027 Y164.489 F12000
G1 F7200
G1 X188.528 Y164.489 E.22879
G1 X188.528 Y174.143 E.33976
G1 X182.027 Y174.143 E.22879
G1 X182.027 Y164.489 E.33976
G1 X182.535 Y164.997 F12000
G1 F7200
G1 X188.02 Y164.997 E.19304
G1 X188.02 Y173.635 E.30401
G1 X182.535 Y173.635 E.19304
G1 X182.535 Y164.997 E.30401
G1 X183.043 Y165.504 F12000
G1 F7200
G1 X187.512 Y165.504 E.1573
G1 X187.512 Y173.127 E.26826
G1 X183.043 Y173.127 E.1573
G1 X183.043 Y165.504 E.26826
G1 X183.551 Y166.012 F12000
G1 F7200
G1 X187.004 Y166.012 E.12155
G1 X187.004 Y172.619 E.23252
G1 X183.551 Y172.619 E.12155
G1 X183.551 Y166.012 E.23252
G1 X184.059 Y166.52 F12000
M73 C9
G1 F7200
G1 X186.497 Y166.52 E.0858
G1 X186.497 Y172.111 E.19677
G1 X184.059 Y172.111 E.0858
G1 X184.059 Y166.52 E.19677
G1 X184.566 Y167.028 F12000
G1 F7200
G1 X185.989 Y167.028 E.05005
G1 X185.989 Y171.603 E.16102
G1 X184.566 Y171.603 E.05005
G1 X184.566 Y167.028 E.16102
G1 E-.5 F2400
G1 X192.767 Y163.85 F12000
G1 E.5 F1800
;TYPE:Outer wall
G1 F7200
G1 X212.233 Y163.85 E.6851
G1 X212.233 Y175.15 E.39769
G1 X192.767 Y175.15 E.6851
G1 X192.767 Y163.858 E.39741
G1 X192.846 Y163.864
G1 X193.224 Y164.307 F12000
;TYPE:Inner wall
G1 F7200
G1 X211.776 Y164.307 E.65293
G1 X211.776 Y174.693 E.36552
G1 X193.224 Y174.693 E.65293
G1 X193.224 Y164.315 E.36524
G1 X193.681 Y164.764 F12000
G1 F7200
G1 X211.319 Y164.764 E.62075
G1 X211.319 Y174.236 E.33335
G1 X193.681 Y174.236 E.62075
G1 X193.681 Y164.772 E.33306
G1 X194.138 Y165.221 F12000
G1 F7200
G1 X210.862 Y165.221 E.58858
G1 X210.862 Y173.779 E.30117
G1 X194.138 Y173.779 E.58858
G1 X194.138 Y165.229 E.30089
G1 E-.5 F2400
G1 X209.791 Y165.358 F12000
G1 E.5 F1800
;TYPE:Bottom surface
;WIDTH:0.504855
G1 F7200
G1 X210.519 Y166.087 E.03665
G1 X210.519 Y166.74 E.02324
G1 X209.343 Y165.564 E.05916
G1 X208.69 Y165.564 E.02324
G1 X210.519 Y167.393 E.09202
G1 X210.519 Y168.047 E.02324
G1 X208.036 Y165.564 E.12488
G1 X207.383 Y165.564 E.02324
G1 X210.519 Y168.7 E.15774
G1 X210.519 Y169.353 E.02324
G1 X206.73 Y165.564 E.1906
G1 X206.077 Y165.564 E.02324
G1 X210.519 Y170.007 E.22346
G1 X210.519 Y170.66 E.02324
G1 X205.423 Y165.564 E.25632
G1 X204.77 Y165.564 E.02324
G1 X210.519 Y171.313 E.28918
G1 X210.519 Y171.966 E.02324
G1 X204.117 Y165.564 E.32204
G1 X203.464 Y165.564 E.02324
G1 X210.519 Y172.62 E.3549
G1 X210.519 Y173.273 E.02324
G1 X202.81 Y165.564 E.38776
G1 X202.157 Y165.564 E.02324
G1 X210.029 Y173.436 E.39596
G1 X209.376 Y173.436 E.02324
G1 X201.504 Y165.564 E.39596
G1 X200.85 Y165.564 E.02324
G1 X208.722 Y173.436 E.39596
G1 X208.069 Y173.436 E.02324
G1 X200.197 Y165.564 E.39596
G1 X199.544 Y165.564 E.02324
G1 X207.416 Y173.436 E.39596
G1 X206.763 Y173.436 E.02324
G1 X198.891 Y165.564 E.39596
G1 X198.237 Y165.564 E.02324
G1 X206.109 Y173.436 E.39596
G1 X205.456 Y173.436 E.02324
G1 X197.584 Y165.564 E.39596
G1 X196.931 Y165.564 E.02324
G1 X204.803 Y173.436 E.39596
G1 X204.149 Y173.436 E.02324
G1 X196.277 Y165.564 E.39596
G1 X195.624 Y165.564 E.02324
G1 X203.496 Y173.436 E.39596
G1 X202.843 Y173.436 E.02324
G1 X194.971 Y165.564 E.39596
G1 X194.481 Y165.564 E.01743
G1 X194.481 Y165.727 E.0058
G1 X202.19 Y173.436 E.38776
G1 X201.536 Y173.436 E.02324
G1 X194.481 Y166.38 E.3549
G1 X194.481 Y167.034 E.02324
G1 X200.883 Y173.436 E.32204
G1 X200.23 Y173.436 E.02324
G1 X194.481 Y167.687 E.28918
G1 X194.481 Y168.34 E.02324
G1 X199.577 Y173.436 E.25632
M73 P0 R70
G1 X198.923 Y173.436 E.02324
G1 X194.481 Y168.994 E.22346
G1 X194.481 Y169.647 E.02324
G1 X198.27 Y173.436 E.1906
G1 X197.617 Y173.436 E.02324
G1 X194.481 Y170.3 E.15774
G1 X194.481 Y170.953 E.02324
G1 X196.963 Y173.436 E.12488
G1 X196.31 Y173.436 E.02324
G1 X194.481 Y171.607 E.09202
G1 X194.481 Y172.26 E.02324
G1 X195.657 Y173.436 E.05916
G1 X195.004 Y173.436 E.02324
G1 X194.275 Y172.708 E.03664
G1 E-.35 F2400
;WIPE_START
G1 F7200
G1 X195.004 Y173.436 E-.0734
G1 X195.657 Y173.436 E-.04655
G1 X195.433 Y173.212 E-.02255
;WIPE_END
G1 E-.0075 F2400
G1 X194.272 Y174.9 F12000
G1 X179.4 Y195.9
G1 X179.65 Y196.15
G1 E.5 F1800
;TYPE:Outer wall
;WIDTH:0.5
G1 F7200
G1 X163.09 Y196.15 E.5828
G1 X162.453 Y195.717 E.02714
G1 X160.844 Y194.469 E.07165
G1 X159.317 Y193.122 E.07165
G1 X157.878 Y191.683 E.07164
G1 X156.531 Y190.156 E.07165
G1 X155.283 Y188.547 E.07165
G1 X154.139 Y186.864 E.07165
G1 X153.103 Y185.111 E.07164
G1 X152.179 Y183.298 E.07165
G1 X151.37 Y181.429 E.07165
G1 X150.681 Y179.514 E.07165
G1 X150.113 Y177.559 E.07165
G1 X149.669 Y175.572 E.07165
G1 X149.35 Y173.561 E.07165
G1 X149.295 Y172.982 E.0205
G1 X149.159 Y171.535 E.05114
G1 X149.095 Y169.5 E.07165
G1 X149.159 Y167.465 E.07165
G1 X149.35 Y165.439 E.07165
G1 X149.669 Y163.428 E.07165
G1 X150.113 Y161.441 E.07165
G1 X150.681 Y159.486 E.07165
G1 X151.37 Y157.571 E.07165
G1 X152.179 Y155.702 E.07165
G1 X153.103 Y153.889 E.07165
G1 X154.139 Y152.136 E.07164
G1 X155.283 Y150.453 E.07165
G1 X156.531 Y148.844 E.07165
G1 X157.878 Y147.317 E.07165
G1 X159.317 Y145.878 E.07164
G1 X160.844 Y144.531 E.07165
G1 X162.453 Y143.283 E.07165
G1 X163.09 Y142.85 E.02714
G1 X179.65 Y142.85 E.5828
G1 X179.65 Y196.142 E1.87555
G1 X179.577 Y196.117
G1 X179.193 Y195.693 F12000
;TYPE:Inner wall
G1 F7200
G1 X163.231 Y195.693 E.56176
G1 X162.721 Y195.347 E.02169
G1 X161.136 Y194.116 E.07063
G1 X159.63 Y192.789 E.07064
G1 X158.211 Y191.37 E.07063
G1 X156.884 Y189.864 E.07064
G1 X155.653 Y188.279 E.07064
G1 X154.525 Y186.619 E.07063
G1 X153.504 Y184.891 E.07063
G1 X152.592 Y183.103 E.07064
G1 X151.795 Y181.261 E.07063
G1 X151.116 Y179.372 E.07063
G1 X150.556 Y177.445 E.07064
G1 X150.118 Y175.486 E.07063
G1 X149.804 Y173.504 E.07064
G1 X149.75 Y172.938 E.02
G1 X149.615 Y171.506 E.05064
G1 X149.552 Y169.5 E.07064
G1 X149.615 Y167.494 E.07063
G1 X149.804 Y165.496 E.07064
G1 X150.118 Y163.514 E.07064
G1 X150.556 Y161.555 E.07063
G1 X151.116 Y159.628 E.07064
G1 X151.795 Y157.739 E.07064
G1 X152.592 Y155.897 E.07063
G1 X153.504 Y154.109 E.07064
G1 X154.525 Y152.381 E.07063
G1 X155.653 Y150.721 E.07064
G1 X156.884 Y149.136 E.07063
G1 X158.211 Y147.63 E.07064
G1 X159.63 Y146.211 E.07063
G1 X161.136 Y144.884 E.07064
G1 X162.721 Y143.653 E.07063
G1 X163.231 Y143.307 E.02169
G1 X179.193 Y143.307 E.56176
M73 P1 R70
G1 X179.193 Y195.685 E1.84338
G1 X178.736 Y195.236 F12000
G1 F7200
G1 X163.372 Y195.236 E.54073
G1 X162.99 Y194.977 E.01623
G1 X161.427 Y193.764 E.06962
G1 X159.943 Y192.456 E.06963
G1 X158.544 Y191.057 E.06962
G1 X157.236 Y189.573 E.06963
G1 X156.023 Y188.01 E.06962
G1 X154.911 Y186.374 E.06962
G1 X153.904 Y184.671 E.06962
G1 X153.006 Y182.908 E.06963
G1 X152.221 Y181.093 E.06962
G1 X151.551 Y179.231 E.06962
G1 X150.998 Y177.331 E.06963
G1 X150.567 Y175.401 E.06962
G1 X150.258 Y173.447 E.06963
G1 X150.205 Y172.895 E.01949
G1 X150.071 Y171.477 E.05013
G1 X150.009 Y169.5 E.06962
G1 X150.071 Y167.523 E.06962
G1 X150.258 Y165.553 E.06962
G1 X150.567 Y163.599 E.06962
G1 X150.998 Y161.669 E.06962
G1 X151.551 Y159.769 E.06963
G1 X152.221 Y157.907 E.06963
G1 X153.006 Y156.092 E.06962
G1 X153.905 Y154.329 E.06963
G1 X154.911 Y152.626 E.06962
G1 X156.023 Y150.99 E.06962
G1 X157.236 Y149.427 E.06962
G1 X158.544 Y147.943 E.06963
G1 X159.943 Y146.544 E.06962
G1 X161.427 Y145.236 E.06963
G1 X162.99 Y144.023 E.06962
G1 X163.372 Y143.764 E.01623
G1 X178.736 Y143.764 E.54073
G1 X178.736 Y195.228 E1.81121
G1 X178.279 Y194.779 F12000
G1 F7200
G1 X163.512 Y194.779 E.51969
G1 X163.259 Y194.607 E.01078
G1 X161.719 Y193.412 E.06861
G1 X160.256 Y192.122 E.06862
G1 X158.878 Y190.744 E.06861
G1 X157.588 Y189.282 E.06861
G1 X156.393 Y187.741 E.06861
G1 X155.298 Y186.129 E.06861
G1 X154.305 Y184.45 E.06861
G1 X153.42 Y182.713 E.06861
G1 X152.646 Y180.924 E.06861
G1 X151.985 Y179.09 E.06861
G1 X151.441 Y177.218 E.06862
G1 X151.016 Y175.315 E.06861
G1 X150.711 Y173.389 E.06862
G1 X150.66 Y172.852 E.01899
G1 X150.528 Y171.449 E.04962
G1 X150.466 Y169.5 E.06861
G1 X150.528 Y167.551 E.06861
G1 X150.711 Y165.61 E.06861
G1 X151.016 Y163.685 E.06861
G1 X151.441 Y161.782 E.06861
G1 X151.985 Y159.91 E.06861
G1 X152.646 Y158.076 E.06861
G1 X153.42 Y156.287 E.06861
G1 X154.305 Y154.549 E.06862
G1 X155.298 Y152.871 E.06861
G1 X156.393 Y151.259 E.06861
G1 X157.588 Y149.719 E.06861
G1 X158.878 Y148.256 E.06862
G1 X160.256 Y146.878 E.06861
G1 X161.719 Y145.588 E.06862
G1 X163.259 Y144.393 E.06861
G1 X163.512 Y144.221 E.01078
G1 X178.279 Y144.221 E.51969
G1 X178.279 Y194.771 E1.77903
G1 E-.5 F2400
G1 X171.425 Y190.925 F12000
G1 E.5 F1800
;TYPE:Outer wall
G1 F7200
G1 X165.985 Y190.925 E.19147
G1 X164.639 Y189.881 E.05993
G1 X163.393 Y188.782 E.05848
G1 X162.218 Y187.607 E.05848
G1 X161.119 Y186.361 E.05848
G1 X160.1 Y185.048 E.05848
G1 X159.166 Y183.673 E.05848
G3 X158.32 Y182.243 I1558.199 J-922.337 E.05848
G1 X157.566 Y180.763 E.05848
G1 X156.906 Y179.237 E.05848
G1 X156.343 Y177.674 E.05848
G1 X155.88 Y176.078 E.05848
G1 X155.517 Y174.457 E.05848
G1 X155.257 Y172.815 E.05848
G1 X155.101 Y171.161 E.05848
G1 X155.048 Y169.5 E.05848
G1 X155.101 Y167.839 E.05848
G1 X155.257 Y166.185 E.05848
G1 X155.517 Y164.543 E.05848
G1 X155.88 Y162.922 E.05848
G1 X156.343 Y161.326 E.05848
G1 X156.906 Y159.763 E.05848
G1 X157.566 Y158.237 E.05848
G1 X158.32 Y156.757 E.05848
G1 X159.166 Y155.327 E.05848
G1 X160.1 Y153.952 E.05849
G1 X161.119 Y152.639 E.05848
G1 X162.218 Y151.393 E.05848
G1 X163.393 Y150.218 E.05848
G1 X164.639 Y149.119 E.05848
G1 X165.985 Y148.075 E.05993
G1 X171.425 Y148.075 E.19147
G1 X171.425 Y190.917 E1.50778
G1 X171.428 Y191.005
G1 X171.882 Y191.382 F12000
;TYPE:Inner wall
G1 F7200
G1 X165.828 Y191.382 E.21306
G1 X164.348 Y190.234 E.06595
G1 X163.08 Y189.116 E.05949
G1 X161.884 Y187.92 E.05949
G1 X160.766 Y186.652 E.05949
G1 X159.73 Y185.317 E.05949
G1 X158.78 Y183.919 E.05949
G3 X157.92 Y182.463 I1588.673 J-940.368 E.0595
G1 X157.152 Y180.957 E.05949
G1 X156.481 Y179.406 E.0595
G1 X155.908 Y177.815 E.05949
G1 X155.437 Y176.192 E.05949
G1 X155.068 Y174.542 E.05949
G1 X154.803 Y172.873 E.05949
G1 X154.644 Y171.19 E.05949
G1 X154.591 Y169.5 E.05949
G1 X154.644 Y167.81 E.05949
G1 X154.803 Y166.127 E.05949
G1 X155.068 Y164.458 E.05949
G1 X155.437 Y162.808 E.0595
G1 X155.908 Y161.185 E.05949
G1 X156.481 Y159.594 E.05949
G1 X157.152 Y158.043 E.0595
G1 X157.92 Y156.537 E.05949
G1 X158.78 Y155.082 E.05949
G1 X159.73 Y153.683 E.0595
G1 X160.766 Y152.348 E.05949
G1 X161.884 Y151.08 E.05949
G1 X163.08 Y149.884 E.05949
G1 X164.348 Y148.766 E.05949
G1 X165.828 Y147.618 E.06595
G1 X171.882 Y147.618 E.21306
G1 X171.882 Y191.374 E1.53995
G1 X172.339 Y191.839 F12000
G1 F7200
G1 X165.672 Y191.839 E.23465
G1 X164.056 Y190.586 E.07196
G1 X162.767 Y189.449 E.0605
G1 X161.551 Y188.233 E.06051
G1 X160.414 Y186.944 E.0605
G1 X159.36 Y185.585 E.0605
G1 X158.394 Y184.164 E.06051
G3 X157.519 Y182.684 I1615.374 J-956.169 E.06051
G1 X156.738 Y181.152 E.0605
G1 X156.056 Y179.574 E.06051
G1 X155.473 Y177.957 E.0605
G1 X154.994 Y176.306 E.0605
G1 X154.619 Y174.628 E.0605
G1 X154.35 Y172.93 E.06051
G1 X154.188 Y171.218 E.06051
G1 X154.134 Y169.5 E.0605
G1 X154.188 Y167.782 E.0605
G1 X154.35 Y166.07 E.06051
G1 X154.619 Y164.372 E.0605
G1 X154.994 Y162.694 E.06051
G1 X155.473 Y161.043 E.0605
G1 X156.056 Y159.426 E.06051
G1 X156.738 Y157.848 E.06051
G1 X157.519 Y156.316 E.0605
G1 X158.394 Y154.836 E.0605
G1 X159.36 Y153.415 E.06051
G1 X160.414 Y152.056 E.0605
G1 X161.551 Y150.767 E.0605
G1 X162.767 Y149.551 E.06051
G1 X164.056 Y148.414 E.0605
G1 X165.672 Y147.161 E.07196
G1 X172.339 Y147.161 E.23465
G1 X172.339 Y191.831 E1.57212
G1 X172.796 Y192.296 F12000
G1 F7200
G1 X165.515 Y192.296 E.25625
G1 X163.765 Y190.938 E.07797
