; HEADER_BLOCK_START
; generated by OrcaSlicer 1.6.3 on 2023-06-27 at 20:19:04
; total layer number: 450
; HEADER_BLOCK_END

; THUMBNAIL_BLOCK_START
; THUMBNAIL_BLOCK_END

; external perimeters extrusion width = 0.40mm
; perimeters extrusion width = 0.45mm
; infill extrusion width = 0.45mm
; solid infill extrusion width = 0.40mm
; top infill extrusion width = 0.40mm
; first layer extrusion width = 0.50mm

; EXECUTABLE_BLOCK_START
EXCLUDE_OBJECT_DEFINE NAME=temperature_tower.stl_id_0_copy_0 CENTER=160,150 POLYGON=[[137.756,145],[177.785,145],[177.895,145.002],[177.995,145.006],[178.081,145.011],[178.145,145.016],[178.154,145.016],[178.21,145.021],[178.251,145.025],[178.276,145.028],[178.298,145.03],[178.314,145.032],[178.336,145.035],[178.364,145.038],[178.396,145.042],[178.432,145.047],[178.473,145.053],[178.503,145.057],[178.535,145.062],[178.627,145.078],[178.792,145.11],[178.857,145.124],[179.04,145.17],[179.133,145.195],[179.309,145.25],[179.361,145.267],[179.444,145.296],[179.511,145.321],[179.55,145.336],[179.663,145.381],[179.684,145.389],[179.752,145.418],[179.762,145.423],[179.785,145.433],[179.943,145.507],[179.987,145.529],[180.167,145.624],[180.246,145.668],[180.375,145.745],[180.517,145.836],[180.746,145.998],[181.063,146.257],[181.334,146.516],[181.508,146.704],[181.566,146.772],[181.76,147.017],[181.877,147.18],[181.916,147.238],[182.009,147.383],[182.036,147.427],[182.11,147.555],[182.125,147.582],[182.151,147.63],[182.185,147.694],[182.19,147.704],[182.212,147.746],[182.23,147.783],[182.24,147.803],[182.244,147.811],[182.243,152.19],[182.235,152.208],[182.22,152.237],[182.197,152.282],[182.166,152.342],[182.165,152.344],[182.124,152.42],[182.074,152.508],[182.021,152.597],[181.943,152.72],[181.895,152.794],[181.777,152.962],[181.744,153.006],[181.575,153.218],[181.353,153.465],[181.334,153.484],[181.055,153.75],[180.877,153.9],[180.738,154.008],[180.382,154.25],[180.369,154.258],[180.162,154.379],[180.135,154.394],[179.939,154.495],[179.891,154.518],[179.785,154.567],[179.762,154.577],[179.752,154.582],[179.684,154.611],[179.663,154.619],[179.55,154.664],[179.519,154.676],[179.458,154.699],[179.444,154.704],[179.361,154.733],[179.32,154.746],[179.273,154.762],[179.112,154.811],[179.04,154.83],[178.857,154.876],[178.792,154.89],[178.627,154.922],[178.535,154.938],[178.503,154.943],[178.473,154.947],[178.432,154.953],[178.396,154.958],[178.364,154.962],[178.336,154.965],[178.314,154.968],[178.298,154.97],[178.276,154.972],[178.251,154.975],[178.21,154.979],[178.154,154.984],[178.145,154.984],[178.081,154.989],[177.995,154.994],[177.895,154.998],[177.785,155],[137.756,155],[137.756,145]]
M73 P0 R77
;TYPE:Custom
START_PRINT T_BED=60 T_EXTRUDER=200
G90
G21
M83 ; use relative distances for extrusion
; filament start gcode

    PRESSURE_ADVANCE_SELECT FILAMENT=PLA
M106 S0
;LAYER_CHANGE
;Z:0.2
;HEIGHT:0.2
;BEFORE_LAYER_CHANGE
;0.2
G92 E0

M104 S220 ; set nozzle temperature
M204 S1000
G1 E-.8 F3600
G1 X141.804 Y140.419 F9000
G1 Z.2
G1 E.8 F3600
;TYPE:Skirt
;WIDTH:0.5
G1 F3000
G1 X142.585 Y139.637 E.04118
G1 X143.844 Y138.759 E.05716
G1 X145.491 Y138.087 E.06623
G1 X146.575 Y137.874 E.04118
G1 X147.339 Y137.818 E.02851
G1 X177.913 Y137.817 E1.13875
G1 X179.625 Y137.964 E.06401
G1 X180.706 Y138.222 E.04138
G1 X181.758 Y138.638 E.04215
G1 X183.061 Y139.45 E.05716
G1 X184.326 Y140.699 E.06623
G1 X184.95 Y141.612 E.04118
G1 X185.579 Y143.012 E.05716
G1 X185.856 Y144.16 E.044
G1 X185.962 Y145.361 E.0449
G1 X185.962 Y154.639 E.34559
G1 X185.84 Y155.955 E.04919
G1 X185.322 Y157.656 E.06623
G1 X184.562 Y158.989 E.05716
G1 X183.363 Y160.303 E.06623
G1 X182.105 Y161.181 E.05716
G1 X181.002 Y161.674 E.045
G1 X180.033 Y161.95 E.03752
G1 X178.828 Y162.135 E.04541
G1 X177.905 Y162.183 E.03444
G1 X147.257 Y162.177 E1.14152
G1 X146.157 Y162.064 E.04118
G1 X145.086 Y161.789 E.04118
G1 X143.48 Y161.026 E.06623
G1 X142.591 Y160.368 E.04118
G1 X141.809 Y159.587 E.04118
G1 X140.931 Y158.328 E.05716
G1 X140.259 Y156.681 E.06623
G1 X140.009 Y155.25 E.05412
G1 X139.987 Y145.3 E.37061
G1 X140.045 Y144.411 E.03319
G1 X140.383 Y142.914 E.05716
G1 X141.146 Y141.308 E.06623
G1 X141.768 Y140.467 E.03895
G1 X142.137 Y140.804 F9000
G1 F3000
G1 X142.899 Y139.969 E.0421
G1 X144.047 Y139.168 E.05214
G1 X145.631 Y138.522 E.06372
G1 X146.651 Y138.325 E.03867
G1 X147.36 Y138.275 E.02648
G1 X177.913 Y138.274 E1.13798
G1 X179.564 Y138.417 E.06172
G1 X180.592 Y138.664 E.03938
G1 X181.576 Y139.058 E.03949
G1 X182.765 Y139.798 E.05214
G1 X183.982 Y140.999 E.06372
G1 X184.565 Y141.858 E.03867
G1 X185.139 Y143.136 E.05214
G1 X185.401 Y144.206 E.04104
G1 X185.505 Y145.361 E.0432
G1 X185.505 Y154.639 E.34559
G1 X185.395 Y155.854 E.04542
G1 X184.896 Y157.49 E.06372
G1 X184.203 Y158.707 E.05214
G1 X183.049 Y159.97 E.06372
G1 X181.901 Y160.771 E.05214
G1 X180.877 Y161.235 E.04188
G1 X179.908 Y161.511 E.03752
G1 X177.886 Y161.726 E.07575
G1 X147.29 Y161.721 E1.13956
G1 X146.257 Y161.618 E.03867
G1 X145.251 Y161.363 E.03867
G1 X143.706 Y160.629 E.06372
G1 X142.873 Y160.009 E.03867
G1 X142.141 Y159.273 E.03867
G1 X141.34 Y158.125 E.05214
G1 X140.694 Y156.541 E.06372
G1 X140.466 Y155.229 E.04958
G1 X140.444 Y145.3 E.36983
G1 X140.501 Y144.445 E.03193
G1 X140.703 Y143.426 E.03867
G1 X141.053 Y142.449 E.03867
G1 X141.746 Y141.232 E.05214
G1 X142.097 Y140.848 E.01938
; printing object temperature_tower.stl id:0 copy 0
EXCLUDE_OBJECT_START NAME=temperature_tower.stl_id_0_copy_0
G1 E-.8 F3600
G1 X144.179 Y142.483 F9000
G1 E.8 F3600
;TYPE:Brim
G1 F3000
G1 X144.265 Y142.373 E.00521
G1 X144.731 Y141.933 E.0239
G1 X145.258 Y141.565 E.0239
G1 X145.832 Y141.28 E.0239
G1 X146.443 Y141.082 E.0239
G1 X147.079 Y140.976 E.02402
G1 X147.477 Y140.958 E.01484
G1 X177.906 Y140.959 E1.13335
G1 X178.644 Y141.003 E.02755
G1 X179.19 Y141.077 E.02053
G1 X179.905 Y141.261 E.02748
G1 X180.493 Y141.515 E.02386
G1 X181.038 Y141.855 E.0239
G1 X181.526 Y142.27 E.0239
G1 X181.949 Y142.754 E.0239
G1 X182.295 Y143.294 E.0239
G1 X182.558 Y143.879 E.0239
G1 X182.731 Y144.494 E.02379
G1 X182.819 Y145.372 E.03287
G1 X182.819 Y154.631 E.34485
G1 X182.771 Y155.279 E.02422
G1 X182.63 Y155.905 E.0239
G1 X182.398 Y156.504 E.0239
G1 X182.08 Y157.061 E.0239
G1 X181.684 Y157.566 E.0239
G1 X181.217 Y158.007 E.0239
G1 X180.691 Y158.374 E.0239
G1 X180.12 Y158.658 E.02375
G1 X179.189 Y158.923 E.03607
G1 X178.451 Y159.015 E.02767
G1 X177.779 Y159.042 E.02505
G1 X147.48 Y159.042 E1.12852
G1 X146.832 Y158.994 E.02422
G1 X146.206 Y158.853 E.0239
G1 X145.608 Y158.621 E.0239
G1 X145.05 Y158.303 E.0239
G1 X144.545 Y157.907 E.0239
G1 X144.105 Y157.441 E.0239
G1 X143.737 Y156.914 E.0239
G1 X143.452 Y156.34 E.0239
G1 X143.254 Y155.729 E.0239
G1 X143.148 Y155.093 E.02402
G1 X143.13 Y154.695 E.01484
G1 X143.13 Y145.308 E.34961
G1 X143.178 Y144.66 E.02422
G1 X143.319 Y144.034 E.0239
G1 X143.551 Y143.436 E.0239
G1 X143.869 Y142.878 E.0239
G1 X144.142 Y142.53 E.01646
G1 X144.501 Y142.814 F9000
G1 F3000
G1 X144.611 Y142.675 E.0066
G1 X145.029 Y142.282 E.02138
G1 X145.483 Y141.965 E.02062
G1 X145.996 Y141.709 E.02137
G1 X146.562 Y141.526 E.02213
G1 X147.119 Y141.433 E.02106
G1 X147.491 Y141.415 E.01385
G1 X177.888 Y141.417 E1.13219
G1 X178.595 Y141.458 E.02636
G1 X179.095 Y141.525 E.01878
G1 X179.746 Y141.692 E.02503
G1 X180.271 Y141.917 E.02128
G1 X180.759 Y142.219 E.02138
G1 X181.197 Y142.59 E.02137
G1 X181.588 Y143.037 E.02213
G1 X181.887 Y143.503 E.02062
G1 X182.123 Y144.026 E.02137
G1 X182.281 Y144.591 E.02186
G1 X182.362 Y145.402 E.03034
G1 X182.362 Y154.609 E.34292
G1 X182.315 Y155.222 E.02289
G1 X182.194 Y155.762 E.02062
G1 X181.988 Y156.297 E.02138
G1 X181.693 Y156.814 E.02213
G1 X181.351 Y157.249 E.02062
G1 X180.935 Y157.644 E.02138
G1 X180.466 Y157.974 E.02137
G1 X179.965 Y158.224 E.02083
G1 X179.087 Y158.475 E.03404
G1 X178.419 Y158.558 E.02505
G1 X177.767 Y158.585 E.02432
G1 X147.492 Y158.585 E1.12762
G1 X146.91 Y158.542 E.02176
G1 X146.349 Y158.417 E.02138
G1 X145.814 Y158.211 E.02137
G1 X145.314 Y157.928 E.02138
G1 X144.862 Y157.575 E.02137
G1 X144.467 Y157.159 E.02138
G1 X144.137 Y156.689 E.02138
G1 X143.881 Y156.176 E.02137
G1 X143.698 Y155.61 E.02213
G1 X143.605 Y155.053 E.02106
G1 X143.587 Y154.681 E.01385
G1 X143.587 Y145.33 E.34829
G1 X143.63 Y144.738 E.02214
G1 X143.761 Y144.158 E.02213
G1 X143.97 Y143.624 E.02137
G1 X144.255 Y143.126 E.02138
G1 X144.464 Y142.861 E.01254
G1 X144.822 Y143.146 F9000
G1 F3000
G1 X144.956 Y142.978 E.008
G1 X145.311 Y142.645 E.01812
G1 X145.709 Y142.365 E.01814
G1 X146.161 Y142.137 E.01883
G1 X146.68 Y141.969 E.02034
G1 X147.16 Y141.889 E.01812
G1 X147.505 Y141.872 E.01286
G1 X177.871 Y141.874 E1.13101
G1 X178.546 Y141.913 E.02518
G1 X178.999 Y141.973 E.01704
G1 X179.588 Y142.123 E.02261
G1 X180.05 Y142.32 E.0187
G1 X180.481 Y142.585 E.01885
G1 X180.882 Y142.924 E.01958
G1 X181.227 Y143.321 E.01957
G1 X181.488 Y143.731 E.01811
G1 X181.688 Y144.174 E.01808
G1 X181.832 Y144.688 E.0199
G1 X181.905 Y145.432 E.02782
G1 X181.905 Y154.586 E.34098
G1 X181.86 Y155.164 E.02156
G1 X181.751 Y155.638 E.01813
G1 X181.577 Y156.091 E.0181
G1 X181.307 Y156.566 E.02034
G1 X181.005 Y156.947 E.01811
G1 X180.653 Y157.283 E.01812
G1 X180.239 Y157.574 E.01885
G1 X179.81 Y157.791 E.01788
G1 X178.985 Y158.027 E.03199
G1 X178.376 Y158.102 E.02284
G1 X177.755 Y158.128 E.02317
G1 X147.504 Y158.127 E1.12671
G1 X146.987 Y158.089 E.01933
G1 X146.492 Y157.98 E.01886
G1 X146.019 Y157.8 E.01885
G1 X145.578 Y157.552 E.01885
G1 X145.178 Y157.242 E.01885
G1 X144.829 Y156.876 E.01885
G1 X144.537 Y156.462 E.01885
G1 X144.31 Y156.011 E.01882
G1 X144.141 Y155.492 E.02034
G1 X144.061 Y155.012 E.01812
G1 X144.044 Y154.667 E.01286
G1 X144.044 Y145.352 E.34695
G1 X144.083 Y144.815 E.02005
G1 X144.203 Y144.283 E.02033
G1 X144.388 Y143.813 E.01882
G1 X144.641 Y143.374 E.01885
G1 X144.785 Y143.193 E.00862
G1 X145.143 Y143.479 F9000
G1 F3000
G1 X145.301 Y143.282 E.00942
G1 X145.608 Y142.995 E.01566
G1 X145.953 Y142.754 E.01569
G1 X146.345 Y142.558 E.0163
G1 X146.799 Y142.413 E.01775
G1 X147.201 Y142.346 E.0152
G1 X147.52 Y142.329 E.01187
G1 X177.854 Y142.331 E1.12982
G1 X178.497 Y142.368 E.02401
G1 X178.904 Y142.422 E.0153
G1 X179.431 Y142.555 E.02021
G1 X179.83 Y142.723 E.01614
G1 X180.203 Y142.951 E.01628
G1 X180.552 Y143.244 E.01698
G1 X180.865 Y143.604 E.01776
G1 X181.08 Y143.941 E.01489
G1 X181.253 Y144.321 E.01554
G1 X181.382 Y144.785 E.01794
G1 X181.448 Y145.461 E.0253
G1 X181.448 Y154.563 E.33903
G1 X181.408 Y155.084 E.01946
G1 X181.315 Y155.495 E.01567
G1 X181.167 Y155.886 E.01557
G1 X180.92 Y156.318 E.01853
G1 X180.66 Y156.645 E.01558
G1 X180.369 Y156.921 E.01494
G1 X180.011 Y157.176 E.01634
G1 X179.655 Y157.357 E.01491
G1 X178.882 Y157.579 E.02992
G1 X178.333 Y157.647 E.02062
G1 X177.742 Y157.671 E.02203
G1 X147.516 Y157.67 E1.12581
G1 X147.063 Y157.636 E.01693
G1 X146.633 Y157.543 E.01637
G1 X146.223 Y157.389 E.01632
G1 X145.84 Y157.175 E.01632
G1 X145.493 Y156.908 E.01632
G1 X145.19 Y156.592 E.01632
G1 X144.925 Y156.217 E.01707
G1 X144.73 Y155.827 E.01626
G1 X144.585 Y155.373 E.01775
G1 X144.518 Y154.971 E.0152
G1 X144.501 Y154.652 E.01187
G1 X144.501 Y145.374 E.34559
G1 X144.536 Y144.893 E.01796
G1 X144.645 Y144.408 E.01852
G1 X144.806 Y144.003 E.01623
G1 X145.027 Y143.624 E.01632
G1 X145.105 Y143.526 E.00469
G1 X145.461 Y143.813 F9000
G1 F3000
G1 X145.644 Y143.586 E.01085
G1 X145.904 Y143.345 E.0132
G1 X146.196 Y143.143 E.01324
G1 X146.528 Y142.98 E.01377
G1 X146.917 Y142.857 E.01519
G1 X147.244 Y142.802 E.01234
G1 X147.535 Y142.786 E.01089
G1 X177.836 Y142.788 E1.12859
G1 X178.449 Y142.823 E.02285
G1 X178.81 Y142.871 E.01358
G1 X179.275 Y142.987 E.01784
G1 X179.611 Y143.127 E.01358
G1 X179.927 Y143.317 E.01371
G1 X180.238 Y143.579 E.01513
G1 X180.503 Y143.887 E.01514
G1 X180.681 Y144.168 E.01241
G1 X180.818 Y144.468 E.01226
G1 X180.932 Y144.881 E.01595
G1 X180.991 Y145.49 E.02279
G1 X180.991 Y154.54 E.33711
G1 X180.955 Y155.006 E.0174
G1 X180.879 Y155.353 E.01322
G1 X180.756 Y155.68 E.01301
G1 X180.534 Y156.069 E.01668
G1 X180.315 Y156.342 E.01304
G1 X180.07 Y156.573 E.01255
G1 X179.765 Y156.788 E.01389
G1 X179.474 Y156.934 E.01214
G1 X178.78 Y157.131 E.02686
G1 X178.29 Y157.191 E.01838
G1 X177.73 Y157.214 E.02089
G1 X147.528 Y157.213 E1.12491
G1 X147.119 Y157.181 E.01528
G1 X146.753 Y157.1 E.01394
G1 X146.407 Y156.968 E.0138
G1 X146.085 Y156.786 E.01379
G1 X145.792 Y156.559 E.01379
G1 X145.537 Y156.291 E.01377
G1 X145.314 Y155.973 E.01449
G1 X145.152 Y155.644 E.01366
G1 X145.029 Y155.255 E.01518
G1 X144.974 Y154.928 E.01234
G1 X144.958 Y154.637 E.01089
G1 X144.958 Y145.395 E.34421
G1 X144.988 Y144.97 E.01587
G1 X145.087 Y144.534 E.01668
G1 X145.224 Y144.195 E.0136
G1 X145.411 Y143.875 E.01379
G1 X145.424 Y143.86 E.00075
G1 X145.788 Y144.15 F9000
G1 F3000
G1 X145.996 Y143.889 E.01242
G1 X146.25 Y143.67 E.0125
G1 X146.591 Y143.47 E.01471
G1 X147.108 Y143.298 E.02033
G1 X147.513 Y143.243 E.01522
G1 X177.77 Y143.243 E1.12694
G1 X178.426 Y143.279 E.02448
G1 X178.779 Y143.33 E.01329
G1 X179.063 Y143.403 E.01093
G1 X179.622 Y143.676 E.02317
G1 X179.725 Y143.746 E.00465
G1 X179.921 Y143.916 E.00966
G1 X180.108 Y144.134 E.0107
G1 X180.252 Y144.369 E.01023
G1 X180.4 Y144.705 E.0137
G1 X180.515 Y145.199 E.0189
G1 X180.534 Y154.595 E.34996
M73 P0 R76
G1 X180.436 Y155.204 E.02298
G1 X180.401 Y155.318 E.00443
G1 X180.246 Y155.657 E.01387
G1 X180.027 Y155.967 E.01416
G1 X179.809 Y156.18 E.01134
G1 X179.465 Y156.418 E.01558
G1 X179.204 Y156.544 E.01081
G1 X178.775 Y156.669 E.01664
G1 X178.317 Y156.731 E.01721
G1 X177.853 Y156.755 E.01727
G1 X147.517 Y156.757 E1.12991
G1 X146.795 Y156.626 E.02734
G1 X146.559 Y156.526 E.00955
G1 X146.364 Y156.417 E.00832
G1 X145.973 Y156.083 E.01916
G1 X145.898 Y155.997 E.00423
G1 X145.733 Y155.751 E.01104
G1 X145.583 Y155.442 E.01281
G1 X145.465 Y155.047 E.01535
G1 X145.425 Y154.81 E.00896
G1 X145.415 Y145.348 E.35241
G1 X145.508 Y144.772 E.02172
G1 X145.61 Y144.466 E.01204
G1 X145.752 Y144.198 E.01127
G1 X146.15 Y144.422 F9000
G1 F3000
G1 X146.162 Y144.402 E.00086
G1 X146.351 Y144.176 E.01099
G1 X146.544 Y144.019 E.00925
G1 X146.823 Y143.864 E.0119
G1 X147.252 Y143.732 E.0167
G1 X147.504 Y143.7 E.00946
G1 X177.773 Y143.7 E1.12742
G1 X178.362 Y143.732 E.02194
G1 X178.658 Y143.771 E.01113
G1 X178.963 Y143.849 E.01173
G1 X179.419 Y144.085 E.01911
G1 X179.628 Y144.267 E.01034
G1 X179.758 Y144.428 E.00769
G1 X179.83 Y144.546 E.00515
G1 X179.988 Y144.902 E.01452
G1 X180.069 Y145.302 E.01521
G1 X180.077 Y154.606 E.34655
G1 X179.984 Y155.132 E.01987
G1 X179.87 Y155.398 E.01079
G1 X179.715 Y155.632 E.01043
G1 X179.481 Y155.862 E.01223
G1 X179.208 Y156.04 E.01214
G1 X179.008 Y156.131 E.00819
G1 X178.646 Y156.23 E.01399
G1 X178.258 Y156.278 E.01457
G1 X177.828 Y156.299 E.01602
G1 X147.505 Y156.3 E1.12942
G1 X146.978 Y156.207 E.01994
G1 X146.789 Y156.131 E.00757
G1 X146.576 Y156.011 E.0091
G1 X146.275 Y155.74 E.01512
G1 X146.148 Y155.56 E.00819
G1 X145.989 Y155.232 E.01357
G1 X145.904 Y154.921 E.01202
G1 X145.876 Y154.734 E.00704
G1 X145.872 Y145.337 E.35
G1 X145.96 Y144.843 E.01867
G1 X146.043 Y144.614 E.0091
G1 X146.121 Y144.475 E.00594
G1 X146.511 Y144.707 F9000
G1 F3000
G1 X146.559 Y144.628 E.00344
G1 X146.696 Y144.476 E.00763
G1 X146.822 Y144.382 E.00586
G1 X147.049 Y144.261 E.00956
G1 X147.38 Y144.17 E.0128
G1 X147.495 Y144.157 E.00432
G1 X177.777 Y144.157 E1.12788
G1 X178.297 Y144.184 E.01938
G1 X178.606 Y144.225 E.01164
G1 X178.848 Y144.291 E.00932
G1 X179.128 Y144.437 E.01177
G1 X179.265 Y144.546 E.00652
G1 X179.408 Y144.722 E.00847
G1 X179.574 Y145.095 E.01519
G1 X179.62 Y145.385 E.01092
G1 X179.62 Y154.617 E.34384
G1 X179.563 Y154.956 E.01281
G1 X179.481 Y155.159 E.00818
G1 X179.39 Y155.312 E.00662
G1 X179.234 Y155.477 E.00847
G1 X179.01 Y155.629 E.01004
G1 X178.886 Y155.691 E.00519
G1 X178.601 Y155.775 E.01107
G1 X178.197 Y155.824 E.01513
G1 X177.805 Y155.842 E.01465
G1 X147.495 Y155.843 E1.12893
G1 X147.156 Y155.786 E.01281
G1 X146.952 Y155.704 E.00818
G1 X146.8 Y155.613 E.00659
G1 X146.648 Y155.476 E.00763
G1 X146.554 Y155.35 E.00586
G1 X146.433 Y155.123 E.00956
