; generated by SuperSlicer 2.5.59 on 2023-02-05 at 22:29:16 UTC


;
;

;
;
; 

; external perimeters extrusion width = 0.40mm
; perimeters extrusion width = 0.46mm
; infill extrusion width = 0.64mm
; solid infill extrusion width = 0.56mm
; top infill extrusion width = 0.40mm
; support material extrusion width = 0.46mm
; first layer extrusion width = 0.50mm

; object:{"name":"test12345","id":"test12345.stl id:0 copy 0","object_center":[165.000000,165.000000,0.000000],"boundingbox_center":[165.000000,165.000000,63.040009],"boundingbox_size":[9.997997,12.497993,126.080017]}
; plater:{"center":[165.000000,165.000000,0.000000],"boundingbox_center":[165.000000,165.000000,63.040009],"boundingbox_size":[9.997997,12.497993,126.080017]}

M73 P0 R113


; Pre-Processed for Cancel-Object support by preprocess_cancellation v0.2.0
; 1 known objects
EXCLUDE_OBJECT_DEFINE NAME=test12345_stl_id_0_copy_0 CENTER=163.211,165.149 POLYGON=[[160.201,158.951],[160.201,171.049],[169.799,171.049],[169.799,158.951]]
;TYPE:Custom
; custom gcode: start_gcode
START_PRINT T_BED=70 T_EXTRUDER=235
; custom gcode end: start_gcode
M107
G21 ; set units to millimeters
G90 ; use absolute coordinates
M82 ; use absolute distances for extrusion
G92 E0
; custom gcode: start_filament_gcode
; Filament gcode
PRESSURE_ADVANCE_SELECT FILAMENT=PETG
; custom gcode end: start_filament_gcode
;_TOOLCHANGE 0
M104 S235 ; set temperature
M109 S235 ; set temperature and wait for it to be reached
M190 S70 ; set bed temperature and wait for it to be reached
;LAYER_CHANGE
;Z:0.2
;HEIGHT:0.2
G1 Z0.2 F9000
G1 E-1 F3000
M204 S1000
G1 X155.535 Y154.804 F9000
G1 E0 F1800
;TYPE:Skirt
;WIDTH:0.52
G1 X154.397 Y156.687 E0.08728
G1 X154 Y158.851 E0.17456
G1 X154 Y171.149 E0.66241
G1 X154.698 Y173.982 E0.77817
G1 X156.054 Y175.715 E0.86545
G1 X157.937 Y176.853 E0.95273
G1 X160.101 Y177.25 E1.04001
G1 X169.899 Y177.25 E1.42869
G1 X172.732 Y176.552 E1.54445
G1 X174.465 Y175.196 E1.63172
G1 X175.603 Y173.313 E1.719
G1 X176 Y171.149 E1.80628
G1 X176 Y158.851 E2.29414
G1 X175.302 Y156.018 E2.40989
G1 X173.946 Y154.285 E2.49717
G1 X172.063 Y153.147 E2.58445
G1 X169.899 Y152.75 E2.67173
G1 X160.101 Y152.75 E3.06041
G1 X157.268 Y153.448 E3.17617
G1 X155.535 Y154.804 E3.26345
G1 X155.958 Y155.073 F9000
G1 F1800
G1 X154.874 Y156.777 E3.34357
G1 X154.477 Y158.851 E3.42734
G1 X154.477 Y171.149 E3.91519
G1 X155.007 Y173.532 E4.01205
G1 X156.245 Y175.243 E4.09582
G1 X158.027 Y176.376 E4.17958
G1 X160.101 Y176.773 E4.26335
G1 X169.899 Y176.773 E4.65203
G1 X172.282 Y176.243 E4.74889
G1 X173.993 Y175.005 E4.83266
G1 X175.126 Y173.223 E4.91643
G1 X175.523 Y171.149 E5.0002
G1 X175.523 Y158.851 E5.48805
G1 X174.993 Y156.468 E5.58491
G1 X173.755 Y154.757 E5.66867
G1 X171.973 Y153.624 E5.75244
G1 X169.899 Y153.227 E5.83621
G1 X160.101 Y153.227 E6.22489
G1 X157.718 Y153.757 E6.32175
G1 X156.007 Y154.995 E6.40552
G1 X155.958 Y155.073 E6.40917
G1 X156.372 Y155.352 F9000
G1 F1800
G1 X155.35 Y156.871 E6.4818
G1 X154.954 Y158.851 E6.5619
G1 X154.954 Y171.149 E7.04975
G1 X155.333 Y173.087 E7.1281
G1 X156.446 Y174.772 E7.2082
G1 X158.121 Y175.9 E7.28831
G1 X160.101 Y176.296 E7.36841
G1 X169.899 Y176.296 E7.75709
G1 X171.837 Y175.917 E7.83543
G1 X173.522 Y174.804 E7.91554
G1 X174.65 Y173.129 E7.99564
G1 X175.046 Y171.149 E8.07575
G1 X175.046 Y158.851 E8.5636
G1 X174.667 Y156.913 E8.64194
G1 X173.554 Y155.228 E8.72205
G1 X171.879 Y154.1 E8.80215
G1 X169.899 Y153.704 E8.88225
G1 X160.101 Y153.704 E9.27093
G1 X158.163 Y154.083 E9.34928
G1 X156.478 Y155.196 E9.42938
G1 X156.372 Y155.352 E9.43686
G1 X156.778 Y155.643 F9000
G1 F1800
G1 X155.827 Y156.97 E9.50162
G1 X155.431 Y158.851 E9.57788
G1 X155.431 Y171.149 E10.06574
G1 X155.678 Y172.648 E10.12602
G1 X156.657 Y174.303 E10.20228
G1 X158.22 Y175.423 E10.27854
G1 X160.101 Y175.819 E10.3548
G1 X169.899 Y175.819 E10.74348
G1 X171.398 Y175.572 E10.80377
G1 X173.053 Y174.593 E10.88003
G1 X174.173 Y173.03 E10.95629
G1 X174.569 Y171.149 E11.03255
G1 X174.569 Y158.851 E11.52041
G1 X174.322 Y157.352 E11.58069
G1 X173.343 Y155.697 E11.65695
G1 X171.78 Y154.577 E11.73321
G1 X169.899 Y154.181 E11.80948
G1 X160.101 Y154.181 E12.19816
G1 X158.602 Y154.428 E12.25844
G1 X156.947 Y155.407 E12.3347
G1 X156.778 Y155.643 E12.3462
G1 X157.172 Y155.947 F9000
G1 F1800
G1 X156.304 Y157.074 E12.40266
G1 X155.908 Y158.851 E12.47488
G1 X155.908 Y171.149 E12.96273
G1 X156.047 Y172.218 E13.00548
G1 X156.882 Y173.835 E13.07769
G1 X158.324 Y174.946 E13.14991
G1 X160.101 Y175.342 E13.22213
G1 X169.899 Y175.342 E13.61081
G1 X170.968 Y175.203 E13.65356
G1 X172.585 Y174.368 E13.72577
G1 X173.696 Y172.926 E13.79799
G1 X174.092 Y171.149 E13.87021
G1 X174.092 Y158.851 E14.35806
G1 X173.953 Y157.782 E14.40081
G1 X173.118 Y156.165 E14.47303
G1 X171.676 Y155.054 E14.54524
G1 X169.899 Y154.658 E14.61746
G1 X160.101 Y154.658 E15.00614
G1 X159.032 Y154.797 E15.04889
G1 X157.415 Y155.632 E15.1211
G1 X157.172 Y155.947 E15.13686
G1 X157.551 Y156.264 F9000
G1 F1800
G1 X156.78 Y157.185 E15.1845
G1 X156.385 Y158.851 E15.25243
G1 X156.385 Y171.149 E15.74028
G1 X157.122 Y173.37 E15.83311
G1 X158.435 Y174.47 E15.90104
G1 X160.101 Y174.865 E15.96897
G1 X169.899 Y174.865 E16.35765
G1 X172.12 Y174.128 E16.45048
G1 X173.22 Y172.815 E16.51841
G1 X173.615 Y171.149 E16.58634
G1 X173.615 Y158.851 E17.0742
G1 X172.878 Y156.63 E17.16702
G1 X171.565 Y155.53 E17.23496
G1 X169.899 Y155.135 E17.30289
G1 X160.101 Y155.135 E17.69157
G1 X157.88 Y155.872 E17.78439
G1 X157.551 Y156.264 E17.80469
G1 X157.911 Y156.597 F9000
G1 F1800
G1 X157.256 Y157.303 E17.84287
G1 X156.862 Y158.851 E17.90623
G1 X156.862 Y171.149 E18.39408
G1 X157.382 Y172.908 E18.46684
G1 X158.553 Y173.994 E18.5302
G1 X160.101 Y174.388 E18.59355
G1 X169.899 Y174.388 E18.98223
G1 X171.658 Y173.868 E19.05499
G1 X172.744 Y172.697 E19.11835
G1 X173.138 Y171.149 E19.18171
G1 X173.138 Y158.851 E19.66956
G1 X172.618 Y157.092 E19.74232
G1 X171.447 Y156.006 E19.80567
G1 X169.899 Y155.612 E19.86903
G1 X160.101 Y155.612 E20.25771
G1 X158.342 Y156.132 E20.33047
G1 X157.911 Y156.597 E20.35564
G92 E0
G1 E-1 F3000
; printing object test12345.stl id:0 copy 0
EXCLUDE_OBJECT_START NAME=test12345_stl_id_0_copy_0
; acceleration to travel
M204 S3000
G1 X161.137 Y159.503 F9000
; decel to extrusion
M204 S1000
G1 X162.212 Y160.472
; end travel
G1 E0 F1800
;TYPE:Internal perimeter
;WIDTH:0.5
G1 X168.278 Y160.472 E0.23053
G1 X168.278 Y169.528 E0.5747
G1 X162.19 Y169.528 E0.80607
G1 X162.581 Y168.11 E0.86197
G1 X162.837 Y166.522 E0.92309
G1 X162.96 Y164.226 E1.0105
G1 X162.448 Y161.072 E1.13192
G1 X162.212 Y160.472 E1.15642
G1 X161.542 Y160.015 F9000
G1 F1800
G1 X168.735 Y160.015 E1.42979
G1 X168.735 Y169.985 E1.8087
G1 X161.549 Y169.985 E2.08183
G1 X161.687 Y169.633 E2.09619
G1 X162.134 Y168.012 E2.16009
G1 X162.382 Y166.473 E2.21934
G1 X162.501 Y164.25 E2.30394
G1 X162.004 Y161.194 E2.42164
G1 X161.542 Y160.015 E2.46976
G1 X160.872 Y159.558 F9000
G1 F1800
G1 X169.192 Y159.558 E2.78598
G1 X169.192 Y170.442 E3.19964
M73 P0 R112
G1 X160.878 Y170.442 E3.51562
G1 X161.253 Y169.488 E3.55457
G1 X161.687 Y167.915 E3.6166
G1 X161.927 Y166.425 E3.67397
G1 X162.042 Y164.275 E3.75578
G1 X161.561 Y161.315 E3.86975
G1 X160.872 Y159.558 E3.94149
G1 X160.351 Y159.101 F9000
;TYPE:External perimeter
G1 F1800
G1 X169.649 Y159.101 E4.29488
G1 X169.649 Y170.899 E4.74327
G1 X160.351 Y170.899 E5.09666
G1 X160.351 Y170.533 E5.11057
G1 X160.818 Y169.344 E5.15914
G1 X161.239 Y167.817 E5.21931
G1 X161.472 Y166.376 E5.27481
G1 X161.583 Y164.3 E5.35382
G1 X161.118 Y161.437 E5.46406
G1 X160.351 Y159.483 E5.54384
G1 X160.351 Y159.101 E5.55835
;WIPE_START
M204 S4000
G1 X160.697 Y159.301 F9000
;WIPE_END
G92 E0
G1 E-1 F3000
; acceleration to travel
M204 S3000
G1 X165.418 Y160.248 F9000
; decel to extrusion
M204 S1000
G1 X167.217 Y160.609
; end travel
G1 E0 F1800
;TYPE:Solid infill
;WIDTH:0.506953
G1 F3600
G1 X168.141 Y161.533 E0.05035
G1 X168.141 Y162.18 F9000
G1 F3600
G1 X166.57 Y160.609 E0.13593
G1 X165.924 Y160.609 F9000
G1 F3600
G1 X168.141 Y162.826 E0.25674
G1 X168.141 Y163.473 F9000
G1 F3600
G1 X165.277 Y160.609 E0.41277
G1 X164.631 Y160.609 F9000
G1 F3600
G1 X168.141 Y164.119 E0.60404
G1 X168.141 Y164.765 F9000
G1 F3600
G1 X163.985 Y160.609 E0.83052
G1 X163.338 Y160.609 F9000
G1 F3600
G1 X168.141 Y165.412 E1.09224
G1 X168.141 Y166.058 F9000
G1 F3600
G1 X162.692 Y160.609 E1.38918
G1 X162.602 Y161.166 F9000
G1 F3600
G1 X168.141 Y166.705 E1.69103
G1 X168.141 Y167.351 F9000
G1 F3600
G1 X162.727 Y161.938 E1.98604
G1 X162.853 Y162.709 F9000
G1 F3600
G1 X168.141 Y167.997 E2.27421
G1 X168.141 Y168.644 F9000
G1 F3600
G1 X162.978 Y163.481 E2.55555
G1 X163.097 Y164.246 F9000
G1 F3600
G1 X168.141 Y169.29 E2.83043
G1 X167.595 Y169.391 F9000
G1 F3600
G1 X163.064 Y164.86 E3.07736
G1 X163.031 Y165.473 F9000
G1 F3600
G1 X166.948 Y169.391 E3.29084
G1 X166.302 Y169.391 F9000
G1 F3600
G1 X162.998 Y166.087 E3.47089
G1 X162.95 Y166.685 F9000
G1 F3600
G1 X165.655 Y169.391 E3.61833
G1 X165.009 Y169.391 F9000
G1 F3600
G1 X162.86 Y167.242 E3.73544
G1 X162.77 Y167.798 F9000
G1 F3600
G1 X164.363 Y169.391 E3.82222
G1 X163.716 Y169.391 F9000
G1 F3600
G1 X162.661 Y168.336 E3.87972
G1 X162.521 Y168.842 F9000
G1 F3600
G1 X163.07 Y169.391 E3.90961
;LAYER_CHANGE
;Z:0.4
;HEIGHT:0.2
; stop printing object test12345.stl id:0 copy 0
EXCLUDE_OBJECT_END NAME=test12345_stl_id_0_copy_0
M204 S4000
G1 Z0.4 F9000
; printing object test12345.stl id:0 copy 0
EXCLUDE_OBJECT_START NAME=test12345_stl_id_0_copy_0
; acceleration to travel
M204 S3000
G1 X162.47 Y169.578
; decel to extrusion
M204 S2500
G1 X161.884 Y169.761
; end travel
;TYPE:Internal perimeter
;WIDTH:0.46
G1 F4800
G1 X162.353 Y168.06 E3.9708
G1 X162.605 Y166.497 E4.0257
G1 X162.726 Y164.238 E4.10416
G1 X162.221 Y161.134 E4.21322
G1 X161.87 Y160.239 E4.24658
G1 X168.511 Y160.239 E4.4769
G1 X168.511 Y169.761 E4.80713
G1 X161.884 Y169.761 E5.03697
; acceleration to travel
M204 S3000
G1 X161.546 Y169.989 F9000
; decel to extrusion
M204 S2500
G1 X161.265 Y170.178
; end travel
G1 F4800
G1 X161.503 Y169.572 E5.05958
G1 X161.945 Y167.971 E5.11714
G1 X162.19 Y166.453 E5.17048
G1 X162.307 Y164.261 E5.24662
G1 X161.817 Y161.245 E5.35257
G1 X161.258 Y159.822 E5.4056
G1 X168.928 Y159.822 E5.67159
G1 X168.928 Y170.178 E6.03075
G1 X161.265 Y170.178 E6.29652
; acceleration to travel
M204 S3000
G1 X160.931 Y170.406 F9000
; decel to extrusion
M204 S2500
G1 X160.653 Y170.595
; end travel
G1 F4800
G1 X161.107 Y169.439 E6.33959
G1 X161.536 Y167.882 E6.3956
G1 X161.774 Y166.408 E6.44738
G1 X161.888 Y164.283 E6.52118
G1 X161.412 Y161.356 E6.62404
G1 X160.647 Y159.405 E6.69673
G1 X169.345 Y159.405 E6.9984
G1 X169.345 Y170.595 E7.38649
G1 X160.653 Y170.595 E7.68795
M204 S1500
G1 X160.268 Y170.982 F9000
;TYPE:External perimeter
;WIDTH:0.4
G1 F2400
G1 X160.268 Y170.517 E7.70177
G1 X160.739 Y169.317 E7.74005
G1 X161.158 Y167.8 E7.78677
G1 X161.389 Y166.367 E7.82987
G1 X161.499 Y164.304 E7.8912
G1 X161.037 Y161.459 E7.97679
G1 X160.268 Y159.499 E8.03932
G1 X160.268 Y159.018 E8.0536
G1 X169.732 Y159.018 E8.33462
G1 X169.732 Y170.982 E8.68986
G1 X160.268 Y170.982 E8.97088
;WIPE_START
M204 S4000
G1 X160.468 Y170.636 F9000
;WIPE_END
M204 S3000
G1 X168.393 Y168.598
;TYPE:Solid infill
;WIDTH:0.567314
G1 F4800
G1 X167.348 Y169.643 E9.03527
G1 X166.617 Y169.643 F9000
G1 F4800
G1 X168.393 Y167.867 E9.1447
G1 X168.393 Y167.136 F9000
G1 F4800
G1 X165.886 Y169.643 E9.29917
G1 X165.154 Y169.643 F9000
G1 F4800
G1 X168.393 Y166.404 E9.49869
G1 X168.393 Y165.673 F9000
G1 F4800
G1 X164.423 Y169.643 E9.74326
G1 X163.692 Y169.643 F9000
G1 F4800
G1 X168.393 Y164.942 E10.03287
G1 X168.393 Y164.211 F9000
G1 F4800
G1 X162.961 Y169.643 E10.36752
G1 X162.229 Y169.643 F9000
G1 F4800
G1 X168.393 Y163.479 E10.74722
G1 X168.393 Y162.748 F9000
G1 F4800
G1 X162.244 Y168.898 E11.12605
G1 X162.495 Y167.915 F9000
G1 F4800
G1 X168.393 Y162.017 E11.48937
G1 X168.393 Y161.286 F9000
G1 F4800
G1 X162.636 Y167.043 E11.84403
G1 X162.738 Y166.21 F9000
G1 F4800
G1 X168.393 Y160.554 E12.19239
G1 X167.86 Y160.357 F9000
G1 F4800
G1 X162.779 Y165.437 E12.50535
G1 X162.821 Y164.665 F9000
G1 F4800
G1 X167.129 Y160.357 E12.77072
G1 X166.398 Y160.357 F9000
G1 F4800
G1 X162.799 Y163.955 E12.99239
G1 X162.697 Y163.326 F9000
G1 F4800
G1 X165.666 Y160.357 E13.17531
G1 X164.935 Y160.357 F9000
G1 F4800
G1 X162.594 Y162.697 E13.31949
G1 X162.492 Y162.068 F9000
G1 F4800
G1 X164.204 Y160.357 E13.42492
G1 X163.473 Y160.357 F9000
G1 F4800
G1 X162.39 Y161.439 E13.49161
G1 X162.239 Y160.858 F9000
G1 F4800
G1 X162.741 Y160.357 E13.52252
;LAYER_CHANGE
;Z:0.6
;HEIGHT:0.2
; stop printing object test12345.stl id:0 copy 0
EXCLUDE_OBJECT_END NAME=test12345_stl_id_0_copy_0
M204 S4000
G1 Z0.6 F9000
; printing object test12345.stl id:0 copy 0
EXCLUDE_OBJECT_START NAME=test12345_stl_id_0_copy_0
; acceleration to travel
M204 S3000
G1 X162.239 Y160.274
; decel to extrusion
M204 S2500
G1 X161.821 Y160.206
; end travel
;TYPE:Internal perimeter
;WIDTH:0.46
G1 F1580
G1 X168.544 Y160.206 E13.7557
G1 X168.544 Y169.794 E14.08824
G1 X161.84 Y169.794 E14.32076
G1 X162.32 Y168.053 E14.38339
G1 X162.572 Y166.494 E14.43817
G1 X162.692 Y164.24 E14.51646
G1 X162.189 Y161.143 E14.62527
G1 X161.821 Y160.206 E14.66019
; acceleration to travel
M204 S3000
G1 X161.487 Y159.978 F9000
; decel to extrusion
M204 S2500
G1 X161.209 Y159.788
; end travel
G1 F1580
G1 X168.962 Y159.788 E14.92904
G1 X168.962 Y170.212 E15.29051
G1 X161.216 Y170.212 E15.55914
G1 X161.472 Y169.561 E15.58339
G1 X161.912 Y167.965 E15.64081
G1 X162.156 Y166.45 E15.69403
G1 X162.273 Y164.263 E15.76999
G1 X161.784 Y161.254 E15.87569
G1 X161.209 Y159.788 E15.93029
; acceleration to travel
M204 S3000
G1 X160.876 Y159.561 F9000
; decel to extrusion
M204 S2500
G1 X160.598 Y159.371
; end travel
G1 F1580
G1 X169.379 Y159.371 E16.23481
G1 X169.379 Y170.629 E16.62522
G1 X160.604 Y170.629 E16.92953
G1 X161.075 Y169.429 E16.97425
G1 X161.504 Y167.876 E17.03011
G1 X161.741 Y166.405 E17.08177
G1 X161.855 Y164.285 E17.1554
G1 X161.38 Y161.365 E17.258
G1 X160.598 Y159.371 E17.33227
M204 S1500
G1 X160.234 Y158.984 F9000
;TYPE:External perimeter
;WIDTH:0.4
G1 F1580
G1 X169.766 Y158.984 E17.61526
G1 X169.766 Y171.016 E17.97249
G1 X160.234 Y171.016 E18.25549
G1 X160.234 Y170.51 E18.27049
G1 X160.708 Y169.306 E18.30891
G1 X161.125 Y167.793 E18.35551
G1 X161.356 Y166.364 E18.3985
G1 X161.466 Y164.306 E18.45968
G1 X161.004 Y161.468 E18.54506
G1 X160.234 Y159.505 E18.60766
G1 X160.234 Y158.984 E18.62312
;WIPE_START
M204 S4000
G1 X160.581 Y159.184 F9000
;WIPE_END
M204 S3000
G1 X168.427 Y161.368
;TYPE:Solid infill
;WIDTH:0.568251
G1 F1580
G1 X167.382 Y160.323 E18.68761
G1 X166.65 Y160.323 F9000
G1 F1580
G1 X168.427 Y162.1 E18.79722
G1 X168.427 Y162.831 F9000
G1 F1580
G1 X165.919 Y160.323 E18.95196
G1 X165.188 Y160.323 F9000
G1 F1580
G1 X168.427 Y163.562 E19.15181
G1 X168.427 Y164.293 F9000
G1 F1580
G1 X164.457 Y160.323 E19.39677
G1 X163.725 Y160.323 F9000
G1 F1580
G1 X168.427 Y165.025 E19.68686
G1 X168.427 Y165.756 F9000
G1 F1580
G1 X162.994 Y160.323 E20.02207
G1 X162.263 Y160.323 F9000
G1 F1580
G1 X168.427 Y166.487 E20.4024
G1 X168.427 Y167.219 F9000
G1 F1580
G1 X162.292 Y161.083 E20.78094
G1 X162.441 Y161.964 F9000
G1 F1580
G1 X168.427 Y167.95 E21.15023
G1 X168.427 Y168.681 F9000
G1 F1580
G1 X162.583 Y162.838 E21.51077
G1 X162.725 Y163.711 F9000
G1 F1580
G1 X168.427 Y169.412 E21.86255
G1 X167.96 Y169.677 F9000
G1 F1580
G1 X162.796 Y164.512 E22.18121
G1 X162.758 Y165.206 F9000
G1 F1580
G1 X167.229 Y169.677 E22.45704
G1 X166.498 Y169.677 F9000
G1 F1580
G1 X162.721 Y165.9 E22.69005
G1 X162.676 Y166.586 F9000
G1 F1580
G1 X165.766 Y169.677 E22.88073
G1 X165.035 Y169.677 F9000
G1 F1580
G1 X162.574 Y167.216 E23.03257
G1 X162.473 Y167.846 F9000
G1 F1580
G1 X164.304 Y169.677 E23.14555
G1 X163.573 Y169.677 F9000
G1 F1580
G1 X162.335 Y168.44 E23.22189
G1 X162.177 Y169.013 F9000
G1 F1580
G1 X162.841 Y169.677 E23.26285
;LAYER_CHANGE
;Z:0.8
;HEIGHT:0.2
; stop printing object test12345.stl id:0 copy 0
EXCLUDE_OBJECT_END NAME=test12345_stl_id_0_copy_0
M204 S4000
G1 Z0.8 F9000
