; HEADER_BLOCK_START
; generated by OrcaSlicer 1.6.2 on 2023-05-15 at 08:01:47
; total layer number: 84
; HEADER_BLOCK_END

; THUMBNAIL_BLOCK_START
; THUMBNAIL_BLOCK_END

; external perimeters extrusion width = 0.40mm
; perimeters extrusion width = 0.45mm
; infill extrusion width = 0.45mm
; solid infill extrusion width = 0.40mm
; top infill extrusion width = 0.40mm
; first layer extrusion width = 0.50mm

; external perimeters extrusion width = 0.40mm
; perimeters extrusion width = 0.45mm
; infill extrusion width = 0.45mm
; solid infill extrusion width = 0.40mm
; top infill extrusion width = 0.40mm
; first layer extrusion width = 0.50mm

; EXECUTABLE_BLOCK_START
EXCLUDE_OBJECT_DEFINE NAME=thermacell_filler_v1.2_v3(1).stl_id_0_copy_0 CENTER=162.192,161.238 POLYGON=[[158.192,161.238],[158.205,160.924],[158.242,160.612],[158.303,160.304],[158.388,160.002],[158.497,159.707],[158.628,159.422],[158.782,159.148],[158.956,158.887],[159.151,158.64],[159.364,158.409],[159.595,158.196],[159.841,158.002],[160.102,157.827],[160.376,157.674],[160.662,157.542],[160.956,157.434],[161.259,157.348],[161.567,157.287],[161.879,157.25],[162.192,157.238],[162.506,157.25],[162.818,157.287],[163.126,157.348],[163.428,157.434],[163.723,157.542],[164.008,157.674],[164.282,157.827],[164.543,158.002],[164.79,158.196],[165.021,158.409],[165.234,158.64],[165.428,158.887],[165.603,159.148],[165.756,159.422],[165.888,159.707],[165.997,160.002],[166.082,160.304],[166.143,160.612],[166.18,160.924],[166.192,161.238],[166.18,161.552],[166.143,161.864],[166.082,162.172],[165.997,162.474],[165.888,162.769],[165.756,163.054],[165.603,163.328],[165.428,163.589],[165.234,163.836],[165.021,164.066],[164.79,164.279],[164.543,164.474],[164.282,164.648],[164.008,164.802],[163.723,164.933],[163.428,165.042],[163.126,165.127],[162.818,165.189],[162.506,165.225],[162.192,165.238],[161.879,165.225],[161.567,165.189],[161.259,165.127],[160.956,165.042],[160.662,164.933],[160.376,164.802],[160.102,164.648],[159.841,164.474],[159.595,164.279],[159.364,164.066],[159.151,163.836],[158.956,163.589],[158.782,163.328],[158.628,163.054],[158.497,162.769],[158.388,162.474],[158.303,162.172],[158.242,161.864],[158.205,161.552],[158.192,161.238]]
EXCLUDE_OBJECT_DEFINE NAME=butane_converter_v3.2(1).stl_id_1_copy_0 CENTER=169.308,170.265 POLYGON=[[166.808,170.265],[166.819,170.027],[166.853,169.792],[166.909,169.561],[166.987,169.336],[167.086,169.119],[167.205,168.913],[167.343,168.72],[167.498,168.54],[167.671,168.376],[167.858,168.229],[168.058,168.1],[168.269,167.991],[168.49,167.903],[168.718,167.836],[168.952,167.79],[169.189,167.768],[169.427,167.768],[169.663,167.79],[169.897,167.836],[170.125,167.903],[170.346,167.991],[170.558,168.1],[170.758,168.229],[170.945,168.376],[171.117,168.54],[171.273,168.72],[171.411,168.913],[171.53,169.119],[171.629,169.336],[171.706,169.561],[171.762,169.792],[171.796,170.027],[171.808,170.265],[171.796,170.503],[171.762,170.738],[171.706,170.969],[171.629,171.194],[171.53,171.411],[171.411,171.617],[171.273,171.81],[171.117,171.99],[170.945,172.154],[170.758,172.301],[170.558,172.43],[170.346,172.539],[170.125,172.628],[169.897,172.695],[169.663,172.74],[169.427,172.762],[169.189,172.762],[168.952,172.74],[168.718,172.695],[168.49,172.628],[168.269,172.539],[168.058,172.43],[167.858,172.301],[167.671,172.154],[167.498,171.99],[167.343,171.81],[167.205,171.617],[167.086,171.411],[166.987,171.194],[166.909,170.969],[166.853,170.738],[166.819,170.503],[166.808,170.265]]
M73 P0 R10
;TYPE:Custom
START_PRINT T_BED=60 T_EXTRUDER=220
G90
G21
M83 ; use relative distances for extrusion
; filament start gcode

    PRESSURE_ADVANCE_SELECT FILAMENT=PLA
M106 S0
;LAYER_CHANGE
;Z:0.2
;HEIGHT:0.2
M204 S500
G1 E-.8 F3000
G1 X157.616 Y156.056 Z.2 F9000
G1 E.8 F1800
;TYPE:Skirt
;WIDTH:0.5
G1 F3000
G1 X158.678 Y155.285 E.04889
G1 X159.657 Y154.807 E.04057
G1 X160.998 Y154.429 E.05189
G1 X162.313 Y154.326 E.04913
G1 X163.387 Y154.429 E.04017
G1 X164.219 Y154.629 E.0319
G1 X165.715 Y155.29 E.06092
G1 X175.334 Y162.182 E.44071
G1 X176.225 Y162.932 E.0434
G1 X177.323 Y164.151 E.06109
G1 X178.011 Y165.178 E.04604
G1 X178.455 Y166.029 E.03573
G1 X179.091 Y167.836 E.07138
G1 X179.356 Y169.455 E.06109
G1 X179.387 Y170.414 E.03573
G1 X179.177 Y172.319 E.07138
G1 X178.61 Y174.149 E.07138
G1 X177.707 Y175.84 E.07138
G1 X176.5 Y177.328 E.07138
G1 X175.033 Y178.562 E.07138
G1 X173.36 Y179.495 E.07138
G1 X172.179 Y179.926 E.0468
G1 X171.199 Y180.167 E.0376
G1 X169.291 Y180.346 E.07138
G1 X167.383 Y180.16 E.07138
G1 X165.525 Y179.609 E.07221
G1 X163.843 Y178.736 E.07055
G1 X162.339 Y177.549 E.07138
G1 X161.086 Y176.099 E.07138
G1 X160.569 Y175.291 E.03573
G1 X160.044 Y174.246 E.04355
G1 X155.651 Y163.472 E.43336
G1 X155.311 Y161.894 E.06013
G1 X155.311 Y160.577 E.04906
G1 X155.583 Y159.211 E.05189
G1 X155.982 Y158.202 E.0404
G1 X156.668 Y157.083 E.04889
G1 X157.576 Y156.1 E.04982
G1 X157.91 Y156.41 F9000
G1 F3000
G1 X157.927 Y156.392 E.0009
G1 X158.902 Y155.683 E.04489
G1 X159.815 Y155.236 E.03787
G1 X161.087 Y154.877 E.04924
G1 X162.295 Y154.783 E.04512
G1 X163.297 Y154.877 E.0375
G1 X164.095 Y155.069 E.03056
G1 X165.491 Y155.689 E.0569
G1 X175.067 Y162.553 E.43881
G1 X175.9 Y163.254 E.04058
G1 X176.969 Y164.441 E.05947
G1 X177.609 Y165.395 E.04281
G1 X178.034 Y166.207 E.03411
G1 X178.644 Y167.931 E.06815
G1 X178.902 Y169.507 E.05947
G1 X178.93 Y170.423 E.03411
G1 X178.726 Y172.241 E.06815
G1 X178.182 Y173.988 E.06815
G1 X177.318 Y175.6 E.06815
G1 X176.163 Y177.019 E.06815
G1 X174.761 Y178.195 E.06814
G1 X173.162 Y179.083 E.06815
G1 X172.029 Y179.494 E.04488
G1 X171.098 Y179.721 E.03568
G1 X169.276 Y179.889 E.06815
G1 X167.455 Y179.709 E.06814
G1 X165.682 Y179.179 E.06895
G1 X164.078 Y178.344 E.06734
G1 X162.644 Y177.208 E.06814
G1 X161.45 Y175.822 E.06815
G1 X160.957 Y175.05 E.03411
G1 X160.467 Y174.073 E.04071
G1 X156.08 Y163.315 E.43273
G1 X155.765 Y161.84 E.05615
G1 X155.765 Y160.631 E.04503
G1 X156.023 Y159.335 E.04924
G1 X156.397 Y158.393 E.03773
G1 X157.027 Y157.366 E.04489
G1 X157.87 Y156.454 E.04625
; printing object thermacell_filler_v1.2_v3(1).stl id:0 copy 0
EXCLUDE_OBJECT_START NAME=thermacell_filler_v1.2_v3(1).stl_id_0_copy_0
G1 E-.8
G1 X160.163 Y162.621 F9000
G1 E.8 F1800
;TYPE:Inner wall
G1 F3000
G1 X159.922 Y162.184 E.01856
G1 X159.82 Y161.882 E.01187
G1 X159.76 Y161.597 E.01087
G1 X159.733 Y161.286 E.01161
G1 X159.781 Y160.755 E.01988
G1 X159.865 Y160.447 E.01187
G1 X159.975 Y160.177 E.01087
G1 X160.126 Y159.904 E.01161
G1 X160.462 Y159.49 E.01988
G1 X160.719 Y159.268 E.01263
G1 X161.178 Y158.997 E.01988
G1 X161.47 Y158.888 E.01161
G1 X161.754 Y158.819 E.01087
G1 X162.05 Y158.784 E.01111
G1 X162.342 Y158.784 E.01087
G1 X162.652 Y158.822 E.01161
G1 X163.161 Y158.977 E.01985
G1 X163.439 Y159.119 E.01161
G1 X163.681 Y159.282 E.01087
G1 X163.923 Y159.49 E.01187
G1 X164.259 Y159.904 E.01988
G1 X164.41 Y160.177 E.01161
G1 X164.52 Y160.447 E.01087
G1 X164.604 Y160.755 E.01187
G1 X164.651 Y161.286 E.01988
G1 X164.624 Y161.597 E.01161
G1 X164.565 Y161.882 E.01087
G1 X164.463 Y162.184 E.01187
G1 X164.205 Y162.652 E.0199
G1 X164.004 Y162.9 E.01187
G1 X163.794 Y163.103 E.01087
G1 X163.546 Y163.291 E.01161
G1 X163.071 Y163.535 E.01988
G1 X162.747 Y163.634 E.01263
G1 X162.216 Y163.697 E.0199
G1 X161.898 Y163.678 E.01187
G1 X161.611 Y163.626 E.01087
G1 X161.313 Y163.535 E.01161
G1 X160.839 Y163.291 E.01985
G1 X160.591 Y163.103 E.01161
G1 X160.381 Y162.9 E.01087
G1 X160.195 Y162.671 E.01098
G1 X160.574 Y162.412 F9000
;TYPE:Outer wall
G1 F3000
G1 X160.561 Y162.396 E.00077
G1 X160.342 Y161.999 E.01686
G1 X160.262 Y161.762 E.00933
G1 X160.213 Y161.53 E.00884
G1 X160.192 Y161.287 E.0091
G1 X160.232 Y160.836 E.01685
G1 X160.298 Y160.594 E.00933
G1 X160.388 Y160.375 E.00884
G1 X160.506 Y160.161 E.0091
G1 X160.791 Y159.809 E.01686
G1 X160.986 Y159.641 E.0096
G1 X161.376 Y159.411 E.01686
G1 X161.605 Y159.326 E.0091
G1 X161.835 Y159.27 E.00884
G1 X162.077 Y159.241 E.00906
G1 X162.314 Y159.241 E.00884
G1 X162.557 Y159.27 E.0091
G1 X162.989 Y159.403 E.01685
G1 X163.207 Y159.514 E.0091
G1 X163.404 Y159.646 E.00883
G1 X163.593 Y159.809 E.00933
G1 X163.879 Y160.161 E.01686
G1 X163.997 Y160.375 E.0091
G1 X164.086 Y160.594 E.00884
G1 X164.152 Y160.836 E.00933
G1 X164.193 Y161.287 E.01685
G1 X164.171 Y161.53 E.0091
G1 X164.123 Y161.762 E.00884
G1 X164.043 Y161.999 E.00933
G1 X163.824 Y162.396 E.01686
G1 X163.666 Y162.59 E.00933
G1 X163.496 Y162.755 E.00884
G1 X163.301 Y162.903 E.0091
G1 X162.899 Y163.11 E.01685
G1 X162.652 Y163.185 E.0096
G1 X162.203 Y163.239 E.01686
G1 X161.953 Y163.224 E.00933
G1 X161.719 Y163.181 E.00884
G1 X161.486 Y163.11 E.0091
G1 X161.083 Y162.903 E.01685
G1 X160.889 Y162.755 E.0091
G1 X160.719 Y162.59 E.00884
G1 X160.612 Y162.459 E.00632
G1 X160.57 Y162.413
G1 E-.8
G1 X164.408 Y158.813 F9000
M73 P1 R10
G1 E.8 F1800
;TYPE:Inner wall
G1 F3000
G1 X164.52 Y158.91 E.00553
G1 X164.696 Y159.1 E.00963
G1 X164.856 Y159.303 E.00963
G1 X165.126 Y159.743 E.01924
G1 X165.325 Y160.226 E.01946
G1 X165.444 Y160.723 E.01903
G1 X165.475 Y160.979 E.00963
G1 X165.475 Y161.496 E.01922
G1 X165.394 Y162.006 E.01926
G1 X165.324 Y162.255 E.00963
G1 X165.126 Y162.732 E.01922
G1 X164.856 Y163.173 E.01926
G1 X164.52 Y163.566 E.01924
G1 X164.331 Y163.741 E.00963
G1 X164.128 Y163.901 E.00963
G1 X163.687 Y164.171 E.01924
G1 X163.204 Y164.371 E.01946
G1 X162.707 Y164.49 E.01903
G1 X162.451 Y164.52 E.00963
G1 X161.935 Y164.52 E.01922
G1 X161.424 Y164.439 E.01926
G1 X161.175 Y164.369 E.00963
G1 X160.698 Y164.172 E.01922
G1 X160.257 Y163.901 E.01926
G1 X160.054 Y163.741 E.00963
G1 X159.689 Y163.376 E.01922
G1 X159.526 Y163.168 E.00986
G1 X159.259 Y162.733 E.01903
G1 X159.06 Y162.25 E.01946
G1 X158.94 Y161.753 E.01903
G1 X158.91 Y161.496 E.00963
G1 X158.91 Y160.98 E.01922
G1 X158.991 Y160.469 E.01926
G1 X159.061 Y160.22 E.00963
G1 X159.259 Y159.744 E.01922
G1 X159.529 Y159.303 E.01926
G1 X159.864 Y158.91 E.01924
G1 X160.054 Y158.734 E.00963
G1 X160.257 Y158.574 E.00963
G1 X160.698 Y158.304 E.01924
G1 X161.18 Y158.105 E.01946
G1 X161.677 Y157.986 E.01903
G1 X161.933 Y157.956 E.00961
G1 X162.451 Y157.956 E.01926
G1 X162.961 Y158.036 E.01924
G1 X163.21 Y158.107 E.00963
G1 X163.687 Y158.304 E.01922
G1 X164.128 Y158.574 E.01926
G1 X164.362 Y158.774 E.01148
G1 X164.704 Y158.467 F9000
;TYPE:Outer wall
G1 F3000
G1 X164.844 Y158.586 E.00686
G1 X165.044 Y158.802 E.01097
G1 X165.226 Y159.034 E.01097
G1 X165.533 Y159.535 E.02192
G1 X165.76 Y160.085 E.02214
G1 X165.896 Y160.651 E.02169
G1 X165.931 Y160.944 E.01097
G1 X165.931 Y161.532 E.02191
G1 X165.839 Y162.113 E.02192
G1 X165.759 Y162.397 E.01097
G1 X165.534 Y162.94 E.02191
G1 X165.226 Y163.442 E.02192
G1 X164.844 Y163.889 E.02192
G1 X164.628 Y164.089 E.01097
G1 X164.396 Y164.271 E.01097
G1 X163.895 Y164.579 E.02192
G1 X163.345 Y164.806 E.02214
G1 X162.779 Y164.941 E.02169
G1 X162.487 Y164.976 E.01097
G1 X161.898 Y164.976 E.02191
G1 X161.317 Y164.884 E.02192
G1 X161.034 Y164.804 E.01097
G1 X160.49 Y164.579 E.02191
G1 X159.988 Y164.271 E.02192
G1 X159.757 Y164.089 E.01097
G1 X159.341 Y163.673 E.02191
G1 X159.155 Y163.437 E.0112
G1 X158.851 Y162.94 E.02169
G1 X158.624 Y162.391 E.02214
G1 X158.489 Y161.824 E.02169
G1 X158.454 Y161.532 E.01097
G1 X158.454 Y160.944 E.02191
G1 X158.546 Y160.362 E.02192
G1 X158.626 Y160.079 E.01097
G1 X158.851 Y159.536 E.02191
G1 X159.159 Y159.034 E.02192
G1 X159.541 Y158.586 E.02192
G1 X159.757 Y158.386 E.01097
G1 X159.988 Y158.204 E.01097
G1 X160.49 Y157.897 E.02192
G1 X161.039 Y157.67 E.02214
G1 X161.606 Y157.534 E.02169
G1 X161.898 Y157.5 E.01096
G1 X162.487 Y157.5 E.02192
G1 X163.068 Y157.592 E.02192
G1 X163.351 Y157.672 E.01097
G1 X163.895 Y157.897 E.02191
G1 X164.396 Y158.204 E.02192
G1 X164.658 Y158.428 E.01282
G1 X164.698 Y158.503
G1 X164.094 Y159.093 F9000
;TYPE:Gap infill
;WIDTH:0.418546
G1 F3000
G1 X164.229 Y159.207 E.00538
G1 X164.609 Y159.687 E.01876
G1 X164.753 Y159.933 E.00871
G1 X164.909 Y160.303 E.01231
G1 X165.029 Y160.792 E.01541
G1 X165.063 Y161.302 E.01564
G1 X165.034 Y161.646 E.01057
G1 X164.986 Y161.912 E.00828
G1 X164.833 Y162.365 E.01463
G1 X164.539 Y162.898 E.01861
G1 X164.221 Y163.272 E.01504
G1 X164.06 Y163.424 E.00679
G1 X163.78 Y163.632 E.01067
G1 X163.495 Y163.793 E.01003
G1 X163.241 Y163.911 E.00855
G1 X162.816 Y164.041 E.01361
G1 X162.421 Y164.098 E.0122
G1 X162.212 Y164.109 E.00641
G1 X161.86 Y164.09 E.0108
G1 X161.518 Y164.033 E.01063
G1 X161.173 Y163.923 E.01108
G1 X160.891 Y163.794 E.00949
G1 X160.633 Y163.649 E.00906
G1 X160.311 Y163.411 E.01224
G1 X160.068 Y163.171 E.01045
G1 X159.866 Y162.926 E.00973
G1 X159.636 Y162.54 E.01374
G1 X159.552 Y162.365 E.00595
G1 X159.459 Y162.12 E.00802
G1 X159.352 Y161.684 E.01375
G1 X159.321 Y161.27 E.01271
G1 X159.372 Y160.698 E.01757
G1 X159.475 Y160.303 E.01248
G1 X159.632 Y159.934 E.01228
G1 X159.775 Y159.687 E.00874
G1 X160.161 Y159.201 E.01899
G1 X160.499 Y158.914 E.01359
G1 X160.889 Y158.68 E.01391
G1 X161.309 Y158.503 E.01397
G1 X161.746 Y158.399 E.01375
G1 X162.015 Y158.37 E.00826
G1 X162.356 Y158.37 E.01045
G1 X162.866 Y158.447 E.01579
G1 X163.331 Y158.602 E.01498
G1 X163.639 Y158.758 E.01057
G1 X163.882 Y158.913 E.00882
G1 X164.049 Y159.054 E.0067
; stop printing object thermacell_filler_v1.2_v3(1).stl id:0 copy 0
EXCLUDE_OBJECT_END NAME=thermacell_filler_v1.2_v3(1).stl_id_0_copy_0
; printing object butane_converter_v3.2(1).stl id:1 copy 0
EXCLUDE_OBJECT_START NAME=butane_converter_v3.2(1).stl_id_1_copy_0
G1 E-.8
G1 X166.235 Y164.043 F9000
G1 E.8 F1800
;TYPE:Brim
;WIDTH:0.5
G1 F3000
G1 X166.828 Y163.783 E.02413
G1 X167.455 Y163.577 E.0246
G1 X168.1 Y163.431 E.0246
G1 X168.754 Y163.347 E.02459
G1 X169.432 Y163.326 E.02525
G1 X170.076 Y163.368 E.02403
G1 X170.489 Y163.426 E.01553
G1 X171.135 Y163.57 E.02467
G1 X171.764 Y163.774 E.0246
G1 X172.369 Y164.037 E.0246
G1 X172.948 Y164.356 E.0246
G1 X173.493 Y164.729 E.0246
G1 X174 Y165.152 E.0246
G1 X174.465 Y165.621 E.0246
G1 X174.883 Y166.132 E.0246
G1 X175.251 Y166.681 E.0246
G1 X175.564 Y167.262 E.0246
G1 X175.821 Y167.87 E.0246
G1 X176.02 Y168.5 E.0246
G1 X176.157 Y169.146 E.0246
G1 X176.232 Y169.803 E.0246
G1 X176.245 Y170.463 E.0246
G1 X176.195 Y171.121 E.0246
G1 X176.082 Y171.772 E.0246
G1 X175.908 Y172.409 E.0246
G1 X175.674 Y173.027 E.0246
G1 X175.383 Y173.62 E.0246
G1 X175.037 Y174.182 E.0246
G1 X174.638 Y174.709 E.0246
G1 X174.192 Y175.195 E.0246
G1 X173.701 Y175.637 E.0246
G1 X173.17 Y176.031 E.0246
G1 X172.605 Y176.372 E.0246
G1 X172.011 Y176.657 E.02453
G1 X171.158 Y176.954 E.03365
G1 X170.516 Y177.099 E.02453
G1 X169.861 Y177.183 E.0246
G1 X169.201 Y177.204 E.0246
G1 X168.541 Y177.163 E.0246
G1 X167.889 Y177.059 E.0246
G1 X167.25 Y176.893 E.02459
G1 X166.613 Y176.66 E.02525
G1 X166.033 Y176.384 E.02396
G1 X165.466 Y176.045 E.0246
G1 X164.934 Y175.653 E.0246
G1 X164.442 Y175.213 E.0246
G1 X163.993 Y174.728 E.0246
G1 X163.593 Y174.203 E.0246
G1 X163.245 Y173.642 E.0246
G1 X162.95 Y173.049 E.02467
G1 X162.794 Y172.661 E.01554
G1 X162.596 Y172.03 E.02467
G1 X162.458 Y171.384 E.0246
G1 X162.383 Y170.728 E.0246
G1 X162.37 Y170.067 E.0246
G1 X162.421 Y169.409 E.0246
G1 X162.533 Y168.758 E.0246
G1 X162.707 Y168.121 E.0246
G1 X162.941 Y167.503 E.0246
G1 X163.232 Y166.91 E.0246
G1 X163.579 Y166.348 E.0246
G1 X163.976 Y165.823 E.02453
G1 X164.598 Y165.168 E.03365
G1 X165.102 Y164.744 E.02453
G1 X165.646 Y164.37 E.0246
G1 X166.182 Y164.071 E.02283
G1 X166.404 Y164.471 F9000
G1 F3000
G1 X166.432 Y164.455 E.00122
G1 X166.998 Y164.208 E.02298
G1 X167.584 Y164.016 E.02298
G1 X168.186 Y163.881 E.02298
G1 X168.797 Y163.803 E.02296
G1 X169.431 Y163.784 E.02361
G1 X170.024 Y163.822 E.02213
G1 X170.402 Y163.875 E.01421
G1 X171.009 Y164.01 E.02315
G1 X171.595 Y164.2 E.02297
G1 X172.162 Y164.445 E.02298
G1 X172.702 Y164.743 E.02297
G1 X173.211 Y165.09 E.02298
G1 X173.686 Y165.485 E.02298
G1 X174.12 Y165.923 E.02298
G1 X174.511 Y166.4 E.02297
G1 X174.855 Y166.912 E.02298
G1 X175.149 Y167.454 E.02298
G1 X175.389 Y168.022 E.02298
G1 X175.575 Y168.611 E.02298
G1 X175.704 Y169.214 E.02298
