; HEADER_BLOCK_START
; generated by OrcaSlicer 1.6.4-beta2 on 2023-08-09 at 08:21:09
; total layer number: 103
; HEADER_BLOCK_END

; THUMBNAIL_BLOCK_START
; THUMBNAIL_BLOCK_END

; external perimeters extrusion width = 0.40mm
; perimeters extrusion width = 0.42mm
; infill extrusion width = 0.64mm
; solid infill extrusion width = 0.56mm
; top infill extrusion width = 0.42mm
; first layer extrusion width = 0.50mm

; external perimeters extrusion width = 0.40mm
; perimeters extrusion width = 0.42mm
; infill extrusion width = 0.64mm
; solid infill extrusion width = 0.56mm
; top infill extrusion width = 0.42mm
; first layer extrusion width = 0.50mm

; EXECUTABLE_BLOCK_START
EXCLUDE_OBJECT_DEFINE NAME=Top_plate_MGN9H.stl_id_0_copy_0 CENTER=165.001,192.147 POLYGON=[[137.502,176.312],[137.509,175.925],[137.546,175.54],[137.612,175.159],[137.708,174.784],[137.833,174.418],[137.985,174.062],[138.165,173.72],[138.37,173.392],[138.6,173.081],[138.854,172.789],[139.129,172.517],[145.76,166.649],[146.066,166.408],[146.391,166.192],[146.732,166.001],[147.086,165.838],[147.452,165.703],[147.827,165.596],[148.21,165.52],[160.296,163.803],[160.591,163.79],[169.41,163.79],[169.705,163.803],[181.791,165.52],[182.174,165.596],[182.549,165.703],[182.915,165.838],[183.269,166.001],[183.61,166.192],[183.935,166.408],[184.241,166.649],[190.872,172.517],[191.147,172.789],[191.401,173.081],[191.631,173.392],[191.836,173.72],[192.016,174.062],[192.168,174.418],[192.293,174.784],[192.389,175.159],[192.455,175.54],[192.492,175.925],[192.499,176.312],[192.477,176.698],[187.443,216.259],[187.369,216.643],[187.265,217.02],[187.132,217.388],[186.971,217.744],[186.782,218.086],[186.567,218.413],[186.327,218.722],[186.064,219.011],[185.779,219.279],[185.474,219.523],[185.151,219.743],[184.812,219.937],[184.458,220.104],[184.093,220.243],[183.718,220.353],[183.335,220.434],[182.947,220.484],[182.557,220.503],[147.444,220.503],[147.054,220.484],[146.666,220.434],[146.283,220.353],[145.908,220.243],[145.543,220.104],[145.189,219.937],[144.85,219.743],[144.527,219.523],[144.222,219.279],[143.937,219.011],[143.674,218.722],[143.434,218.413],[143.219,218.086],[143.03,217.744],[142.869,217.388],[142.736,217.02],[142.632,216.643],[142.558,216.259],[137.524,176.698],[137.502,176.312]]
EXCLUDE_OBJECT_DEFINE NAME=Bottom_plate_round_standoff.stl_id_1_copy_0 CENTER=165,134.143 POLYGON=[[137.5,114.533],[137.504,114.302],[137.513,114.142],[137.534,113.916],[137.556,113.753],[137.594,113.533],[137.629,113.368],[137.683,113.155],[137.732,112.991],[137.802,112.786],[137.865,112.622],[137.948,112.427],[138.025,112.265],[138.122,112.081],[138.214,111.922],[138.323,111.749],[138.428,111.594],[138.548,111.433],[138.668,111.285],[138.797,111.136],[138.931,110.995],[139.069,110.859],[139.216,110.726],[139.361,110.605],[139.521,110.481],[139.672,110.373],[139.844,110.26],[140,110.166],[140.184,110.065],[140.343,109.985],[140.538,109.897],[140.699,109.832],[140.904,109.758],[141.066,109.706],[141.279,109.648],[141.441,109.61],[141.663,109.567],[141.823,109.542],[142.051,109.517],[142.209,109.505],[142.442,109.497],[187.558,109.497],[187.791,109.505],[187.949,109.517],[188.177,109.542],[188.337,109.567],[188.559,109.61],[188.721,109.648],[188.934,109.706],[189.096,109.758],[189.301,109.832],[189.462,109.897],[189.657,109.985],[189.816,110.065],[190,110.166],[190.156,110.26],[190.328,110.373],[190.479,110.481],[190.639,110.605],[190.784,110.726],[190.931,110.859],[191.069,110.995],[191.203,111.136],[191.332,111.285],[191.452,111.433],[191.572,111.594],[191.677,111.749],[191.786,111.922],[191.878,112.081],[191.975,112.265],[192.052,112.427],[192.135,112.622],[192.198,112.786],[192.268,112.991],[192.317,113.155],[192.371,113.368],[192.406,113.533],[192.444,113.753],[192.466,113.916],[192.487,114.142],[192.496,114.302],[192.5,114.533],[192.496,114.69],[192.482,114.925],[192.466,115.077],[187.443,154.546],[187.44,154.563],[187.368,154.93],[187.365,154.943],[187.264,155.307],[187.261,155.317],[187.131,155.674],[187.129,155.681],[186.97,156.03],[186.968,156.034],[186.781,156.373],[186.781,156.374],[186.568,156.698],[186.567,156.7],[186.33,157.004],[186.327,157.008],[186.07,157.291],[186.064,157.298],[185.788,157.558],[185.779,157.565],[185.486,157.801],[185.474,157.81],[185.166,158.02],[185.151,158.03],[184.83,158.214],[184.811,158.224],[184.48,158.381],[184.458,158.391],[184.119,158.521],[184.092,158.53],[183.747,158.632],[183.717,158.64],[183.368,158.714],[183.334,158.72],[182.984,158.767],[182.947,158.77],[182.597,158.789],[182.556,158.79],[147.444,158.79],[147.403,158.789],[147.053,158.77],[147.016,158.767],[146.666,158.72],[146.632,158.714],[146.283,158.64],[146.253,158.632],[145.908,158.53],[145.881,158.521],[145.542,158.391],[145.52,158.381],[145.189,158.224],[145.17,158.214],[144.849,158.03],[144.834,158.02],[144.526,157.81],[144.514,157.801],[144.221,157.565],[144.212,157.558],[143.936,157.298],[143.93,157.291],[143.673,157.008],[143.67,157.004],[143.433,156.7],[143.432,156.698],[143.219,156.374],[143.219,156.373],[143.032,156.034],[143.03,156.03],[142.871,155.681],[142.869,155.674],[142.739,155.317],[142.736,155.307],[142.635,154.943],[142.632,154.93],[142.56,154.563],[142.557,154.546],[137.534,115.077],[137.518,114.925],[137.504,114.69],[137.5,114.533]]
M73 P0 R48
;TYPE:Custom
START_PRINT T_BED=110 T_EXTRUDER=260
G90
G21
M83 ; use relative distances for extrusion
; Filament gcode
M106 S0
;LAYER_CHANGE
;Z:0.2
;HEIGHT:0.2
;BEFORE_LAYER_CHANGE
;0.2
G92 E0

SET_VELOCITY_LIMIT ACCEL=1000 ACCEL_TO_DECEL=500
G1 E-.5 F3000
G1 X136.121 Y109.815 F12000
G1 Z.2
G1 E.5 F1800
;TYPE:Skirt
;WIDTH:0.5
G1 F3000
G1 X136.775 Y109.035 E.036
G1 X137.698 Y108.207 E.04383
G1 X138.736 Y107.536 E.0437
G1 X139.504 Y107.173 E.03002
G1 X140.675 Y106.797 E.04348
G1 X141.68 Y106.626 E.03601
G1 X187.555 Y106.583 E1.6215
G1 X188.932 Y106.714 E.04891
G1 X190.495 Y107.172 E.05754
G1 X191.794 Y107.85 E.0518
G1 X193.063 Y108.869 E.05754
G1 X194.013 Y110.002 E.05225
G1 X194.794 Y111.43 E.05754
G1 X195.235 Y112.828 E.0518
G1 X195.413 Y114.446 E.05754
G1 X195.409 Y176.485 E2.1928
G1 X190.334 Y216.627 E1.43017
M73 P0 R47
G1 X190.178 Y217.418 E.02848
G1 X189.872 Y218.379 E.03567
G1 X189.334 Y219.493 E.0437
G1 X188.866 Y220.204 E.03009
G1 X188.06 Y221.135 E.04353
G1 X187.298 Y221.796 E.03567
G1 X186.598 Y222.273 E.02992
G1 X185.494 Y222.828 E.0437
G1 X184.316 Y223.205 E.0437
G1 X183.321 Y223.374 E.03567
G1 X147.444 Y223.417 E1.26809
G1 X146.068 Y223.286 E.04888
G1 X144.873 Y222.967 E.04371
G1 X143.944 Y222.572 E.03567
G1 X143.21 Y222.152 E.02992
G1 X142.398 Y221.552 E.03567
G1 X141.518 Y220.683 E.0437
G1 X140.999 Y220.014 E.02992
G1 X140.478 Y219.15 E.03567
G1 X139.996 Y218.012 E.0437
G1 X139.771 Y217.196 E.02992
G1 X134.615 Y176.871 E1.43693
G1 X134.586 Y114.536 E2.20328
G1 X134.694 Y113.204 E.04725
G1 X135.121 Y111.64 E.05728
G1 X135.472 Y110.861 E.03023
G1 X136.1 Y109.849 E.04208
G1 X136.482 Y110.095 F12000
G1 F3000
G1 X137.113 Y109.342 E.03472
G1 X137.984 Y108.564 E.04129
G1 X138.964 Y107.933 E.04118
G1 X139.667 Y107.6 E.02748
G1 X140.77 Y107.244 E.04096
G1 X141.738 Y107.08 E.03473
G1 X187.555 Y107.04 E1.61943
G1 X188.838 Y107.162 E.04558
G1 X190.332 Y107.599 E.05501
G1 X191.536 Y108.228 E.04801
G1 X192.75 Y109.202 E.05501
G1 X193.63 Y110.252 E.04843
G1 X194.378 Y111.618 E.05501
G1 X194.786 Y112.913 E.04801
G1 X194.956 Y114.46 E.05501
G1 X194.952 Y176.457 E2.19134
G1 X189.881 Y216.569 E1.42908
G1 X189.442 Y218.224 E.06049
G1 X188.934 Y219.272 E.04118
G1 X188.505 Y219.923 E.02754
G1 X187.747 Y220.801 E.04103
G1 X187.012 Y221.44 E.03441
G1 X186.371 Y221.876 E.02739
G1 X185.331 Y222.401 E.04118
G1 X184.408 Y222.711 E.03441
G1 X183.262 Y222.92 E.04118
G1 X147.444 Y222.96 E1.26602
G1 X146.162 Y222.838 E.04554
G1 X145.035 Y222.54 E.04118
G1 X144.14 Y222.159 E.03441
G1 X143.467 Y221.774 E.02739
G1 X142.684 Y221.195 E.03441
G1 X141.856 Y220.375 E.04118
G1 X141.381 Y219.763 E.02739
G1 X140.878 Y218.93 E.03441
G1 X140.426 Y217.856 E.04118
G1 X140.22 Y217.109 E.02739
G1 X135.072 Y176.844 E1.4348
G1 X135.043 Y114.536 E2.20232
G1 X135.143 Y113.289 E.04421
G1 X135.551 Y111.795 E.05476
G1 X135.873 Y111.08 E.02769
G1 X136.461 Y110.129 E.03956
; printing object Top plate MGN9H.stl id:0 copy 0
EXCLUDE_OBJECT_START NAME=Top_plate_MGN9H.stl_id_0_copy_0
G1 E-.5
G1 X170.684 Y214.166 F12000
G1 E.5 F1800
;TYPE:Outer wall
G1 F3000
G1 X170.588 Y214.028 E.00595
G2 X167.563 Y212.554 I-3.053 J2.424 E.12299
G1 X162.438 Y212.554 E.18113
G2 X159.157 Y214.392 I.029 J3.9 E.13872
G1 X159.157 Y216.154 E.06228
G1 X155.494 Y216.154 E.12947
G2 X151.481 Y217.973 I.025 J5.39 E.16043
G3 X150.47 Y219.082 I-5.276 J-3.794 E.05317
G3 X142.983 Y214.401 I-2.969 J-3.579 E.4113
G2 X143.351 Y212.388 I-6.109 J-2.154 E.07264
G1 X143.351 Y185.133 E.96335
G2 X140.777 Y180.566 I-5.378 J.022 E.19353
G3 X139.509 Y179.769 I2.841 J-5.926 E.05307
G3 X140.893 Y171.847 I2.999 J-3.558 E.34326
G2 X143.016 Y170.847 I-1.588 J-6.128 E.08342
G2 X144.544 Y169.02 I-3.237 J-4.26 E.08489
G3 X145.247 Y167.712 I5.979 J2.369 E.05263
G3 X148.994 Y165.807 I3.756 J2.751 E.15414
G1 X157.585 Y165.807 E.30367
G3 X159.337 Y164.449 I7.181 J7.457 E.0785
G3 X160.849 Y164.154 I1.241 J2.341 E.05523
G3 X162.79 Y165.33 I-.288 J2.665 E.08281
G2 X163.449 Y166.222 I2.74 J-1.337 E.03942
G2 X166.933 Y165.795 I1.552 J-1.766 E.14008
G3 X167.94 Y164.594 I2.951 J1.452 E.05592
G3 X170.891 Y164.584 I1.483 J2.202 E.11062
G3 X172.416 Y165.807 I-8.183 J11.766 E.06911
G1 X181.007 Y165.807 E.30367
G3 X185.135 Y168.328 I-.01 J4.655 E.17978
G2 X186.386 Y170.317 I5.903 J-2.326 E.08353
G2 X188.385 Y171.612 I3.836 J-3.73 E.08489
G3 X189.761 Y172.146 I-1.631 J6.24 E.0523
G3 X189.908 Y180.188 I-2.268 J4.063 E.34328
G2 X188.229 Y181.345 I2.789 J5.842 E.07235
G2 X186.651 Y185.133 I3.77 J3.795 E.14889
G1 X186.651 Y212.388 E.96335
G2 X187.018 Y214.401 I6.476 J-.141 E.07264
G3 X179.01 Y218.576 I-4.518 J1.101 E.43699
G2 X177.255 Y216.917 I-5.121 J3.661 E.08587
G2 X174.507 Y216.154 I-2.786 J4.701 E.102
G1 X170.844 Y216.154 E.12947
G1 X170.844 Y214.392 E.06228
G1 X170.707 Y214.199 E.00837
G1 X171.261 Y214.188 F12000
;TYPE:Inner wall
G1 F3000
G1 X170.946 Y213.747 E.01915
G2 X169.441 Y212.531 I-3.651 J2.977 E.0689
G2 X167.573 Y212.097 I-1.922 J4.036 E.06831
G1 X162.428 Y212.097 E.18186
G2 X159.055 Y213.747 I.017 J4.307 E.13734
G1 X158.7 Y214.246 E.02163
G1 X158.7 Y215.697 E.05129
G1 X155.485 Y215.697 E.11363
G2 X151.137 Y217.671 I.034 J5.849 E.17385
G3 X150.422 Y218.511 I-5.701 J-4.132 E.03905
G3 X143.428 Y214.51 I-2.919 J-3.011 E.38227
G2 X143.808 Y212.397 I-6.434 J-2.247 E.07618
G1 X143.808 Y185.124 E.964
G2 X141.014 Y180.175 I-5.836 J.032 E.20978
G3 X140.059 Y179.618 I3.135 J-6.466 E.03912
G3 X141.051 Y172.276 I2.442 J-3.408 E.32109
G2 X143.629 Y170.936 I-1.654 J-6.331 E.10355
G2 X145.273 Y168.538 I-4.449 J-4.814 E.10365
G3 X149.004 Y166.264 I3.735 J1.931 E.16238
G1 X157.761 Y166.264 E.30955
G3 X159.552 Y164.853 I7.308 J7.434 E.08072
G3 X160.802 Y164.61 I1.079 J2.207 E.04555
G3 X162.408 Y165.583 I-.239 J2.205 E.06856
G2 X163.408 Y166.77 I2.853 J-1.389 E.0554
G2 X167.31 Y166.055 I1.59 J-2.331 E.15552
G3 X168.024 Y165.102 I3.037 J1.532 E.04228
G3 X170.644 Y164.969 I1.4 J1.704 E.09931
G3 X172.24 Y166.264 I-8.128 J11.648 E.07269
G1 X180.997 Y166.264 E.30955
G3 X184.728 Y168.538 I-.005 J4.205 E.16238
G2 X186.372 Y170.936 I6.094 J-2.416 E.10364
G2 X188.95 Y172.276 I4.232 J-4.991 E.10355
G3 X189.671 Y179.797 I-1.455 J3.934 E.33242
G2 X187.311 Y181.714 I2.791 J5.846 E.1085
G2 X186.193 Y185.124 I4.687 J3.424 E.12894
G1 X186.193 Y212.397 E.96399
G2 X186.573 Y214.51 I6.814 J-.135 E.07618
G3 X179.354 Y218.273 I-4.073 J.993 E.394
G2 X177.098 Y216.309 I-5.293 J3.8 E.10668
G2 X174.516 Y215.697 I-2.595 J5.189 E.09462
G1 X171.301 Y215.697 E.11363
G1 X171.301 Y214.246 E.05129
G1 X171.284 Y214.221 E.00107
G1 X171.669 Y213.974 F12000
G1 F3000
G1 X171.305 Y213.466 E.0221
G2 X170.709 Y212.832 I-4.814 J3.926 E.03077
G2 X167.583 Y211.639 I-3.149 J3.562 E.12084
G1 X162.418 Y211.639 E.18259
G2 X158.695 Y213.465 I.027 J4.763 E.15163
G1 X158.243 Y214.099 E.02753
G1 X158.243 Y215.239 E.0403
G1 X155.476 Y215.239 E.09779
G2 X150.794 Y217.369 I.043 J6.309 E.18727
G3 X150.103 Y218.183 I-5.522 J-3.987 E.03777
G3 X143.872 Y214.618 I-2.6 J-2.682 E.34056
G2 X144.265 Y212.406 I-6.758 J-2.34 E.07973
G1 X144.265 Y205.11 E.25791
G1 X144.495 Y205.072 E.00825
G2 X148.954 Y201.389 I3.006 J-.902 E.43697
G1 X148.469 Y201.174 E.01873
G2 X150.484 Y199.159 I-1.056 J-3.071 E.10426
G2 X144.495 Y197.276 I-2.982 J-.981 E.35148
G1 X144.265 Y197.239 E.00825
G1 X144.265 Y192.11 E.18129
G1 X144.495 Y192.072 E.00825
G2 X144.495 Y190.276 I3.005 J-.898 E.63206
G1 X144.265 Y190.239 E.00825
G1 X144.265 Y185.115 E.1811
G2 X141.252 Y179.784 I-6.295 J.041 E.22603
G3 X140.326 Y179.246 I3.025 J-6.268 E.03789
G3 X141.209 Y172.705 I2.196 J-3.034 E.28551
G2 X143.932 Y171.278 I-1.772 J-6.693 E.10957
G2 X145.68 Y168.747 I-4.69 J-5.108 E.10965
G3 X149.013 Y166.721 I3.364 J1.779 E.14476
G1 X157.937 Y166.721 E.31543
G3 X159.766 Y165.258 I8.216 J8.394 E.08292
G3 X160.756 Y165.065 I.854 J1.746 E.03604
G3 X162.027 Y165.837 I-.189 J1.745 E.0543
G2 X164.608 Y167.699 I3.045 J-1.499 E.11708
G2 X167.688 Y166.314 I.375 J-3.284 E.12528
G3 X168.076 Y165.697 I3.496 J1.77 E.02584
G3 X170.396 Y165.354 I1.348 J1.103 E.09094
G3 X172.064 Y166.721 I-8.192 J11.689 E.07628
G1 X180.988 Y166.721 E.31543
G3 X184.321 Y168.747 I-.031 J3.805 E.14476
G2 X186.069 Y171.278 I6.438 J-2.577 E.10965
G2 X188.792 Y172.705 I4.495 J-5.267 E.10957
G3 X189.434 Y179.405 I-1.296 J3.505 E.29615
G2 X186.941 Y181.444 I2.976 J6.181 E.1149
G2 X185.736 Y185.115 I5.055 J3.692 E.13882
G1 X185.736 Y190.239 E.1811
G1 X185.506 Y190.276 E.00825
G2 X185.506 Y192.072 I-3.005 J.898 E.63206
G1 X185.736 Y192.11 E.00825
G1 X185.736 Y200.239 E.28733
G1 X185.506 Y200.276 E.00825
G2 X185.506 Y202.072 I-3.005 J.898 E.63206
M73 P1 R47
G1 X185.736 Y202.11 E.00825
G1 X185.736 Y212.406 E.36395
G2 X186.129 Y214.618 I7.151 J-.128 E.07973
G3 X179.697 Y217.971 I-3.635 J.872 E.35036
G2 X177.302 Y215.9 I-5.589 J4.041 E.11292
G2 X174.525 Y215.239 I-2.798 J5.594 E.1018
G1 X171.758 Y215.239 E.09779
G1 X171.758 Y214.099 E.0403
G1 X171.693 Y214.007 E.00401
G1 E-.5
G1 X171.444 Y210.824 F12000
G1 X171.444 Y210.492
G1 X171.483 Y210.185
G1 X171.568 Y209.852
G1 X171.692 Y209.545
G1 X171.844 Y209.275
G1 X172.048 Y208.998
G1 X172.278 Y208.76
G1 X172.535 Y208.555
G1 X172.815 Y208.385
G1 X181.051 Y193.285
G1 X180.78 Y193.073
G1 X180.55 Y192.835
G1 X180.353 Y192.572
G1 X180.192 Y192.286
G1 X180.069 Y191.981
G1 X179.986 Y191.664
G1 X179.944 Y191.338
G1 X179.944 Y191.01
G1 X179.983 Y190.703
G1 X180.068 Y190.369
G1 X180.192 Y190.062
G1 X180.353 Y189.776
G1 X189.356 Y177.548
G1 X189.524 Y177.277
G1 X189.653 Y176.983
G1 X189.741 Y176.669
G1 X189.783 Y176.361
G1 X189.782 Y176.041
G1 X189.742 Y175.775
G1 X189.41 Y175.825
G1 E.5 F1800
;TYPE:Outer wall
G1 F3000
G1 X189.44 Y176.067 E.00863
G3 X187.155 Y174.29 I-1.944 J.142 E.31749
G1 X187.418 Y174.261 E.00935
G3 X189.399 Y175.786 I.079 J1.947 E.09593
G1 X189.856 Y175.718 F12000
;TYPE:Inner wall
G1 F3000
G1 X189.897 Y176.032 E.01121
G3 X187.074 Y173.839 I-2.4 J.176 E.39212
G1 X187.399 Y173.804 E.01158
G3 X189.844 Y175.68 I.097 J2.405 E.11821
G1 X190.285 Y175.544 F12000
G1 F3000
G1 X190.294 Y175.596 E.00188
G3 X186.993 Y173.388 I-2.799 J.612 E.4811
G1 X187.381 Y173.346 E.01381
G3 X190.185 Y175.222 I.115 J2.862 E.12753
G1 X190.274 Y175.505 E.01049
G1 E-.5
G1 X188.901 Y174.402 F12000
G1 X188.63 Y174.221
G1 X188.35 Y174.086
G1 X188.046 Y173.989
G1 X181.889 Y172.854
G1 X181.73 Y172.913
G1 X181.409 Y172.986
G1 X181.083 Y173.017
G1 X180.754 Y173.007
G1 X180.43 Y172.955
G1 X180.116 Y172.861
G1 X179.815 Y172.728
G1 X179.54 Y172.561
G1 X179.279 Y172.354
G1 X179.257 Y172.332
G1 X179.499 Y172.099
G1 E.5 F1800
;TYPE:Outer wall
G1 F3000
G1 X179.306 Y171.899 E.0098
G3 X180.787 Y168.241 I1.692 J-1.444 E.17156
G1 X181.067 Y168.232 E.0099
G3 X179.528 Y172.125 I-.069 J2.223 E.30128
G1 X179.179 Y172.425 F12000
;TYPE:Inner wall
G1 F3000
