; HEADER_BLOCK_START
; generated by OrcaSlicer 1.7.0-beta on 2023-10-02 at 09:21:58
; total layer number: 163
; HEADER_BLOCK_END

; THUMBNAIL_BLOCK_START
; THUMBNAIL_BLOCK_END

; external perimeters extrusion width = 0.40mm
; perimeters extrusion width = 0.46mm
; infill extrusion width = 0.64mm
; solid infill extrusion width = 0.56mm
; top infill extrusion width = 0.40mm
; support material extrusion width = 0.46mm
; first layer extrusion width = 0.50mm

; EXECUTABLE_BLOCK_START
EXCLUDE_OBJECT_DEFINE NAME=top.stl_id_0_copy_0 CENTER=160,153 POLYGON=[[94.3969,116.998],[94.431,116.739],[94.5309,116.498],[95.6537,114.553],[95.8126,114.346],[96.0197,114.187],[158.377,78.1851],[158.618,78.0852],[158.877,78.0511],[161.123,78.0511],[161.382,78.0852],[161.511,78.1336],[161.623,78.1851],[223.98,114.187],[224.187,114.346],[224.346,114.553],[225.469,116.498],[225.569,116.739],[225.603,116.998],[225.603,189.002],[225.569,189.261],[225.469,189.502],[224.346,191.447],[224.187,191.654],[223.98,191.813],[161.623,227.815],[161.382,227.915],[161.123,227.949],[158.877,227.949],[158.618,227.915],[158.489,227.866],[158.377,227.815],[96.0198,191.813],[95.8127,191.654],[95.6538,191.447],[94.531,189.502],[94.4311,189.261],[94.397,189.002],[94.3969,116.998]]
M73 P0 R36
;TYPE:Custom
START_PRINT T_BED=110 T_EXTRUDER=260
G90
G21
M83 ; use relative distances for extrusion
; Filament gcode

    PRESSURE_ADVANCE_SELECT FILAMENT=ABS
M106 S0
;LAYER_CHANGE
;Z:0.2
;HEIGHT:0.2
;BEFORE_LAYER_CHANGE
;0.2
G92 E0

;_SET_FAN_SPEED_CHANGING_LAYER
SET_VELOCITY_LIMIT ACCEL=5000 ACCEL_TO_DECEL=2500
G1 E-.5 F2400
G1 X94.154 Y112.71 F12000
G1 Z.2
G1 E.5 F1800
;TYPE:Skirt
;WIDTH:0.5
G1 F3000
G1 X94.807 Y112.196 E.02924
G1 X157.289 Y76.124 E2.53913
G1 X157.956 Y75.842 E.02549
G1 X158.832 Y75.71 E.03117
G1 X161.134 Y75.719 E.081
G1 X161.871 Y75.81 E.02615
G1 X162.792 Y76.155 E.03463
G1 X225.193 Y112.196 E2.53612
G1 X225.846 Y112.71 E.02922
G1 X226.361 Y113.371 E.02952
G1 X227.701 Y115.786 E.09718
G1 X227.934 Y116.998 E.04343
G1 X227.934 Y189.002 E2.53411
G1 X227.811 Y189.858 E.03042
G1 X227.491 Y190.664 E.03052
G1 X226.362 Y192.629 E.07977
G1 X225.846 Y193.29 E.02952
G1 X225.193 Y193.804 E.02924
G1 X162.788 Y229.834 E2.53603
G1 X161.622 Y230.238 E.04343
G1 X158.877 Y230.281 E.09663
G1 X158.129 Y230.19 E.02653
G1 X157.208 Y229.845 E.03463
G1 X94.807 Y193.804 E2.53612
G1 X94.154 Y193.29 E.02922
G1 X93.639 Y192.629 E.02952
G1 X92.299 Y190.214 E.09718
G1 X92.066 Y189.002 E.04343
G1 X92.066 Y116.998 E2.53411
G1 X92.189 Y116.142 E.03042
G1 X92.509 Y115.336 E.03052
G1 X93.638 Y113.371 E.07977
G1 X94.13 Y112.741 E.02812
G1 X94.485 Y113.025 F12000
G1 F3000
G1 X95.036 Y112.592 E.02465
G1 X157.518 Y76.52 E2.53913
G1 X158.092 Y76.278 E.02193
G1 X158.83 Y76.168 E.02628
G1 X161.132 Y76.176 E.081
G1 X161.784 Y76.259 E.02312
G1 X162.564 Y76.551 E.02932
G1 X224.965 Y112.592 E2.53612
G1 X225.515 Y113.025 E.02464
G1 X225.965 Y113.599 E.02568
G1 X227.272 Y115.943 E.09445
G1 X227.477 Y116.998 E.03781
G1 X227.477 Y189.002 E2.53411
M73 P0 R35
G1 X227.367 Y189.75 E.02662
G1 X227.095 Y190.436 E.02595
G1 X225.965 Y192.401 E.07977
G1 X225.515 Y192.975 E.02568
G1 X224.964 Y193.408 E.02465
G1 X162.56 Y229.438 E2.53603
G1 X161.544 Y229.788 E.03781
G1 X158.877 Y229.824 E.09386
G1 X158.216 Y229.741 E.02344
G1 X157.436 Y229.449 E.02932
G1 X95.035 Y193.408 E2.53612
G1 X94.485 Y192.975 E.02464
G1 X94.035 Y192.401 E.02568
G1 X92.728 Y190.057 E.09445
G1 X92.523 Y189.002 E.03781
G1 X92.523 Y116.998 E2.53411
G1 X92.633 Y116.25 E.02662
G1 X92.905 Y115.564 E.02595
G1 X94.035 Y113.599 E.07977
G1 X94.46 Y113.056 E.02428
; printing object top.stl id:0 copy 0
G1 E-.5 F2400
EXCLUDE_OBJECT_START NAME=top.stl_id_0_copy_0
G1 X160.55 Y148.823 F12000
G1 E.5 F1800
;TYPE:Support
G1 F3000
G3 X160 Y148.787 I-.55 J4.173 E.91126
G1 X160.482 Y148.818 E.01698
G1 X163.801 Y153.006 F12000
G1 F3000
G3 X163.768 Y152.503 I-3.797 J-.009 E.82182
M73 P1 R35
G1 X163.801 Y153.006 E.01775
G1 X163.292 Y153.006 F12000
G1 F3000
G3 X163.264 Y152.569 I-3.288 J-.009 E.71174
G1 X163.292 Y153.006 E.0154
G1 X162.783 Y153.006 F12000
G1 F3000
G3 X162.759 Y152.635 I-2.78 J-.008 E.60166
G1 X162.783 Y153.006 E.01306
G1 X162.274 Y153.005 F12000
G1 F3000
G3 X162.254 Y152.701 I-2.272 J-.007 E.49158
G1 X162.274 Y153.005 E.01072
G1 X161.765 Y153.005 F12000
G1 F3000
G3 X161.75 Y152.767 I-1.763 J-.006 E.3815
G1 X161.765 Y153.005 E.00838
G1 X161.256 Y153.005 F12000
G1 F3000
G3 X161.245 Y152.833 I-1.255 J-.006 E.27142
G1 X161.256 Y153.005 E.00603
G1 X160.747 Y153.004 F12000
G1 F3000
G3 X160.74 Y152.9 I-.746 J-.005 E.16134
G1 X160.747 Y153.004 E.00369
G1 X160.24 Y153.032 F12000
G1 F3000
G3 X160.234 Y152.938 I-.237 J-.032 E.04954
G1 X160.24 Y153.032 E.00332
G1 E-.5 F2400
G1 X162.574 Y157.83 F12000
G1 X163.473 Y159.679
G1 E.5 F1800
;TYPE:Outer wall
G1 F3000
G1 X161.773 Y159.679 E.05983
G1 X161.773 Y170.514 E.38133
G1 X161.191 Y170.566 E.02057
G1 X161.191 Y227.017 E1.98672
G1 X158.809 Y227.017 E.08381
G1 X158.809 Y170.566 E1.98672
G1 X158.227 Y170.514 E.02057
G1 X158.227 Y159.671 E.38161
G1 X156.527 Y159.671 E.05983
G1 X156.527 Y170.26 E.37266
G3 X146.789 Y164.637 I3.432 J-17.189 E.40287
G1 X155.965 Y159.34 E.37289
G1 X155.115 Y157.867 E.05983
G1 X145.719 Y163.292 E.38184
G1 X145.383 Y162.814 E.02057
G1 X96.493 Y191.041 E1.98678
G1 X95.304 Y188.977 E.08381
G1 X144.192 Y160.752 E1.98672
G1 X143.946 Y160.222 E.02057
G1 X153.346 Y154.79 E.38208
G1 X152.496 Y153.318 E.05983
G1 X143.316 Y158.622 E.37313
G3 X143.316 Y147.378 I16.602 J-5.622 E.40286
G1 X152.496 Y152.678 E.37306
G1 X153.346 Y151.205 E.05983
G1 X143.946 Y145.778 E.38201
G1 X144.192 Y145.248 E.02057
G1 X95.304 Y117.023 E1.98672
G1 X96.493 Y114.96 E.08381
G1 X145.383 Y143.186 E1.98678
G1 X145.719 Y142.708 E.02057
G1 X155.116 Y148.133 E.38187
G1 X155.966 Y146.661 E.05983
G1 X146.793 Y141.365 E.37277
G3 X156.527 Y135.744 I13.213 J11.644 E.40264
G1 X156.527 Y146.321 E.37223
G1 X158.227 Y146.321 E.05983
G1 X158.227 Y145.87 E.01588
G1 X158.801 Y145.731 E.02076
G3 X158.809 Y140.049 I480.313 J-2.12 E.19997
G1 X158.809 Y78.983 E2.14916
G1 X161.191 Y78.983 E.08381
G1 X161.191 Y140.049 E2.14916
G3 X161.199 Y145.731 I-480.284 J3.562 E.19997
G1 X161.773 Y145.87 E.02076
G1 X161.773 Y146.329 E.01617
G1 X163.473 Y146.329 E.05983
G1 X163.473 Y135.744 E.37251
G3 X173.207 Y141.365 I-3.478 J17.265 E.40264
G1 X164.035 Y146.66 E.37275
G1 X164.885 Y148.133 E.05983
G1 X174.281 Y142.708 E.38184
G1 X174.617 Y143.186 E.02057
G1 X223.507 Y114.959 E1.98678
G1 X224.696 Y117.023 E.08381
G1 X175.808 Y145.248 E1.98672
G1 X176.054 Y145.778 E.02057
G1 X166.653 Y151.208 E.38207
G1 X167.503 Y152.681 E.05983
G1 X176.68 Y147.38 E.37297
G3 X176.68 Y158.62 I-16.691 J5.62 E.40264
G1 X167.504 Y153.322 E.37291
G1 X166.654 Y154.794 E.05983
G1 X176.054 Y160.222 E.38201
G1 X175.808 Y160.752 E.02057
G1 X224.696 Y188.977 E1.98672
M73 P2 R35
G1 X223.507 Y191.04 E.08381
G1 X174.617 Y162.814 E1.98678
G1 X174.281 Y163.292 E.02057
G1 X164.885 Y157.867 E.38186
G1 X164.035 Y159.339 E.05983
G1 X173.211 Y164.637 E.37292
G3 X163.473 Y170.26 I-13.17 J-11.566 E.40287
G1 X163.473 Y159.719 E.37097
G1 E-.5 F2400
G1 X151.66 Y156.152 F12000
G1 X152.914 Y155.427
G1 X153.649 Y154.871
G1 X152.136 Y152.998
G1 E.5 F1800
;TYPE:Inner wall
G1 F3000
G1 X143.578 Y157.943 E.34785
G3 X143.578 Y148.057 I16.343 J-4.943 E.35298
G1 X152.102 Y152.978 E.34637
G1 X151.222 Y152.998 F12000
G1 F3000
G1 X143.857 Y157.254 E.29938
G3 X143.857 Y148.746 I16.096 J-4.254 E.3028
G1 X151.188 Y152.978 E.2979
G1 X150.308 Y152.998 F12000
G1 F3000
G1 X144.154 Y156.554 E.25015
G3 X144.155 Y149.445 I15.957 J-3.554 E.25221
G1 X150.274 Y152.978 E.24868
G1 E-.5 F2400
G1 X152.409 Y153.642 F12000
G1 X153.051 Y154.16
G1 X153.649 Y154.871
G1 X155.197 Y157.561
G1 X156.07 Y159.807
G1 E.5 F1800
G1 F3000
G1 X156.07 Y169.693 E.34794
G3 X147.508 Y164.75 I3.891 J-16.625 E.35299
G1 X156.035 Y159.827 E.34653
G1 X155.613 Y160.598 F12000
G1 F3000
G1 X155.613 Y169.107 E.29946
G3 X148.244 Y164.853 I4.363 J-16.067 E.30282
G1 X155.578 Y160.618 E.29805
G1 X155.156 Y161.39 F12000
G1 F3000
G1 X155.156 Y168.5 E.25023
G3 X148.999 Y164.945 I4.9 J-15.597 E.25224
G1 X155.121 Y161.41 E.24882
G1 E-.5 F2400
G1 X156.758 Y159.902 F12000
G1 X157.534 Y159.606
G1 X158.455 Y159.443
G1 X164.39 Y159.293
G1 X163.93 Y159.807
G1 E.5 F1800
G1 F3000
G1 X172.492 Y164.75 E.34794
G3 X163.93 Y169.693 I-12.452 J-11.682 E.35299
G1 X163.93 Y159.847 E.34653
G1 X164.387 Y160.598 F12000
G1 F3000
G1 X171.756 Y164.853 E.29946
G3 X164.387 Y169.107 I-11.732 J-11.812 E.30282
G1 X164.387 Y160.638 E.29805
G1 X164.844 Y161.39 F12000
G1 F3000
G1 X171.001 Y164.945 E.25023
G3 X164.844 Y168.5 I-11.057 J-12.042 E.25224
G1 X164.844 Y161.43 E.24882
G1 E-.5 F2400
G1 X164.348 Y159.255 F12000
G1 X164.479 Y158.433
G1 X164.802 Y157.561
G1 X166.35 Y154.876
G1 X166.948 Y154.164
G1 X167.59 Y153.646
G1 X171.131 Y151.113
G1 E.5 F1800
G1 F3000
G1 X176.428 Y148.053 E.21528
G1 X176.732 Y149.224 E.04255
G3 X176.428 Y157.947 I-16.974 J3.776 E.31052
G1 X167.862 Y153.001 E.34811
G1 X171.097 Y151.133 E.13147
G1 X171.995 Y151.142 F12000
G1 F3000
G1 X176.137 Y148.75 E.16834
G1 X176.286 Y149.324 E.02089
G3 X176.136 Y157.251 I-16.203 J3.66 E.28173
G1 X168.776 Y153.001 E.29912
G1 X171.96 Y151.162 E.1294
G1 X172.929 Y151.13 F12000
G1 F3000
G1 X175.844 Y149.447 E.11846
G1 X176.034 Y150.436 E.03546
G3 X175.844 Y156.554 I-16.023 J2.563 E.21671
G1 X169.69 Y153.001 E.25007
G1 X172.894 Y151.15 E.13023
G1 E-.5 F2400
G1 X169.088 Y152.041 F12000
G1 X167.59 Y152.357
G1 X166.948 Y151.839
G1 X166.35 Y151.127
G1 X164.803 Y148.44
G1 X164.481 Y147.566
G1 X164.351 Y146.745
G1 X165.379 Y145.605
G1 X165.764 Y145.274
G1 X172.498 Y141.246
G1 E.5 F1800
G1 F3000
G1 X163.93 Y146.193 E.34821
G1 X163.93 Y136.299 E.34821
G1 X165.095 Y136.622 E.04256
G3 X172.471 Y141.217 I-5.24 J16.626 E.30909
G1 X171.749 Y141.151 F12000
G1 F3000
G1 X164.387 Y145.402 E.29918
G1 X164.387 Y136.9 E.2992
G1 X164.959 Y137.058 E.02091
G3 X171.721 Y141.123 I-4.93 J15.857 E.28032
G1 X171 Y141.056 F12000
G1 F3000
G1 X164.844 Y144.61 E.25015
G1 X164.844 Y137.502 E.25015
G1 X165.797 Y137.832 E.03548
G3 X170.97 Y141.029 I-5.792 J15.158 E.2153
G1 E-.5 F2400
G1 X165.764 Y145.274 F12000
G1 X165.379 Y145.605
G1 X164.351 Y146.745
G1 X164.481 Y147.566
G1 X166.906 Y158.647
G1 X165.652 Y157.923
G1 X164.802 Y157.561
G1 X163.663 Y159.068
G1 E.5 F1800
G1 F3000
G1 X163.575 Y159.222 E.00625
G1 X161.316 Y159.222 E.0795
G1 X161.316 Y170.096 E.3827
G1 X160.734 Y170.148 E.02057
G1 X160.734 Y226.56 E1.98535
G1 X159.266 Y226.56 E.05164
G1 X159.266 Y170.148 E1.98535
G1 X158.684 Y170.096 E.02057
G1 X158.684 Y159.214 E.38298
G1 X156.42 Y159.214 E.07969
G1 X155.282 Y157.243 E.08009
G1 X145.852 Y162.687 E.38321
G1 X145.516 Y162.209 E.02057
G1 X96.661 Y190.416 E1.9854
G1 X95.928 Y189.145 E.05164
G1 X144.783 Y160.939 E1.98536
G1 X144.537 Y160.408 E.02058
G1 X153.97 Y154.957 E.38345
G1 X152.839 Y152.998 E.07961
G1 X153.971 Y151.038 E.07965
G1 X144.537 Y145.591 E.38338
G1 X144.783 Y145.061 E.02057
G1 X95.928 Y116.855 E1.98536
G1 X96.661 Y115.584 E.05164
G1 X145.516 Y143.791 E1.9854
M73 P3 R35
G1 X145.852 Y143.313 E.02057
G1 X155.283 Y148.757 E.38324
G1 X156.426 Y146.778 E.08043
G1 X158.684 Y146.778 E.07949
G1 X158.684 Y146.23 E.0193
G1 X159.258 Y146.091 E.02079
G3 X159.266 Y140.05 I510.62 J-2.354 E.2126
G1 X159.266 Y79.44 E2.1331
G1 X160.734 Y79.44 E.05164
G1 X160.734 Y140.05 E2.1331
G3 X160.742 Y146.091 I-510.614 J3.687 E.2126
G1 X161.316 Y146.23 E.02079
G1 X161.316 Y146.786 E.01959
G1 X163.58 Y146.786 E.07969
G1 X164.718 Y148.757 E.08009
G1 X174.148 Y143.313 E.38321
G1 X174.484 Y143.791 E.02057
G1 X223.339 Y115.584 E1.9854
G1 X224.072 Y116.855 E.05164
G1 X175.217 Y145.061 E1.98536
G1 X175.463 Y145.592 E.02057
G1 X166.029 Y151.041 E.38344
G1 X167.161 Y153.002 E.07967
G1 X166.029 Y154.962 E.07965
G1 X175.463 Y160.409 E.38338
G1 X175.217 Y160.939 E.02057
G1 X224.072 Y189.145 E1.98536
G1 X223.339 Y190.416 E.05164
G1 X174.484 Y162.209 E1.9854
G1 X174.148 Y162.687 E.02057
G1 X164.717 Y157.243 E.38324
M73 P3 R34
G1 X163.683 Y159.033 E.07277
G1 E-.5 F2400
G1 X166.948 Y151.839 F12000
G1 X166.35 Y151.127
G1 X167.085 Y150.571
G1 X171.032 Y147.623
G1 E.5 F1800
G1 F3000
G1 X165.647 Y150.734 E.21885
G1 X165.267 Y149.96 E.03034
G1 X164.789 Y149.244 E.03032
G1 X174.014 Y143.917 E.37491
G1 X174.35 Y144.396 E.02057
G1 X223.171 Y116.209 E1.98401
G1 X223.448 Y116.688 E.01947
G1 X174.627 Y144.875 E1.984
G1 X174.873 Y145.405 E.02058
G1 X171.067 Y147.603 E.1547
G1 X171.594 Y146.771 F12000
G1 F3000
G1 X165.842 Y150.094 E.23378
G2 X165.44 Y149.396 I-2.821 J1.161 E.02843
G1 X173.881 Y144.522 E.34302
G1 X174.112 Y144.852 E.01419
G1 X174.282 Y145.218 E.0142
G1 X171.629 Y146.751 E.10786
G1 E-.5 F2400
G1 X166.35 Y151.127 F12000
G1 X166.35 Y154.876
G1 X166.937 Y156.014
G1 E.5 F1800
G1 F3000
G1 X174.873 Y160.595 E.3225
G1 X174.627 Y161.125 E.02057
G1 X223.448 Y189.312 E1.984
G1 X223.171 Y189.791 E.01947
G1 X174.35 Y161.604 E1.98401
G1 X174.014 Y162.083 E.02057
G1 X164.789 Y156.756 E.37491
G1 X165.267 Y156.041 E.03028
G1 X165.647 Y155.269 E.03028
G1 X166.902 Y155.994 E.051
G1 X166.854 Y156.494 F12000
G1 F3000
G1 X174.282 Y160.782 E.30185
G3 X173.881 Y161.478 I-2.131 J-.767 E.02841
G1 X165.44 Y156.604 E.34302
G2 X165.841 Y155.909 I-2.441 J-1.873 E.02835
G1 X166.82 Y156.474 E.03976
G1 E-.5 F2400
G1 X165.059 Y150.913 F12000
G1 X164.765 Y150.25
G1 X164.345 Y149.666
G1 X163.301 Y148.699
G1 X162.751 Y148.235
G1 X162.083 Y147.991
G1 X160.715 Y147.567
G1 X160 Y147.498
G1 X159.292 Y147.561
G1 X157.923 Y147.985
G1 X157.249 Y148.235
G1 X155.211 Y149.244
G1 E.5 F1800
G1 F3000
G1 X154.733 Y149.959 E.03028
G1 X154.353 Y150.731 E.03028
G1 X145.127 Y145.405 E.37491
G1 X145.373 Y144.875 E.02057
G1 X96.552 Y116.688 E1.984
G1 X96.829 Y116.209 E.01947
G1 X145.65 Y144.396 E1.98401
G1 X145.986 Y143.917 E.02057
G1 X155.177 Y149.224 E.3735
G1 X154.56 Y149.396 F12000
G1 F3000
G2 X154.159 Y150.091 I2.441 J1.873 E.02835
G1 X145.718 Y145.218 E.34302
G3 X146.119 Y144.522 I2.131 J.767 E.02841
G1 X154.526 Y149.376 E.34162
G1 E-.5 F2400
G1 X160.859 Y146.709 F12000
G1 E.5 F1800
G1 F3000
G1 X160.859 Y146.975 E.00936
G1 X160 Y146.919 E.03028
G1 X159.141 Y146.975 E.03028
G1 X159.141 Y146.59 E.01356
G1 X159.716 Y146.451 E.02081
G3 X159.723 Y140.051 I540.923 J-2.587 E.22523
M73 P4 R34
G1 X159.723 Y79.897 E2.11705
G1 X160.277 Y79.897 E.01947
G1 X160.277 Y140.051 E2.11705
G3 X160.284 Y146.451 I-540.944 J3.813 E.22523
G1 X160.859 Y146.59 E.02081
G1 X160.859 Y146.669 E.00279
G1 E-.5 F2400
G1 X163.551 Y148.074 F12000
G1 E.5 F1800
G1 F3000
G2 X162.477 Y147.455 I-2.889 J3.772 E.04378
G1 X162.526 Y147.243 E.00766
G1 X163.316 Y147.243 E.0278
G1 X163.71 Y147.926 E.02774
G1 X163.58 Y148.047 E.00625
G1 E-.5 F2400
G1 X166.042 Y153.602 F12000
G1 E.5 F1800
G1 F3000
G2 X166.042 Y152.401 I-4.613 J-.6 E.04237
G1 X166.25 Y152.338 E.00765
G1 X166.633 Y153.002 E.02696
G1 X166.25 Y153.665 E.02696
G1 X166.08 Y153.613 E.00625
G1 E-.5 F2400
G1 X163.55 Y157.926 F12000
G1 E.5 F1800
G1 F3000
G1 X163.709 Y158.075 E.00766
G1 X163.311 Y158.765 E.02803
G1 X162.51 Y158.765 E.02818
G1 X162.46 Y158.553 E.00766
G2 X163.518 Y157.95 I-1.834 J-4.451 E.04295
G1 E-.5 F2400
G1 X160.859 Y159.025 F12000
G1 E.5 F1800
G1 F3000
G1 X160.859 Y169.678 E.3749
G1 X160.277 Y169.73 E.02057
G1 X160.277 Y226.103 E1.98398
G1 X159.723 Y226.103 E.01947
G1 X159.723 Y169.73 E1.98398
G1 X159.141 Y169.678 E.02057
G1 X159.141 Y159.025 E.37491
G1 X159.992 Y159.081 E.03
G1 X160.819 Y159.028 E.02916
G1 X160.402 Y159.513 F12000
G1 F3000
G1 X160.402 Y169.26 E.34304
G3 X159.598 Y169.26 I-.402 J-2.229 E.02841
G1 X159.598 Y159.513 E.34302
G2 X160.362 Y159.518 I.4 J-3.086 E.02694
G1 E-.5 F2400
G1 X157.523 Y158.545 F12000
G1 E.5 F1800
G1 F3000
G1 X157.474 Y158.757 E.00766
G1 X156.684 Y158.757 E.0278
G1 X156.29 Y158.074 E.02774
G1 X156.449 Y157.926 E.00766
G1 X156.959 Y158.267 E.02161
G1 X157.488 Y158.527 E.02073
G1 E-.5 F2400
G1 X155.211 Y156.756 F12000
G1 E.5 F1800
G1 F3000
G1 X145.986 Y162.083 E.37491
G1 X145.65 Y161.604 E.02057
G1 X96.829 Y189.791 E1.98401
G1 X96.552 Y189.312 E.01947
