; generated by SuperSlicer 2.5.59 on 2023-05-04 at 17:26:29 UTC


;
;

;
;
; 

; external perimeters extrusion width = 0.40mm
; perimeters extrusion width = 0.46mm
; infill extrusion width = 0.64mm
; solid infill extrusion width = 0.56mm
; top infill extrusion width = 0.40mm
; support material extrusion width = 0.46mm
; first layer extrusion width = 0.50mm

; object:{"name":"Unifi_Security_Gateway_3P_Mount","id":"Unifi_Security_Gateway_3P_Mount.STL id:0 copy 0","object_center":[165.000000,165.000000,0.000000],"boundingbox_center":[165.000000,165.000000,64.499992],"boundingbox_size":[236.220001,41.000000,128.999985]}
EXCLUDE_OBJECT_DEFINE NAME=Unifi_Security_Gateway_3P_Mount_STL_id_0_copy_0 CENTER=165.000000,165.000000 POLYGON=[[46.890000,144.500000],[283.109984,144.500000],[283.109984,185.500000],[46.890000,185.500000],[46.890000,144.500000]]
; plater:{"center":[165.000000,165.000000,0.000000],"boundingbox_center":[165.000000,165.000000,64.499992],"boundingbox_size":[236.220001,41.000000,128.999985]}

M73 P0 R278
;TYPE:Custom
; custom gcode: start_gcode
START_PRINT T_BED=70 T_EXTRUDER=235
; custom gcode end: start_gcode
M107
G21 ; set units to millimeters
G90 ; use absolute coordinates
M82 ; use absolute distances for extrusion
G92 E0
; custom gcode: start_filament_gcode
; Filament gcode
PRESSURE_ADVANCE_SELECT FILAMENT=PETG
; custom gcode end: start_filament_gcode
;_TOOLCHANGE 0
M104 S235 ; set temperature
M109 S235 ; set temperature and wait for it to be reached
M190 S70 ; set bed temperature and wait for it to be reached
;LAYER_CHANGE
;Z:0.2
;HEIGHT:0.2
G1 Z0.2 F9000
M73 P0 R278
G1 E-1 F3000
M204 S1000
G1 X46.765 Y140.959 F9000
G1 E0 F1800
;TYPE:Skirt
;WIDTH:0.52
G1 X44.769 Y141.621 E0.08093
G1 X43.669 Y142.934 E0.14683
G1 X43.274 Y144.6 E0.21272
G1 X43.274 Y185.4 E1.78267
G1 X44.011 Y187.621 E1.87272
G1 X45.324 Y188.721 E1.93861
G1 X46.99 Y189.116 E2.0045
G1 X283.01 Y189.116 E11.08638
G1 X285.231 Y188.379 E11.17642
G1 X286.331 Y187.066 E11.24231
G1 X286.726 Y185.4 E11.30821
G1 X286.726 Y144.6 E12.87816
G1 X285.989 Y142.379 E12.9682
G1 X284.676 Y141.279 E13.0341
G1 X283.01 Y140.884 E13.09999
G1 X46.99 Y140.884 E22.18186
G1 X46.765 Y140.959 E22.19097
G1 X46.893 Y141.39 F9000
G1 F1800
G1 X45.231 Y141.881 E22.25764
G1 X44.145 Y143.052 E22.3191
G1 X43.751 Y144.6 E22.38055
G1 X43.751 Y185.4 E23.95051
G1 X44.271 Y187.159 E24.02108
G1 X45.442 Y188.245 E24.08254
G1 X46.99 Y188.639 E24.14399
G1 X283.01 Y188.639 E33.22587
G1 X284.769 Y188.119 E33.29644
G1 X285.855 Y186.948 E33.3579
G1 X286.249 Y185.4 E33.41936
G1 X286.249 Y144.6 E34.98931
G1 X285.729 Y142.841 E35.05988
G1 X284.558 Y141.755 E35.12134
G1 X283.01 Y141.361 E35.1828
G1 X46.99 Y141.361 E44.26467
G1 X46.893 Y141.39 E44.26857
G92 E0
G1 E-1 F3000
; printing object Unifi_Security_Gateway_3P_Mount.STL id:0 copy 0
EXCLUDE_OBJECT_START NAME=Unifi_Security_Gateway_3P_Mount_STL_id_0_copy_0
; acceleration to travel
M204 S3000
G1 X208.337 Y168.865 F9000
; decel to extrusion
M204 S1000
G1 X262.152 Y178.023
; end travel
G1 E0 F1800
;TYPE:Internal perimeter
;WIDTH:0.5
G1 X262.5 Y177.521 E0.02252
G1 X262.734 Y176.908 E0.04671
G1 X262.807 Y176.306 E0.06906
G1 X262.807 Y153.651 E0.90426
G1 X262.735 Y153.054 E0.92643
G1 X262.504 Y152.444 E0.9505
G1 X262.134 Y151.906 E0.97454
G1 X261.657 Y151.481 E0.9981
G1 X260.145 Y150.62 E1.06223
G1 X258.506 Y150.043 E1.12632
G1 X256.693 Y149.753 E1.194
G1 X131.506 Y149.753 E5.80915
G1 X129.766 Y150.018 E5.87404
G1 X128.091 Y150.599 E5.9394
G1 X126.54 Y151.482 E6.00519
G1 X126.063 Y151.907 E6.02876
G1 X125.695 Y152.444 E6.05276
G1 X125.465 Y153.053 E6.07676
G1 X125.393 Y153.651 E6.09896
G1 X125.393 Y176.305 E6.93411
G1 X125.466 Y176.908 E6.95651
G1 X125.7 Y177.521 E6.98072
G1 X126.075 Y178.061 E7.00494
G1 X126.558 Y178.486 E7.02868
G1 X128.09 Y179.343 E7.09336
G1 X129.737 Y179.908 E7.15757
G1 X131.447 Y180.167 E7.22134
G1 X256.753 Y180.167 E11.84086
G1 X258.459 Y179.909 E11.90448
G1 X260.114 Y179.342 E11.96899
G1 X261.643 Y178.486 E12.03356
G1 X262.126 Y178.061 E12.05729
G1 X262.152 Y178.023 E12.05899
G1 X261.782 Y177.755 F9000
;TYPE:External perimeter
G1 F1800
G1 X262.093 Y177.306 E12.07911
G1 X262.287 Y176.797 E12.09919
G1 X262.35 Y176.279 E12.11846
G1 X262.35 Y153.679 E12.95161
G1 X262.288 Y153.164 E12.97073
G1 X262.096 Y152.657 E12.99072
G1 X261.789 Y152.211 E13.01068
G1 X261.389 Y151.855 E13.03043
G1 X259.955 Y151.038 E13.09128
G1 X258.393 Y150.487 E13.15233
G1 X256.657 Y150.21 E13.21715
G1 X131.541 Y150.21 E17.82969
G1 X129.877 Y150.463 E17.89175
G1 X128.281 Y151.017 E17.95402
G1 X126.808 Y151.855 E18.01648
G1 X126.409 Y152.211 E18.03621
G1 X126.103 Y152.657 E18.05614
G1 X125.912 Y153.163 E18.07607
G1 X125.85 Y153.678 E18.09521
G1 X125.85 Y176.277 E18.92833
G1 X125.913 Y176.797 E18.94765
G1 X126.108 Y177.307 E18.96775
G1 X126.419 Y177.755 E18.98786
G1 X126.824 Y178.111 E19.00776
G1 X128.277 Y178.924 E19.06913
G1 X129.846 Y179.462 E19.1303
G1 X131.482 Y179.71 E19.19128
M73 P0 R277
G1 X256.718 Y179.71 E23.80827
G1 X258.35 Y179.464 E23.8691
G1 X259.927 Y178.923 E23.93057
G1 X261.377 Y178.111 E23.99183
G1 X261.782 Y177.755 E24.01171
;WIPE_START
M204 S4000
G1 X262.176 Y177.82 F9000
;WIPE_END
G92 E0
G1 E-1 F3000
; acceleration to travel
M204 S3000
G1 X138.329 Y175.017 F9000
; decel to extrusion
M204 S1000
G1 X97.047 Y174.082
; end travel
G1 E0 F1800
;TYPE:Internal perimeter
G1 X97.047 Y155.918 E0.66964
G1 X80.583 Y155.918 E1.27661
G1 X80.583 Y174.082 E1.94625
G1 X97.047 Y174.082 E2.55322
G1 X96.59 Y173.625 F9000
;TYPE:External perimeter
G1 F1800
G1 X96.59 Y156.375 E3.18916
G1 X81.04 Y156.375 E3.76243
G1 X81.04 Y173.625 E4.39837
G1 X96.59 Y173.625 E4.97164
;WIPE_START
M204 S4000
G1 X96.99 Y173.625 F9000
;WIPE_END
G92 E0
G1 E-1 F3000
; acceleration to travel
M204 S3000
G1 X60.02 Y181.926 F9000
; decel to extrusion
M204 S1000
G1 X47.697 Y184.693
; end travel
G1 E0 F1800
;TYPE:Internal perimeter
G1 X47.697 Y145.307 E1.452
G1 X282.303 Y145.307 E10.10101
G1 X282.303 Y184.693 E11.55302
G1 X47.697 Y184.693 E20.20203
G1 X47.24 Y185.15 F9000
;TYPE:External perimeter
G1 F1800
G1 X47.24 Y144.85 E21.68774
G1 X282.76 Y144.85 E30.37045
G1 X282.76 Y185.15 E31.85615
G1 X47.24 Y185.15 E40.53887
;WIPE_START
M204 S4000
G1 X47.44 Y184.804 F9000
;WIPE_END
G92 E0
G1 E-1 F3000
; acceleration to travel
M204 S3000
G1 X217.414 Y156.971 F9000
; decel to extrusion
M204 S1000
G1 X282.166 Y146.368
; end travel
G1 E0 F1800
;TYPE:Solid infill
;WIDTH:0.501636
G1 F3600
G1 X281.242 Y145.444 E0.04833
G1 X280.595 Y145.444 F9000
G1 F3600
G1 X282.166 Y147.015 E0.13047
G1 X282.166 Y147.661 F9000
G1 F3600
G1 X279.949 Y145.444 E0.24643
G1 X279.303 Y145.444 F9000
G1 F3600
G1 X282.166 Y148.307 E0.39619
G1 X282.166 Y148.954 F9000
G1 F3600
G1 X278.656 Y145.444 E0.57977
G1 X278.01 Y145.444 F9000
G1 F3600
G1 X282.166 Y149.6 E0.79716
G1 X282.166 Y150.247 F9000
G1 F3600
G1 X277.363 Y145.444 E1.04836
G1 X276.717 Y145.444 F9000
G1 F3600
G1 X282.166 Y150.893 E1.33337
G1 X282.166 Y151.539 F9000
G1 F3600
G1 X276.071 Y145.444 E1.6522
G1 X275.424 Y145.444 F9000
G1 F3600
G1 X282.166 Y152.186 E2.00483
G1 X282.166 Y152.832 F9000
G1 F3600
G1 X274.778 Y145.444 E2.39128
G1 X274.131 Y145.444 F9000
G1 F3600
G1 X282.166 Y153.479 E2.81154
G1 X282.166 Y154.125 F9000
G1 F3600
G1 X273.485 Y145.444 E3.26561
G1 X272.839 Y145.444 F9000
G1 F3600
G1 X282.166 Y154.771 E3.75349
G1 X282.166 Y155.418 F9000
G1 F3600
G1 X272.192 Y145.444 E4.27519
G1 X271.546 Y145.444 F9000
G1 F3600
G1 X282.166 Y156.064 E4.83069
G1 X282.166 Y156.711 F9000
G1 F3600
G1 X270.899 Y145.444 E5.42001
G1 X270.253 Y145.444 F9000
G1 F3600
G1 X282.166 Y157.357 E6.04314
G1 X282.166 Y158.003 F9000
G1 F3600
G1 X269.607 Y145.444 E6.70008
G1 X268.96 Y145.444 F9000
G1 F3600
G1 X282.166 Y158.65 E7.39084
G1 X282.166 Y159.296 F9000
G1 F3600
G1 X268.314 Y145.444 E8.1154
G1 X267.667 Y145.444 F9000
G1 F3600
G1 X282.166 Y159.943 E8.87378
G1 X282.166 Y160.589 F9000
G1 F3600
G1 X267.021 Y145.444 E9.66597
G1 X266.374 Y145.444 F9000
G1 F3600
G1 X282.166 Y161.236 E10.49197
G1 X282.166 Y161.882 F9000
G1 F3600
G1 X265.728 Y145.444 E11.35178
G1 X265.082 Y145.444 F9000
G1 F3600
G1 X282.166 Y162.528 E12.2454
G1 X282.166 Y163.175 F9000
G1 F3600
G1 X264.435 Y145.444 E13.17284
G1 X263.789 Y145.444 F9000
G1 F3600
G1 X282.166 Y163.821 E14.13408
G1 X282.166 Y164.468 F9000
G1 F3600
G1 X263.142 Y145.444 E15.12914
G1 X262.496 Y145.444 F9000
G1 F3600
G1 X282.166 Y165.114 E16.15801
G1 X282.166 Y165.76 F9000
G1 F3600
G1 X261.85 Y145.444 E17.2207
G1 X261.203 Y145.444 F9000
G1 F3600
G1 X282.166 Y166.407 E18.31719
M73 P1 R276
G1 X282.166 Y167.053 F9000
G1 F3600
G1 X260.557 Y145.444 E19.4475
G1 X259.91 Y145.444 F9000
G1 F3600
G1 X282.166 Y167.7 E20.61161
G1 X282.166 Y168.346 F9000
G1 F3600
G1 X259.264 Y145.444 E21.80954
G1 X258.618 Y145.444 F9000
G1 F3600
G1 X282.166 Y168.992 E23.04128
G1 X282.166 Y169.639 F9000
G1 F3600
G1 X257.971 Y145.444 E24.30684
G1 X257.325 Y145.444 F9000
G1 F3600
G1 X282.166 Y170.285 E25.6062
G1 X282.166 Y170.932 F9000
G1 F3600
G1 X256.678 Y145.444 E26.93938
G1 X256.032 Y145.444 F9000
G1 F3600
G1 X282.166 Y171.578 E28.30636
G1 X282.166 Y172.224 F9000
G1 F3600
G1 X262.812 Y152.87 E29.31871
G1 X262.944 Y153.649 F9000
G1 F3600
G1 X282.166 Y172.871 E30.32414
G1 X282.166 Y173.517 F9000
G1 F3600
G1 X262.944 Y154.296 E31.32957
G1 X262.944 Y154.942 F9000
G1 F3600
G1 X282.166 Y174.164 E32.335
G1 X282.166 Y174.81 F9000
G1 F3600
G1 X262.944 Y155.588 E33.34043
G1 X262.944 Y156.235 F9000
G1 F3600
G1 X282.166 Y175.456 E34.34586
G1 X282.166 Y176.103 F9000
G1 F3600
G1 X262.944 Y156.881 E35.35129
G1 X262.944 Y157.528 F9000
G1 F3600
G1 X282.166 Y176.749 E36.35672
G1 X282.166 Y177.396 F9000
G1 F3600
G1 X262.944 Y158.174 E37.36215
G1 X262.944 Y158.82 F9000
G1 F3600
G1 X282.166 Y178.042 E38.36758
G1 X282.166 Y178.689 F9000
G1 F3600
G1 X262.944 Y159.467 E39.37301
G1 X262.944 Y160.113 F9000
G1 F3600
G1 X282.166 Y179.335 E40.37843
G1 X282.166 Y179.981 F9000
G1 F3600
G1 X262.944 Y160.76 E41.38386
G1 X262.944 Y161.406 F9000
G1 F3600
G1 X282.166 Y180.628 E42.38929
G1 X282.166 Y181.274 F9000
G1 F3600
G1 X262.944 Y162.053 E43.39472
G1 X262.944 Y162.699 F9000
G1 F3600
G1 X282.166 Y181.921 E44.40015
G1 X282.166 Y182.567 F9000
G1 F3600
G1 X262.944 Y163.345 E45.40558
G1 X262.944 Y163.992 F9000
G1 F3600
G1 X282.166 Y183.213 E46.41101
G1 X282.166 Y183.86 F9000
G1 F3600
G1 X262.944 Y164.638 E47.41644
G1 X262.944 Y165.285 F9000
G1 F3600
G1 X282.166 Y184.506 E48.42187
G1 X281.569 Y184.556 F9000
G1 F3600
G1 X262.944 Y165.931 E49.39608
G1 X262.944 Y166.577 F9000
G1 F3600
G1 X280.923 Y184.556 E50.33648
G1 X280.276 Y184.556 F9000
G1 F3600
G1 X262.944 Y167.224 E51.24307
G1 X262.944 Y167.87 F9000
G1 F3600
G1 X279.63 Y184.556 E52.11585
G1 X278.983 Y184.556 F9000
G1 F3600
G1 X262.944 Y168.517 E52.95482
G1 X262.944 Y169.163 F9000
G1 F3600
G1 X278.337 Y184.556 E53.75997
G1 X277.691 Y184.556 F9000
G1 F3600
G1 X262.944 Y169.809 E54.53132
G1 X262.944 Y170.456 F9000
G1 F3600
G1 X277.044 Y184.556 E55.26885
G1 X276.398 Y184.556 F9000
G1 F3600
G1 X262.944 Y171.102 E55.97257
G1 X262.944 Y171.749 F9000
G1 F3600
G1 X275.751 Y184.556 E56.64247
G1 X275.105 Y184.556 F9000
G1 F3600
G1 X262.944 Y172.395 E57.27857
G1 X262.944 Y173.041 F9000
G1 F3600
G1 X274.459 Y184.556 E57.88085
G1 X273.812 Y184.556 F9000
G1 F3600
G1 X262.944 Y173.688 E58.44933
G1 X262.944 Y174.334 F9000
G1 F3600
G1 X273.166 Y184.556 E58.98399
G1 X272.519 Y184.556 F9000
G1 F3600
G1 X262.944 Y174.981 E59.48484
G1 X262.944 Y175.627 F9000
G1 F3600
G1 X271.873 Y184.556 E59.95188
G1 X271.227 Y184.556 F9000
G1 F3600
G1 X262.944 Y176.273 E60.3851
G1 X262.878 Y176.854 F9000
G1 F3600
G1 X270.58 Y184.556 E60.78796
G1 X269.934 Y184.556 F9000
G1 F3600
G1 X262.716 Y177.339 E61.16547
G1 X262.497 Y177.766 F9000
G1 F3600
G1 X269.287 Y184.556 E61.52063
G1 X268.641 Y184.556 F9000
G1 F3600
G1 X262.233 Y178.147 E61.85583
G1 X261.89 Y178.451 F9000
G1 F3600
G1 X267.994 Y184.556 E62.17515
G1 X267.348 Y184.556 F9000
G1 F3600
G1 X261.51 Y178.718 E62.48052
G1 X261.096 Y178.95 F9000
G1 F3600
G1 X266.702 Y184.556 E62.77376
G1 X266.055 Y184.556 F9000
G1 F3600
G1 X260.681 Y179.182 E63.05486
M73 P1 R276
G1 X260.267 Y179.414 F9000
G1 F3600
G1 X265.409 Y184.556 E63.32382
G1 X264.762 Y184.556 F9000
G1 F3600
G1 X259.801 Y179.594 E63.58334
G1 X259.32 Y179.759 F9000
G1 F3600
G1 X264.116 Y184.556 E63.83423
G1 X263.47 Y184.556 F9000
G1 F3600
G1 X258.838 Y179.924 E64.07649
G1 X258.334 Y180.067 F9000
G1 F3600
G1 X262.823 Y184.556 E64.31129
G1 X262.177 Y184.556 F9000
G1 F3600
G1 X257.773 Y180.152 E64.54166
G1 X257.211 Y180.236 F9000
G1 F3600
G1 X261.53 Y184.556 E64.76759
G1 X260.884 Y184.556 F9000
G1 F3600
G1 X256.632 Y180.304 E64.98998
G1 X255.986 Y180.304 F9000
G1 F3600
G1 X260.238 Y184.556 E65.21237
G1 X259.591 Y184.556 F9000
G1 F3600
G1 X255.34 Y180.304 E65.43476
G1 X254.693 Y180.304 F9000
G1 F3600
G1 X258.945 Y184.556 E65.65715
G1 X258.298 Y184.556 F9000
G1 F3600
G1 X254.047 Y180.304 E65.87954
G1 X253.4 Y180.304 F9000
G1 F3600
G1 X257.652 Y184.556 E66.10194
G1 X257.006 Y184.556 F9000
G1 F3600
G1 X252.754 Y180.304 E66.32433
G1 X252.108 Y180.304 F9000
G1 F3600
G1 X256.359 Y184.556 E66.54672
G1 X255.713 Y184.556 F9000
G1 F3600
G1 X251.461 Y180.304 E66.76911
G1 X250.815 Y180.304 F9000
G1 F3600
G1 X255.066 Y184.556 E66.9915
G1 X254.42 Y184.556 F9000
G1 F3600
G1 X250.168 Y180.304 E67.21389
G1 X249.522 Y180.304 F9000
G1 F3600
G1 X253.774 Y184.556 E67.43628
G1 X253.127 Y184.556 F9000
G1 F3600
G1 X248.875 Y180.304 E67.65867
G1 X248.229 Y180.304 F9000
G1 F3600
G1 X252.481 Y184.556 E67.88106
G1 X251.834 Y184.556 F9000
G1 F3600
G1 X247.583 Y180.304 E68.10346
G1 X246.936 Y180.304 F9000
G1 F3600
G1 X251.188 Y184.556 E68.32585
G1 X250.541 Y184.556 F9000
G1 F3600
G1 X246.29 Y180.304 E68.54824
G1 X245.643 Y180.304 F9000
G1 F3600
G1 X249.895 Y184.556 E68.77063
G1 X249.249 Y184.556 F9000
G1 F3600
G1 X244.997 Y180.304 E68.99302
G1 X244.351 Y180.304 F9000
G1 F3600
G1 X248.602 Y184.556 E69.21541
G1 X247.956 Y184.556 F9000
G1 F3600
G1 X243.704 Y180.304 E69.4378
G1 X243.058 Y180.304 F9000
G1 F3600
G1 X247.309 Y184.556 E69.66019
G1 X246.663 Y184.556 F9000
G1 F3600
G1 X242.411 Y180.304 E69.88258
G1 X241.765 Y180.304 F9000
G1 F3600
G1 X246.017 Y184.556 E70.10497
G1 X245.37 Y184.556 F9000
G1 F3600
G1 X241.119 Y180.304 E70.32737
G1 X240.472 Y180.304 F9000
G1 F3600
G1 X244.724 Y184.556 E70.54976
G1 X244.077 Y184.556 F9000
G1 F3600
G1 X239.826 Y180.304 E70.77215
G1 X239.179 Y180.304 F9000
G1 F3600
G1 X243.431 Y184.556 E70.99454
G1 X242.785 Y184.556 F9000
G1 F3600
G1 X238.533 Y180.304 E71.21693
G1 X237.887 Y180.304 F9000
G1 F3600
G1 X242.138 Y184.556 E71.43932
G1 X241.492 Y184.556 F9000
G1 F3600
G1 X237.24 Y180.304 E71.66171
G1 X236.594 Y180.304 F9000
G1 F3600
G1 X240.845 Y184.556 E71.8841
G1 X240.199 Y184.556 F9000
G1 F3600
G1 X235.947 Y180.304 E72.10649
G1 X235.301 Y180.304 F9000
G1 F3600
G1 X239.553 Y184.556 E72.32889
G1 X238.906 Y184.556 F9000
G1 F3600
G1 X234.655 Y180.304 E72.55128
G1 X234.008 Y180.304 F9000
G1 F3600
G1 X238.26 Y184.556 E72.77367
G1 X237.613 Y184.556 F9000
G1 F3600
G1 X233.362 Y180.304 E72.99606
G1 X232.715 Y180.304 F9000
G1 F3600
G1 X236.967 Y184.556 E73.21845
G1 X236.321 Y184.556 F9000
G1 F3600
G1 X232.069 Y180.304 E73.44084
G1 X231.422 Y180.304 F9000
G1 F3600
G1 X235.674 Y184.556 E73.66323
G1 X235.028 Y184.556 F9000
G1 F3600
G1 X230.776 Y180.304 E73.88562
G1 X230.13 Y180.304 F9000
G1 F3600
G1 X234.381 Y184.556 E74.10801
G1 X233.735 Y184.556 F9000
G1 F3600
G1 X229.483 Y180.304 E74.3304
G1 X228.837 Y180.304 F9000
G1 F3600
G1 X233.088 Y184.556 E74.5528
G1 X232.442 Y184.556 F9000
G1 F3600
G1 X228.19 Y180.304 E74.77519
G1 X227.544 Y180.304 F9000
G1 F3600
G1 X231.796 Y184.556 E74.99758
G1 X231.149 Y184.556 F9000
G1 F3600
G1 X226.898 Y180.304 E75.21997
G1 X226.251 Y180.304 F9000
G1 F3600
G1 X230.503 Y184.556 E75.44236
G1 X229.856 Y184.556 F9000
G1 F3600
G1 X225.605 Y180.304 E75.66475
G1 X224.958 Y180.304 F9000
G1 F3600
G1 X229.21 Y184.556 E75.88714
G1 X228.564 Y184.556 F9000
G1 F3600
G1 X224.312 Y180.304 E76.10953
G1 X223.666 Y180.304 F9000
G1 F3600
G1 X227.917 Y184.556 E76.33192
