; generated by SuperSlicer 2.5.59 on 2023-05-05 at 01:27:09 UTC


;
;

;
;
; 

; external perimeters extrusion width = 0.40mm
; perimeters extrusion width = 0.46mm
; infill extrusion width = 0.64mm
; solid infill extrusion width = 0.56mm
; top infill extrusion width = 0.40mm
; support material extrusion width = 0.46mm
; first layer extrusion width = 0.50mm

; external perimeters extrusion width = 0.40mm
; perimeters extrusion width = 0.46mm
; infill extrusion width = 0.64mm
; solid infill extrusion width = 0.56mm
; top infill extrusion width = 0.40mm
; support material extrusion width = 0.46mm
; first layer extrusion width = 0.50mm

; external perimeters extrusion width = 0.40mm
; perimeters extrusion width = 0.46mm
; infill extrusion width = 0.64mm
; solid infill extrusion width = 0.56mm
; top infill extrusion width = 0.40mm
; support material extrusion width = 0.46mm
; first layer extrusion width = 0.50mm

; object:{"name":"Unifi_Security_Gateway_Mount_Left","id":"Unifi_Security_Gateway_Mount_Left.STL id:0 copy 0","object_center":[167.799999,147.599992,0.000000],"boundingbox_center":[167.799999,147.599992,17.499996],"boundingbox_size":[45.000000,61.220003,34.999992]}
EXCLUDE_OBJECT_DEFINE NAME=Unifi_Security_Gateway_Mount_Left_STL_id_0_copy_0 CENTER=167.799999,147.599992 POLYGON=[[145.300000,116.989992],[185.300000,116.989992],[185.656688,117.002728],[186.011584,117.040888],[186.362816,117.104264],[186.708672,117.192528],[187.047328,117.305248],[187.377072,117.441832],[187.696240,117.601600],[188.003200,117.783720],[188.296384,117.987288],[188.574304,118.211240],[188.835536,118.454464],[189.078752,118.715688],[189.302704,118.993608],[189.506272,119.286792],[189.688400,119.593752],[189.848160,119.912920],[189.984752,120.242680],[190.097456,120.581328],[190.185728,120.927168],[190.249120,121.278416],[190.287264,121.633304],[190.300000,121.989992],[190.300000,169.110000],[190.287264,169.466688],[190.249120,169.821568],[190.185728,170.172816],[190.097456,170.518656],[189.984752,170.857312],[189.848160,171.187072],[189.688400,171.506240],[189.506272,171.813200],[189.302704,172.106384],[189.078752,172.384288],[188.835536,172.645520],[188.574304,172.888752],[188.296384,173.112704],[188.003200,173.316272],[180.225008,178.209984],[150.375008,178.209984],[145.300000,174.109984],[145.300000,116.989992]]
; object:{"name":"Unifi_Security_Gateway_Mount_Right","id":"Unifi_Security_Gateway_Mount_Right.STL id:1 copy 0","object_center":[116.800001,147.599998,0.000000],"boundingbox_center":[116.800001,147.599998,17.499996],"boundingbox_size":[44.999996,61.220003,34.999992]}
EXCLUDE_OBJECT_DEFINE NAME=Unifi_Security_Gateway_Mount_Right_STL_id_1_copy_0 CENTER=116.800001,147.599998 POLYGON=[[94.300000,121.989992],[94.312744,121.633304],[94.350888,121.278416],[94.414272,120.927168],[94.502544,120.581328],[94.615248,120.242680],[94.751840,119.912920],[94.911608,119.593752],[95.093736,119.286792],[95.297296,118.993608],[95.521256,118.715688],[95.764464,118.454464],[96.025696,118.211240],[96.303616,117.987288],[96.596792,117.783720],[96.903760,117.601600],[97.222928,117.441832],[97.552672,117.305248],[97.891336,117.192528],[98.237176,117.104264],[98.588424,117.040888],[98.943312,117.002728],[99.300000,116.989992],[139.300000,116.989992],[139.300000,174.109984],[134.225008,178.209984],[104.375008,178.209984],[96.596792,173.316272],[96.303616,173.112704],[96.025696,172.888752],[95.764464,172.645520],[95.521256,172.384288],[95.297296,172.106384],[95.093736,171.813200],[94.911608,171.506240],[94.751840,171.187072],[94.615248,170.857312],[94.502544,170.518656],[94.414272,170.172816],[94.350888,169.821568],[94.312744,169.466688],[94.300000,169.110000],[94.300000,121.989992]]
; object:{"name":"plaque_raspberry_PI4","id":"plaque_raspberry_PI4.stl id:2 copy 0","object_center":[167.799998,198.609996,0.000000],"boundingbox_center":[167.799998,198.609996,1.500000],"boundingbox_size":[135.800003,28.800024,3.000000]}
EXCLUDE_OBJECT_DEFINE NAME=plaque_raspberry_PI4_stl_id_2_copy_0 CENTER=167.799998,198.609996 POLYGON=[[99.900000,187.314384],[99.955680,186.857776],[100.119464,186.427920],[100.381752,186.050032],[100.727168,185.746240],[101.759096,185.138048],[102.863416,184.674112],[104.020104,184.362880],[105.208128,184.210000],[230.391904,184.209984],[231.580128,184.362352],[232.736992,184.673376],[233.841408,185.137360],[234.873296,185.745888],[234.873504,185.746064],[235.218656,186.049856],[235.480736,186.427648],[235.644384,186.857328],[235.700016,187.313744],[235.700016,209.868768],[235.645104,210.322160],[235.483648,210.749344],[235.224880,211.125664],[234.883792,211.429360],[234.542384,211.654976],[234.190944,211.864624],[233.830224,212.057856],[232.953152,212.444096],[232.039568,212.733568],[231.100112,212.922944],[230.145728,213.010016],[105.267392,213.010016],[104.058032,212.854096],[102.881376,212.534176],[101.759568,212.056256],[100.713696,211.429344],[100.373608,211.125664],[100.115664,210.749728],[99.954704,210.323152],[99.900000,209.870512],[99.900000,187.314384]]
; plater:{"center":[165.000001,164.999999,0.000000],"boundingbox_center":[165.000001,164.999999,17.499996],"boundingbox_size":[141.399997,96.020018,34.999992]}

M73 P0 R185
;TYPE:Custom
; custom gcode: start_gcode
START_PRINT T_BED=70 T_EXTRUDER=235
; custom gcode end: start_gcode
M107
G21 ; set units to millimeters
G90 ; use absolute coordinates
M82 ; use absolute distances for extrusion
G92 E0
; custom gcode: start_filament_gcode
; Filament gcode
PRESSURE_ADVANCE_SELECT FILAMENT=PETG
; custom gcode end: start_filament_gcode
;_TOOLCHANGE 0
M109 S235 ; set temperature and wait for it to be reached
M190 S70 ; set bed temperature and wait for it to be reached
;LAYER_CHANGE
;Z:0.2
;HEIGHT:0.2
G1 Z0.2 F9000
G1 E-1 F3000
M204 S1000
G1 X94.032 Y115.174 F9000
G1 E0 F1800
;TYPE:Skirt
;WIDTH:0.52
G1 X92.704 Y116.45 E0.07306
G1 X91.982 Y117.445 E0.12182
G1 X91.276 Y118.856 E0.1844
G1 X90.855 Y120.289 E0.24365
G1 X90.699 Y121.508 E0.2924
G1 X90.699 Y169.592 E2.19988
G1 X96.372 Y210.808 E3.85031
G1 X96.729 Y212.015 E3.90021
G1 X97.141 Y212.805 E3.93559
G1 X97.974 Y213.831 E3.988
G1 X98.298 Y214.12 E4.00523
G1 X99.895 Y215.154 E4.08068
G1 X101.458 Y215.858 E4.14869
G1 X103.103 Y216.341 E4.21669
G1 X105.274 Y216.626 E4.30355
G1 X230.141 Y216.626 E9.25696
G1 X231.423 Y216.524 E9.30798
G1 X232.749 Y216.279 E9.36145
G1 X234.415 Y215.751 E9.4308
G1 X235.615 Y215.202 E9.48313
G1 X236.871 Y214.45 E9.54122
G1 X237.62 Y213.834 E9.57968
G1 X238.211 Y213.164 E9.61511
G1 X239.023 Y211.612 E9.68461
G1 X239.236 Y210.745 E9.72003
G1 X239.316 Y209.863 E9.75516
G1 X239.316 Y187.32 E10.64943
G1 X239.235 Y186.432 E10.68479
G1 X239.019 Y185.559 E10.72046
G1 X238.457 Y184.375 E10.77244
G1 X192.275 Y116.934 E14.01493
G1 X191.041 Y115.567 E14.08798
G1 X190.068 Y114.816 E14.13674
G1 X189.312 Y114.367 E14.17165
G1 X188.434 Y113.966 E14.2099
G1 X187.26 Y113.602 E14.25866
G1 X185.431 Y113.377 E14.33179
G1 X99.169 Y113.377 E17.75373
G1 X97.34 Y113.602 E17.82686
G1 X95.601 Y114.21 E17.89991
G1 X94.032 Y115.174 E17.97297
G1 X94.366 Y115.543 F9000
G1 F1800
G1 X93.227 Y116.574 E18.03393
G1 X92.393 Y117.688 E18.08913
G1 X91.851 Y118.715 E18.13519
G1 X91.374 Y120.147 E18.19507
G1 X91.176 Y121.525 E18.25027
G1 X91.176 Y169.575 E20.1564
G1 X96.845 Y210.743 E21.80491
G1 X97.175 Y211.846 E21.85059
G1 X97.535 Y212.535 E21.88143
G1 X98.292 Y213.475 E21.9293
G1 X98.616 Y213.764 E21.94653
G1 X100.14 Y214.745 E22.01842
G1 X101.645 Y215.419 E22.08383
G1 X103.228 Y215.881 E22.14925
G1 X105.274 Y216.149 E22.2311
G1 X230.141 Y216.149 E27.1845
G1 X231.38 Y216.049 E27.2338
G1 X232.654 Y215.811 E27.28523
G1 X234.223 Y215.314 E27.3505
G1 X235.38 Y214.787 E27.40095
G1 X236.608 Y214.052 E27.45773
G1 X237.303 Y213.478 E27.49348
G1 X237.818 Y212.894 E27.52436
G1 X238.577 Y211.443 E27.5893
G1 X238.762 Y210.687 E27.62018
G1 X238.839 Y209.863 E27.65303
G1 X238.839 Y187.32 E28.5473
G1 X238.761 Y186.49 E28.58037
G1 X238.573 Y185.729 E28.61146
G1 X238.064 Y184.645 E28.65897
G1 X191.883 Y117.207 E31.90135
G1 X190.716 Y115.917 E31.97035
G1 X189.796 Y115.208 E32.01641
G1 X189.098 Y114.793 E32.04861
G1 X188.252 Y114.407 E32.08552
G1 X187.142 Y114.064 E32.13158
G1 X185.414 Y113.854 E32.20066
G1 X99.186 Y113.854 E35.62125
G1 X97.683 Y114.015 E35.68121
G1 X96.025 Y114.541 E35.75022
G1 X94.517 Y115.407 E35.81923
G1 X94.366 Y115.543 E35.82728
G92 E0
G1 E-1 F3000
; printing object Unifi_Security_Gateway_Mount_Left.STL id:0 copy 0
EXCLUDE_OBJECT_START NAME=Unifi_Security_Gateway_Mount_Left_STL_id_0_copy_0
; acceleration to travel
M204 S3000
G1 X134.922 Y159.977 F9000
; decel to extrusion
M204 S1000
G1 X148.44 Y174.789
; end travel
G1 E0 F1800
;TYPE:Support material
;WIDTH:0.5
G1 X182.16 Y174.789 E1.28156
G1 X182.159 Y177.76 E1.39449
G1 X182.159 Y180.731 E1.50743
G1 X148.44 Y180.731 E2.78896
G1 X148.44 Y174.789 E3.01483
; acceleration to travel
M204 S3000
G1 X173.244 Y179.16 F9000
; decel to extrusion
M204 S1000
G1 X181.512 Y180.617
; end travel
G1 F1800
G1 X181.512 Y175.099 E3.22454
G1 X181.005 Y175.099 E3.24385
G1 X181.005 Y180.421 E3.44609
G1 X180.497 Y180.421 E3.46539
G1 X180.497 Y175.099 E3.66763
G1 X179.989 Y175.099 E3.68694
G1 X179.989 Y180.421 E3.88918
M73 P0 R185
G1 X179.481 Y180.421 E3.90848
G1 X179.481 Y175.099 E4.11072
G1 X178.973 Y175.099 E4.13003
G1 X178.973 Y180.421 E4.33227
G1 X178.465 Y180.421 E4.35157
G1 X178.465 Y175.099 E4.55381
G1 X177.957 Y175.099 E4.57312
G1 X177.957 Y180.421 E4.77536
G1 X177.449 Y180.421 E4.79466
G1 X177.449 Y175.099 E4.9969
G1 X176.942 Y175.099 E5.01621
G1 X176.942 Y180.421 E5.21845
G1 X176.434 Y180.421 E5.23775
G1 X176.434 Y175.099 E5.43999
G1 X175.926 Y175.099 E5.45929
G1 X175.926 Y180.421 E5.66154
G1 X175.418 Y180.421 E5.68084
G1 X175.418 Y175.099 E5.88308
G1 X174.91 Y175.099 E5.90238
G1 X174.91 Y180.421 E6.10463
G1 X174.402 Y180.421 E6.12393
G1 X174.402 Y175.099 E6.32617
G1 X173.894 Y175.099 E6.34547
G1 X173.894 Y180.421 E6.54772
G1 X173.387 Y180.421 E6.56702
G1 X173.387 Y175.099 E6.76926
G1 X172.879 Y175.099 E6.78856
G1 X172.879 Y180.421 E6.99081
G1 X172.371 Y180.421 E7.01011
G1 X172.371 Y175.099 E7.21235
G1 X171.863 Y175.099 E7.23165
G1 X171.863 Y180.421 E7.4339
G1 X171.355 Y180.421 E7.4532
G1 X171.355 Y175.099 E7.65544
G1 X170.847 Y175.099 E7.67474
G1 X170.847 Y180.421 E7.87699
G1 X170.339 Y180.421 E7.89629
G1 X170.339 Y175.099 E8.09853
G1 X169.831 Y175.099 E8.11783
G1 X169.831 Y180.421 E8.32008
G1 X169.324 Y180.421 E8.33938
G1 X169.324 Y175.099 E8.54162
G1 X168.816 Y175.099 E8.56092
G1 X168.816 Y180.421 E8.76317
G1 X168.308 Y180.421 E8.78247
G1 X168.308 Y175.099 E8.98471
G1 X167.8 Y175.099 E9.00401
G1 X167.8 Y180.421 E9.20626
G1 X167.292 Y180.421 E9.22556
G1 X167.292 Y175.099 E9.4278
G1 X166.784 Y175.099 E9.4471
G1 X166.784 Y180.421 E9.64935
G1 X166.276 Y180.421 E9.66865
G1 X166.276 Y175.099 E9.87089
G1 X165.769 Y175.099 E9.89019
G1 X165.769 Y180.421 E10.09244
G1 X165.261 Y180.421 E10.11174
G1 X165.261 Y175.099 E10.31398
G1 X164.753 Y175.099 E10.33328
G1 X164.753 Y180.421 E10.53553
G1 X164.245 Y180.421 E10.55483
G1 X164.245 Y175.099 E10.75707
G1 X163.737 Y175.099 E10.77637
G1 X163.737 Y180.421 E10.97861
G1 X163.229 Y180.421 E10.99792
G1 X163.229 Y175.099 E11.20016
G1 X162.721 Y175.099 E11.21946
G1 X162.721 Y180.421 E11.4217
G1 X162.213 Y180.421 E11.44101
G1 X162.213 Y175.099 E11.64325
G1 X161.706 Y175.099 E11.66255
G1 X161.706 Y180.421 E11.86479
G1 X161.198 Y180.421 E11.8841
G1 X161.198 Y175.099 E12.08634
G1 X160.69 Y175.099 E12.10564
G1 X160.69 Y180.421 E12.30788
G1 X160.182 Y180.421 E12.32719
G1 X160.182 Y175.099 E12.52943
G1 X159.674 Y175.099 E12.54873
G1 X159.674 Y180.421 E12.75097
G1 X159.166 Y180.421 E12.77028
G1 X159.166 Y175.099 E12.97252
G1 X158.658 Y175.099 E12.99182
G1 X158.658 Y180.421 E13.19406
G1 X158.151 Y180.421 E13.21337
G1 X158.151 Y175.099 E13.41561
G1 X157.643 Y175.099 E13.43491
G1 X157.643 Y180.421 E13.63715
G1 X157.135 Y180.421 E13.65646
G1 X157.135 Y175.099 E13.8587
G1 X156.627 Y175.099 E13.878
G1 X156.627 Y180.421 E14.08024
G1 X156.119 Y180.421 E14.09955
G1 X156.119 Y175.099 E14.30179
G1 X155.611 Y175.099 E14.32109
G1 X155.611 Y180.421 E14.52333
G1 X155.103 Y180.421 E14.54263
G1 X155.103 Y175.099 E14.74488
G1 X154.595 Y175.099 E14.76418
G1 X154.595 Y180.421 E14.96642
G1 X154.088 Y180.421 E14.98572
G1 X154.088 Y175.099 E15.18797
G1 X153.58 Y175.099 E15.20727
G1 X153.58 Y180.421 E15.40951
G1 X153.072 Y180.421 E15.42881
G1 X153.072 Y175.099 E15.63106
G1 X152.564 Y175.099 E15.65036
G1 X152.564 Y180.421 E15.8526
G1 X152.056 Y180.421 E15.8719
G1 X152.056 Y175.099 E16.07415
G1 X151.548 Y175.099 E16.09345
G1 X151.548 Y180.421 E16.29569
G1 X151.04 Y180.421 E16.31499
G1 X151.04 Y175.099 E16.51724
G1 X150.533 Y175.099 E16.53654
G1 X150.533 Y180.421 E16.73878
G1 X150.025 Y180.421 E16.75808
G1 X150.025 Y175.099 E16.96033
G1 X149.517 Y175.099 E16.97963
G1 X149.517 Y180.421 E17.18187
G1 X149.009 Y180.421 E17.20117
G1 X149.009 Y174.903 E17.41089
G92 E0
G1 E-1 F3000
; acceleration to travel
M204 S3000
G1 X161.47 Y169.241 F9000
; decel to extrusion
M204 S1000
G1 X165.624 Y167.354
; end travel
G1 E0 F1800
;TYPE:Internal perimeter
G1 X165.624 Y123.746 E1.65739
G1 X146.564 Y123.746 E2.38179
G1 X146.564 Y118.255 E2.5905
G1 X185.587 Y118.267 E4.07361
G1 X185.811 Y118.291 E4.08217
G1 X186.352 Y118.408 E4.1032
G1 X186.851 Y118.595 E4.12345
G1 X187.318 Y118.85 E4.14369
G1 X187.761 Y119.181 E4.16472
G1 X187.941 Y119.349 E4.17407
G1 X188.109 Y119.529 E4.18341
G1 X188.44 Y119.972 E4.20444
G1 X188.705 Y120.458 E4.22548
G1 X188.792 Y120.666 E4.23403
G1 X188.947 Y121.197 E4.25506
G1 X189.023 Y121.724 E4.27531
G1 X189.036 Y169.072 E6.07482
G1 X188.996 Y169.637 E6.09637
G1 X188.877 Y170.182 E6.11757
G1 X188.806 Y170.396 E6.12612
G1 X188.576 Y170.899 E6.14715
G1 X188.288 Y171.347 E6.16739
G1 X187.926 Y171.765 E6.18843
G1 X187.761 Y171.919 E6.19698
G1 X187.301 Y172.263 E6.21881
G1 X187.108 Y172.378 E6.22736
G1 X186.586 Y172.616 E6.24918
G1 X186.372 Y172.687 E6.25773
G1 X185.811 Y172.809 E6.27956
G1 X185.587 Y172.833 E6.28812
G1 X146.564 Y172.845 E7.77123
G1 X146.564 Y167.354 E7.97994
G1 X165.624 Y167.354 E8.70434
G1 X165.167 Y166.897 F9000
G1 F1800
G1 X165.167 Y124.203 E10.32699
G1 X146.107 Y124.203 E11.05139
G1 X146.107 Y117.797 E11.29484
G1 X185.612 Y117.81 E12.79626
G1 X185.884 Y117.839 E12.80668
G1 X186.481 Y117.969 E12.82989
G1 X187.041 Y118.178 E12.85261
G1 X187.566 Y118.464 E12.87534
G1 X188.055 Y118.83 E12.89855
G1 X188.264 Y119.026 E12.90944
G1 X188.46 Y119.235 E12.92034
G1 X188.826 Y119.724 E12.94354
G1 X189.118 Y120.26 E12.96675
G1 X189.223 Y120.513 E12.97717
G1 X189.395 Y121.099 E13.00037
G1 X189.48 Y121.691 E13.0231
G1 X189.493 Y169.088 E14.82447
G1 X189.449 Y169.702 E14.84789
G1 X189.319 Y170.303 E14.87126
G1 X189.232 Y170.563 E14.88168
G1 X188.978 Y171.119 E14.90488
G1 X188.655 Y171.622 E14.92761
G1 X188.255 Y172.083 E14.95082
G1 X188.055 Y172.27 E14.96123
G1 X187.556 Y172.643 E14.98492
G1 X187.32 Y172.783 E14.99533
G1 X186.753 Y173.042 E15.01902
G1 X186.493 Y173.129 E15.02944
G1 X185.884 Y173.261 E15.05313
G1 X185.612 Y173.29 E15.06354
G1 X146.107 Y173.303 E16.56496
G1 X146.107 Y166.897 E16.80842
G1 X165.167 Y166.897 E17.53282
G1 X164.71 Y166.44 F9000
;TYPE:External perimeter
G1 F1800
G1 X164.71 Y124.66 E19.12072
G1 X145.65 Y124.66 E19.84512
G1 X145.65 Y117.34 E20.12333
G1 X185.636 Y117.353 E21.64305
G1 X185.957 Y117.387 E21.65533
G1 X186.61 Y117.529 E21.68071
G1 X187.231 Y117.761 E21.70592
G1 X187.814 Y118.079 E21.73113
G1 X188.348 Y118.479 E21.75652
G1 X188.588 Y118.702 E21.76896
G1 X188.811 Y118.942 E21.78141
G1 X189.211 Y119.476 E21.80679
G1 X189.531 Y120.063 E21.83217
G1 X189.655 Y120.361 E21.84445
G1 X189.843 Y121.002 E21.86983
G1 X189.937 Y121.658 E21.89504
G1 X189.95 Y169.104 E23.69827
G1 X189.903 Y169.767 E23.72355
G1 X189.76 Y170.424 E23.7491
G1 X189.658 Y170.731 E23.76138
G1 X189.381 Y171.338 E23.78676
G1 X189.022 Y171.896 E23.81197
G1 X188.585 Y172.401 E23.83735
G1 X188.348 Y172.621 E23.84963
G1 X187.81 Y173.024 E23.87518
G1 X187.532 Y173.189 E23.88745
