; HEADER_BLOCK_START
; generated by OrcaSlicer 1.6.3 on 2023-06-30 at 15:04:01
; total layer number: 21
; HEADER_BLOCK_END

; THUMBNAIL_BLOCK_START
; THUMBNAIL_BLOCK_END

; external perimeters extrusion width = 0.40mm
; perimeters extrusion width = 0.45mm
; infill extrusion width = 0.45mm
; solid infill extrusion width = 0.40mm
; top infill extrusion width = 0.40mm
; first layer extrusion width = 0.50mm

; EXECUTABLE_BLOCK_START
EXCLUDE_OBJECT_DEFINE NAME=Untitled.stl_id_0_copy_0 CENTER=165.002,165 POLYGON=[[122.52,197.384],[122.68,180.43],[122.84,163.477],[149.571,100.611],[180.813,100.611],[207.484,163.095],[207.484,197.384],[180.813,229.389],[149.571,229.389],[122.52,197.384]]
M73 P0 R26
M73 C20
;TYPE:Custom
START_PRINT T_BED=60 T_EXTRUDER=220
G90
G21
M83 ; use relative distances for extrusion
; filament start gcode

    PRESSURE_ADVANCE_SELECT FILAMENT=PLA
M106 S0
;LAYER_CHANGE
;Z:0.2
;HEIGHT:0.2
;BEFORE_LAYER_CHANGE
;0.2
G92 E0

M204 S1000
G1 E-.8 F3000
G1 X146.889 Y99.471 F9000
G1 Z.2
G1 E.8 F1800
;TYPE:Skirt
;WIDTH:0.5
G1 F3000
G1 X147.823 Y98.279 E.05638
G1 X149.571 Y97.697 E.06863
G1 X180.813 Y97.697 E1.16365
G1 X182.275 Y98.09 E.05638
G1 X183.493 Y99.467 E.06848
G1 X210.164 Y161.951 E2.53045
G1 X210.398 Y163.095 E.04349
G1 X210.398 Y197.384 E1.27711
G1 X209.722 Y199.249 E.0739
G1 X183.052 Y231.255 E1.55172
G1 X181.814 Y232.126 E.05638
G1 X180.813 Y232.303 E.03786
G1 X149.571 Y232.303 E1.16365
G1 X148.109 Y231.91 E.05638
G1 X147.345 Y231.27 E.03712
G1 X120.295 Y199.265 E1.56082
G1 X119.606 Y197.356 E.07557
G1 X119.926 Y163.449 E1.26297
G1 X120.158 Y162.336 E.04234
G1 X146.866 Y99.526 E2.54215
G1 X147.286 Y99.705 F9000
G1 F3000
G1 X147.31 Y99.65 E.00223
G1 X148.191 Y98.578 E.05169
G1 X149.571 Y98.154 E.05376
G1 X180.813 Y98.154 E1.16365
G1 X182.144 Y98.546 E.05169
G1 X183.073 Y99.646 E.05364
G1 X209.744 Y162.131 E2.53045
G1 X209.941 Y163.095 E.03667
G1 X209.941 Y197.384 E1.27711
G1 X209.371 Y198.957 E.06231
G1 X182.701 Y230.962 E1.55172
G1 X181.547 Y231.734 E.05169
G1 X180.813 Y231.846 E.02767
G1 X149.571 Y231.846 E1.16365
G1 X148.24 Y231.454 E.05169
G1 X147.694 Y230.975 E.02704
G1 X120.644 Y198.97 E1.56082
G1 X120.063 Y197.361 E.06372
G1 X120.383 Y163.453 E1.26297
G1 X120.579 Y162.515 E.0357
G1 X147.263 Y99.76 E2.53992
; printing object Untitled.stl id:0 copy 0
EXCLUDE_OBJECT_START NAME=Untitled.stl_id_0_copy_0
M73 P1 R26
G1 E-.8
G1 X180.463 Y163.445 F9000
G1 E.8 F1800
;TYPE:Outer wall
G1 F3000
G1 X207.134 Y163.445 E.99338
G1 X207.134 Y197.034 E1.25104
G1 X180.463 Y197.034 E.99338
G1 X180.463 Y229.039 E1.19207
G1 X149.921 Y229.039 E1.13758
G1 X149.921 Y197.034 E1.19207
G1 X122.874 Y197.034 E1.0074
G1 X123.187 Y163.821 E1.2371
G1 X149.921 Y163.405 E.99587
G1 X149.921 Y100.961 E2.32578
M73 C19
G1 X180.463 Y100.961 E1.13758
G1 X180.463 Y163.385 E2.32507
G1 X180.475 Y163.524
G1 X180.006 Y163.445 F9000
;TYPE:Inner wall
G1 F3000
G1 X180.006 Y163.902 E.01702
G1 X206.677 Y163.902 E.99338
M73 P1 R25
G1 X206.677 Y196.577 E1.21699
G1 X180.006 Y196.577 E.99338
G1 X180.006 Y228.582 E1.19207
G1 X150.378 Y228.582 E1.10353
G1 X150.378 Y196.577 E1.19207
G1 X123.335 Y196.577 E1.00724
G1 X123.64 Y164.271 E1.20331
G1 X150.378 Y163.855 E.99603
G1 X150.378 Y101.418 E2.32552
M73 P2 R25
G1 X180.006 Y101.418 E1.10353
G1 X180.006 Y163.385 E2.30805
G1 E-.8
G1 X205.748 Y164.04 F9000
G1 E.8 F1800
;TYPE:Bottom surface
;WIDTH:0.501614
G1 F6300
G1 X206.334 Y164.626 E.03098
G1 X206.334 Y165.274 E.02425
G1 X205.305 Y164.245 E.05439
G1 X204.656 Y164.245 E.02425
G1 X206.334 Y165.923 E.08868
G1 X206.334 Y166.572 E.02425
G1 X204.007 Y164.245 E.12297
G1 X203.359 Y164.245 E.02425
G1 X206.334 Y167.22 E.15726
G1 X206.334 Y167.869 E.02425
G1 X202.71 Y164.245 E.19155
G1 X202.061 Y164.245 E.02425
G1 X206.334 Y168.518 E.22584
G1 X206.334 Y169.166 E.02425
G1 X201.413 Y164.245 E.26013
G1 X200.764 Y164.245 E.02425
G1 X206.334 Y169.815 E.29442
G1 X206.334 Y170.464 E.02425
G1 X200.115 Y164.245 E.32871
G1 X199.467 Y164.245 E.02425
G1 X206.334 Y171.112 E.363
G1 X206.334 Y171.761 E.02425
G1 X198.818 Y164.245 E.39729
G1 X198.169 Y164.245 E.02425
G1 X206.334 Y172.41 E.43158
G1 X206.334 Y173.059 E.02425
G1 X197.521 Y164.245 E.46587
G1 X196.872 Y164.245 E.02425
G1 X206.334 Y173.707 E.50016
G1 X206.334 Y174.356 E.02425
G1 X196.223 Y164.245 E.53445
G1 X195.574 Y164.245 E.02425
G1 X206.334 Y175.005 E.56874
G1 X206.334 Y175.653 E.02425
G1 X194.926 Y164.245 E.60303
G1 X194.277 Y164.245 E.02425
G1 X206.334 Y176.302 E.63732
G1 X206.334 Y176.951 E.02425
G1 X193.628 Y164.245 E.67161
G1 X192.98 Y164.245 E.02425
G1 X206.334 Y177.599 E.7059
G1 X206.334 Y178.248 E.02425
G1 X192.331 Y164.245 E.74019
G1 X191.682 Y164.245 E.02425
G1 X206.334 Y178.897 E.77448
G1 X206.334 Y179.545 E.02425
G1 X191.034 Y164.245 E.80877
G1 X190.385 Y164.245 E.02425
G1 X206.334 Y180.194 E.84306
G1 X206.334 Y180.843 E.02425
G1 X189.736 Y164.245 E.87735
G1 X189.088 Y164.245 E.02425
G1 X206.334 Y181.492 E.91164
G1 X206.334 Y182.14 E.02425
G1 X188.439 Y164.245 E.94593
G1 X187.79 Y164.245 E.02425
G1 X206.334 Y182.789 E.98022
G1 X206.334 Y183.438 E.02425
G1 X187.141 Y164.245 E1.01451
G1 X186.493 Y164.245 E.02425
G1 X206.334 Y184.086 E1.0488
G1 X206.334 Y184.735 E.02425
G1 X185.844 Y164.245 E1.08309
G1 X185.195 Y164.245 E.02425
G1 X206.334 Y185.384 E1.11738
G1 X206.334 Y186.032 E.02425
G1 X184.547 Y164.245 E1.15167
G1 X183.898 Y164.245 E.02425
G1 X206.334 Y186.681 E1.18596
G1 X206.334 Y187.33 E.02425
G1 X183.249 Y164.245 E1.22025
G1 X182.601 Y164.245 E.02425
G1 X206.334 Y187.978 E1.25454
G1 X206.334 Y188.627 E.02425
G1 X181.952 Y164.245 E1.28883
G1 X181.303 Y164.245 E.02425
G1 X206.334 Y189.276 E1.32312
G1 X206.334 Y189.925 E.02425
G1 X180.449 Y164.04 E1.36828
G1 E-.8 F3000
G1 X179.869 Y102.483 F9000
G1 E.8 F1800
M73 P3 R25
G1 F6300
G1 X179.147 Y101.761 E.03815
G1 X178.498 Y101.761 E.02425
G1 X179.663 Y102.926 E.06157
G1 X179.663 Y103.574 E.02425
G1 X177.85 Y101.761 E.09586
G1 X177.201 Y101.761 E.02425
G1 X179.663 Y104.223 E.13015
G1 X179.663 Y104.872 E.02425
G1 X176.552 Y101.761 E.16444
G1 X175.904 Y101.761 E.02425
G1 X179.663 Y105.52 E.19873
G1 X179.663 Y106.169 E.02425
G1 X175.255 Y101.761 E.23302
G1 X174.606 Y101.761 E.02425
G1 X179.663 Y106.818 E.26731
G1 X179.663 Y107.466 E.02425
G1 X173.958 Y101.761 E.3016
G1 X173.309 Y101.761 E.02425
G1 X179.663 Y108.115 E.33589
G1 X179.663 Y108.764 E.02425
G1 X172.66 Y101.761 E.37018
G1 X172.012 Y101.761 E.02425
G1 X179.663 Y109.413 E.40447
G1 X179.663 Y110.061 E.02425
G1 X171.363 Y101.761 E.43876
G1 X170.714 Y101.761 E.02425
G1 X179.663 Y110.71 E.47305
G1 X179.663 Y111.359 E.02425
G1 X170.065 Y101.761 E.50734
G1 X169.417 Y101.761 E.02425
G1 X179.663 Y112.007 E.54163
G1 X179.663 Y112.656 E.02425
G1 X168.768 Y101.761 E.57592
G1 X168.119 Y101.761 E.02425
G1 X179.663 Y113.305 E.61021
G1 X179.663 Y113.953 E.02425
G1 X167.471 Y101.761 E.6445
G1 X166.822 Y101.761 E.02425
G1 X179.663 Y114.602 E.67879
G1 X179.663 Y115.251 E.02425
G1 X166.173 Y101.761 E.71308
G1 X165.525 Y101.761 E.02425
G1 X179.663 Y115.899 E.74737
G1 X179.663 Y116.548 E.02425
G1 X164.876 Y101.761 E.78166
G1 X164.227 Y101.761 E.02425
G1 X179.663 Y117.197 E.81594
G1 X179.663 Y117.845 E.02425
G1 X163.579 Y101.761 E.85023
G1 X162.93 Y101.761 E.02425
G1 X179.663 Y118.494 E.88452
G1 X179.663 Y119.143 E.02425
G1 X162.281 Y101.761 E.91881
G1 X161.632 Y101.761 E.02425
G1 X179.663 Y119.792 E.9531
G1 X179.663 Y120.44 E.02425
G1 X160.984 Y101.761 E.98739
G1 X160.335 Y101.761 E.02425
G1 X179.663 Y121.089 E1.02168
G1 X179.663 Y121.738 E.02425
G1 X159.686 Y101.761 E1.05597
G1 X159.038 Y101.761 E.02425
G1 X179.663 Y122.386 E1.09026
G1 X179.663 Y123.035 E.02425
G1 X158.389 Y101.761 E1.12455
G1 X157.74 Y101.761 E.02425
G1 X179.663 Y123.684 E1.15884
G1 X179.663 Y124.332 E.02425
G1 X157.092 Y101.761 E1.19313
G1 X156.443 Y101.761 E.02425
G1 X179.663 Y124.981 E1.22742
G1 X179.663 Y125.63 E.02425
G1 X155.794 Y101.761 E1.26171
G1 X155.146 Y101.761 E.02425
G1 X179.663 Y126.278 E1.296
G1 X179.663 Y126.927 E.02425
G1 X154.497 Y101.761 E1.33029
G1 X153.848 Y101.761 E.02425
G1 X179.663 Y127.576 E1.36458
G1 X179.663 Y128.225 E.02425
G1 X153.199 Y101.761 E1.39887
G1 X152.551 Y101.761 E.02425
G1 X179.663 Y128.873 E1.43316
G1 X179.663 Y129.522 E.02425
G1 X151.902 Y101.761 E1.46745
G1 X151.253 Y101.761 E.02425
G1 X179.663 Y130.171 E1.50174
G1 X179.663 Y130.819 E.02425
G1 X150.721 Y101.877 E1.5299
G1 X150.721 Y102.526 E.02425
G1 X179.663 Y131.468 E1.5299
G1 X179.663 Y132.117 E.02425
G1 X150.721 Y103.174 E1.5299
G1 X150.721 Y103.823 E.02425
G1 X179.663 Y132.765 E1.5299
G1 X179.663 Y133.414 E.02425
G1 X150.721 Y104.472 E1.5299
M73 P4 R25
G1 X150.721 Y105.12 E.02425
G1 X179.663 Y134.063 E1.5299
G1 X179.663 Y134.711 E.02425
G1 X150.721 Y105.769 E1.5299
G1 X150.721 Y106.418 E.02425
G1 X179.663 Y135.36 E1.5299
G1 X179.663 Y136.009 E.02425
G1 X150.721 Y107.066 E1.5299
G1 X150.721 Y107.715 E.02425
G1 X179.663 Y136.658 E1.5299
G1 X179.663 Y137.306 E.02425
G1 X150.721 Y108.364 E1.5299
G1 X150.721 Y109.012 E.02425
G1 X179.663 Y137.955 E1.5299
G1 X179.663 Y138.604 E.02425
G1 X150.721 Y109.661 E1.5299
G1 X150.721 Y110.31 E.02425
G1 X179.663 Y139.252 E1.5299
G1 X179.663 Y139.901 E.02425
G1 X150.721 Y110.959 E1.5299
G1 X150.721 Y111.607 E.02425
G1 X179.663 Y140.55 E1.5299
G1 X179.663 Y141.198 E.02425
G1 X150.721 Y112.256 E1.5299
G1 X150.721 Y112.905 E.02425
G1 X179.663 Y141.847 E1.5299
G1 X179.663 Y142.496 E.02425
G1 X150.721 Y113.553 E1.5299
G1 X150.721 Y114.202 E.02425
G1 X179.663 Y143.144 E1.5299
G1 X179.663 Y143.793 E.02425
G1 X150.721 Y114.851 E1.5299
G1 X150.721 Y115.499 E.02425
G1 X179.663 Y144.442 E1.5299
G1 X179.663 Y145.091 E.02425
G1 X150.721 Y116.148 E1.5299
G1 X150.721 Y116.797 E.02425
G1 X179.663 Y145.739 E1.5299
G1 X179.663 Y146.388 E.02425
G1 X150.721 Y117.445 E1.5299
G1 X150.721 Y118.094 E.02425
G1 X179.663 Y147.037 E1.5299
G1 X179.663 Y147.685 E.02425
G1 X150.721 Y118.743 E1.5299
G1 X150.721 Y119.392 E.02425
G1 X179.663 Y148.334 E1.5299
G1 X179.663 Y148.983 E.02425
G1 X150.721 Y120.04 E1.5299
G1 X150.721 Y120.689 E.02425
G1 X179.663 Y149.631 E1.5299
G1 X179.663 Y150.28 E.02425
G1 X150.721 Y121.338 E1.5299
G1 X150.721 Y121.986 E.02425
G1 X179.663 Y150.929 E1.5299
G1 X179.663 Y151.577 E.02425
G1 X150.721 Y122.635 E1.5299
G1 X150.721 Y123.284 E.02425
G1 X179.663 Y152.226 E1.5299
G1 X179.663 Y152.875 E.02425
G1 X150.721 Y123.932 E1.5299
G1 X150.721 Y124.581 E.02425
G1 X179.663 Y153.524 E1.5299
M73 P5 R25
G1 X179.663 Y154.172 E.02425
G1 X150.721 Y125.23 E1.5299
G1 X150.721 Y125.878 E.02425
G1 X179.663 Y154.821 E1.5299
G1 X179.663 Y155.47 E.02425
G1 X150.721 Y126.527 E1.5299
G1 X150.721 Y127.176 E.02425
G1 X179.663 Y156.118 E1.5299
G1 X179.663 Y156.767 E.02425
G1 X150.721 Y127.825 E1.5299
G1 X150.721 Y128.473 E.02425
G1 X179.663 Y157.416 E1.5299
G1 X179.663 Y158.064 E.02425
G1 X150.721 Y129.122 E1.5299
M73 C18
G1 X150.721 Y129.771 E.02425
G1 X179.663 Y158.713 E1.5299
G1 X179.663 Y159.362 E.02425
G1 X150.721 Y130.419 E1.5299
G1 X150.721 Y131.068 E.02425
G1 X179.663 Y160.01 E1.5299
G1 X179.663 Y160.659 E.02425
G1 X150.721 Y131.717 E1.5299
G1 X150.721 Y132.365 E.02425
G1 X179.663 Y161.308 E1.5299
G1 X179.663 Y161.957 E.02425
G1 X150.721 Y133.014 E1.5299
G1 X150.721 Y133.663 E.02425
M73 P5 R24
G1 X179.663 Y162.605 E1.5299
G1 X179.663 Y163.254 E.02425
G1 X150.721 Y134.311 E1.5299
G1 X150.721 Y134.96 E.02425
G1 X206.334 Y190.573 E2.93971
G1 X206.334 Y191.222 E.02425
G1 X150.721 Y135.609 E2.93971
G1 X150.721 Y136.258 E.02425
G1 X206.334 Y191.871 E2.93971
G1 X206.334 Y192.519 E.02425
G1 X150.721 Y136.906 E2.93971
G1 X150.721 Y137.555 E.02425
G1 X206.334 Y193.168 E2.93971
G1 X206.334 Y193.817 E.02425
G1 X150.721 Y138.204 E2.93971
G1 X150.721 Y138.852 E.02425
G1 X206.334 Y194.465 E2.93971
G1 X206.334 Y195.114 E.02425
G1 X150.721 Y139.501 E2.93971
G1 X150.721 Y140.15 E.02425
G1 X206.334 Y195.763 E2.93971
M73 P6 R24
G1 X206.334 Y196.234 E.01761
G1 X206.156 Y196.234 E.00664
G1 X150.721 Y140.798 E2.93033
G1 X150.721 Y141.447 E.02425
G1 X205.508 Y196.234 E2.89604
G1 X204.859 Y196.234 E.02425
G1 X150.721 Y142.096 E2.86175
G1 X150.721 Y142.744 E.02425
G1 X204.21 Y196.234 E2.82746
G1 X203.562 Y196.234 E.02425
G1 X150.721 Y143.393 E2.79317
G1 X150.721 Y144.042 E.02425
G1 X202.913 Y196.234 E2.75888
G1 X202.264 Y196.234 E.02425
G1 X150.721 Y144.691 E2.72459
G1 X150.721 Y145.339 E.02425
G1 X201.615 Y196.234 E2.6903
G1 X200.967 Y196.234 E.02425
G1 X150.721 Y145.988 E2.65601
G1 X150.721 Y146.637 E.02425
G1 X200.318 Y196.234 E2.62172
G1 X199.669 Y196.234 E.02425
G1 X150.721 Y147.285 E2.58743
G1 X150.721 Y147.934 E.02425
G1 X199.021 Y196.234 E2.55314
G1 X198.372 Y196.234 E.02425
G1 X150.721 Y148.583 E2.51885
G1 X150.721 Y149.231 E.02425
G1 X197.723 Y196.234 E2.48456
G1 X197.075 Y196.234 E.02425
G1 X150.721 Y149.88 E2.45027
G1 X150.721 Y150.529 E.02425
G1 X196.426 Y196.234 E2.41598
G1 X195.777 Y196.234 E.02425
G1 X150.721 Y151.177 E2.38169
G1 X150.721 Y151.826 E.02425
G1 X195.129 Y196.234 E2.3474
G1 X194.48 Y196.234 E.02425
G1 X150.721 Y152.475 E2.31311
G1 X150.721 Y153.124 E.02425
G1 X193.831 Y196.234 E2.27882
G1 X193.182 Y196.234 E.02425
G1 X150.721 Y153.772 E2.24453
M73 P7 R24
G1 X150.721 Y154.421 E.02425
G1 X192.534 Y196.234 E2.21024
G1 X191.885 Y196.234 E.02425
G1 X150.721 Y155.07 E2.17595
G1 X150.721 Y155.718 E.02425
G1 X191.236 Y196.234 E2.14166
G1 X190.588 Y196.234 E.02425
G1 X150.721 Y156.367 E2.10737
G1 X150.721 Y157.016 E.02425
G1 X189.939 Y196.234 E2.07308
G1 X189.29 Y196.234 E.02425
G1 X150.721 Y157.664 E2.03879
G1 X150.721 Y158.313 E.02425
G1 X188.642 Y196.234 E2.0045
G1 X187.993 Y196.234 E.02425
G1 X150.721 Y158.962 E1.97021
G1 X150.721 Y159.61 E.02425
G1 X187.344 Y196.234 E1.93592
G1 X186.696 Y196.234 E.02425
G1 X150.721 Y160.259 E1.90163
G1 X150.721 Y160.908 E.02425
G1 X186.047 Y196.234 E1.86734
G1 X185.398 Y196.234 E.02425
G1 X150.721 Y161.556 E1.83305
G1 X150.721 Y162.205 E.02425
G1 X184.749 Y196.234 E1.79876
G1 X184.101 Y196.234 E.02425
G1 X150.721 Y162.854 E1.76447
G1 X150.721 Y163.503 E.02425
G1 X183.452 Y196.234 E1.73018
G1 X182.803 Y196.234 E.02425
G1 X150.721 Y164.151 E1.69589
G1 X150.721 Y164.192 E.00153
G1 X150.122 Y164.201 E.02238
G1 X182.155 Y196.234 E1.69324
G1 X181.506 Y196.234 E.02425
G1 X149.483 Y164.211 E1.69272
G1 X148.845 Y164.221 E.02388
G1 X180.857 Y196.234 E1.69219
G1 X180.209 Y196.234 E.02425
G1 X148.206 Y164.231 E1.69167
G1 X147.567 Y164.241 E.02388
G1 X179.663 Y196.337 E1.6966
G1 X179.663 Y196.986 E.02425
G1 X146.928 Y164.251 E1.73036
G1 X146.29 Y164.261 E.02388
G1 X179.663 Y197.635 E1.76412
G1 X179.663 Y198.283 E.02425
G1 X145.651 Y164.271 E1.79789
G1 X145.012 Y164.281 E.02388
G1 X179.663 Y198.932 E1.83165
G1 X179.663 Y199.581 E.02425
G1 X144.374 Y164.291 E1.86541
M73 P8 R24
G1 X143.735 Y164.301 E.02388
G1 X179.663 Y200.229 E1.89918
G1 X179.663 Y200.878 E.02425
G1 X143.096 Y164.311 E1.93294
G1 X142.457 Y164.321 E.02388
G1 X179.663 Y201.527 E1.9667
G1 X179.663 Y202.175 E.02425
G1 X141.819 Y164.331 E2.00047
G1 X141.18 Y164.341 E.02388
G1 X179.663 Y202.824 E2.03423
G1 X179.663 Y203.473 E.02425
G1 X140.541 Y164.351 E2.068
G1 X139.902 Y164.361 E.02388
G1 X179.663 Y204.121 E2.10176
G1 X179.663 Y204.77 E.02425
G1 X139.264 Y164.371 E2.13552
G1 X138.625 Y164.381 E.02388
G1 X179.663 Y205.419 E2.16929
G1 X179.663 Y206.068 E.02425
G1 X137.986 Y164.391 E2.20305
G1 X137.347 Y164.4 E.02388
G1 X179.663 Y206.716 E2.23681
G1 X179.663 Y207.365 E.02425
G1 X136.709 Y164.41 E2.27058
G1 X136.07 Y164.42 E.02388
G1 X179.663 Y208.014 E2.30434
G1 X179.663 Y208.662 E.02425
G1 X135.431 Y164.43 E2.33811
G1 X134.793 Y164.44 E.02388
G1 X179.663 Y209.311 E2.37187
G1 X179.663 Y209.96 E.02425
G1 X134.154 Y164.45 E2.40563
G1 X133.515 Y164.46 E.02388
G1 X179.663 Y210.608 E2.4394
G1 X179.663 Y211.257 E.02425
G1 X132.876 Y164.47 E2.47316
G1 X132.238 Y164.48 E.02388
G1 X179.663 Y211.906 E2.50692
G1 X179.663 Y212.554 E.02425
G1 X131.599 Y164.49 E2.54069
G1 X130.96 Y164.5 E.02388
G1 X179.663 Y213.203 E2.57445
G1 X179.663 Y213.852 E.02425
G1 X130.321 Y164.51 E2.60821
G1 X129.683 Y164.52 E.02388
G1 X179.663 Y214.5 E2.64198
M73 P9 R24
M73 C17
