; generated by SuperSlicer 2.5.59 on 2023-02-28 at 18:42:58 UTC


;
;

;
;
; 

; external perimeters extrusion width = 0.40mm
; perimeters extrusion width = 0.46mm
; infill extrusion width = 0.64mm
; solid infill extrusion width = 0.56mm
; top infill extrusion width = 0.40mm
; first layer extrusion width = 0.50mm

; external perimeters extrusion width = 0.40mm
; perimeters extrusion width = 0.40mm
; infill extrusion width = 0.64mm
; solid infill extrusion width = 0.56mm
; top infill extrusion width = 0.40mm
; first layer extrusion width = 0.50mm

; object:{"name":"Untitled","id":"Untitled.stl id:0 copy 0","object_center":[164.999985,165.000000,0.000000],"boundingbox_center":[164.999985,165.000000,3.999000],"boundingbox_size":[173.832001,25.058001,7.998000]}
; plater:{"center":[164.999985,165.000000,0.000000],"boundingbox_center":[164.999985,165.000000,3.999000],"boundingbox_size":[173.832001,25.058001,7.998000]}

M73 P0 R7


; Pre-Processed for Cancel-Object support by preprocess_cancellation v0.2.0
; 1 known objects
EXCLUDE_OBJECT_DEFINE NAME=Untitled_stl_id_0_copy_0 CENTER=88.623,166.873 POLYGON=[[78.284,153.242],[78.284,177.329],[97.822,177.329],[97.822,153.242]]
;TYPE:Custom
; custom gcode: start_gcode
START_PRINT T_BED=70 T_EXTRUDER=240
; custom gcode end: start_gcode
M107
G21 ; set units to millimeters
G90 ; use absolute coordinates
M82 ; use absolute distances for extrusion
G92 E0
; custom gcode: start_filament_gcode
; Filament gcode
PRESSURE_ADVANCE_SELECT FILAMENT=PETG
; custom gcode end: start_filament_gcode
;_TOOLCHANGE 0
M104 S240 ; set temperature
M109 S240 ; set temperature and wait for it to be reached
M190 S70 ; set bed temperature and wait for it to be reached
;LAYER_CHANGE
;Z:0.2
;HEIGHT:0.2
G1 Z0.2 F9000
M73 P0 R7
G1 E-1 F3000
M204 S1000
G1 X95.529 Y167.65 F9000
G1 E0 F1800
;TYPE:Skirt
;WIDTH:0.52
G1 X94.429 Y168.963 E0.06657
G1 X94.035 Y170.629 E0.13315
G1 X94.035 Y173.596 E0.24848
G1 X94.772 Y175.817 E0.33944
G1 X96.084 Y176.917 E0.40601
G1 X97.751 Y177.311 E0.47258
G1 X251.905 Y177.313 E6.4655
M73 P2 R7
G1 X253.116 Y177.11 E6.51323
G1 X254.563 Y176.194 E6.57981
G1 X255.445 Y174.726 E6.64638
G1 X255.576 Y173.019 E6.71295
G1 X254.926 Y171.434 E6.77953
G1 X253.635 Y170.309 E6.8461
G1 X251.977 Y169.883 E6.91267
G1 X97.822 Y166.914 E12.90671
M73 P3 R7
G1 X95.529 Y167.65 E13.00032
G1 X95.907 Y168.001 F9000
G1 F1800
G1 X94.905 Y169.081 E13.05761
G1 X94.512 Y170.629 E13.1197
G1 X94.512 Y173.596 E13.23503
G1 X95.031 Y175.355 E13.30632
G1 X96.203 Y176.44 E13.36841
G1 X97.751 Y176.834 E13.4305
G1 X251.905 Y176.836 E19.42341
M73 P4 R7
G1 X253.815 Y176.213 E19.50153
G1 X254.833 Y174.982 E19.56362
G1 X255.139 Y173.414 E19.62571
G1 X254.658 Y171.891 E19.6878
G1 X253.508 Y170.783 E19.74989
G1 X251.968 Y170.36 E19.81198
G1 X97.813 Y167.391 E25.80601
M73 P5 R7
G1 X95.991 Y167.91 E25.87964
G1 X95.907 Y168.001 E25.88445
G92 E0
G1 E-1 F3000
; printing object Untitled.stl id:0 copy 0
EXCLUDE_OBJECT_START NAME=Untitled_stl_id_0_copy_0
; acceleration to travel
M204 S3000
G1 X97.378 Y172.109 F9000
; decel to extrusion
M204 S1000
G1 X97.868 Y173.478
; end travel
G1 E0 F1800
;TYPE:External perimeter
;WIDTH:0.34
G1 X97.822 Y172.36 E0.0271
;LAYER_CHANGE
;Z:0.4
;HEIGHT:0.2
; stop printing object Untitled.stl id:0 copy 0
EXCLUDE_OBJECT_END NAME=Untitled_stl_id_0_copy_0
M204 S4000
G1 Z0.4 F9000
G92 E0
G1 E-1 F3000
G1 Z0.6 F9000
; printing object Untitled.stl id:0 copy 0
EXCLUDE_OBJECT_START NAME=Untitled_stl_id_0_copy_0
; acceleration to travel
M204 S3000
G1 X97.382 Y168.521
; decel to extrusion
M204 S1500
G1 X97.155 Y166.538
; end travel
G1 Z0.4
G1 E0 F1800
G1 F2400
G1 X97.19 Y167.367 E0.0201
;WIDTH:0.375766
G1 X97.225 Y168.197 E0.04262
;WIDTH:0.411533
G1 X97.26 Y169.027 E0.06757
;WIDTH:0.447299
G1 X97.295 Y169.856 E0.09493
;WIDTH:0.483066
G1 X97.33 Y170.686 E0.12471
;WIDTH:0.518832
G1 X97.365 Y171.516 E0.15691
; acceleration to travel
M204 S3000
G1 X97.535 Y172.88 F9000
; decel to extrusion
M204 S1500
G1 X97.617 Y173.54
; end travel
;WIDTH:0.315049
G1 F1800
G1 X97.272 Y173.541 E0.16457
G1 X97.272 Y173.374 E0.16827
G1 X97.267 Y173.107 E0.17419
G1 X97.263 Y172.84 E0.18011
G1 X97.253 Y172.378 E0.19037
;WIDTH:0.276204
G1 X97.243 Y171.915 E0.19916
G1 X97.258 Y171.865 E0.20015
;WIDTH:0.310865
G1 X97.274 Y171.815 E0.20129
;WIDTH:0.345526
G1 X97.289 Y171.765 E0.20258
;WIDTH:0.380187
G1 X97.304 Y171.715 E0.20401
;WIDTH:0.414849
G1 X97.319 Y171.665 E0.2056
;WIDTH:0.44951
G1 X97.334 Y171.615 E0.20733
;WIDTH:0.484171
G1 X97.349 Y171.565 E0.2092
;WIDTH:0.518832
G1 X97.365 Y171.516 E0.21123
G1 X97.384 Y171.564 E0.21325
;WIDTH:0.484171
G1 X97.403 Y171.613 E0.21513
;WIDTH:0.44951
G1 X97.422 Y171.661 E0.21686
;WIDTH:0.414849
G1 X97.442 Y171.71 E0.21844
;WIDTH:0.380187
G1 X97.461 Y171.758 E0.21988
;WIDTH:0.345526
G1 X97.48 Y171.807 E0.22116
;WIDTH:0.310865
G1 X97.5 Y171.855 E0.2223
;WIDTH:0.276204
G1 X97.519 Y171.904 E0.2233
G1 X97.548 Y172.366 E0.23211
;WIDTH:0.315049
G1 X97.577 Y172.829 E0.24239
G1 X97.597 Y173.185 E0.25029
G1 X97.617 Y173.54 E0.25819
;WIPE_START
M204 S4000
G1 X97.267 Y173.347 F9000
;WIPE_END
;LAYER_CHANGE
;Z:0.6
;HEIGHT:0.2
; stop printing object Untitled.stl id:0 copy 0
EXCLUDE_OBJECT_END NAME=Untitled_stl_id_0_copy_0
G1 Z0.6 F9000
; printing object Untitled.stl id:0 copy 0
EXCLUDE_OBJECT_START NAME=Untitled_stl_id_0_copy_0
; acceleration to travel
M204 S3000
G1 X97.174 Y170.11
; decel to extrusion
M204 S1500
G1 X97.127 Y168.437
; end travel
;WIDTH:0.34
G1 F600
G1 X97.158 Y169.452 E0.28278
M73 P6 R7
G1 X97.219 Y170.904 E0.31797
;WIDTH:0.406568
G1 X97.28 Y172.357 E0.36104
G1 X97.298 Y172.961 E0.37897
;WIDTH:0.481508
G1 X97.317 Y173.566 E0.40059
; acceleration to travel
M204 S3000
G1 X96.768 Y165.062 F9000
; decel to extrusion
M204 S1500
G1 X96.494 Y160.81
; end travel
;WIDTH:0.34
G1 F600
G1 X96.528 Y161.631 E0.42048
;WIDTH:0.375733
G1 X96.562 Y162.452 E0.44277
;WIDTH:0.411466
G1 X96.596 Y163.273 E0.46745
;WIDTH:0.447198
G1 X96.631 Y164.094 E0.49452
;WIDTH:0.482931
G1 X96.665 Y164.915 E0.52398
;WIDTH:0.518664
G1 X96.699 Y165.736 E0.55583
; acceleration to travel
M204 S3000
G1 X96.829 Y170.973 F9000
; decel to extrusion
M204 S1500
G1 X96.893 Y173.566
; end travel
;WIDTH:0.297186
G1 F600
G1 X96.893 Y173.667 E0.55792
G1 X96.612 Y173.667 E0.56374
G1 X96.612 Y173.527 E0.56665
G1 X96.612 Y171.468 E0.60931
G1 X96.611 Y169.409 E0.65196
G1 X96.599 Y168.669 E0.6673
G1 X96.587 Y167.927 E0.68267
G1 X96.587 Y167.277 E0.69613
G1 X96.588 Y166.628 E0.70959
G1 X96.583 Y166.381 E0.7147
;WIDTH:0.27629
G1 X96.578 Y166.135 E0.71938
G1 X96.593 Y166.085 E0.72037
;WIDTH:0.310915
G1 X96.608 Y166.035 E0.72151
;WIDTH:0.34554
G1 X96.623 Y165.985 E0.7228
;WIDTH:0.380165
G1 X96.638 Y165.935 E0.72424
;WIDTH:0.414789
G1 X96.653 Y165.885 E0.72582
;WIDTH:0.449414
G1 X96.669 Y165.835 E0.72755
;WIDTH:0.484039
G1 X96.684 Y165.786 E0.72942
;WIDTH:0.518664
G1 X96.699 Y165.736 E0.73145
G1 X96.718 Y165.784 E0.73347
;WIDTH:0.484039
G1 X96.738 Y165.833 E0.73535
;WIDTH:0.449414
G1 X96.757 Y165.881 E0.73708
;WIDTH:0.414789
G1 X96.776 Y165.93 E0.73866
;WIDTH:0.380165
G1 X96.795 Y165.978 E0.74009
;WIDTH:0.34554
G1 X96.815 Y166.027 E0.74138
;WIDTH:0.310915
G1 X96.834 Y166.075 E0.74252
;WIDTH:0.27629
G1 X96.853 Y166.124 E0.74351
G1 X96.869 Y166.376 E0.74832
;WIDTH:0.297186
G1 X96.885 Y166.628 E0.75355
G1 X96.885 Y167.277 E0.76699
G1 X96.885 Y167.926 E0.78044
G1 X96.893 Y169.406 E0.81111
G1 X96.893 Y171.466 E0.8538
G1 X96.893 Y173.526 E0.89649
G1 X96.893 Y173.566 E0.8973
;WIPE_START
M204 S4000
G1 X96.547 Y173.766 F9000
;WIPE_END
;LAYER_CHANGE
;Z:0.8
;HEIGHT:0.2
; stop printing object Untitled.stl id:0 copy 0
EXCLUDE_OBJECT_END NAME=Untitled_stl_id_0_copy_0
G1 Z0.8 F9000
; printing object Untitled.stl id:0 copy 0
EXCLUDE_OBJECT_START NAME=Untitled_stl_id_0_copy_0
; acceleration to travel
M204 S3000
G1 X96.932 Y171.557
; decel to extrusion
M204 S1500
G1 X97.127 Y170.442
; end travel
;WIDTH:0.34
G1 F600
G1 X97.187 Y171.871 E0.93193
G1 X97.252 Y173.77 E0.97791
; acceleration to travel
M204 S3000
G1 X96.868 Y173.613 F9000
; decel to extrusion
M204 S2500
G1 X96.539 Y173.48
; end travel
;TYPE:Internal perimeter
;WIDTH:0.274316
G1 F600
G1 X96.266 Y173.48 E0.98308
G1 X96.266 Y173.343 E0.98566
G1 X96.265 Y168.807 E1.07118
G1 X96.28 Y168.757 E1.07217
;WIDTH:0.309251
G1 X96.295 Y168.707 E1.0733
;WIDTH:0.344186
G1 X96.311 Y168.657 E1.07458
;WIDTH:0.379121
G1 X96.326 Y168.607 E1.07601
;WIDTH:0.414055
G1 X96.341 Y168.557 E1.0776
;WIDTH:0.44899
G1 X96.356 Y168.507 E1.07932
;WIDTH:0.483925
G1 X96.372 Y168.457 E1.0812
;WIDTH:0.51886
G1 X96.387 Y168.407 E1.08323
G1 X96.407 Y168.458 E1.08534
;WIDTH:0.483203
G1 X96.426 Y168.509 E1.08729
;WIDTH:0.447546
G1 X96.446 Y168.56 E1.08908
;WIDTH:0.411889
G1 X96.465 Y168.61 E1.09071
;WIDTH:0.376231
G1 X96.485 Y168.661 E1.09219
;WIDTH:0.340574
G1 X96.504 Y168.712 E1.09351
;WIDTH:0.304917
G1 X96.524 Y168.763 E1.09467
;WIDTH:0.274316
G1 X96.539 Y168.807 E1.09556
G1 X96.539 Y173.343 E1.18108
G1 X96.539 Y173.48 E1.18366
M204 S1500
G1 X96.855 Y173.77 F9000
;TYPE:External perimeter
;WIDTH:0.357079
G1 F600
G1 X96.855 Y173.795 E1.18431
G1 X95.95 Y173.796 E1.20747
M73 P7 R7
G1 X95.948 Y165.714 E1.41435
G1 X95.961 Y165.634 E1.41642
;WIDTH:0.389508
G1 X95.974 Y165.554 E1.41871
;WIDTH:0.421937
G1 X95.987 Y165.475 E1.42121
;WIDTH:0.454365
G1 X96 Y165.395 E1.42392
;WIDTH:0.486794
G1 X96.013 Y165.315 E1.42685
G1 X95.998 Y164.597 E1.4528
;WIDTH:0.451694
G1 X95.983 Y163.88 E1.4767
;WIDTH:0.416593
G1 X95.968 Y163.163 E1.49855
;WIDTH:0.381492
G1 X95.952 Y162.445 E1.51835
;WIDTH:0.346392
G1 X95.937 Y161.728 E1.53609
;WIDTH:0.311291
G1 X95.922 Y161.01 E1.55178
;WIDTH:0.276191
G1 X95.907 Y160.293 E1.56542
G1 X95.922 Y160.243 E1.56642
;WIDTH:0.310858
G1 X95.937 Y160.193 E1.56756
;WIDTH:0.345525
G1 X95.952 Y160.143 E1.56884
;WIDTH:0.380192
G1 X95.967 Y160.093 E1.57028
;WIDTH:0.414859
G1 X95.983 Y160.043 E1.57186
;WIDTH:0.449526
G1 X95.998 Y159.993 E1.57359
;WIDTH:0.484193
G1 X96.013 Y159.943 E1.57547
;WIDTH:0.51886
G1 X96.028 Y159.893 E1.57749
G1 X96.047 Y159.942 E1.57952
;WIDTH:0.484193
G1 X96.067 Y159.99 E1.58139
;WIDTH:0.449526
G1 X96.086 Y160.039 E1.58312
;WIDTH:0.414859
G1 X96.105 Y160.087 E1.58471
;WIDTH:0.380192
G1 X96.125 Y160.136 E1.58614
;WIDTH:0.345525
G1 X96.144 Y160.184 E1.58743
;WIDTH:0.310858
G1 X96.163 Y160.233 E1.58857
;WIDTH:0.276191
G1 X96.183 Y160.281 E1.58956
G1 X96.228 Y160.998 E1.6032
;WIDTH:0.311291
G1 X96.273 Y161.714 E1.61889
;WIDTH:0.346392
G1 X96.318 Y162.43 E1.63664
;WIDTH:0.381492
G1 X96.363 Y163.146 E1.65643
;WIDTH:0.416593
G1 X96.409 Y163.862 E1.67828
;WIDTH:0.451694
G1 X96.454 Y164.578 E1.70218
;WIDTH:0.486794
G1 X96.499 Y165.294 E1.72813
G1 X96.519 Y165.373 E1.73106
;WIDTH:0.454365
G1 X96.538 Y165.451 E1.73378
;WIDTH:0.421937
G1 X96.558 Y165.53 E1.73628
;WIDTH:0.389508
G1 X96.578 Y165.608 E1.73857
;WIDTH:0.357079
G1 X96.597 Y165.687 E1.74064
G1 X96.823 Y168.371 E1.80959
G1 X96.855 Y168.763 E1.81965
G1 X96.855 Y173.77 E1.94783
;WIPE_START
M204 S4000
G1 X96.508 Y173.97 F9000
;WIPE_END
; acceleration to travel
M204 S3000
G1 X96.396 Y170.004
; decel to extrusion
M204 S2500
G1 X96.273 Y165.714
; end travel
;TYPE:Internal perimeter
;WIDTH:0.292952
G1 F600
G1 X96.29 Y166.099 E1.95567
;WIDTH:0.330603
G1 X96.306 Y166.484 E1.9647
;WIDTH:0.368255
G1 X96.322 Y166.869 E1.97491
;WIDTH:0.405906
G1 X96.338 Y167.253 E1.9863
;WIDTH:0.443557
G1 X96.355 Y167.638 E1.99887
;WIDTH:0.481209
G1 X96.371 Y168.023 E2.01262
;WIDTH:0.51886
G1 X96.387 Y168.407 E2.02756
; acceleration to travel
M204 S3000
G1 X95.976 Y158.661 F9000
; decel to extrusion
M204 S1500
G1 X95.818 Y154.907
; end travel
;TYPE:External perimeter
;WIDTH:0.34
G1 F600
G1 X95.853 Y155.738 E2.04769
;WIDTH:0.375772
G1 X95.888 Y156.569 E2.07025
;WIDTH:0.411544
G1 X95.923 Y157.4 E2.09524
;WIDTH:0.447316
G1 X95.958 Y158.231 E2.12265
;WIDTH:0.483088
G1 X95.993 Y159.062 E2.15248
;WIDTH:0.51886
G1 X96.028 Y159.893 E2.18474
M106 S255
M106 S153
;LAYER_CHANGE
;Z:1
;HEIGHT:0.2
; stop printing object Untitled.stl id:0 copy 0
EXCLUDE_OBJECT_END NAME=Untitled_stl_id_0_copy_0
M204 S4000
G1 Z1 F9000
; printing object Untitled.stl id:0 copy 0
EXCLUDE_OBJECT_START NAME=Untitled_stl_id_0_copy_0
; acceleration to travel
M204 S3000
G1 X96.76 Y168.511
; decel to extrusion
M204 S1500
G1 X97.127 Y172.819
; end travel
;WIDTH:0.34
G1 F600
G1 X97.164 Y173.917 E2.21133
; acceleration to travel
M204 S3000
G1 X96.844 Y173.751 F9000
; decel to extrusion
M204 S2500
G1 X96.498 Y173.571
; end travel
;TYPE:Internal perimeter
;WIDTH:0.357079
G1 F600
G1 X95.64 Y173.572 E2.23328
G1 X95.64 Y168.427 E2.36498
M73 P8 R7
G1 X95.653 Y168.347 E2.36706
;WIDTH:0.389506
G1 X95.666 Y168.267 E2.36934
;WIDTH:0.421934
G1 X95.679 Y168.187 E2.37184
;WIDTH:0.454361
G1 X95.692 Y168.107 E2.37456
;WIDTH:0.486788
G1 X95.705 Y168.027 E2.37749
G1 X95.69 Y167.311 E2.40341
;WIDTH:0.45169
G1 X95.675 Y166.594 E2.42727
;WIDTH:0.416593
G1 X95.659 Y165.878 E2.44909
;WIDTH:0.381495
G1 X95.644 Y165.162 E2.46886
;WIDTH:0.346397
G1 X95.629 Y164.445 E2.48658
;WIDTH:0.3113
G1 X95.614 Y163.729 E2.50225
;WIDTH:0.276202
G1 X95.599 Y163.012 E2.51587
G1 X95.614 Y162.963 E2.51686
;WIDTH:0.310864
G1 X95.629 Y162.913 E2.518
;WIDTH:0.345527
G1 X95.644 Y162.863 E2.51929
;WIDTH:0.380189
G1 X95.66 Y162.813 E2.52073
;WIDTH:0.414851
G1 X95.675 Y162.763 E2.52231
;WIDTH:0.449513
G1 X95.69 Y162.713 E2.52404
;WIDTH:0.484176
G1 X95.705 Y162.663 E2.52591
;WIDTH:0.518838
G1 X95.72 Y162.613 E2.52794
G1 X95.74 Y162.661 E2.52996
;WIDTH:0.484176
G1 X95.759 Y162.71 E2.53184
;WIDTH:0.449513
G1 X95.778 Y162.758 E2.53357
;WIDTH:0.414851
G1 X95.797 Y162.807 E2.53515
;WIDTH:0.380189
G1 X95.817 Y162.855 E2.53659
;WIDTH:0.345527
G1 X95.836 Y162.904 E2.53788
;WIDTH:0.310864
G1 X95.855 Y162.952 E2.53902
;WIDTH:0.276202
G1 X95.875 Y163.001 E2.54001
G1 X95.92 Y163.716 E2.55363
;WIDTH:0.3113
G1 X95.965 Y164.431 E2.5693
;WIDTH:0.346397
G1 X96.01 Y165.146 E2.58702
;WIDTH:0.381495
G1 X96.055 Y165.861 E2.60679
;WIDTH:0.416593
G1 X96.1 Y166.576 E2.62861
;WIDTH:0.45169
G1 X96.146 Y167.292 E2.65247
;WIDTH:0.486788
G1 X96.191 Y168.007 E2.67839
G1 X96.21 Y168.085 E2.68132
;WIDTH:0.454361
G1 X96.23 Y168.164 E2.68403
;WIDTH:0.421934
G1 X96.25 Y168.242 E2.68654
;WIDTH:0.389506
G1 X96.269 Y168.321 E2.68882
;WIDTH:0.357079
G1 X96.289 Y168.399 E2.6909
G1 X96.496 Y170.861 E2.75414
G1 X96.498 Y170.897 E2.75506
G1 X96.498 Y173.571 E2.82351
M204 S1500
G1 X96.855 Y173.917 F9000
;TYPE:External perimeter
G1 F600
M106 S127.5
G1 X96.855 Y173.928 E2.82377
G1 X95.283 Y173.929 E2.864
G1 X95.283 Y169.843 E2.96860
M106 S255
G1 X95.282 Y159.924 E3.22253
M106 S153
M106 S153
M106 S153
M106 S153
M106 S153
M106 S153
M106 S153
M106 S153
M106 S153
M106 S153
M106 S153
M106 S153
M106 S153
G1 X95.295 Y159.844 E3.2246
;WIDTH:0.389506
M106 S153
G1 X95.308 Y159.764 E3.22689
;WIDTH:0.421933
G1 X95.321 Y159.684 E3.22939
;WIDTH:0.45436
G1 X95.334 Y159.604 E3.23211
;WIDTH:0.486787
G1 X95.347 Y159.524 E3.23504
G1 X95.336 Y159.016 E3.25341
M106 S153
G1 X95.331 Y158.769 E3.26236
;WIDTH:0.449784
G1 X95.319 Y158.181 E3.28188
M106 S153
G1 X95.315 Y158.014 E3.28741
M106 S153
M106 S153
;WIDTH:0.41278
G1 X95.313 Y157.937 E3.28972
M106 S153
G1 X95.299 Y157.258 E3.31017
;WIDTH:0.375776
G1 X95.283 Y156.503 E3.33066
;WIDTH:0.338773
G1 X95.267 Y155.748 E3.34888
;WIDTH:0.301769
G1 X95.251 Y154.992 E3.36481
;WIDTH:0.264766
G1 X95.235 Y154.237 E3.37847
G1 X95.235 Y154.118 E3.38063
G1 X95.235 Y153.998 E3.38279
G1 X95.305 Y153.96 E3.38423
G1 X95.523 Y154.153 E3.38949
G1 X95.499 Y154.226 E3.39088
G1 X95.547 Y154.98 E3.40454
;WIDTH:0.301769
G1 X95.595 Y155.734 E3.42047
;WIDTH:0.338773
G1 X95.642 Y156.488 E3.43869
;WIDTH:0.375776
G1 X95.69 Y157.242 E3.45918
;WIDTH:0.41278
G1 X95.737 Y157.996 E3.48195
;WIDTH:0.449784
M73 P9 R7
G1 X95.785 Y158.75 E3.50699
;WIDTH:0.486787
G1 X95.833 Y159.504 E3.53432
G1 X95.852 Y159.582 E3.53725
;WIDTH:0.45436
G1 X95.872 Y159.661 E3.53996
;WIDTH:0.421933
G1 X95.892 Y159.739 E3.54246
;WIDTH:0.389506
G1 X95.911 Y159.818 E3.54475
;WIDTH:0.357079
M106 S127.5
G1 X95.931 Y159.896 E3.54682
M106 S255
G1 X96.023 Y160.992 E3.57498
