; HEADER_BLOCK_START
; generated by OrcaSlicer 1.6.3 on 2023-06-30 at 11:50:07
; total layer number: 21
; HEADER_BLOCK_END

; THUMBNAIL_BLOCK_START
; THUMBNAIL_BLOCK_END

; external perimeters extrusion width = 0.40mm
; perimeters extrusion width = 0.45mm
; infill extrusion width = 0.45mm
; solid infill extrusion width = 0.40mm
; top infill extrusion width = 0.40mm
; first layer extrusion width = 0.50mm

; EXECUTABLE_BLOCK_START
EXCLUDE_OBJECT_DEFINE NAME=Untitled.stl_id_0_copy_0 CENTER=165.002,165 POLYGON=[[122.52,197.384],[122.68,180.43],[122.84,163.477],[149.571,100.611],[180.813,100.611],[207.484,163.095],[207.484,197.384],[180.813,229.389],[149.571,229.389],[122.52,197.384]]
M73 P0 R31
M73 C24
;TYPE:Custom
START_PRINT T_BED=70 T_EXTRUDER=240
G90
G21
M83 ; use relative distances for extrusion
; filament start gcode
PRESSURE_ADVANCE_SELECT FILAMENT=PETG
M106 S0
;LAYER_CHANGE
;Z:0.2
;HEIGHT:0.2
;BEFORE_LAYER_CHANGE
;0.2
G92 E0

M204 S1000
G1 E-1 F3000
G1 X146.889 Y99.471 F9000
G1 Z.2
G1 E1 F1800
;TYPE:Skirt
;WIDTH:0.5
G1 F3000
G1 X147.823 Y98.279 E.05465
G1 X149.571 Y97.697 E.06653
G1 X180.813 Y97.697 E1.12803
G1 X182.275 Y98.09 E.05465
G1 X183.493 Y99.467 E.06639
G1 X210.164 Y161.951 E2.45298
G1 X210.398 Y163.095 E.04216
G1 X210.398 Y197.384 E1.23802
G1 X209.722 Y199.249 E.07164
G1 X183.052 Y231.255 E1.50422
G1 X181.814 Y232.126 E.05465
G1 X180.813 Y232.303 E.0367
G1 X149.571 Y232.303 E1.12803
G1 X148.109 Y231.91 E.05465
G1 X147.345 Y231.27 E.03598
G1 X120.295 Y199.265 E1.51304
G1 X119.606 Y197.356 E.07326
G1 X119.926 Y163.449 E1.22431
G1 X120.158 Y162.336 E.04105
G1 X146.866 Y99.526 E2.46433
G1 X147.286 Y99.705 F9000
G1 F3000
G1 X147.31 Y99.65 E.00217
G1 X148.191 Y98.578 E.0501
G1 X149.571 Y98.154 E.05211
G1 X180.813 Y98.154 E1.12803
G1 X182.144 Y98.546 E.0501
G1 X183.073 Y99.646 E.05199
G1 X209.744 Y162.131 E2.45298
G1 X209.941 Y163.095 E.03555
G1 X209.941 Y197.384 E1.23802
G1 X209.371 Y198.957 E.0604
G1 X182.701 Y230.962 E1.50422
G1 X181.547 Y231.734 E.0501
G1 X180.813 Y231.846 E.02682
G1 X149.571 Y231.846 E1.12803
G1 X148.24 Y231.454 E.0501
G1 X147.694 Y230.975 E.02621
G1 X120.644 Y198.97 E1.51304
G1 X120.063 Y197.361 E.06177
G1 X120.383 Y163.453 E1.22431
G1 X120.579 Y162.515 E.03461
G1 X147.263 Y99.76 E2.46217
; printing object Untitled.stl id:0 copy 0
EXCLUDE_OBJECT_START NAME=Untitled.stl_id_0_copy_0
G1 E-1
G1 X180.526 Y163.374 F9000
G1 E1 F1800
;TYPE:Outer wall
;WIDTH:0.499999
G1 F3000
G1 X180.692 Y163.445 E.00652
G1 X207.134 Y163.445 E.95472
G1 X207.134 Y180.24 E.60637
G1 X207.134 Y197.034 E.60637
G1 X180.692 Y197.034 E.95472
M73 P1 R31
G1 X180.534 Y197.097 E.00614
G1 X180.463 Y197.262 E.00649
G1 X180.463 Y229.039 E1.14733
G1 X149.921 Y229.039 E1.10275
G1 X149.921 Y197.262 E1.14733
G1 X149.858 Y197.105 E.00611
G1 X149.696 Y197.034 E.0064
G1 X122.874 Y197.034 E.96844
G1 X123.187 Y163.821 E1.19923
G1 X149.696 Y163.408 E.95726
G1 X149.85 Y163.345 E.00601
G1 X149.921 Y163.18 E.00649
G1 X149.921 Y100.961 E2.24648
G1 X180.463 Y100.961 E1.10275
G1 X180.463 Y163.217 E2.24781
G1 X180.503 Y163.318 E.00394
G1 X180.516 Y163.409
G1 X180.217 Y163.689 F9000
;TYPE:Inner wall
G1 F3000
G1 X180.385 Y163.83 E.0079
G1 X180.692 Y163.902 E.01139
G1 X206.677 Y163.902 E.93821
G1 X206.677 Y180.24 E.58987
G1 X206.677 Y196.577 E.58987
G1 X180.692 Y196.577 E.93821
G1 X180.539 Y196.594 E.00553
G1 X180.272 Y196.72 E.01068
G1 X180.078 Y196.956 E.01102
G1 X180.006 Y197.262 E.01136
G1 X180.006 Y228.582 E1.13082
G1 X150.378 Y228.582 E1.06975
G1 X150.378 Y197.262 E1.13082
M73 P1 R30
G1 X150.365 Y197.128 E.00487
G1 X150.241 Y196.851 E.01094
G1 X150.002 Y196.651 E.01127
G1 X149.692 Y196.577 E.0115
G1 X123.335 Y196.577 E.95165
G1 X123.64 Y164.271 E1.16647
G1 X149.437 Y163.869 E.93157
G1 X149.823 Y163.853 E.01393
G1 X150.112 Y163.722 E.01146
G1 X150.305 Y163.487 E.01098
G1 X150.378 Y163.181 E.01134
G1 X150.378 Y101.418 E2.23002
G1 X180.006 Y101.418 E1.06975
G1 X180.006 Y163.18 E2.22996
G1 X180.019 Y163.351 E.00621
G1 X180.142 Y163.627 E.01092
G1 X180.171 Y163.651 E.00133
G1 X179.868 Y163.987 F9000
G1 F3000
G1 X179.944 Y164.081 E.00439
G1 X180.301 Y164.291 E.01493
G1 X180.692 Y164.36 E.01434
G1 X206.22 Y164.36 E.92171
G1 X206.22 Y180.24 E.57336
G1 X206.22 Y196.12 E.57336
G1 X180.692 Y196.12 E.92171
G1 X180.487 Y196.138 E.00742
G1 X180.11 Y196.279 E.01454
G1 X179.799 Y196.549 E.01487
G1 X179.613 Y196.885 E.01387
G1 X179.549 Y197.262 E.01381
G1 X179.549 Y228.125 E1.11432
G1 X150.835 Y228.125 E1.03674
M73 P2 R30
G1 X150.835 Y197.262 E1.11432
G1 X150.822 Y197.093 E.00613
G1 X150.694 Y196.712 E.01451
G1 X150.439 Y196.398 E.01462
G1 X150.091 Y196.192 E.0146
G1 X149.692 Y196.12 E.01464
G1 X123.797 Y196.12 E.93499
G1 X124.092 Y164.721 E1.13372
G1 X149.445 Y164.326 E.91548
G1 X149.91 Y164.301 E.01683
G1 X150.277 Y164.161 E.01419
G1 X150.584 Y163.894 E.01469
G1 X150.77 Y163.559 E.01385
G1 X150.835 Y163.182 E.01379
G1 X150.835 Y101.875 E2.21355
G1 X179.549 Y101.875 E1.03674
G1 X179.549 Y163.18 E2.21345
G1 X179.561 Y163.386 E.00746
G1 X179.69 Y163.766 E.01449
G1 X179.83 Y163.94 E.00806
G1 X179.566 Y164.33 F9000
G1 F3000
G1 X179.789 Y164.538 E.01102
G1 X180.206 Y164.741 E.01673
G1 X180.692 Y164.817 E.01775
G1 X205.762 Y164.817 E.90521
G1 X205.762 Y180.24 E.55686
G1 X205.762 Y195.663 E.55686
G1 X180.692 Y195.663 E.90521
G1 X180.475 Y195.677 E.00783
G1 X180.029 Y195.806 E.01678
G1 X179.645 Y196.052 E.01646
G1 X179.35 Y196.391 E.01624
G1 X179.159 Y196.803 E.01639
G1 X179.092 Y197.262 E.01675
G1 X179.092 Y227.668 E1.09782
G1 X151.292 Y227.668 E1.00374
G1 X151.292 Y197.262 E1.09782
G1 X151.274 Y197.025 E.00858
G1 X151.152 Y196.607 E.01575
G1 X150.912 Y196.227 E.0162
G1 X150.555 Y195.915 E.01712
G1 X150.129 Y195.723 E.01689
G1 X149.692 Y195.663 E.0159
G1 X124.258 Y195.663 E.91833
G1 X124.545 Y165.171 E1.10096
G1 X149.832 Y164.773 E.91311
G1 X150.308 Y164.656 E.01772
G1 X150.706 Y164.417 E.01674
G1 X151.033 Y164.053 E.01768
G1 X151.224 Y163.642 E.01636
G1 X151.292 Y163.183 E.01673
G1 X151.292 Y102.332 E2.19709
G1 X179.092 Y102.332 E1.00374
G1 X179.092 Y163.18 E2.19695
G1 X179.098 Y163.354 E.00632
G1 X179.206 Y163.809 E.01688
G1 X179.441 Y164.214 E.0169
G1 X179.522 Y164.289 E.004
G1 E-1
G1 X178.955 Y103.394 F9000
G1 E1 F1800
;TYPE:Bottom surface
;WIDTH:0.500376
G1 F6300
G1 X178.236 Y102.675 E.03675
G1 X177.589 Y102.675 E.02338
G1 X178.749 Y103.835 E.0593
G1 X178.749 Y104.482 E.02338
G1 X176.942 Y102.675 E.09236
G1 X176.295 Y102.675 E.02338
G1 X178.749 Y105.129 E.12542
G1 X178.749 Y105.776 E.02338
G1 X175.648 Y102.675 E.15848
G1 X175.001 Y102.675 E.02338
G1 X178.749 Y106.423 E.19154
G1 X178.749 Y107.07 E.02338
G1 X174.354 Y102.675 E.2246
G1 X173.707 Y102.675 E.02338
G1 X178.749 Y107.717 E.25766
G1 X178.749 Y108.364 E.02338
G1 X173.06 Y102.675 E.29072
M73 C23
G1 X172.413 Y102.675 E.02338
G1 X178.749 Y109.011 E.32379
G1 X178.749 Y109.658 E.02338
G1 X171.766 Y102.675 E.35685
G1 X171.119 Y102.675 E.02338
G1 X178.749 Y110.305 E.38991
G1 X178.749 Y110.952 E.02338
G1 X170.472 Y102.675 E.42297
G1 X169.825 Y102.675 E.02338
G1 X178.749 Y111.599 E.45603
G1 X178.749 Y112.246 E.02338
G1 X169.178 Y102.675 E.48909
G1 X168.532 Y102.675 E.02338
G1 X178.749 Y112.893 E.52215
G1 X178.749 Y113.539 E.02338
G1 X167.885 Y102.675 E.55521
G1 X167.238 Y102.675 E.02338
G1 X178.749 Y114.186 E.58827
G1 X178.749 Y114.833 E.02338
G1 X166.591 Y102.675 E.62134
G1 X165.944 Y102.675 E.02338
G1 X178.749 Y115.48 E.6544
M73 P3 R30
G1 X178.749 Y116.127 E.02338
G1 X165.297 Y102.675 E.68746
G1 X164.65 Y102.675 E.02338
G1 X178.749 Y116.774 E.72052
G1 X178.749 Y117.421 E.02338
G1 X164.003 Y102.675 E.75358
G1 X163.356 Y102.675 E.02338
G1 X178.749 Y118.068 E.78664
G1 X178.749 Y118.715 E.02338
G1 X162.709 Y102.675 E.8197
G1 X162.062 Y102.675 E.02338
G1 X178.749 Y119.362 E.85276
G1 X178.749 Y120.009 E.02338
G1 X161.415 Y102.675 E.88582
G1 X160.768 Y102.675 E.02338
G1 X178.749 Y120.656 E.91888
G1 X178.749 Y121.303 E.02338
G1 X160.121 Y102.675 E.95195
G1 X159.474 Y102.675 E.02338
G1 X178.749 Y121.95 E.98501
G1 X178.749 Y122.597 E.02338
G1 X158.827 Y102.675 E1.01807
G1 X158.18 Y102.675 E.02338
G1 X178.749 Y123.244 E1.05113
G1 X178.749 Y123.891 E.02338
G1 X157.534 Y102.675 E1.08419
G1 X156.887 Y102.675 E.02338
G1 X178.749 Y124.537 E1.11725
G1 X178.749 Y125.184 E.02338
G1 X156.24 Y102.675 E1.15031
G1 X155.593 Y102.675 E.02338
G1 X178.749 Y125.831 E1.18337
G1 X178.749 Y126.478 E.02338
G1 X154.946 Y102.675 E1.21643
G1 X154.299 Y102.675 E.02338
G1 X178.749 Y127.125 E1.24949
G1 X178.749 Y127.772 E.02338
G1 X153.652 Y102.675 E1.28256
G1 X153.005 Y102.675 E.02338
G1 X178.749 Y128.419 E1.31562
G1 X178.749 Y129.066 E.02338
G1 X152.358 Y102.675 E1.34868
G1 X151.711 Y102.675 E.02338
G1 X178.749 Y129.713 E1.38174
G1 X178.749 Y130.36 E.02338
G1 X151.635 Y103.246 E1.38563
G1 X151.635 Y103.893 E.02338
G1 X178.749 Y131.007 E1.38563
G1 X178.749 Y131.654 E.02338
G1 X151.635 Y104.54 E1.38563
G1 X151.635 Y105.187 E.02338
G1 X178.749 Y132.301 E1.38563
G1 X178.749 Y132.948 E.02338
G1 X151.635 Y105.834 E1.38563
G1 X151.635 Y106.481 E.02338
G1 X178.749 Y133.595 E1.38563
G1 X178.749 Y134.242 E.02338
G1 X151.635 Y107.127 E1.38563
G1 X151.635 Y107.774 E.02338
G1 X178.749 Y134.889 E1.38563
G1 X178.749 Y135.535 E.02338
G1 X151.635 Y108.421 E1.38563
G1 X151.635 Y109.068 E.02338
G1 X178.749 Y136.182 E1.38563
G1 X178.749 Y136.829 E.02338
G1 X151.635 Y109.715 E1.38563
G1 X151.635 Y110.362 E.02338
G1 X178.749 Y137.476 E1.38563
G1 X178.749 Y138.123 E.02338
G1 X151.635 Y111.009 E1.38563
G1 X151.635 Y111.656 E.02338
G1 X178.749 Y138.77 E1.38563
G1 X178.749 Y139.417 E.02338
G1 X151.635 Y112.303 E1.38563
G1 X151.635 Y112.95 E.02338
G1 X178.749 Y140.064 E1.38563
G1 X178.749 Y140.711 E.02338
G1 X151.635 Y113.597 E1.38563
G1 X151.635 Y114.244 E.02338
G1 X178.749 Y141.358 E1.38563
G1 X178.749 Y142.005 E.02338
G1 X151.635 Y114.891 E1.38563
G1 X151.635 Y115.538 E.02338
G1 X178.749 Y142.652 E1.38563
G1 X178.749 Y143.299 E.02338
G1 X151.635 Y116.185 E1.38563
M73 P4 R30
G1 X151.635 Y116.832 E.02338
G1 X178.749 Y143.946 E1.38563
G1 X178.749 Y144.593 E.02338
G1 X151.635 Y117.479 E1.38563
G1 X151.635 Y118.125 E.02338
G1 X178.749 Y145.24 E1.38563
G1 X178.749 Y145.887 E.02338
G1 X151.635 Y118.772 E1.38563
G1 X151.635 Y119.419 E.02338
G1 X178.749 Y146.533 E1.38563
G1 X178.749 Y147.18 E.02338
G1 X151.635 Y120.066 E1.38563
G1 X151.635 Y120.713 E.02338
G1 X178.749 Y147.827 E1.38563
G1 X178.749 Y148.474 E.02338
G1 X151.635 Y121.36 E1.38563
G1 X151.635 Y122.007 E.02338
G1 X178.749 Y149.121 E1.38563
G1 X178.749 Y149.768 E.02338
G1 X151.635 Y122.654 E1.38563
G1 X151.635 Y123.301 E.02338
G1 X178.749 Y150.415 E1.38563
G1 X178.749 Y151.062 E.02338
G1 X151.635 Y123.948 E1.38563
G1 X151.635 Y124.595 E.02338
G1 X178.749 Y151.709 E1.38563
G1 X178.749 Y152.356 E.02338
G1 X151.635 Y125.242 E1.38563
G1 X151.635 Y125.889 E.02338
G1 X178.749 Y153.003 E1.38563
G1 X178.749 Y153.65 E.02338
G1 X151.635 Y126.536 E1.38563
G1 X151.635 Y127.183 E.02338
G1 X178.749 Y154.297 E1.38563
G1 X178.749 Y154.944 E.02338
G1 X151.635 Y127.83 E1.38563
G1 X151.635 Y128.477 E.02338
G1 X178.749 Y155.591 E1.38563
G1 X178.749 Y156.238 E.02338
G1 X151.635 Y129.123 E1.38563
G1 X151.635 Y129.77 E.02338
G1 X178.749 Y156.884 E1.38563
G1 X178.749 Y157.531 E.02338
G1 X151.635 Y130.417 E1.38563
G1 X151.635 Y131.064 E.02338
G1 X178.749 Y158.178 E1.38563
G1 X178.749 Y158.825 E.02338
G1 X151.635 Y131.711 E1.38563
G1 X151.635 Y132.358 E.02338
G1 X178.749 Y159.472 E1.38563
G1 X178.749 Y160.119 E.02338
G1 X151.635 Y133.005 E1.38563
G1 X151.635 Y133.652 E.02338
G1 X178.749 Y160.766 E1.38563
G1 X178.749 Y161.413 E.02338
G1 X151.635 Y134.299 E1.38563
G1 X151.635 Y134.946 E.02338
G1 X178.749 Y162.06 E1.38563
M73 P4 R29
G1 X178.749 Y162.707 E.02338
G1 X151.635 Y135.593 E1.38563
G1 X151.635 Y136.24 E.02338
G1 X179.004 Y163.609 E1.39867
G1 E-1 F3000
G1 X204.932 Y164.954 F9000
G1 E1 F1800
G1 F6300
G1 X205.42 Y165.441 E.0249
G1 X205.42 Y166.088 E.02338
G1 X204.491 Y165.159 E.04746
G1 X203.844 Y165.159 E.02338
G1 X205.42 Y166.735 E.08053
G1 X205.42 Y167.382 E.02338
G1 X203.197 Y165.159 E.1136
G1 X202.55 Y165.159 E.02338
G1 X205.42 Y168.029 E.14667
G1 X205.42 Y168.676 E.02338
G1 X201.903 Y165.158 E.17974
G1 X201.255 Y165.158 E.02338
G1 X205.42 Y169.322 E.21281
G1 X205.42 Y169.969 E.02338
G1 X200.608 Y165.158 E.24588
G1 X199.961 Y165.158 E.02338
G1 X205.42 Y170.616 E.27895
G1 X205.42 Y171.263 E.02338
G1 X199.314 Y165.158 E.31202
G1 X198.667 Y165.157 E.02338
G1 X205.42 Y171.91 E.34509
G1 X205.42 Y172.557 E.02338
G1 X198.02 Y165.157 E.37816
G1 X197.373 Y165.157 E.02338
G1 X205.42 Y173.204 E.41123
G1 X205.42 Y173.851 E.02338
G1 X196.726 Y165.157 E.4443
G1 X196.078 Y165.157 E.02338
G1 X205.42 Y174.498 E.47737
G1 X205.42 Y175.145 E.02338
G1 X195.431 Y165.157 E.51044
G1 X194.784 Y165.156 E.02338
G1 X205.42 Y175.792 E.54351
G1 X205.42 Y176.439 E.02338
G1 X194.137 Y165.156 E.57658
M73 P5 R29
G1 X193.49 Y165.156 E.02338
G1 X205.42 Y177.086 E.60965
G1 X205.42 Y177.733 E.02338
G1 X192.843 Y165.156 E.64272
G1 X192.196 Y165.156 E.02338
G1 X205.42 Y178.38 E.67579
G1 X205.42 Y179.027 E.02338
G1 X191.549 Y165.156 E.70886
G1 X190.901 Y165.155 E.02338
G1 X205.42 Y179.674 E.74193
G1 X205.42 Y180.32 E.02338
G1 X190.254 Y165.155 E.775
G1 X189.607 Y165.155 E.02338
G1 X205.42 Y180.967 E.80807
G1 X205.42 Y181.614 E.02338
G1 X188.96 Y165.155 E.84114
G1 X188.313 Y165.155 E.02338
G1 X205.42 Y182.261 E.87421
G1 X205.42 Y182.908 E.02338
G1 X187.666 Y165.154 E.90728
G1 X187.019 Y165.154 E.02338
G1 X205.42 Y183.555 E.94035
G1 X205.42 Y184.202 E.02338
G1 X186.372 Y165.154 E.97342
G1 X185.725 Y165.154 E.02338
G1 X205.42 Y184.849 E1.00649
G1 X205.42 Y185.496 E.02338
G1 X185.077 Y165.154 E1.03956
G1 X184.43 Y165.154 E.02338
G1 X205.42 Y186.143 E1.07263
G1 X205.42 Y186.79 E.02338
G1 X183.783 Y165.153 E1.1057
G1 X183.136 Y165.153 E.02338
G1 X205.42 Y187.437 E1.13877
G1 X205.42 Y188.084 E.02338
G1 X182.489 Y165.153 E1.17184
G1 X181.842 Y165.153 E.02338
G1 X205.42 Y188.731 E1.20492
G1 X205.42 Y189.378 E.02338
G1 X181.195 Y165.153 E1.23799
G1 X180.548 Y165.152 E.02338
G1 X205.42 Y190.025 E1.27106
G1 X205.42 Y190.672 E.02338
G1 X151.635 Y136.887 E2.7486
G1 X151.635 Y137.534 E.02338
G1 X205.42 Y191.318 E2.7486
G1 X205.42 Y191.965 E.02338
G1 X151.635 Y138.181 E2.7486
G1 X151.635 Y138.828 E.02338
G1 X205.42 Y192.612 E2.7486
G1 X205.42 Y193.259 E.02338
G1 X151.635 Y139.474 E2.7486
G1 X151.635 Y140.121 E.02338
G1 X205.42 Y193.906 E2.7486
G1 X205.42 Y194.553 E.02338
G1 X151.635 Y140.768 E2.7486
G1 X151.635 Y141.415 E.02338
G1 X205.42 Y195.2 E2.7486
G1 X205.42 Y195.32 E.00432
G1 X204.892 Y195.32 E.01905
G1 X151.635 Y142.062 E2.72166
G1 X151.635 Y142.709 E.02338
G1 X204.246 Y195.32 E2.6886
G1 X203.599 Y195.32 E.02338
G1 X151.635 Y143.356 E2.65554
G1 X151.635 Y144.003 E.02338
G1 X202.952 Y195.32 E2.62248
G1 X202.305 Y195.32 E.02338
G1 X151.635 Y144.65 E2.58942
G1 X151.635 Y145.297 E.02338
G1 X201.658 Y195.32 E2.55636
M73 P6 R29
G1 X201.011 Y195.32 E.02338
M73 C22
G1 X151.635 Y145.944 E2.5233
G1 X151.635 Y146.591 E.02338
G1 X200.364 Y195.32 E2.49025
G1 X199.717 Y195.32 E.02338
G1 X151.635 Y147.238 E2.45719
G1 X151.635 Y147.885 E.02338
G1 X199.07 Y195.32 E2.42413
G1 X198.424 Y195.32 E.02338
G1 X151.635 Y148.532 E2.39107
G1 X151.635 Y149.179 E.02338
G1 X197.777 Y195.32 E2.35801
G1 X197.13 Y195.32 E.02338
G1 X151.635 Y149.826 E2.32495
G1 X151.635 Y150.472 E.02338
G1 X196.483 Y195.32 E2.29189
G1 X195.836 Y195.32 E.02338
G1 X151.635 Y151.119 E2.25884
G1 X151.635 Y151.766 E.02338
G1 X195.189 Y195.321 E2.22578
G1 X194.542 Y195.321 E.02338
G1 X151.635 Y152.413 E2.19272
G1 X151.635 Y153.06 E.02338
G1 X193.895 Y195.321 E2.15966
G1 X193.248 Y195.321 E.02338
G1 X151.635 Y153.707 E2.1266
G1 X151.635 Y154.354 E.02338
G1 X192.602 Y195.321 E2.09354
G1 X191.955 Y195.321 E.02338
G1 X151.635 Y155.001 E2.06049
G1 X151.635 Y155.648 E.02338
G1 X191.308 Y195.321 E2.02743
G1 X190.661 Y195.321 E.02338
G1 X151.635 Y156.295 E1.99437
G1 X151.635 Y156.942 E.02338
G1 X190.014 Y195.321 E1.96131
G1 X189.367 Y195.321 E.02338
G1 X151.635 Y157.589 E1.92825
G1 X151.635 Y158.236 E.02338
