; HEADER_BLOCK_START
; generated by OrcaSlicer 1.6.3 on 2023-06-30 at 13:25:26
; total layer number: 21
; HEADER_BLOCK_END

; THUMBNAIL_BLOCK_START
; THUMBNAIL_BLOCK_END

; external perimeters extrusion width = 0.40mm
; perimeters extrusion width = 0.45mm
; infill extrusion width = 0.45mm
; solid infill extrusion width = 0.40mm
; top infill extrusion width = 0.40mm
; first layer extrusion width = 0.50mm

; EXECUTABLE_BLOCK_START
EXCLUDE_OBJECT_DEFINE NAME=Untitled.stl_id_0_copy_0 CENTER=165.002,165 POLYGON=[[122.52,197.384],[122.68,180.43],[122.84,163.477],[149.571,100.611],[180.813,100.611],[207.484,163.095],[207.484,197.384],[180.813,229.389],[149.571,229.389],[122.52,197.384]]
M73 P0 R30
M73 C23
;TYPE:Custom
START_PRINT T_BED=60 T_EXTRUDER=220
G90
G21
M83 ; use relative distances for extrusion
; filament start gcode

    PRESSURE_ADVANCE_SELECT FILAMENT=PLA
M106 S0
;LAYER_CHANGE
;Z:0.2
;HEIGHT:0.2
;BEFORE_LAYER_CHANGE
;0.2
G92 E0

M204 S1000
G1 E-.8 F3000
G1 X146.889 Y99.471 F9000
G1 Z.2
G1 E.8 F1800
;TYPE:Skirt
;WIDTH:0.5
G1 F3000
G1 X147.823 Y98.279 E.05638
G1 X149.571 Y97.697 E.06863
G1 X180.813 Y97.697 E1.16365
G1 X182.275 Y98.09 E.05638
G1 X183.493 Y99.467 E.06848
G1 X210.164 Y161.951 E2.53045
G1 X210.398 Y163.095 E.04349
G1 X210.398 Y197.384 E1.27711
G1 X209.722 Y199.249 E.0739
G1 X183.052 Y231.255 E1.55172
G1 X181.814 Y232.126 E.05638
G1 X180.813 Y232.303 E.03786
G1 X149.571 Y232.303 E1.16365
G1 X148.109 Y231.91 E.05638
G1 X147.345 Y231.27 E.03712
G1 X120.295 Y199.265 E1.56082
G1 X119.606 Y197.356 E.07557
G1 X119.926 Y163.449 E1.26297
G1 X120.158 Y162.336 E.04234
G1 X146.866 Y99.526 E2.54215
G1 X147.286 Y99.705 F9000
G1 F3000
G1 X147.31 Y99.65 E.00223
G1 X148.191 Y98.578 E.05169
G1 X149.571 Y98.154 E.05376
G1 X180.813 Y98.154 E1.16365
G1 X182.144 Y98.546 E.05169
G1 X183.073 Y99.646 E.05364
G1 X209.744 Y162.131 E2.53045
M73 P0 R29
G1 X209.941 Y163.095 E.03667
G1 X209.941 Y197.384 E1.27711
G1 X209.371 Y198.957 E.06231
G1 X182.701 Y230.962 E1.55172
G1 X181.547 Y231.734 E.05169
G1 X180.813 Y231.846 E.02767
G1 X149.571 Y231.846 E1.16365
G1 X148.24 Y231.454 E.05169
G1 X147.694 Y230.975 E.02704
G1 X120.644 Y198.97 E1.56082
G1 X120.063 Y197.361 E.06372
G1 X120.383 Y163.453 E1.26297
G1 X120.579 Y162.515 E.0357
G1 X147.263 Y99.76 E2.53992
; printing object Untitled.stl id:0 copy 0
EXCLUDE_OBJECT_START NAME=Untitled.stl_id_0_copy_0
G1 E-.8
G1 X180.463 Y163.445 F9000
G1 E.8 F1800
;TYPE:Outer wall
G1 F3000
G1 X207.134 Y163.445 E.99338
G1 X207.134 Y197.034 E1.25104
M73 P1 R29
G1 X180.463 Y197.034 E.99338
G1 X180.463 Y229.039 E1.19207
G1 X149.921 Y229.039 E1.13758
G1 X149.921 Y197.034 E1.19207
G1 X122.874 Y197.034 E1.0074
G1 X123.187 Y163.821 E1.2371
G1 X149.921 Y163.405 E.99587
G1 X149.921 Y100.961 E2.32578
G1 X180.463 Y100.961 E1.13758
G1 X180.463 Y163.385 E2.32507
G1 X180.475 Y163.524
G1 X180.006 Y163.445 F9000
;TYPE:Inner wall
G1 F3000
G1 X180.006 Y163.902 E.01702
G1 X206.677 Y163.902 E.99338
G1 X206.677 Y196.577 E1.21699
G1 X180.006 Y196.577 E.99338
G1 X180.006 Y228.582 E1.19207
G1 X150.378 Y228.582 E1.10353
G1 X150.378 Y196.577 E1.19207
G1 X123.335 Y196.577 E1.00724
G1 X123.64 Y164.271 E1.20331
G1 X150.378 Y163.855 E.99603
G1 X150.378 Y101.418 E2.32552
G1 X180.006 Y101.418 E1.10353
G1 X180.006 Y163.385 E2.30805
M73 C22
G1 X179.549 Y163.445 F9000
G1 F3000
G1 X179.549 Y164.36 E.03405
G1 X206.22 Y164.36 E.99338
G1 X206.22 Y196.12 E1.18294
G1 X179.549 Y196.12 E.99338
M73 P2 R29
G1 X179.549 Y228.125 E1.19207
G1 X150.835 Y228.125 E1.06948
G1 X150.835 Y196.12 E1.19207
G1 X123.797 Y196.12 E1.00708
G1 X124.092 Y164.721 E1.16952
G1 X150.835 Y164.305 E.99618
G1 X150.835 Y101.875 E2.32526
G1 X179.549 Y101.875 E1.06948
G1 X179.549 Y163.385 E2.29102
G1 X179.092 Y163.445 F9000
G1 F3000
G1 X179.092 Y164.817 E.05107
G1 X205.762 Y164.817 E.99338
G1 X205.762 Y195.663 E1.14889
G1 X179.092 Y195.663 E.99338
G1 X179.092 Y227.668 E1.19207
G1 X151.292 Y227.668 E1.03543
G1 X151.292 Y195.663 E1.19207
G1 X124.258 Y195.663 E1.00692
G1 X124.545 Y165.171 E1.13573
G1 X151.292 Y164.755 E.99634
G1 X151.292 Y102.332 E2.325
G1 X179.092 Y102.332 E1.03543
G1 X179.092 Y163.385 E2.274
G1 E-.8
G1 X178.03 Y102.469 F9000
G1 E.8 F1800
;TYPE:Bottom surface
;WIDTH:0.500376
G1 F6300
G1 X178.749 Y103.188 E.03791
G1 X178.749 Y103.835 E.02412
G1 X177.589 Y102.675 E.06117
G1 X176.942 Y102.675 E.02412
G1 X178.749 Y104.482 E.09528
G1 X178.749 Y105.129 E.02412
G1 X176.295 Y102.675 E.12938
G1 X175.648 Y102.675 E.02412
G1 X178.749 Y105.776 E.16349
G1 X178.749 Y106.423 E.02412
G1 X175.001 Y102.675 E.19759
G1 X174.354 Y102.675 E.02412
G1 X178.749 Y107.07 E.2317
G1 X178.749 Y107.717 E.02412
G1 X173.707 Y102.675 E.2658
G1 X173.06 Y102.675 E.02412
G1 X178.749 Y108.364 E.29991
G1 X178.749 Y109.011 E.02412
G1 X172.413 Y102.675 E.33401
M73 P3 R29
G1 X171.766 Y102.675 E.02412
G1 X178.749 Y109.658 E.36812
G1 X178.749 Y110.305 E.02412
G1 X171.119 Y102.675 E.40222
G1 X170.472 Y102.675 E.02412
G1 X178.749 Y110.952 E.43633
G1 X178.749 Y111.599 E.02412
G1 X169.825 Y102.675 E.47043
G1 X169.178 Y102.675 E.02412
G1 X178.749 Y112.246 E.50454
G1 X178.749 Y112.893 E.02412
G1 X168.532 Y102.675 E.53864
G1 X167.885 Y102.675 E.02412
G1 X178.749 Y113.539 E.57275
G1 X178.749 Y114.186 E.02412
G1 X167.238 Y102.675 E.60685
G1 X166.591 Y102.675 E.02412
G1 X178.749 Y114.833 E.64096
G1 X178.749 Y115.48 E.02412
G1 X165.944 Y102.675 E.67506
G1 X165.297 Y102.675 E.02412
G1 X178.749 Y116.127 E.70917
G1 X178.749 Y116.774 E.02412
G1 X164.65 Y102.675 E.74327
G1 X164.003 Y102.675 E.02412
G1 X178.749 Y117.421 E.77738
G1 X178.749 Y118.068 E.02412
G1 X163.356 Y102.675 E.81148
G1 X162.709 Y102.675 E.02412
G1 X178.749 Y118.715 E.84559
G1 X178.749 Y119.362 E.02412
G1 X162.062 Y102.675 E.87969
G1 X161.415 Y102.675 E.02412
G1 X178.749 Y120.009 E.9138
G1 X178.749 Y120.656 E.02412
G1 X160.768 Y102.675 E.9479
G1 X160.121 Y102.675 E.02412
G1 X178.749 Y121.303 E.98201
G1 X178.749 Y121.95 E.02412
G1 X159.474 Y102.675 E1.01611
G1 X158.827 Y102.675 E.02412
G1 X178.749 Y122.597 E1.05022
G1 X178.749 Y123.244 E.02412
G1 X158.18 Y102.675 E1.08432
G1 X157.534 Y102.675 E.02412
G1 X178.749 Y123.891 E1.11843
G1 X178.749 Y124.537 E.02412
G1 X156.887 Y102.675 E1.15253
G1 X156.24 Y102.675 E.02412
G1 X178.749 Y125.184 E1.18664
G1 X178.749 Y125.831 E.02412
G1 X155.593 Y102.675 E1.22074
G1 X154.946 Y102.675 E.02412
G1 X178.749 Y126.478 E1.25485
G1 X178.749 Y127.125 E.02412
G1 X154.299 Y102.675 E1.28895
G1 X153.652 Y102.675 E.02412
G1 X178.749 Y127.772 E1.32306
G1 X178.749 Y128.419 E.02412
G1 X153.005 Y102.675 E1.35716
G1 X152.358 Y102.675 E.02412
G1 X178.749 Y129.066 E1.39127
G1 X178.749 Y129.713 E.02412
G1 X151.711 Y102.675 E1.42537
G1 X151.635 Y102.675 E.00284
G1 X151.635 Y103.246 E.02128
G1 X178.749 Y130.36 E1.42939
G1 X178.749 Y131.007 E.02412
G1 X151.635 Y103.893 E1.42939
G1 X151.635 Y104.54 E.02412
G1 X178.749 Y131.654 E1.42939
G1 X178.749 Y132.301 E.02412
G1 X151.635 Y105.187 E1.42939
G1 X151.635 Y105.834 E.02412
G1 X178.749 Y132.948 E1.42939
G1 X178.749 Y133.595 E.02412
G1 X151.635 Y106.481 E1.42939
G1 X151.635 Y107.127 E.02412
G1 X178.749 Y134.242 E1.42939
G1 X178.749 Y134.889 E.02412
G1 X151.635 Y107.774 E1.42939
G1 X151.635 Y108.421 E.02412
G1 X178.749 Y135.535 E1.42939
G1 X178.749 Y136.182 E.02412
G1 X151.635 Y109.068 E1.42939
M73 P3 R28
G1 X151.635 Y109.715 E.02412
G1 X178.749 Y136.829 E1.42939
G1 X178.749 Y137.476 E.02412
G1 X151.635 Y110.362 E1.42939
G1 X151.635 Y111.009 E.02412
G1 X178.749 Y138.123 E1.42939
G1 X178.749 Y138.77 E.02412
G1 X151.635 Y111.656 E1.42939
M73 P4 R28
G1 X151.635 Y112.303 E.02412
G1 X178.749 Y139.417 E1.42939
G1 X178.749 Y140.064 E.02412
G1 X151.635 Y112.95 E1.42939
G1 X151.635 Y113.597 E.02412
G1 X178.749 Y140.711 E1.42939
G1 X178.749 Y141.358 E.02412
G1 X151.635 Y114.244 E1.42939
G1 X151.635 Y114.891 E.02412
G1 X178.749 Y142.005 E1.42939
G1 X178.749 Y142.652 E.02412
G1 X151.635 Y115.538 E1.42939
G1 X151.635 Y116.185 E.02412
G1 X178.749 Y143.299 E1.42939
G1 X178.749 Y143.946 E.02412
G1 X151.635 Y116.832 E1.42939
G1 X151.635 Y117.479 E.02412
G1 X178.749 Y144.593 E1.42939
G1 X178.749 Y145.24 E.02412
G1 X151.635 Y118.125 E1.42939
G1 X151.635 Y118.772 E.02412
G1 X178.749 Y145.887 E1.42939
G1 X178.749 Y146.533 E.02412
G1 X151.635 Y119.419 E1.42939
G1 X151.635 Y120.066 E.02412
G1 X178.749 Y147.18 E1.42939
G1 X178.749 Y147.827 E.02412
G1 X151.635 Y120.713 E1.42939
G1 X151.635 Y121.36 E.02412
G1 X178.749 Y148.474 E1.42939
G1 X178.749 Y149.121 E.02412
G1 X151.635 Y122.007 E1.42939
G1 X151.635 Y122.654 E.02412
G1 X178.749 Y149.768 E1.42939
G1 X178.749 Y150.415 E.02412
G1 X151.635 Y123.301 E1.42939
G1 X151.635 Y123.948 E.02412
G1 X178.749 Y151.062 E1.42939
G1 X178.749 Y151.709 E.02412
G1 X151.635 Y124.595 E1.42939
G1 X151.635 Y125.242 E.02412
G1 X178.749 Y152.356 E1.42939
G1 X178.749 Y153.003 E.02412
G1 X151.635 Y125.889 E1.42939
G1 X151.635 Y126.536 E.02412
G1 X178.749 Y153.65 E1.42939
G1 X178.749 Y154.297 E.02412
G1 X151.635 Y127.183 E1.42939
G1 X151.635 Y127.83 E.02412
G1 X178.749 Y154.944 E1.42939
G1 X178.749 Y155.591 E.02412
G1 X151.635 Y128.476 E1.42939
G1 X151.635 Y129.123 E.02412
G1 X178.749 Y156.238 E1.42939
G1 X178.749 Y156.884 E.02412
G1 X151.635 Y129.77 E1.42939
G1 X151.635 Y130.417 E.02412
G1 X178.749 Y157.531 E1.42939
G1 X178.749 Y158.178 E.02412
G1 X151.635 Y131.064 E1.42939
G1 X151.635 Y131.711 E.02412
G1 X178.749 Y158.825 E1.42939
G1 X178.749 Y159.472 E.02412
G1 X151.635 Y132.358 E1.42939
G1 X151.635 Y133.005 E.02412
G1 X178.749 Y160.119 E1.42939
G1 X178.749 Y160.766 E.02412
G1 X151.635 Y133.652 E1.42939
G1 X151.635 Y134.299 E.02412
G1 X178.749 Y161.413 E1.42939
G1 X178.749 Y162.06 E.02412
G1 X151.635 Y134.946 E1.42939
G1 X151.635 Y135.593 E.02412
G1 X178.749 Y162.707 E1.42939
G1 X178.749 Y163.354 E.02412
M73 P5 R28
G1 X151.635 Y136.24 E1.42939
G1 X151.635 Y136.887 E.02412
G1 X178.955 Y164.207 E1.44023
G1 E-.8 F3000
G1 X204.933 Y164.954 F9000
G1 E.8 F1800
G1 F6300
G1 X205.42 Y165.441 E.02568
G1 X205.42 Y166.088 E.02412
G1 X204.491 Y165.159 E.04894
G1 X203.844 Y165.159 E.02412
G1 X205.42 Y166.735 E.08305
G1 X205.42 Y167.382 E.02412
G1 X203.197 Y165.159 E.11715
G1 X202.551 Y165.159 E.02412
G1 X205.42 Y168.029 E.15126
G1 X205.42 Y168.676 E.02412
G1 X201.904 Y165.159 E.18536
G1 X201.257 Y165.159 E.02412
G1 X205.42 Y169.322 E.21947
G1 X205.42 Y169.969 E.02412
G1 X200.61 Y165.159 E.25357
G1 X199.963 Y165.159 E.02412
G1 X205.42 Y170.616 E.28768
G1 X205.42 Y171.263 E.02412
G1 X199.316 Y165.159 E.32178
G1 X198.669 Y165.159 E.02412
G1 X205.42 Y171.91 E.35589
G1 X205.42 Y172.557 E.02412
G1 X198.022 Y165.159 E.38999
G1 X197.375 Y165.159 E.02412
G1 X205.42 Y173.204 E.4241
G1 X205.42 Y173.851 E.02412
G1 X196.728 Y165.159 E.4582
G1 X196.081 Y165.159 E.02412
G1 X205.42 Y174.498 E.49231
M73 C21
G1 X205.42 Y175.145 E.02412
G1 X195.434 Y165.159 E.52641
G1 X194.787 Y165.159 E.02412
G1 X205.42 Y175.792 E.56052
G1 X205.42 Y176.439 E.02412
G1 X194.14 Y165.159 E.59462
G1 X193.493 Y165.159 E.02412
G1 X205.42 Y177.086 E.62873
G1 X205.42 Y177.733 E.02412
G1 X192.846 Y165.159 E.66283
G1 X192.199 Y165.159 E.02412
G1 X205.42 Y178.38 E.69694
G1 X205.42 Y179.027 E.02412
G1 X191.553 Y165.159 E.73104
G1 X190.906 Y165.159 E.02412
G1 X205.42 Y179.674 E.76515
G1 X205.42 Y180.32 E.02412
G1 X190.259 Y165.159 E.79925
G1 X189.612 Y165.159 E.02412
G1 X205.42 Y180.967 E.83336
G1 X205.42 Y181.614 E.02412
G1 X188.965 Y165.159 E.86746
G1 X188.318 Y165.159 E.02412
G1 X205.42 Y182.261 E.90157
G1 X205.42 Y182.908 E.02412
G1 X187.671 Y165.159 E.93567
G1 X187.024 Y165.159 E.02412
G1 X205.42 Y183.555 E.96978
G1 X205.42 Y184.202 E.02412
G1 X186.377 Y165.159 E1.00388
G1 X185.73 Y165.159 E.02412
G1 X205.42 Y184.849 E1.03799
G1 X205.42 Y185.496 E.02412
G1 X185.083 Y165.159 E1.07209
G1 X184.436 Y165.159 E.02412
G1 X205.42 Y186.143 E1.1062
G1 X205.42 Y186.79 E.02412
G1 X183.789 Y165.159 E1.1403
G1 X183.142 Y165.159 E.02412
G1 X205.42 Y187.437 E1.17441
G1 X205.42 Y188.084 E.02412
G1 X182.495 Y165.159 E1.20851
G1 X181.848 Y165.159 E.02412
G1 X205.42 Y188.731 E1.24262
G1 X205.42 Y189.378 E.02412
G1 X181.201 Y165.159 E1.27672
G1 X180.555 Y165.159 E.02412
G1 X205.42 Y190.025 E1.31083
G1 X205.42 Y190.672 E.02412
G1 X179.702 Y164.954 E1.35578
G1 E-.8 F3000
G1 X205.625 Y191.524 F9000
G1 E.8 F1800
G1 F6300
G1 X179.261 Y165.159 E1.38988
G1 X178.749 Y165.159 E.01907
G1 X178.749 Y164.648 E.01907
G1 X151.635 Y137.534 E1.42939
G1 X151.635 Y138.181 E.02412
G1 X205.42 Y191.965 E2.8354
G1 X205.42 Y192.612 E.02412
G1 X151.635 Y138.828 E2.8354
G1 X151.635 Y139.474 E.02412
G1 X205.42 Y193.259 E2.8354
G1 X205.42 Y193.906 E.02412
G1 X151.635 Y140.121 E2.8354
G1 X151.635 Y140.768 E.02412
G1 X205.42 Y194.553 E2.8354
M73 P6 R28
G1 X205.42 Y195.2 E.02412
G1 X151.635 Y141.415 E2.8354
G1 X151.635 Y142.062 E.02412
G1 X204.892 Y195.32 E2.8076
G1 X204.245 Y195.32 E.02412
G1 X151.635 Y142.709 E2.7735
G1 X151.635 Y143.356 E.02412
G1 X203.599 Y195.32 E2.73939
G1 X202.952 Y195.32 E.02412
G1 X151.635 Y144.003 E2.70529
G1 X151.635 Y144.65 E.02412
G1 X202.305 Y195.32 E2.67118
G1 X201.658 Y195.32 E.02412
G1 X151.635 Y145.297 E2.63708
G1 X151.635 Y145.944 E.02412
G1 X201.011 Y195.32 E2.60297
G1 X200.364 Y195.32 E.02412
G1 X151.635 Y146.591 E2.56887
G1 X151.635 Y147.238 E.02412
G1 X199.717 Y195.32 E2.53476
G1 X199.07 Y195.32 E.02412
G1 X151.635 Y147.885 E2.50066
G1 X151.635 Y148.532 E.02412
G1 X198.423 Y195.32 E2.46655
G1 X197.776 Y195.32 E.02412
G1 X151.635 Y149.179 E2.43245
G1 X151.635 Y149.826 E.02412
G1 X197.129 Y195.32 E2.39834
G1 X196.482 Y195.32 E.02412
G1 X151.635 Y150.472 E2.36423
G1 X151.635 Y151.119 E.02412
G1 X195.835 Y195.32 E2.33013
G1 X195.188 Y195.32 E.02412
G1 X151.635 Y151.766 E2.29602
G1 X151.635 Y152.413 E.02412
G1 X194.541 Y195.32 E2.26192
G1 X193.894 Y195.32 E.02412
G1 X151.635 Y153.06 E2.22781
G1 X151.635 Y153.707 E.02412
G1 X193.247 Y195.32 E2.19371
G1 X192.601 Y195.32 E.02412
G1 X151.635 Y154.354 E2.1596
G1 X151.635 Y155.001 E.02412
G1 X191.954 Y195.32 E2.1255
G1 X191.307 Y195.32 E.02412
G1 X151.635 Y155.648 E2.09139
G1 X151.635 Y156.295 E.02412
G1 X190.66 Y195.32 E2.05729
M73 P7 R28
G1 X190.013 Y195.32 E.02412
G1 X151.635 Y156.942 E2.02318
G1 X151.635 Y157.589 E.02412
G1 X189.366 Y195.32 E1.98908
G1 X188.719 Y195.32 E.02412
G1 X151.635 Y158.236 E1.95497
G1 X151.635 Y158.883 E.02412
G1 X188.072 Y195.32 E1.92087
G1 X187.425 Y195.32 E.02412
G1 X151.635 Y159.53 E1.88676
G1 X151.635 Y160.177 E.02412
G1 X186.778 Y195.32 E1.85266
M73 P7 R27
G1 X186.131 Y195.32 E.02412
G1 X151.635 Y160.824 E1.81855
G1 X151.635 Y161.47 E.02412
G1 X185.484 Y195.32 E1.78445
G1 X184.837 Y195.32 E.02412
G1 X151.635 Y162.117 E1.75034
G1 X151.635 Y162.764 E.02412
G1 X184.19 Y195.32 E1.71624
G1 X183.543 Y195.32 E.02412
G1 X151.635 Y163.411 E1.68213
G1 X151.635 Y164.058 E.02412
G1 X182.896 Y195.32 E1.64803
G1 X182.25 Y195.32 E.02412
G1 X151.635 Y164.705 E1.61392
G1 X151.635 Y165.092 E.01442
G1 X151.379 Y165.096 E.00955
G1 X181.603 Y195.32 E1.59332
G1 X180.956 Y195.32 E.02412
G1 X150.742 Y165.106 E1.59279
G1 X150.105 Y165.116 E.02375
G1 X180.309 Y195.32 E1.59227
G1 X179.662 Y195.32 E.02412
G1 X149.468 Y165.126 E1.59175
G1 X148.831 Y165.136 E.02375
G1 X179.015 Y195.32 E1.59122
G1 X178.749 Y195.32 E.00991
G1 X178.749 Y195.701 E.01421
G1 X148.194 Y165.146 E1.61079
G1 X147.557 Y165.156 E.02375
G1 X178.749 Y196.348 E1.64437
G1 X178.749 Y196.995 E.02412
G1 X146.92 Y165.166 E1.67796
G1 X146.283 Y165.175 E.02375
G1 X178.749 Y197.642 E1.71154
G1 X178.749 Y198.289 E.02412
G1 X145.646 Y165.185 E1.74512
G1 X145.009 Y165.195 E.02375
G1 X178.749 Y198.936 E1.7787
G1 X178.749 Y199.583 E.02412
G1 X144.372 Y165.205 E1.81228
G1 X143.735 Y165.215 E.02375
G1 X178.749 Y200.23 E1.84587
G1 X178.749 Y200.876 E.02412
G1 X143.098 Y165.225 E1.87945
G1 X142.461 Y165.235 E.02375
G1 X178.749 Y201.523 E1.91303
G1 X178.749 Y202.17 E.02412
G1 X141.824 Y165.245 E1.94661
G1 X141.187 Y165.255 E.02375
G1 X178.749 Y202.817 E1.98019
G1 X178.749 Y203.464 E.02412
G1 X140.55 Y165.265 E2.01377
M73 P8 R27
G1 X139.913 Y165.275 E.02375
G1 X178.749 Y204.111 E2.04736
G1 X178.749 Y204.758 E.02412
