; generated by SuperSlicer 2.5.59 on 2023-06-30 at 22:02:20 UTC


;
;

;
;
; 

; external perimeters extrusion width = 0.40mm
; perimeters extrusion width = 0.46mm
; infill extrusion width = 0.64mm
; solid infill extrusion width = 0.56mm
; top infill extrusion width = 0.40mm
; first layer extrusion width = 0.50mm

; object:{"name":"Untitled","id":"Untitled.stl id:0 copy 0","object_center":[152.502471,149.999996,0.000000],"boundingbox_center":[152.502471,149.999996,2.070000],"boundingbox_size":[84.963303,128.778003,4.138926]}
EXCLUDE_OBJECT_DEFINE NAME=Untitled_stl_id_0_copy_0 CENTER=152.502471,149.999996 POLYGON=[[110.020824,182.383792],[110.180424,165.430176],[110.340320,148.476560],[137.071296,85.611000],[168.313456,85.611000],[194.984128,148.095360],[194.984128,182.383792],[168.313456,214.389008],[137.071296,214.389008],[110.020824,182.383792]]
; plater:{"center":[152.502471,149.999996,0.000000],"boundingbox_center":[152.502471,149.999996,2.070000],"boundingbox_size":[84.963303,128.778003,4.138926]}

M73 P0 R41
M73 P0 R41
M204 P4000 T4000 ; sets acceleration (P, T), mm/sec^2
;TYPE:Custom
; custom gcode: start_gcode
START_PRINT T_BED=60 T_EXTRUDER=210
; custom gcode end: start_gcode
M107
G21 ; set units to millimeters
G90 ; use absolute coordinates
M82 ; use absolute distances for extrusion
G92 E0
; custom gcode: start_filament_gcode
; Filament gcode

    PRESSURE_ADVANCE_SELECT FILAMENT=PLA
; custom gcode end: start_filament_gcode
;_TOOLCHANGE 0
M104 S210 ; set temperature
M109 S210 ; set temperature and wait for it to be reached
M190 S60 ; set bed temperature and wait for it to be reached
;LAYER_CHANGE
;Z:0.2
;HEIGHT:0.2
G1 Z0.2 F9000
M73 P0 R41
G1 E-0.8 F2400
M204 S1000
G1 X133.752 Y84.257 F9000
G1 E0 F1800
;TYPE:Skirt
;WIDTH:0.52
G1 X107.02 Y147.121 E2.70988
G1 X106.724 Y148.54 E2.76738
G1 X106.406 Y182.249 E4.10464
M73 P0 R40
G1 X106.51 Y183.155 E4.14082
G1 X107.284 Y184.682 E4.20875
G1 X134.333 Y216.687 E5.87108
G1 X135.505 Y217.61 E5.93024
G1 X137.171 Y218.005 E5.99817
G1 X168.213 Y218.005 E7.22959
G1 X169.698 Y217.695 E7.28975
G1 X171.068 Y216.668 E7.35768
G1 X197.739 Y184.662 E9.01035
G1 X198.6 Y182.284 E9.1107
G1 X198.6 Y148.195 E10.46297
G1 X198.301 Y146.737 E10.52203
G1 X171.631 Y84.252 E13.2171
G1 X171.192 Y83.49 E13.25199
G1 X169.88 Y82.39 E13.31992
G1 X168.213 Y81.995 E13.38785
G1 X137.171 Y81.995 E14.61927
G1 X136.293 Y82.101 E14.65436
G1 X134.767 Y82.878 E14.72229
G1 X133.752 Y84.257 E14.79022
G1 X134.191 Y84.444 F9000
G1 F1800
G1 X107.459 Y147.308 E17.5001
G1 X107.201 Y148.545 E17.55022
G1 X106.883 Y182.253 E18.88749
G1 X107.648 Y184.374 E18.97693
G1 X134.698 Y216.379 E20.63926
G1 X135.623 Y217.134 E20.68663
M73 P1 R40
G1 X137.171 Y217.528 E20.74999
G1 X168.213 Y217.528 E21.98141
G1 X169.408 Y217.299 E22.02965
G1 X170.701 Y216.362 E22.09301
G1 X197.372 Y184.357 E23.74568
G1 X198.123 Y182.284 E23.83315
G1 X198.123 Y148.195 E25.18542
G1 X197.863 Y146.924 E25.23689
G1 X171.192 Y84.44 E27.93196
G1 X169.761 Y82.866 E28.01632
G1 X168.213 Y82.472 E28.07968
G1 X137.171 Y82.472 E29.3111
G1 X135.159 Y83.173 E29.39563
G1 X134.191 Y84.444 E29.45899
G92 E0
G1 E-0.8 F2400
; printing object Untitled.stl id:0 copy 0
EXCLUDE_OBJECT_START NAME=Untitled_stl_id_0_copy_0
; acceleration to travel
M204 S3000
G1 X159.52 Y132.445 F9000
; decel to extrusion
M204 S1000
G1 X167.963 Y148.445
; end travel
G1 E0 F1800
;TYPE:External perimeter
;WIDTH:0.5
G1 X194.634 Y148.445 E1.01365
M73 P1 R40
G1 X194.634 Y182.034 E2.29023
G1 X167.963 Y182.034 E3.30388
G1 X167.963 Y214.039 E4.52028
G1 X137.421 Y214.039 E5.68108
G1 X137.421 Y182.034 E6.89748
G1 X110.374 Y182.034 E7.92544
G1 X110.687 Y148.821 E9.18778
G1 X137.421 Y148.405 E10.20398
G1 X137.421 Y85.961 E12.57723
G1 X167.963 Y85.961 E13.73802
G1 X167.963 Y148.445 E16.11282
;WIPE_START
M204 S4000
G1 X167.963 Y148.845 F9000
;WIPE_END
M204 S1000
G1 X167.506 Y148.445
;TYPE:Internal perimeter
G1 F1800
G1 X167.506 Y148.902 E16.1302
G1 X194.177 Y148.902 E17.14385
G1 X194.177 Y181.577 E18.38568
G1 X167.506 Y181.577 E19.39933
G1 X167.506 Y213.582 E20.61573
G1 X137.878 Y213.582 E21.74178
G1 X137.878 Y181.577 E22.95818
G1 X110.836 Y181.577 E23.98598
G1 X111.14 Y149.271 E25.21385
G1 X137.878 Y148.855 E26.2302
G1 X137.878 Y86.418 E28.60318
M73 P2 R40
G1 X167.506 Y86.418 E29.72923
G1 X167.506 Y148.445 E32.08666
G92 E0
G1 E-0.8 F2400
; acceleration to travel
M204 S3000
G1 X167.407 Y104.297 F9000
; decel to extrusion
M204 S1000
G1 X167.369 Y87.479
; end travel
G1 E0 F1800
;TYPE:Solid infill
;WIDTH:0.500649
G1 F3600
G1 X166.445 Y86.555 E0.04973
G1 X165.799 Y86.555 F9000
G1 F3600
G1 X167.369 Y88.126 E0.13424
G1 X167.369 Y88.772 F9000
G1 F3600
G1 X165.152 Y86.555 E0.25355
G1 X164.506 Y86.555 F9000
G1 F3600
G1 X167.369 Y89.418 E0.40764
G1 X167.369 Y90.065 F9000
G1 F3600
G1 X163.86 Y86.555 E0.59652
G1 X163.213 Y86.555 F9000
G1 F3600
G1 X167.369 Y90.711 E0.8202
G1 X167.369 Y91.358 F9000
G1 F3600
G1 X162.567 Y86.555 E1.07866
G1 X161.92 Y86.555 F9000
G1 F3600
G1 X167.369 Y92.004 E1.37191
G1 X167.369 Y92.65 F9000
G1 F3600
G1 X161.274 Y86.555 E1.69994
G1 X160.628 Y86.555 F9000
G1 F3600
G1 X167.369 Y93.297 E2.06277
G1 X167.369 Y93.943 F9000
G1 F3600
G1 X159.981 Y86.555 E2.46039
G1 X159.335 Y86.555 F9000
G1 F3600
G1 X167.369 Y94.59 E2.89279
G1 X167.369 Y95.236 F9000
G1 F3600
G1 X158.688 Y86.555 E3.35998
G1 X158.042 Y86.555 F9000
G1 F3600
G1 X167.369 Y95.882 E3.86197
G1 X167.369 Y96.529 F9000
G1 F3600
G1 X157.396 Y86.555 E4.39874
G1 X156.749 Y86.555 F9000
G1 F3600
G1 X167.369 Y97.175 E4.9703
G1 X167.369 Y97.822 F9000
G1 F3600
G1 X156.103 Y86.555 E5.57665
G1 X155.456 Y86.555 F9000
G1 F3600
G1 X167.369 Y98.468 E6.21779
G1 X167.369 Y99.114 F9000
G1 F3600
G1 X154.81 Y86.555 E6.89371
G1 X154.164 Y86.555 F9000
G1 F3600
G1 X167.369 Y99.761 E7.60443
G1 X167.369 Y100.407 F9000
G1 F3600
G1 X153.517 Y86.555 E8.34993
G1 X152.871 Y86.555 F9000
G1 F3600
G1 X167.369 Y101.054 E9.13023
G1 X167.369 Y101.7 F9000
G1 F3600
G1 X152.224 Y86.555 E9.94531
G1 X151.578 Y86.555 F9000
G1 F3600
G1 X167.369 Y102.347 E10.79518
G1 X167.369 Y102.993 F9000
G1 F3600
G1 X150.932 Y86.555 E11.67984
G1 X150.285 Y86.555 F9000
G1 F3600
G1 X167.369 Y103.639 E12.59929
G1 X167.369 Y104.286 F9000
G1 F3600
G1 X149.639 Y86.555 E13.55353
G1 X148.992 Y86.555 F9000
G1 F3600
G1 X167.369 Y104.932 E14.54255
G1 X167.369 Y105.579 F9000
G1 F3600
G1 X148.346 Y86.555 E15.56637
G1 X147.699 Y86.555 F9000
G1 F3600
G1 X167.369 Y106.225 E16.62497
G1 X167.369 Y106.871 F9000
G1 F3600
G1 X147.053 Y86.555 E17.71836
G1 X146.407 Y86.555 F9000
G1 F3600
G1 X167.369 Y107.518 E18.84655
G1 X167.369 Y108.164 F9000
G1 F3600
G1 X145.76 Y86.555 E20.00952
G1 X145.114 Y86.555 F9000
G1 F3600
G1 X167.369 Y108.811 E21.20728
G1 X167.369 Y109.457 F9000
G1 F3600
G1 X144.467 Y86.555 E22.43983
G1 X143.821 Y86.555 F9000
G1 F3600
G1 X167.369 Y110.103 E23.70716
G1 X167.369 Y110.75 F9000
G1 F3600
G1 X143.175 Y86.555 E25.00929
G1 X142.528 Y86.555 F9000
G1 F3600
G1 X167.369 Y111.396 E26.34621
G1 X167.369 Y112.043 F9000
G1 F3600
G1 X141.882 Y86.555 E27.71791
G1 X141.235 Y86.555 F9000
G1 F3600
G1 X167.369 Y112.689 E29.1244
G1 X167.369 Y113.335 F9000
G1 F3600
G1 X140.589 Y86.555 E30.56568
G1 X139.943 Y86.555 F9000
G1 F3600
G1 X167.369 Y113.982 E32.04175
G1 X167.369 Y114.628 F9000
G1 F3600
G1 X139.296 Y86.555 E33.55261
G1 X138.65 Y86.555 F9000
G1 F3600
G1 X167.369 Y115.275 E35.09826
G1 X167.369 Y115.921 F9000
G1 F3600
G1 X138.015 Y86.567 E36.67805
M73 P3 R39
G1 X138.015 Y87.214 F9000
G1 F3600
G1 X167.369 Y116.567 E38.25784
G1 X167.369 Y117.214 F9000
G1 F3600
G1 X138.015 Y87.86 E39.83762
G1 X138.015 Y88.506 F9000
G1 F3600
G1 X167.369 Y117.86 E41.41741
G1 X167.369 Y118.507 F9000
G1 F3600
G1 X138.015 Y89.153 E42.9972
G1 X138.015 Y89.799 F9000
G1 F3600
G1 X167.369 Y119.153 E44.57699
M73 P3 R39
G1 X167.369 Y119.8 F9000
G1 F3600
G1 X138.015 Y90.446 E46.15677
G1 X138.015 Y91.092 F9000
G1 F3600
G1 X167.369 Y120.446 E47.73656
G1 X167.369 Y121.092 F9000
G1 F3600
G1 X138.015 Y91.739 E49.31635
G1 X138.015 Y92.385 F9000
G1 F3600
G1 X167.369 Y121.739 E50.89614
G1 X167.369 Y122.385 F9000
G1 F3600
G1 X138.015 Y93.031 E52.47592
G1 X138.015 Y93.678 F9000
G1 F3600
G1 X167.369 Y123.032 E54.05571
G1 X167.369 Y123.678 F9000
G1 F3600
G1 X138.015 Y94.324 E55.6355
G1 X138.015 Y94.971 F9000
G1 F3600
G1 X167.369 Y124.324 E57.21529
G1 X167.369 Y124.971 F9000
G1 F3600
G1 X138.015 Y95.617 E58.79507
G1 X138.015 Y96.263 F9000
G1 F3600
G1 X167.369 Y125.617 E60.37486
G1 X167.369 Y126.264 F9000
G1 F3600
G1 X138.015 Y96.91 E61.95465
G1 X138.015 Y97.556 F9000
G1 F3600
G1 X167.369 Y126.91 E63.53444
G1 X167.369 Y127.556 F9000
G1 F3600
G1 X138.015 Y98.203 E65.11422
G1 X138.015 Y98.849 F9000
G1 F3600
G1 X167.369 Y128.203 E66.69401
G1 X167.369 Y128.849 F9000
G1 F3600
G1 X138.015 Y99.495 E68.2738
G1 X138.015 Y100.142 F9000
G1 F3600
G1 X167.369 Y129.496 E69.85358
G1 X167.369 Y130.142 F9000
G1 F3600
G1 X138.015 Y100.788 E71.43337
G1 X138.015 Y101.435 F9000
G1 F3600
G1 X167.369 Y130.788 E73.01316
G1 X167.369 Y131.435 F9000
G1 F3600
G1 X138.015 Y102.081 E74.59295
G1 X138.015 Y102.727 F9000
G1 F3600
G1 X167.369 Y132.081 E76.17273
G1 X167.369 Y132.728 F9000
G1 F3600
G1 X138.015 Y103.374 E77.75252
G1 X138.015 Y104.02 F9000
G1 F3600
G1 X167.369 Y133.374 E79.33231
G1 X167.369 Y134.02 F9000
G1 F3600
G1 X138.015 Y104.667 E80.9121
G1 X138.015 Y105.313 F9000
G1 F3600
G1 X167.369 Y134.667 E82.49188
G1 X167.369 Y135.313 F9000
G1 F3600
G1 X138.015 Y105.959 E84.07167
G1 X138.015 Y106.606 F9000
G1 F3600
G1 X167.369 Y135.96 E85.65146
M73 P4 R39
G1 X167.369 Y136.606 F9000
G1 F3600
G1 X138.015 Y107.252 E87.23125
G1 X138.015 Y107.899 F9000
G1 F3600
G1 X167.369 Y137.253 E88.81103
G1 X167.369 Y137.899 F9000
G1 F3600
G1 X138.015 Y108.545 E90.39082
G1 X138.015 Y109.192 F9000
G1 F3600
G1 X167.369 Y138.545 E91.97061
G1 X167.369 Y139.192 F9000
G1 F3600
G1 X138.015 Y109.838 E93.5504
G1 X138.015 Y110.484 F9000
G1 F3600
G1 X167.369 Y139.838 E95.13018
G1 X167.369 Y140.485 F9000
G1 F3600
G1 X138.015 Y111.131 E96.70997
G1 X138.015 Y111.777 F9000
G1 F3600
G1 X167.369 Y141.131 E98.28976
G1 X167.369 Y141.777 F9000
G1 F3600
G1 X138.015 Y112.424 E99.86954
G1 X138.015 Y113.07 F9000
G1 F3600
G1 X167.369 Y142.424 E101.44933
G1 X167.369 Y143.07 F9000
G1 F3600
G1 X138.015 Y113.716 E103.02912
G1 X138.015 Y114.363 F9000
G1 F3600
G1 X167.369 Y143.717 E104.60891
G1 X167.369 Y144.363 F9000
G1 F3600
G1 X138.015 Y115.009 E106.18869
G1 X138.015 Y115.656 F9000
G1 F3600
G1 X167.369 Y145.009 E107.76848
G1 X167.369 Y145.656 F9000
G1 F3600
G1 X138.015 Y116.302 E109.34827
G1 X138.015 Y116.948 F9000
G1 F3600
G1 X167.369 Y146.302 E110.92806
G1 X167.369 Y146.949 F9000
G1 F3600
G1 X138.015 Y117.595 E112.50784
G1 X138.015 Y118.241 F9000
G1 F3600
G1 X167.369 Y147.595 E114.08763
G1 X167.369 Y148.241 F9000
G1 F3600
G1 X138.015 Y118.888 E115.66742
G1 X138.015 Y119.534 F9000
G1 F3600
G1 X167.369 Y148.888 E117.24721
G92 E0
G1 E-0.8 F2400
; acceleration to travel
M204 S3000
G1 X186.875 Y149.002 F9000
; decel to extrusion
M204 S1000
G1 X193.377 Y149.04
; end travel
G1 E0 F1800
G1 F3600
G1 X194.04 Y149.702 E0.03566
G1 X194.04 Y150.349 F9000
G1 F3600
G1 X192.731 Y149.04 E0.10612
G1 X192.084 Y149.04 F9000
G1 F3600
G1 X194.04 Y150.995 E0.21136
G1 X194.04 Y151.641 F9000
G1 F3600
G1 X191.438 Y149.04 E0.35139
G1 X190.792 Y149.04 F9000
G1 F3600
G1 X194.04 Y152.288 E0.52621
G1 X194.04 Y152.934 F9000
G1 F3600
G1 X190.145 Y149.04 E0.73582
G1 X189.499 Y149.04 F9000
G1 F3600
G1 X194.04 Y153.581 E0.98021
G1 X194.04 Y154.227 F9000
G1 F3600
G1 X188.852 Y149.04 E1.2594
G1 X188.206 Y149.04 F9000
G1 F3600
G1 X194.04 Y154.873 E1.57337
G1 X194.04 Y155.52 F9000
G1 F3600
G1 X187.56 Y149.04 E1.92214
G1 X186.913 Y149.04 F9000
G1 F3600
G1 X194.04 Y156.166 E2.30569
G1 X194.04 Y156.813 F9000
G1 F3600
G1 X186.267 Y149.04 E2.72403
G1 X185.62 Y149.04 F9000
G1 F3600
G1 X194.04 Y157.459 E3.17716
G1 X194.04 Y158.106 F9000
G1 F3600
G1 X184.974 Y149.04 E3.66508
G1 X184.328 Y149.04 F9000
G1 F3600
G1 X194.04 Y158.752 E4.18779
G1 X194.04 Y159.398 F9000
G1 F3600
G1 X183.681 Y149.04 E4.74528
G1 X183.035 Y149.04 F9000
G1 F3600
G1 X194.04 Y160.045 E5.33757
G1 X194.04 Y160.691 F9000
G1 F3600
G1 X182.388 Y149.04 E5.96464
G1 X181.742 Y149.04 F9000
G1 F3600
G1 X194.04 Y161.338 E6.62651
G1 X194.04 Y161.984 F9000
G1 F3600
G1 X181.096 Y149.04 E7.32316
G1 X180.449 Y149.04 F9000
G1 F3600
G1 X194.04 Y162.63 E8.0546
G1 X194.04 Y163.277 F9000
G1 F3600
G1 X179.803 Y149.04 E8.82083
G1 X179.156 Y149.04 F9000
G1 F3600
G1 X194.04 Y163.923 E9.62185
G1 X194.04 Y164.57 F9000
G1 F3600
G1 X178.51 Y149.04 E10.45766
G1 X177.864 Y149.04 F9000
G1 F3600
G1 X194.04 Y165.216 E11.32825
G1 X194.04 Y165.862 F9000
G1 F3600
G1 X177.217 Y149.04 E12.23364
G1 X176.571 Y149.04 F9000
G1 F3600
G1 X194.04 Y166.509 E13.17381
G1 X194.04 Y167.155 F9000
G1 F3600
G1 X175.924 Y149.04 E14.14878
M73 P5 R38
G1 X175.278 Y149.04 F9000
G1 F3600
G1 X194.04 Y167.802 E15.15853
G1 X194.04 Y168.448 F9000
G1 F3600
G1 X174.631 Y149.04 E16.20307
G1 X173.985 Y149.04 F9000
G1 F3600
G1 X194.04 Y169.094 E17.2824
G1 X194.04 Y169.741 F9000
G1 F3600
G1 X173.339 Y149.04 E18.39652
G1 X172.692 Y149.04 F9000
G1 F3600
G1 X194.04 Y170.387 E19.54543
G1 X194.04 Y171.034 F9000
G1 F3600
G1 X172.046 Y149.04 E20.72912
G1 X171.399 Y149.04 F9000
G1 F3600
G1 X194.04 Y171.68 E21.94761
G1 X194.04 Y172.326 F9000
G1 F3600
G1 X170.753 Y149.04 E23.20088
G1 X170.107 Y149.04 F9000
G1 F3600
G1 X194.04 Y172.973 E24.48895
G1 X194.04 Y173.619 F9000
G1 F3600
G1 X169.46 Y149.04 E25.8118
G1 X168.814 Y149.04 F9000
G1 F3600
G1 X194.04 Y174.266 E27.16944
G1 X194.04 Y174.912 F9000
G1 F3600
G1 X168.167 Y149.04 E28.56187
G1 X167.521 Y149.04 F9000
G1 F3600
G1 X194.04 Y175.559 E29.98909
G1 X194.04 Y176.205 F9000
G1 F3600
G1 X138.015 Y120.18 E33.00426
G1 X138.015 Y120.827 F9000
G1 F3600
G1 X194.04 Y176.851 E36.01943
G1 X194.04 Y177.498 F9000
G1 F3600
G1 X138.015 Y121.473 E39.0346
G1 X138.015 Y122.12 F9000
G1 F3600
G1 X194.04 Y178.144 E42.04977
G1 X194.04 Y178.791 F9000
G1 F3600
G1 X138.015 Y122.766 E45.06494
G1 X138.015 Y123.412 F9000
G1 F3600
G1 X194.04 Y179.437 E48.08011
M73 P6 R38
G1 X194.04 Y180.083 F9000
G1 F3600
G1 X138.015 Y124.059 E51.09528
G1 X138.015 Y124.705 F9000
G1 F3600
G1 X194.04 Y180.73 E54.11045
G1 X194.04 Y181.376 F9000
G1 F3600
G1 X138.015 Y125.352 E57.12562
G1 X138.015 Y125.998 F9000
G1 F3600
G1 X193.457 Y181.44 E60.10942
G1 X192.811 Y181.44 F9000
G1 F3600
G1 X138.015 Y126.645 E63.05842
G1 X138.015 Y127.291 F9000
G1 F3600
G1 X192.164 Y181.44 E65.97264
M73 P6 R38
G1 X191.518 Y181.44 F9000
G1 F3600
G1 X138.015 Y127.937 E68.85207
G1 X138.015 Y128.584 F9000
G1 F3600
G1 X190.871 Y181.44 E71.69671
G1 X190.225 Y181.44 F9000
G1 F3600
G1 X138.015 Y129.23 E74.50656
G1 X138.015 Y129.877 F9000
G1 F3600
G1 X189.579 Y181.44 E77.28162
G1 X188.932 Y181.44 F9000
G1 F3600
G1 X138.015 Y130.523 E80.0219
G1 X138.015 Y131.169 F9000
G1 F3600
G1 X188.286 Y181.44 E82.72738
G1 X187.639 Y181.44 F9000
G1 F3600
G1 X138.015 Y131.816 E85.39808
G1 X138.015 Y132.462 F9000
G1 F3600
G1 X186.993 Y181.44 E88.03398
G1 X186.346 Y181.44 F9000
G1 F3600
G1 X138.015 Y133.109 E90.6351
G1 X138.015 Y133.755 F9000
G1 F3600
G1 X185.7 Y181.44 E93.20143
G1 X185.054 Y181.44 F9000
G1 F3600
G1 X138.015 Y134.401 E95.73297
G1 X138.015 Y135.048 F9000
G1 F3600
G1 X184.407 Y181.44 E98.22972
G1 X183.761 Y181.44 F9000
G1 F3600
G1 X138.015 Y135.694 E100.69169
G1 X138.015 Y136.341 F9000
G1 F3600
G1 X183.114 Y181.44 E103.11886
G1 X182.468 Y181.44 F9000
G1 F3600
G1 X138.015 Y136.987 E105.51125
G1 X138.015 Y137.633 F9000
G1 F3600
G1 X181.822 Y181.44 E107.86884
G1 X181.175 Y181.44 F9000
G1 F3600
G1 X138.015 Y138.28 E110.19165
G1 X138.015 Y138.926 F9000
G1 F3600
G1 X180.529 Y181.44 E112.47967
G1 X179.882 Y181.44 F9000
G1 F3600
G1 X138.015 Y139.573 E114.7329
M73 P7 R38
G1 X138.015 Y140.219 F9000
G1 F3600
G1 X179.236 Y181.44 E116.95134
G1 X178.59 Y181.44 F9000
G1 F3600
G1 X138.015 Y140.865 E119.13499
G1 X138.015 Y141.512 F9000
G1 F3600
G1 X177.943 Y181.44 E121.28385
G1 X177.297 Y181.44 F9000
G1 F3600
G1 X138.015 Y142.158 E123.39793
G1 X138.015 Y142.805 F9000
G1 F3600
