; HEADER_BLOCK_START
; generated by OrcaSlicer 1.7.0-beta on 2023-10-02 at 16:08:45
; total layer number: 15
; HEADER_BLOCK_END

; THUMBNAIL_BLOCK_START
; THUMBNAIL_BLOCK_END

; external perimeters extrusion width = 0.40mm
; perimeters extrusion width = 0.46mm
; infill extrusion width = 0.64mm
; solid infill extrusion width = 0.56mm
; top infill extrusion width = 0.40mm
; first layer extrusion width = 0.50mm

; EXECUTABLE_BLOCK_START
EXCLUDE_OBJECT_DEFINE NAME=V6_Plenum_Lid.stl_id_0_copy_0 CENTER=160,153 POLYGON=[[99.757,147.423],[112.932,124.603],[113.005,124.49],[113.065,124.413],[113.105,124.368],[113.218,124.258],[113.23,124.248],[113.344,124.162],[113.42,124.115],[113.48,124.082],[113.625,124.019],[113.631,124.017],[113.775,123.973],[113.856,123.956],[113.93,123.945],[114.088,123.936],[205.952,123.936],[206.11,123.945],[206.184,123.956],[206.265,123.973],[206.409,124.017],[206.416,124.019],[206.56,124.083],[206.62,124.115],[206.696,124.163],[206.81,124.248],[206.822,124.258],[206.935,124.368],[206.975,124.413],[207.035,124.49],[207.108,124.603],[220.243,147.354],[220.243,179.399],[220.22,179.696],[220.217,179.712],[220.15,179.986],[220.14,180.016],[220.036,180.262],[220.014,180.303],[219.88,180.516],[219.843,180.566],[219.686,180.742],[219.63,180.797],[219.495,180.91],[219.46,180.936],[219.349,181.011],[219.206,181.092],[219.195,181.097],[219.034,181.169],[218.93,181.206],[218.866,181.225],[218.694,181.266],[218.64,181.276],[218.519,181.291],[205.642,182.064],[102.356,182.064],[100.651,181.011],[100.54,180.936],[100.505,180.91],[100.37,180.797],[100.314,180.742],[100.157,180.566],[100.12,180.516],[99.9859,180.303],[99.9641,180.262],[99.8599,180.016],[99.85,179.986],[99.7829,179.712],[99.7804,179.696],[99.757,179.399],[99.757,147.423]]
M73 P0 R23
;TYPE:Custom
START_PRINT T_BED=110 T_EXTRUDER=260
G90
G21
M83 ; use relative distances for extrusion
; Filament gcode
PRESSURE_ADVANCE_SELECT FILAMENT=ASA
M106 S0
;LAYER_CHANGE
;Z:0.2
;HEIGHT:0.2
;BEFORE_LAYER_CHANGE
;0.2
G92 E0

G1 E-.5 F3000
;_SET_FAN_SPEED_CHANGING_LAYER
SET_VELOCITY_LIMIT ACCEL=2000 ACCEL_TO_DECEL=1000
G1 X111.921 Y122.996 F36000
G1 Z.2
G1 E.5 F1800
;TYPE:Skirt
;WIDTH:0.5
G1 F3000
G1 X112.79 Y122.395 E.03735
G1 X113.348 Y122.195 E.02095
G1 X114.129 Y122.096 E.02783
G1 X205.874 Y122.096 E3.2428
G1 X206.693 Y122.206 E.02919
G1 X207.663 Y122.654 E.03777
G1 X208.109 Y123.026 E.02054
G1 X208.611 Y123.678 E.02909
G1 X222.733 Y148.139 E.99835
G1 X223.054 Y148.922 E.02991
G1 X223.157 Y149.721 E.02847
G1 X223.148 Y179.628 E1.05708
G1 X222.983 Y180.669 E.03724
G1 X222.52 Y181.786 E.04274
G1 X222.106 Y182.394 E.02601
G1 X221.577 Y182.961 E.0274
G1 X220.729 Y183.576 E.03705
G1 X219.601 Y184.042 E.04311
G1 X218.343 Y184.213 E.04489
G1 X101.657 Y184.213 E4.12437
G1 X100.392 Y184.04 E.04512
G1 X99.264 Y183.572 E.04319
G1 X98.647 Y183.151 E.02639
G1 X98.102 Y182.64 E.02642
G1 X97.482 Y181.788 E.03724
G1 X97.014 Y180.657 E.04325
G1 X96.843 Y179.399 E.04488
G1 X96.843 Y149.721 E1.04901
G1 X96.949 Y148.911 E.02886
G1 X97.267 Y148.138 E.02952
G1 X111.389 Y123.678 E.99832
G1 X111.896 Y123.027 E.02917
G1 X112.242 Y123.321 F36000
G1 F3000
G1 X112.98 Y122.81 E.03173
G1 X113.464 Y122.637 E.01815
G1 X114.129 Y122.553 E.0237
G1 X205.874 Y122.554 E3.2428
G1 X206.577 Y122.648 E.02506
G1 X207.401 Y123.029 E.0321
G1 X207.788 Y123.351 E.01779
G1 X208.215 Y123.907 E.02478
G1 X222.337 Y148.368 E.99835
G1 X222.612 Y149.041 E.0257
G1 X222.7 Y149.721 E.02425
G1 X222.692 Y179.592 E1.05581
G1 X222.539 Y180.562 E.0347
G1 X222.305 Y181.205 E.02419
G1 X221.98 Y181.792 E.02373
G1 X221.28 Y182.613 E.03811
G1 X220.49 Y183.187 E.03452
G1 X219.496 Y183.597 E.03801
G1 X218.343 Y183.756 E.04113
G1 X101.657 Y183.756 E4.12437
M73 P1 R23
G1 X100.499 Y183.596 E.04132
G1 X99.503 Y183.182 E.03812
G1 X98.944 Y182.804 E.02387
G1 X98.449 Y182.342 E.02391
G1 X97.871 Y181.549 E.0347
G1 X97.459 Y180.551 E.03818
G1 X97.3 Y179.399 E.04109
G1 X97.3 Y149.721 E1.04901
G1 X97.39 Y149.031 E.02459
G1 X97.663 Y148.367 E.02536
G1 X111.785 Y123.907 E.99832
G1 X112.217 Y123.352 E.02486
; printing object V6_Plenum_Lid.stl id:0 copy 0
G1 E-.35
;WIPE_START
G1 X112.98 Y122.81 E-.14039
G1 X113.041 Y122.789 E-.00961
;WIPE_END
EXCLUDE_OBJECT_START NAME=V6_Plenum_Lid.stl_id_0_copy_0
G1 X173.877 Y137.11 F36000
G1 X188.323 Y145.45
G1 X216.801 Y180.396
G1 E.5 F1800
;TYPE:Outer wall
;WIDTH:0.499999
G1 F3000
G1 X216.756 Y180.332 E.0028
G1 X216.484 Y180.157 E.01143
G1 X216.148 Y180.087 E.01211
G1 X210.538 Y180.087 E.19831
G1 X210.275 Y180.131 E.00942
G1 X209.904 Y180.357 E.01535
G1 X209.657 Y180.746 E.01631
G1 X209.597 Y180.949 E.00747
G1 X160.836 Y180.949 E1.72349
G1 X160.836 Y178.412 E.08969
G2 X154.367 Y177.2 I-3.35 J.012 E.3273
G1 X154.167 Y177.964 E.02793
G1 X154.136 Y178.412 E.01586
G1 X154.136 Y180.949 E.08969
G1 X101.68 Y180.949 E1.85411
G1 X101.181 Y180.871 E.01783
G1 X100.747 Y180.649 E.01724
G1 X100.407 Y180.31 E.01697
G1 X100.184 Y179.869 E.01748
G1 X100.107 Y179.376 E.01761
G1 X100.11 Y149.743 E1.04742
G1 X114.189 Y125.363 E.9951
G1 X205.799 Y125.361 E3.23803
G1 X205.817 Y125.367 E.00069
G1 X219.893 Y149.766 E.99562
G1 X219.893 Y179.376 E1.0466
G1 X219.814 Y179.878 E.01796
G1 X219.598 Y180.302 E.0168
G1 X219.253 Y180.65 E.01733
G1 X218.819 Y180.871 E.01722
G1 X218.321 Y180.949 E.01782
G1 X217.082 Y180.946 E.0438
G1 X217.01 Y180.691 E.00936
G1 X216.806 Y180.403 E.01248
G1 X217.055 Y179.998 F36000
;TYPE:Inner wall
G1 F3000
G1 X216.912 Y179.874 E.00669
G1 X216.491 Y179.681 E.01637
G1 X216.148 Y179.63 E.01226
G1 X210.538 Y179.63 E.19831
G1 X210.088 Y179.709 E.01612
G1 X209.649 Y179.977 E.01821
G2 X209.275 Y180.492 I.896 J1.042 E.02267
G1 X161.293 Y180.492 E1.69598
G1 X161.293 Y178.412 E.07353
G2 X153.679 Y178.412 I-3.807 J.011 E.42194
G1 X153.679 Y180.492 E.07353
G1 X101.813 Y180.492 E1.83325
G1 X101.324 Y180.43 E.01741
G1 X101.019 Y180.275 E.01212
G1 X100.782 Y180.038 E.01183
G1 X100.624 Y179.727 E.01234
G1 X100.564 Y179.341 E.0138
G1 X100.567 Y149.865 E1.04184
G1 X114.453 Y125.82 E.98144
M73 P2 R23
G1 X205.549 Y125.818 E3.21988
G1 X219.436 Y149.871 E.98169
G1 X219.436 Y179.162 E1.03533
G1 X219.373 Y179.735 E.02039
G1 X219.223 Y180.031 E.01171
G1 X218.98 Y180.276 E.0122
G1 X218.676 Y180.43 E.01206
G1 X218.286 Y180.492 E.01398
G1 X217.411 Y180.49 E.0309
G1 X217.119 Y180.054 E.01856
G1 X217.061 Y180.004 E.0027
G1 X217.354 Y179.664 F36000
G1 F3000
G1 X217.138 Y179.476 E.01012
G1 X216.571 Y179.231 E.02181
G1 X216.148 Y179.173 E.0151
G1 X210.538 Y179.173 E.19831
G1 X210.432 Y179.178 E.00373
G1 X209.877 Y179.3 E.02011
G1 X209.394 Y179.598 E.02005
G1 X209.008 Y180.035 E.02059
G1 X161.75 Y180.035 E1.67037
G1 X161.75 Y178.412 E.05738
G2 X153.222 Y178.412 I-4.264 J.015 E.47244
G1 X153.222 Y180.035 E.05738
G1 X101.813 Y180.035 E1.8171
G3 X101.291 Y179.9 I.005 J-1.103 E.01926
G1 X101.114 Y179.682 E.00992
G1 X101.021 Y179.305 E.01371
G1 X101.024 Y149.988 E1.03625
G1 X114.716 Y126.277 E.96779
G1 X205.285 Y126.275 E3.20122
G1 X218.979 Y149.993 E.96803
G1 X218.979 Y178.403 E1.00418
G1 X218.949 Y179.493 E.03853
G1 X218.848 Y179.76 E.01007
G1 X218.62 Y179.946 E.01042
G1 X218.25 Y180.035 E.01344
G1 X217.679 Y180.033 E.02021
G1 X217.481 Y179.776 E.01147
G1 X217.36 Y179.67 E.0057
G1 X217.639 Y179.307 F36000
G1 F3000
G1 X217.363 Y179.079 E.01267
G1 X217.16 Y178.964 E.00825
G1 X216.652 Y178.781 E.01909
G1 X216.148 Y178.716 E.01794
G1 X210.538 Y178.716 E.19831
G1 X210.034 Y178.781 E.01794
G1 X209.586 Y178.932 E.01673
G1 X209.138 Y179.219 E.01878
G1 X208.807 Y179.578 E.01726
G1 X162.207 Y179.578 E1.64712
M73 P2 R22
G2 X162.204 Y178.307 I-19.499 J-.583 E.04491
G2 X152.765 Y178.412 I-4.719 J.119 E.51944
G1 X152.765 Y179.578 E.04122
G1 X101.787 Y179.578 E1.80186
G1 X101.547 Y179.511 E.00879
G1 X101.478 Y179.27 E.00885
G1 X101.481 Y150.11 E1.03067
M73 P3 R22
G1 X114.98 Y126.734 E.95413
G1 X205.021 Y126.732 E3.18257
G1 X218.522 Y150.116 E.95438
G1 X218.522 Y178.403 E.99985
G1 X218.493 Y179.45 E.03701
G1 X218.391 Y179.55 E.00505
G1 X217.905 Y179.577 E.01721
G1 X217.791 Y179.432 E.00652
G1 X217.646 Y179.312 E.00665
G1 E-.5
G1 X183.952 Y149.122 F36000
G1 E.5 F1800
;TYPE:Outer wall
G1 F3000
G1 X183.784 Y149.098 E.00599
G1 X172.997 Y142.858 E.44048
G1 X172.938 Y142.68 E.0066
G1 X172.968 Y142.589 E.00339
G1 X173.514 Y141.643 E.03863
G1 X173.634 Y141.542 E.00552
G1 X173.826 Y141.559 E.00683
G1 X184.559 Y147.755 E.43804
G1 X184.657 Y147.868 E.00526
G1 X184.643 Y148.068 E.00709
G1 X184.096 Y149.014 E.03863
G1 X183.958 Y149.117 E.00609
G1 X184.078 Y149.55 F36000
;TYPE:Inner wall
G1 F3000
G1 X184.017 Y149.575 E.00235
G1 X183.722 Y149.562 E.01044
G1 X183.391 Y149.398 E.01305
G1 X172.823 Y143.297 E.43131
G1 X172.659 Y143.166 E.00741
G1 X172.501 Y142.871 E.01182
G1 X172.483 Y142.634 E.0084
G1 X172.572 Y142.361 E.01017
G1 X173.118 Y141.414 E.03863
G1 X173.369 Y141.163 E.01254
G1 X173.477 Y141.113 E.0042
G1 X173.787 Y141.075 E.01102
G1 X174.055 Y141.163 E.00998
G1 X184.787 Y147.36 E.43804
G1 X185.08 Y147.696 E.01577
G1 X185.122 Y148.061 E.01299
G1 X185.038 Y148.296 E.00881
G1 X184.492 Y149.243 E.03863
G1 X184.295 Y149.459 E.01036
G1 X184.085 Y149.547 E.00801
G1 X184.164 Y149.994 F36000
G1 F3000
G1 X183.941 Y150.042 E.00806
G1 X183.55 Y149.988 E.01395
G1 X183.162 Y149.794 E.01533
G1 X172.594 Y143.693 E.43131
G1 X172.322 Y143.474 E.01235
G3 X172.058 Y142.983 I.844 J-.771 E.0199
G1 X172.029 Y142.588 E.014
G1 X172.176 Y142.132 E.01695
G1 X172.722 Y141.186 E.03863
;WIDTH:0.510265
G1 X172.975 Y140.877 E.01441
G1 X173.319 Y140.679 E.01433
;WIDTH:0.555729
G1 X173.494 Y140.635 E.00716
;WIDTH:0.601193
G1 X173.669 Y140.592 E.00779
;WIDTH:0.646656
G1 X173.844 Y140.548 E.00843
G1 X174.074 Y140.64 E.01156
;WIDTH:0.614479
G1 X174.304 Y140.732 E.01094
;WIDTH:0.582302
G1 X185.037 Y146.928 E.51691
G1 X185.27 Y147.226 E.0158
;WIDTH:0.541151
G1 X185.504 Y147.525 E.0146
;WIDTH:0.499999
G1 X185.573 Y148.133 E.02165
G1 X185.434 Y148.525 E.01468
G1 X184.888 Y149.471 E.03863
G1 X184.639 Y149.77 E.01372
G1 X184.325 Y149.96 E.01301
G1 X184.172 Y149.993 E.00552
G1 E-.5
G1 X187.837 Y147.207 F36000
G1 X188.947 Y145.283
G1 X173.877 Y136.582
G1 X146.164 Y136.582
G1 X145.882 Y136.745
G1 X146.05 Y137.035
G1 E.5 F1800
;TYPE:Outer wall
G1 F3000
G1 X146.224 Y137.013 E.00622
G1 X146.278 Y137.035 E.00207
G1 X160.021 Y144.969 E.56087
G1 X173.763 Y137.035 E.56087
G1 X173.937 Y137.013 E.00622
G1 X188.291 Y145.291 E.58568
G1 X188.398 Y145.432 E.00625
G1 X188.375 Y145.604 E.00611
G1 X187.828 Y146.55 E.03863
G1 X187.69 Y146.656 E.00617
G1 X187.516 Y146.634 E.0062
G1 X173.877 Y138.759 E.55666
G1 X160.796 Y146.312 E.5339
G1 X160.796 Y162.183 E.56097
G1 X160.726 Y162.344 E.0062
G1 X146.278 Y170.693 E.58982
G1 X146.112 Y170.718 E.00593
G1 X131.647 Y162.378 E.59018
G1 X131.539 Y162.233 E.00638
G1 X131.533 Y162.18 E.0019
G1 X131.533 Y145.549 E.58784
G1 X131.596 Y145.39 E.00603
G1 X146.043 Y137.039 E.5898
G1 X145.905 Y136.611 F36000
;TYPE:Inner wall
G1 F3000
G1 X146.073 Y136.554 E.00625
G1 X146.345 Y136.572 E.00963
G1 X146.507 Y136.64 E.00622
G1 X160.021 Y144.442 E.55154
G1 X173.534 Y136.64 E.55154
G1 X173.785 Y136.554 E.00939
G1 X174.057 Y136.572 E.00963
G1 X174.22 Y136.64 E.00622
G1 X188.52 Y144.896 E.58363
G1 X188.731 Y145.086 E.01007
G1 X188.85 Y145.359 E.01052
G1 X188.837 Y145.673 E.01111
G1 X188.224 Y146.779 E.04468
G1 X188.009 Y147.007 E.0111
G1 X187.712 Y147.117 E.01117
G1 X187.423 Y147.089 E.01026
G1 X186.421 Y146.53 E.04057
G1 X173.877 Y139.287 E.51199
G1 X161.253 Y146.576 E.51525
G1 X161.253 Y162.18 E.55154
M73 P4 R22
G1 X161.183 Y162.482 E.01095
G1 X161.045 Y162.671 E.00829
G1 X160.205 Y163.181 E.03472
G1 X146.507 Y171.089 E.55907
G1 X146.217 Y171.179 E.01074
G1 X145.911 Y171.133 E.01093
G1 X145.821 Y171.089 E.00352
G1 X131.418 Y162.774 E.58784
G1 X131.195 Y162.566 E.01078
G1 X131.082 Y162.274 E.01108
G1 X131.076 Y162.18 E.00332
G1 X131.076 Y145.549 E.58784
G1 X131.141 Y145.256 E.01061
G1 X131.337 Y145.011 E.01109
G1 X131.418 Y144.955 E.00349
G1 X145.821 Y136.64 E.58784
G1 X145.898 Y136.613 E.00286
G1 X145.748 Y136.187 F36000
G1 F3000
G1 X145.967 Y136.108 E.00821
G1 X146.362 Y136.108 E.01396
G1 X146.735 Y136.244 E.01406
G1 X160.021 Y143.914 E.54221
G1 X173.306 Y136.244 E.54221
G1 X173.679 Y136.108 E.01406
G1 X174.074 Y136.108 E.01396
G1 X174.448 Y136.244 E.01406
G1 X188.748 Y144.5 E.58363
G1 X189.055 Y144.759 E.01421
G1 X189.25 Y145.098 E.01381
G1 X189.319 Y145.477 E.01365
G1 X189.26 Y145.854 E.01346
G1 X188.62 Y147.007 E.04663
G1 X188.37 Y147.306 E.01377
G1 X188.013 Y147.513 E.0146
G1 X187.767 Y147.57 E.00892
G1 X187.285 Y147.525 E.0171
G1 X186.193 Y146.925 E.04405
;WIDTH:0.541151
G1 X185.75 Y146.693 E.01928
;WIDTH:0.582302
G1 X185.306 Y146.461 E.02087
G1 X174.574 Y140.265 E.51691
;WIDTH:0.614479
G1 X174.301 Y140.126 E.01354
;WIDTH:0.646656
G3 X173.877 Y139.899 I1.937 J-4.142 E.02244
G1 X173.625 Y140.019 E.013
;WIDTH:0.601193
G1 X173.373 Y140.138 E.01202
;WIDTH:0.555729
G1 X173.122 Y140.257 E.01105
;WIDTH:0.510265
G1 X172.276 Y140.739 E.03518
;WIDTH:0.499999
G1 X161.71 Y146.84 E.43125
G1 X161.71 Y162.18 E.54221
G1 X161.645 Y162.559 E.01359
G1 X161.477 Y162.871 E.01253
G1 X161.364 Y162.999 E.00604
G1 X161.138 Y163.169 E.00998
G1 X146.735 Y171.485 E.58784
G1 X146.362 Y171.621 E.01406
G1 X145.967 Y171.621 E.01396
G1 X145.593 Y171.485 E.01406
G1 X131.19 Y163.169 E.58784
G1 X130.917 Y162.95 E.01239
G1 X130.712 Y162.631 E.01339
G1 X130.619 Y162.18 E.01629
G1 X130.619 Y145.549 E.58784
G1 X130.688 Y145.157 E.01407
G1 X130.887 Y144.813 E.01404
G1 X131.19 Y144.559 E.01397
G1 X145.593 Y136.244 E.58784
G1 X145.741 Y136.19 E.00557
G1 E-.5
G1 X173.877 Y136.582 F36000
G1 X188.947 Y145.283
G1 X187.837 Y147.207
G1 X184.312 Y150.429
G1 E.5 F1800
G1 F3000
G1 X184.175 Y150.476 E.00512
G1 X183.719 Y150.49 E.01611
G1 X183.266 Y150.369 E.01657
G1 X172.366 Y144.089 E.44466
G1 X171.984 Y143.782 E.01729
G1 X171.78 Y143.503 E.01223
G1 X171.615 Y143.095 E.01557
G1 X171.574 Y142.542 E.01959
G1 X171.78 Y141.904 E.02373
G1 X172.084 Y141.378 E.02145
G1 X162.167 Y147.103 E.40475
G1 X162.167 Y162.18 E.53289
G1 X162.103 Y162.626 E.01594
G1 X161.903 Y163.06 E.0169
G1 X161.636 Y163.37 E.01447
G1 X161.367 Y163.565 E.01173
G1 X146.964 Y171.881 E.58784
G1 X146.527 Y172.053 E.01662
G1 X146.042 Y172.09 E.01719
G1 X145.573 Y171.982 E.01699
G1 X145.364 Y171.881 E.00821
G1 X130.961 Y163.565 E.58784
G1 X130.579 Y163.258 E.01734
G1 X130.333 Y162.901 E.01529
G1 X130.186 Y162.456 E.01658
G1 X130.161 Y162.18 E.0098
G1 X130.161 Y145.549 E.58784
G1 X130.239 Y145.057 E.0176
G1 X130.415 Y144.684 E.01457
G1 X130.685 Y144.365 E.01479
G1 X130.961 Y144.163 E.01208
G1 X145.364 Y135.848 E.58784
G1 X145.743 Y135.69 E.01451
G1 X146.164 Y135.634 E.01502
G1 X146.585 Y135.69 E.01502
G1 X146.964 Y135.848 E.01451
G1 X160.021 Y143.386 E.53289
G1 X173.077 Y135.848 E.53289
G1 X173.456 Y135.69 E.01451
G1 X173.877 Y135.634 E.01502
G1 X174.298 Y135.69 E.01502
G1 X174.677 Y135.848 E.01451
G1 X188.977 Y144.104 E.58363
G1 X189.336 Y144.387 E.01615
G1 X189.578 Y144.718 E.01453
G1 X189.726 Y145.09 E.01412
G1 X189.775 Y145.566 E.01693
G1 X189.693 Y145.999 E.01557
G3 X189.016 Y147.236 I-11.261 J-5.365 E.04986
G1 X188.715 Y147.612 E.01702
G1 X188.307 Y147.885 E.01735
G1 X187.916 Y148.01 E.0145
G1 X187.379 Y148.016 E.01901
G3 X186.83 Y147.821 I.252 J-1.58 E.02067
G1 X185.835 Y147.246 E.04064
G1 X185.928 Y147.353 E.00501
G1 X186.025 Y148.205 E.03031
G3 X185.83 Y148.753 I-1.58 J-.252 E.02067
G1 X185.284 Y149.7 E.03863
G1 X184.984 Y150.074 E.01695
G1 X184.634 Y150.321 E.01514
G1 X184.319 Y150.427 E.01173
G1 E-.5
G1 X206.219 Y129.081 F36000
G1 E.5 F1800
;TYPE:Bottom surface
;WIDTH:0.500573
G1 F6300
G1 X204.213 Y127.075 E.10041
G1 X203.566 Y127.075 E.0229
G1 X206.541 Y130.05 E.14892
G1 X207.425 Y131.582 E.06258
G1 X202.918 Y127.075 E.22557
G1 X202.271 Y127.075 E.0229
G1 X208.309 Y133.113 E.30221
G1 X209.194 Y134.644 E.06258
G1 X201.624 Y127.075 E.37885
G1 X200.977 Y127.075 E.0229
G1 X210.078 Y136.176 E.45549
G1 X210.962 Y137.707 E.06258
G1 X200.33 Y127.075 E.53213
G1 X199.682 Y127.075 E.0229
G1 X211.846 Y139.238 E.60877
G1 X212.73 Y140.77 E.06258
