; HEADER_BLOCK_START
; generated by OrcaSlicer 1.7.0-beta on 2023-10-02 at 21:21:24
; total layer number: 95
; HEADER_BLOCK_END

; THUMBNAIL_BLOCK_START
; THUMBNAIL_BLOCK_END

; external perimeters extrusion width = 0.40mm
; perimeters extrusion width = 0.46mm
; infill extrusion width = 0.64mm
; solid infill extrusion width = 0.56mm
; top infill extrusion width = 0.40mm
; first layer extrusion width = 0.50mm

; external perimeters extrusion width = 0.40mm
; perimeters extrusion width = 0.46mm
; infill extrusion width = 0.64mm
; solid infill extrusion width = 0.56mm
; top infill extrusion width = 0.40mm
; first layer extrusion width = 0.50mm

; external perimeters extrusion width = 0.40mm
; perimeters extrusion width = 0.46mm
; infill extrusion width = 0.64mm
; solid infill extrusion width = 0.56mm
; top infill extrusion width = 0.40mm
; first layer extrusion width = 0.50mm

; EXECUTABLE_BLOCK_START
EXCLUDE_OBJECT_DEFINE NAME=V6_Plenum_Lid.stl_id_0_copy_0 CENTER=174.275,184.564 POLYGON=[[114.032,178.987],[127.207,156.167],[127.28,156.054],[127.34,155.977],[127.38,155.932],[127.493,155.822],[127.505,155.812],[127.619,155.726],[127.695,155.679],[127.755,155.646],[127.9,155.583],[127.906,155.58],[128.05,155.537],[128.131,155.52],[128.205,155.509],[128.363,155.5],[220.227,155.5],[220.385,155.509],[220.459,155.52],[220.54,155.537],[220.684,155.58],[220.691,155.583],[220.835,155.646],[220.895,155.679],[220.971,155.727],[221.085,155.812],[221.097,155.822],[221.21,155.931],[221.25,155.977],[221.31,156.054],[221.383,156.167],[234.518,178.918],[234.518,210.963],[234.495,211.26],[234.492,211.276],[234.425,211.55],[234.415,211.58],[234.311,211.826],[234.289,211.867],[234.155,212.08],[234.118,212.13],[233.961,212.306],[233.905,212.361],[233.77,212.474],[233.735,212.5],[233.624,212.575],[233.481,212.656],[233.47,212.661],[233.309,212.733],[233.205,212.77],[233.141,212.789],[232.969,212.83],[232.915,212.84],[232.794,212.855],[219.917,213.628],[116.631,213.628],[114.926,212.575],[114.815,212.5],[114.78,212.474],[114.645,212.361],[114.589,212.306],[114.432,212.13],[114.395,212.08],[114.261,211.867],[114.239,211.826],[114.135,211.58],[114.125,211.55],[114.058,211.276],[114.055,211.26],[114.032,210.963],[114.032,178.987]]
EXCLUDE_OBJECT_DEFINE NAME=V6_Plenum_Lid.stl_id_1_copy_0 CENTER=174.275,121.436 POLYGON=[[114.032,115.971],[127.207,93.6072],[127.28,93.4965],[127.34,93.4205],[127.38,93.3764],[127.493,93.2688],[127.505,93.2593],[127.619,93.1751],[127.695,93.1286],[127.755,93.0967],[127.9,93.0345],[127.906,93.0322],[128.05,92.9896],[128.131,92.9732],[128.205,92.9625],[128.363,92.9534],[220.227,92.9534],[220.385,92.9625],[220.459,92.9732],[220.54,92.9897],[220.684,93.0322],[220.691,93.0348],[220.835,93.0969],[220.895,93.1286],[220.971,93.1754],[221.085,93.2593],[221.097,93.2689],[221.21,93.3762],[221.25,93.4205],[221.31,93.4961],[221.383,93.6072],[234.518,115.903],[234.518,147.307],[234.495,147.598],[234.492,147.613],[234.425,147.882],[234.415,147.911],[234.311,148.152],[234.289,148.193],[234.155,148.401],[234.118,148.45],[233.961,148.624],[233.905,148.677],[233.77,148.788],[233.735,148.813],[233.624,148.886],[233.481,148.966],[233.47,148.971],[233.309,149.042],[233.205,149.078],[233.141,149.097],[232.969,149.137],[232.915,149.146],[232.794,149.161],[219.917,149.919],[116.631,149.919],[114.926,148.886],[114.815,148.813],[114.78,148.788],[114.645,148.677],[114.589,148.624],[114.432,148.45],[114.395,148.401],[114.261,148.193],[114.239,148.152],[114.135,147.911],[114.125,147.882],[114.058,147.613],[114.055,147.598],[114.032,147.307],[114.032,115.971]]
EXCLUDE_OBJECT_DEFINE NAME=a__Magprobe_Dock_x1_Rev1_Edited.stl_id_2_copy_0 CENTER=97.257,147.696 POLYGON=[[85.482,140.328],[85.4909,139.907],[85.5174,139.488],[85.5615,139.07],[85.9891,135.698],[86.4564,132.012],[86.513,131.566],[86.6896,130.174],[86.69,130.17],[86.6984,130.116],[86.7055,130.081],[86.715,130.042],[86.7193,130.026],[86.7435,129.951],[86.7485,129.938],[86.7567,129.917],[86.7856,129.853],[86.7987,129.828],[86.8143,129.799],[86.8305,129.772],[86.87,129.713],[86.8826,129.695],[86.8868,129.69],[86.9416,129.624],[86.9562,129.608],[86.9731,129.591],[87.007,129.558],[87.0556,129.517],[87.0716,129.504],[87.0781,129.499],[87.1544,129.447],[87.1666,129.439],[87.1805,129.431],[87.2353,129.402],[87.2869,129.378],[87.2982,129.373],[87.3199,129.364],[87.4077,129.335],[87.4146,129.333],[87.4224,129.331],[87.4978,129.313],[87.5471,129.305],[87.5511,129.305],[87.5895,129.301],[87.6821,129.296],[107.032,129.296],[107.197,129.303],[107.209,129.304],[107.217,129.305],[107.221,129.305],[107.384,129.328],[107.4,129.33],[107.407,129.332],[107.579,129.373],[107.59,129.376],[107.755,129.431],[107.768,129.436],[107.923,129.506],[107.937,129.513],[108.085,129.596],[108.098,129.604],[108.237,129.7],[108.248,129.708],[108.379,129.818],[108.385,129.824],[108.446,129.882],[108.51,129.949],[108.548,129.992],[108.628,130.091],[108.651,130.122],[108.733,130.243],[108.745,130.265],[108.822,130.405],[108.829,130.418],[108.897,130.574],[108.9,130.581],[108.956,130.749],[108.957,130.752],[108.998,130.929],[108.998,130.93],[109.024,131.112],[109.024,131.112],[109.032,131.296],[109.032,164.096],[109.032,164.106],[109.024,164.281],[109.023,164.29],[108.998,164.464],[108.997,164.471],[108.956,164.644],[108.955,164.647],[108.898,164.816],[108.897,164.819],[108.828,164.976],[108.822,164.988],[108.822,164.988],[108.746,165.126],[108.733,165.149],[108.654,165.266],[108.628,165.301],[108.554,165.394],[108.51,165.444],[108.446,165.51],[108.379,165.574],[108.379,165.574],[108.318,165.628],[108.237,165.692],[108.179,165.735],[108.085,165.797],[108.085,165.797],[108.029,165.83],[107.924,165.887],[107.923,165.887],[107.868,165.913],[107.755,165.961],[107.698,165.982],[107.579,166.02],[107.52,166.036],[107.4,166.062],[107.399,166.062],[107.338,166.073],[107.319,166.075],[107.217,166.088],[107.151,166.093],[107.143,166.093],[107.136,166.093],[107.032,166.096],[87.6821,166.096],[87.5895,166.092],[87.5511,166.088],[87.5471,166.087],[87.4978,166.079],[87.4224,166.062],[87.4146,166.06],[87.4077,166.058],[87.3199,166.028],[87.2982,166.02],[87.2869,166.015],[87.2353,165.991],[87.1805,165.961],[87.1666,165.953],[87.1544,165.946],[87.0781,165.893],[87.0716,165.888],[87.0556,165.876],[87.007,165.834],[86.9731,165.802],[86.9562,165.784],[86.9416,165.768],[86.8868,165.703],[86.8826,165.697],[86.87,165.68],[86.8305,165.62],[86.8143,165.593],[86.7987,165.565],[86.7856,165.539],[86.7567,165.475],[86.7485,165.455],[86.7435,165.441],[86.7193,165.367],[86.715,165.351],[86.7055,165.311],[86.6984,165.277],[86.69,165.222],[86.6896,165.219],[86.6683,165.051],[86.1232,160.752],[85.5615,156.323],[85.5174,155.905],[85.4909,155.485],[85.482,155.065],[85.482,140.328]]
M73 P0 R66
;TYPE:Custom
START_PRINT T_BED=110 T_EXTRUDER=260
G90
G21
M83 ; use relative distances for extrusion
; Filament gcode
PRESSURE_ADVANCE_SELECT FILAMENT=ASA
M106 S0
;LAYER_CHANGE
;Z:0.2
;HEIGHT:0.2
;BEFORE_LAYER_CHANGE
;0.2
G92 E0

;_SET_FAN_SPEED_CHANGING_LAYER
SET_VELOCITY_LIMIT ACCEL=2000 ACCEL_TO_DECEL=1000
G1 E-.5 F3000
G1 X100.052 Y114.773 F36000
G1 Z.2
G1 E.5 F1800
;TYPE:Skirt
;WIDTH:0.5
G1 F3000
G1 X126.331 Y91.865 E1.23223
G1 X127.085 Y91.381 E.03167
G1 X127.596 Y91.198 E.01917
G1 X128.404 Y91.092 E.02881
G1 X220.149 Y91.092 E3.2428
G1 X220.954 Y91.198 E.02869
G1 X221.915 Y91.633 E.0373
G1 X222.363 Y91.999 E.02045
G1 X222.873 Y92.649 E.0292
G1 X236.995 Y116.621 E.98341
G1 X237.314 Y117.371 E.02881
G1 X237.416 Y117.914 E.01951
G1 X237.432 Y210.963 E3.28891
G1 X237.328 Y211.942 E.03481
G1 X237.116 Y212.668 E.02673
G1 X236.795 Y213.35 E.02663
G1 X236.181 Y214.194 E.03689
G1 X235.628 Y214.715 E.02687
G1 X234.593 Y215.349 E.04291
G1 X233.584 Y215.675 E.03747
G1 X232.618 Y215.777 E.03434
G1 X115.932 Y215.777 E4.12437
G1 X114.953 Y215.673 E.03482
G1 X114.228 Y215.461 E.02668
G1 X113.539 Y215.136 E.02694
G1 X112.698 Y214.524 E.03674
G1 X112.183 Y213.977 E.02659
G1 X111.725 Y213.3 E.02888
G1 X84.56 Y166.917 E1.89992
G1 X84.242 Y166.2 E.02774
G1 X84.097 Y165.551 E.02349
G1 X82.882 Y155.656 E.35237
G1 X82.869 Y140.267 E.54395
G1 X82.968 Y138.741 E.05404
G1 X84.097 Y129.842 E.31707
G1 X84.41 Y128.764 E.03965
G1 X84.929 Y127.957 E.03394
G1 X100.022 Y114.799 E.70773
G1 X100.315 Y115.136 F36000
G1 F3000
G1 X126.631 Y92.209 E1.23364
G1 X127.273 Y91.798 E.02694
G1 X127.71 Y91.64 E.01642
G1 X128.404 Y91.549 E.02476
G1 X220.149 Y91.549 E3.2428
G1 X220.84 Y91.64 E.02464
G1 X221.657 Y92.011 E.0317
G1 X222.045 Y92.327 E.01771
G1 X222.479 Y92.881 E.02487
G1 X236.601 Y116.853 E.98341
G1 X236.873 Y117.492 E.02453
G1 X236.961 Y117.955 E.01667
G1 X236.975 Y210.963 E3.28744
G1 X236.883 Y211.835 E.031
G1 X236.694 Y212.493 E.02419
G1 X236.405 Y213.111 E.0241
G1 X235.833 Y213.898 E.03441
G1 X235.331 Y214.368 E.02428
G1 X234.418 Y214.927 E.03784
G1 X233.478 Y215.231 E.03491
G1 X232.618 Y215.32 E.03058
G1 X115.932 Y215.32 E4.12437
M73 P0 R65
G1 X115.059 Y215.228 E.03102
G1 X114.404 Y215.039 E.02412
G1 X113.778 Y214.746 E.02442
G1 X112.995 Y214.177 E.03422
G1 X112.53 Y213.68 E.02407
G1 X112.12 Y213.069 E.02601
G1 X84.954 Y166.686 E1.89992
G1 X84.675 Y166.054 E.0244
G1 X84.55 Y165.493 E.02032
G1 X83.338 Y155.627 E.35135
G1 X83.326 Y140.276 E.5426
G1 X83.422 Y138.798 E.05234
G1 X84.55 Y129.899 E.31707
G1 X84.821 Y128.963 E.03445
G1 X85.334 Y128.188 E.03284
G1 X100.285 Y115.162 E.70089
; printing object [a]_Magprobe_Dock_x1_Rev1 Edited.stl id:2 copy 0
G1 E-.5
EXCLUDE_OBJECT_START NAME=a__Magprobe_Dock_x1_Rev1_Edited.stl_id_2_copy_0
G1 X87.441 Y165.342 F36000
G1 E.5 F1800
;TYPE:Outer wall
;WIDTH:0.499999
G1 F3000
G1 X87.333 Y165.129 E.00843
G1 X86.237 Y156.482 E.30808
G3 X86.132 Y155.061 I15.205 J-1.836 E.05037
G1 X86.132 Y140.334 E.52055
G3 X86.207 Y139.148 I14.879 J.342 E.04201
G1 X87.323 Y130.346 E.31359
G1 X87.411 Y130.089 E.00963
G3 X87.708 Y129.946 I.292 J.228 E.01208
G1 X93.155 Y129.942 E.19251
;WIDTH:0.541308
G2 X94.644 Y129.849 I-.132 J-14.079 E.05753
;WIDTH:0.504806
G1 X95.324 Y129.861 E.0243
;WIDTH:0.510715
G2 X96.581 Y129.921 I1.732 J-22.828 E.04551
;WIDTH:0.499999
G1 X97.109 Y129.944 E.01867
G2 X103.153 Y129.939 I2.545 J-567.384 E.21364
;WIDTH:0.514337
G2 X104.574 Y129.85 I-.118 J-13.264 E.05191
;WIDTH:0.506461
G1 X105.542 Y129.851 E.03472
;WIDTH:0.502673
G1 X106.527 Y129.93 E.03513
;WIDTH:0.499999
G1 X107.102 Y129.949 E.02034
G3 X108.107 Y130.484 I-.198 J1.584 E.04114
G1 X108.305 Y130.877 E.01555
G1 X108.384 Y131.381 E.01804
;WIDTH:0.545276
G2 X108.451 Y132.506 I5.017 J.267 E.04385
;WIDTH:0.502723
G1 X108.489 Y133.271 E.02725
;WIDTH:0.50287
G1 X108.48 Y133.774 E.01787
;WIDTH:0.515396
G2 X108.395 Y134.787 I12.105 J1.525 E.03718
;WIDTH:0.507675
G1 X108.379 Y135.366 E.0208
;WIDTH:0.499999
G3 X107.579 Y136.52 I-1.394 J-.113 E.052
G1 X107.102 Y136.643 E.01741
;WIDTH:0.504414
G1 X106.515 Y136.661 E.02096
;WIDTH:0.513945
G2 X105.509 Y136.744 I.494 J12.158 E.03675
;WIDTH:0.502905
G1 X104.555 Y136.744 E.03396
;WIDTH:0.508862
G2 X103.539 Y136.663 I-1.634 J14.059 E.0367
;WIDTH:0.499999
G2 X101.015 Y136.647 I-1.962 J109.893 E.08924
G2 X96.524 Y140.177 I.026 J4.654 E.21738
G2 X96.382 Y141.294 I4.227 J1.104 E.03992
G1 X96.382 Y153.397 E.42777
G2 X96.545 Y155.314 I7.278 J.348 E.06822
G2 X99.831 Y158.588 I4.534 J-1.265 E.17144
G2 X101.03 Y158.746 I1.206 J-4.513 E.04289
G1 X103.039 Y158.744 E.07098
;WIDTH:0.517491
G2 X104.056 Y158.701 I.167 J-8.117 E.03738
;WIDTH:0.514406
G1 X104.555 Y158.651 E.01828
;WIDTH:0.506392
G1 X105.51 Y158.649 E.03423
;WIDTH:0.511427
G2 X106.523 Y158.73 I1.49 J-12.317 E.03685
;WIDTH:0.499999
G1 X107.102 Y158.749 E.02047
G3 X108.038 Y159.215 I-.116 J1.407 E.03787
G1 X108.289 Y159.61 E.01652
G1 X108.38 Y160.056 E.01612
;WIDTH:0.528087
G2 X108.428 Y161.12 I7.068 J.214 E.03997
;WIDTH:0.514275
G1 X108.479 Y161.618 E.01828
;WIDTH:0.50234
G1 X108.489 Y162.071 E.01609
;WIDTH:0.50287
G1 X108.48 Y162.573 E.01787
;WIDTH:0.515395
G2 X108.395 Y163.587 I12.107 J1.525 E.03718
;WIDTH:0.507676
G1 X108.379 Y164.166 E.0208
;WIDTH:0.499999
G3 X107.896 Y165.119 I-1.539 J-.18 E.03856
G1 X107.519 Y165.353 E.0157
G1 X107.052 Y165.445 E.0168
G1 X106.446 Y165.469 E.02145
;WIDTH:0.507206
G3 X105.129 Y165.553 I-2.735 J-32.614 E.04737
;WIDTH:0.500832
G1 X104.552 Y165.545 E.02044
;WIDTH:0.523292
G2 X103.35 Y165.461 I-1.234 J9.022 E.04477
;WIDTH:0.499999
G2 X97.099 Y165.449 I-4.483 J676.398 E.22097
G1 X96.436 Y165.477 E.02345
;WIDTH:0.501906
G2 X95.112 Y165.553 I1.347 J35.017 E.04707
;WIDTH:0.496146
G1 X94.598 Y165.545 E.01803
;WIDTH:0.51513
G2 X93.226 Y165.458 I-1.312 J9.86 E.05021
;WIDTH:0.499999
G1 X87.75 Y165.446 E.19357
G1 X87.667 Y165.438 E.00294
G1 X87.449 Y165.345 E.00841
G1 E-.5
G1 X87.674 Y165.106 F36000
G1 X95.146 Y164.869
G1 X95.371 Y164.851
G1 X95.605 Y164.812
G1 X95.828 Y164.755
G1 X96.028 Y164.686
G1 X96.236 Y164.597
G1 X97.082 Y164.209
G1 X97.313 Y164.087
G1 X101.625 Y161.486
G1 X101.691 Y161.19
G1 X101.777 Y160.92
G1 X101.972 Y160.699
G1 X102.184 Y160.504
G1 X102.408 Y160.328
G1 X102.628 Y160.179
G1 X102.855 Y160.048
G1 X103.098 Y159.93
G1 X103.931 Y159.549
G1 X104.142 Y159.468
G1 X104.359 Y159.404
G1 X104.581 Y159.358
G1 X104.802 Y159.331
G1 X105.032 Y159.321
G1 X105.258 Y159.33
G1 X105.483 Y159.358
G1 X105.705 Y159.404
G1 X105.938 Y159.473
G1 X107.355 Y160.017
G1 E.5 F1800
G1 F3000
G1 X107.612 Y160.338 E.01451
;WIDTH:0.531771
G1 X107.867 Y160.791 E.01966
G1 X107.989 Y161.315 E.02034
;WIDTH:0.505303
G1 X108.048 Y162.018 E.02522
;WIDTH:0.484513
G1 X108.048 Y162.039 E.00071
;WIDTH:0.50287
G1 X108.02 Y162.557 E.01845
;WIDTH:0.52767
G1 X107.927 Y163.217 E.02501
G1 X107.704 Y163.702 E.01998
;WIDTH:0.499999
G1 X107.4 Y164.134 E.01869
G3 X106.831 Y164.646 I-7.242 J-7.459 E.02706
G1 X106.391 Y164.89 E.0178
;WIDTH:0.510347
G1 X105.909 Y165.041 E.01826
G1 X105.171 Y165.111 E.02679
;WIDTH:0.497348
G1 X104.65 Y165.096 E.01829
;WIDTH:0.523292
G1 X103.97 Y165.004 E.02551
G1 X103.485 Y164.8 E.01955
;WIDTH:0.499999
G3 X101.913 Y162.281 I1.518 J-2.696 E.10945
G1 X101.953 Y161.571 E.02511
G1 X102.087 Y161.053 E.01894
G1 X102.393 Y160.427 E.02461
G1 X102.742 Y159.971 E.02029
G1 X103.297 Y159.503 E.02568
;WIDTH:0.527005
G1 X103.787 Y159.241 E.02079
G1 X104.301 Y159.133 E.01965
;WIDTH:0.503519
G1 X105.248 Y159.087 E.03377
;WIDTH:0.511171
G1 X105.956 Y159.164 E.02581
G1 X106.463 Y159.335 E.01936
;WIDTH:0.499999
G3 X107.288 Y159.948 I-1.488 J2.862 E.03649
G1 X107.349 Y160.012 E.00313
G1 E-.5
G1 X107.714 Y161.382 F36000
G1 X107.761 Y161.59
G1 X107.789 Y161.782
G1 X107.807 Y162.039
G1 X107.821 Y164.401
G1 E.5 F1800
;TYPE:Inner wall
;WIDTH:0.613504
G1 F3000
G1 X107.671 Y164.573 E.01006
;WIDTH:0.645794
G1 X107.522 Y164.745 E.01063
G1 E-.5
G1 X108.245 Y159.191 F36000
G1 X107.525 Y159.443
G1 E.5 F1800
;WIDTH:0.63515
G1 F3000
G1 X107.724 Y159.652 E.01322
;WIDTH:0.61324
G1 X107.818 Y159.793 E.00747
G1 E-.5
G1 X105.483 Y159.358 F36000
G1 X105.258 Y159.33
G1 X96.161 Y158.824
G1 X95.872 Y158.738
G1 X95.594 Y158.681
G1 X95.314 Y158.646
G1 X95.032 Y158.635
G1 X94.745 Y158.647
G1 X94.469 Y158.681
G1 X94.193 Y158.738
G1 X94.06 Y158.777
G1 X94.157 Y159.106
G1 E.5 F1800
;TYPE:Outer wall
;WIDTH:0.499999
G1 F3000
G1 X94.506 Y159.016 E.01275
G1 X95.259 Y158.981 E.02664
G3 X96.275 Y159.23 I-.215 J3.072 E.03717
G1 X96.853 Y159.566 E.02362
G3 X98.046 Y161.273 I-1.78 J2.515 E.07509
G1 X98.154 Y162.004 E.02613
G1 X98.087 Y162.748 E.0264
G3 X97.398 Y164.136 I-3.383 J-.813 E.05523
G1 X96.873 Y164.616 E.02514
G1 X96.391 Y164.89 E.01963
;WIDTH:0.504777
G1 X95.908 Y165.038 E.01804
G1 X95.17 Y165.11 E.02646
;WIDTH:0.495545
G1 X94.666 Y165.097 E.01766
;WIDTH:0.521194
G1 X93.97 Y165.003 E.02598
G1 X93.485 Y164.8 E.01945
;WIDTH:0.499999
G3 X93.022 Y164.487 I1.358 J-2.512 E.01978
G3 X91.912 Y162.235 I2.119 J-2.444 E.09114
G1 X91.953 Y161.571 E.0235
G3 X92.937 Y159.778 I3.072 J.52 E.07367
G1 X93.538 Y159.353 E.02603
G3 X94.013 Y159.143 I1.487 J2.716 E.01836
G1 X94.149 Y159.108 E.00497
G1 E-.5
G1 X94.052 Y158.779 F36000
G1 X92.707 Y150.474
G1 X92.653 Y150.209
G1 X92.576 Y149.947
G1 X92.467 Y149.677
G1 X92.356 Y149.455
