; HEADER_BLOCK_START
; generated by OrcaSlicer 1.7.0-beta on 2023-10-02 at 16:14:22
; total layer number: 79
; HEADER_BLOCK_END

; THUMBNAIL_BLOCK_START
; THUMBNAIL_BLOCK_END

; external perimeters extrusion width = 0.40mm
; perimeters extrusion width = 0.46mm
; infill extrusion width = 0.64mm
; solid infill extrusion width = 0.56mm
; top infill extrusion width = 0.40mm
; first layer extrusion width = 0.50mm

; external perimeters extrusion width = 0.40mm
; perimeters extrusion width = 0.46mm
; infill extrusion width = 0.64mm
; solid infill extrusion width = 0.56mm
; top infill extrusion width = 0.40mm
; first layer extrusion width = 0.50mm

; EXECUTABLE_BLOCK_START
EXCLUDE_OBJECT_DEFINE NAME=V6_Plenum_Lid.stl_id_0_copy_0 CENTER=160,164.762 POLYGON=[[99.757,159.185],[112.932,136.365],[113.005,136.252],[113.065,136.174],[113.105,136.129],[113.218,136.02],[113.23,136.01],[113.344,135.924],[113.42,135.876],[113.48,135.844],[113.625,135.781],[113.631,135.778],[113.775,135.735],[113.856,135.718],[113.93,135.707],[114.088,135.698],[205.952,135.698],[206.11,135.707],[206.184,135.718],[206.265,135.735],[206.409,135.778],[206.416,135.781],[206.56,135.844],[206.62,135.876],[206.696,135.924],[206.81,136.01],[206.822,136.02],[206.935,136.129],[206.975,136.174],[207.035,136.252],[207.108,136.365],[220.243,159.115],[220.243,191.161],[220.22,191.458],[220.217,191.473],[220.15,191.748],[220.14,191.777],[220.036,192.023],[220.014,192.065],[219.88,192.277],[219.843,192.327],[219.686,192.504],[219.63,192.558],[219.495,192.672],[219.46,192.698],[219.349,192.772],[219.206,192.854],[219.195,192.859],[219.034,192.931],[218.93,192.968],[218.866,192.987],[218.694,193.028],[218.64,193.037],[218.519,193.052],[205.642,193.826],[102.356,193.826],[100.651,192.772],[100.54,192.698],[100.505,192.672],[100.37,192.558],[100.314,192.504],[100.157,192.327],[100.12,192.277],[99.9859,192.065],[99.9641,192.023],[99.8599,191.777],[99.85,191.748],[99.7829,191.473],[99.7804,191.458],[99.757,191.161],[99.757,159.185]]
EXCLUDE_OBJECT_DEFINE NAME=2xJST_Holder_no_cut_fan_wires_.stl_id_1_copy_0 CENTER=156.362,121.436 POLYGON=[[149.642,114.174],[149.647,114.112],[149.661,114.051],[149.685,113.993],[149.718,113.939],[149.759,113.892],[149.807,113.851],[152.44,112.229],[152.46,112.218],[152.472,112.212],[152.478,112.209],[152.504,112.199],[152.518,112.194],[152.537,112.188],[152.541,112.187],[152.57,112.181],[152.573,112.18],[152.579,112.179],[152.604,112.176],[152.606,112.176],[152.607,112.176],[152.609,112.176],[152.611,112.176],[152.638,112.174],[152.638,112.174],[152.642,112.174],[159.733,112.174],[159.736,112.174],[159.737,112.174],[159.766,112.176],[159.768,112.176],[159.771,112.176],[159.772,112.176],[159.795,112.179],[159.804,112.181],[159.807,112.181],[159.838,112.188],[159.842,112.19],[159.856,112.194],[159.871,112.199],[162.951,113.337],[162.983,113.351],[162.995,113.36],[163.011,113.371],[163.036,113.396],[163.049,113.414],[163.056,113.425],[163.071,113.456],[163.08,113.49],[163.083,113.525],[163.083,130.698],[149.842,130.698],[149.814,130.696],[149.807,130.695],[149.803,130.694],[149.773,130.686],[149.765,130.682],[149.742,130.671],[149.731,130.664],[149.713,130.651],[149.7,130.639],[149.689,130.626],[149.687,130.625],[149.676,130.609],[149.669,130.598],[149.665,130.592],[149.657,130.574],[149.654,130.566],[149.65,130.556],[149.646,130.537],[149.645,130.532],[149.643,130.517],[149.642,130.498],[149.642,114.174]]
M73 P0 R30
;TYPE:Custom
START_PRINT T_BED=110 T_EXTRUDER=260
G90
G21
M83 ; use relative distances for extrusion
; Filament gcode
PRESSURE_ADVANCE_SELECT FILAMENT=ASA
M106 S0
;LAYER_CHANGE
;Z:0.2
;HEIGHT:0.2
;BEFORE_LAYER_CHANGE
;0.2
G92 E0

G1 E-.5 F3000
;_SET_FAN_SPEED_CHANGING_LAYER
SET_VELOCITY_LIMIT ACCEL=2000 ACCEL_TO_DECEL=1000
G1 X111.921 Y134.757 F36000
G1 Z.2
G1 E.5 F1800
;TYPE:Skirt
;WIDTH:0.5
G1 F3000
G1 X112.437 Y134.349 E.02328
G1 X151.028 Y109.797 E1.61669
G1 X151.839 Y109.463 E.031
G1 X152.404 Y109.37 E.02023
G1 X159.765 Y109.363 E.26018
G1 X160.838 Y109.557 E.03855
G1 X164.307 Y110.869 E.13108
G1 X207.385 Y134.244 E1.73236
G1 X208.079 Y134.758 E.03051
G1 X208.436 Y135.172 E.01932
G1 X222.733 Y159.901 E1.00965
G1 X223.054 Y160.684 E.02991
G1 X223.157 Y161.483 E.02847
G1 X223.148 Y191.39 E1.05708
G1 X222.983 Y192.43 E.03724
G1 X222.52 Y193.547 E.04274
G1 X221.906 Y194.392 E.03689
G1 X220.984 Y195.181 E.0429
G1 X220.318 Y195.547 E.02688
G1 X219.601 Y195.804 E.0269
G1 X218.343 Y195.975 E.04489
G1 X101.657 Y195.975 E4.12437
G1 X100.392 Y195.802 E.04512
G1 X99.264 Y195.334 E.04319
G1 X98.423 Y194.722 E.03674
G1 X97.638 Y193.804 E.0427
G1 X97.268 Y193.128 E.02723
G1 X97.014 Y192.419 E.02664
G1 X96.843 Y191.161 E.04488
G1 X96.843 Y161.482 E1.04901
G1 X96.949 Y160.673 E.02886
G1 X97.267 Y159.9 E.02952
G1 X111.564 Y135.172 E1.00961
G1 X111.895 Y134.788 E.01793
G1 X112.238 Y135.153 F36000
G1 F3000
G1 X112.683 Y134.734 E.02159
G1 X151.262 Y110.19 E1.61618
G1 X151.95 Y109.906 E.02631
G1 X152.441 Y109.825 E.0176
G1 X159.765 Y109.82 E.25886
G1 X160.68 Y109.985 E.03287
G1 X164.089 Y111.271 E.12877
G1 X207.167 Y134.646 E1.73236
G1 X207.758 Y135.083 E.02596
G1 X208.063 Y135.436 E.01653
G1 X222.337 Y160.129 E1.00813
G1 X222.612 Y160.802 E.0257
G1 X222.7 Y161.483 E.02425
G1 X222.692 Y191.354 E1.05581
G1 X222.539 Y192.323 E.0347
G1 X222.13 Y193.308 E.03769
G1 X221.558 Y194.096 E.03441
G1 X220.745 Y194.791 E.0378
G1 X220.143 Y195.125 E.02433
G1 X219.496 Y195.359 E.02434
G1 X218.343 Y195.518 E.04113
G1 X101.657 Y195.518 E4.12437
G1 X100.499 Y195.358 E.04132
G1 X99.503 Y194.944 E.03812
G1 X98.72 Y194.375 E.03422
G1 X98.027 Y193.565 E.03766
G1 X97.691 Y192.955 E.02461
G1 X97.459 Y192.312 E.02417
G1 X97.3 Y191.161 E.04109
G1 X97.3 Y161.482 E1.04901
G1 X97.39 Y160.793 E.02459
G1 X97.663 Y160.129 E.02536
G1 X111.936 Y135.437 E1.00809
G1 X112.209 Y135.18 E.01323
; printing object V6_Plenum_Lid.stl id:0 copy 0
G1 E-.35
;WIPE_START
G1 X112.683 Y134.734 E-.09763
G1 X112.977 Y134.547 E-.05237
;WIPE_END
EXCLUDE_OBJECT_START NAME=V6_Plenum_Lid.stl_id_0_copy_0
G1 X173.877 Y148.871 F36000
G1 X188.323 Y157.212
G1 X216.801 Y192.158
G1 E.5 F1800
;TYPE:Outer wall
;WIDTH:0.499999
G1 F3000
G1 X216.756 Y192.093 E.0028
G1 X216.484 Y191.918 E.01143
G1 X216.148 Y191.849 E.01211
G1 X210.538 Y191.849 E.19831
G1 X210.275 Y191.892 E.00942
G1 X209.904 Y192.118 E.01535
G1 X209.657 Y192.508 E.01631
G1 X209.597 Y192.711 E.00747
G1 X160.836 Y192.711 E1.72349
M73 P1 R30
G1 X160.836 Y190.173 E.08969
G2 X154.367 Y188.961 I-3.35 J.012 E.3273
G1 X154.167 Y189.726 E.02793
G1 X154.136 Y190.173 E.01586
G1 X154.136 Y192.711 E.08969
G1 X101.68 Y192.711 E1.85411
G1 X101.181 Y192.632 E.01783
G1 X100.747 Y192.411 E.01724
G1 X100.407 Y192.072 E.01697
G1 X100.184 Y191.63 E.01748
G1 X100.107 Y191.138 E.01761
G1 X100.11 Y161.505 E1.04742
G1 X114.189 Y137.125 E.9951
G1 X205.799 Y137.122 E3.23803
G1 X205.817 Y137.129 E.00069
G1 X219.893 Y161.528 E.99562
G1 X219.893 Y191.138 E1.0466
G1 X219.814 Y191.64 E.01796
G1 X219.598 Y192.063 E.0168
G1 X219.253 Y192.411 E.01733
G1 X218.819 Y192.632 E.01722
G1 X218.321 Y192.711 E.01782
G1 X217.082 Y192.708 E.0438
G1 X217.01 Y192.452 E.00936
G1 X216.806 Y192.164 E.01248
G1 X217.055 Y191.76 F36000
;TYPE:Inner wall
G1 F3000
G1 X216.912 Y191.636 E.00669
G1 X216.491 Y191.442 E.01637
G1 X216.148 Y191.392 E.01226
G1 X210.538 Y191.392 E.19831
G1 X210.088 Y191.47 E.01612
G1 X209.649 Y191.739 E.01821
G2 X209.275 Y192.254 I.896 J1.042 E.02267
G1 X161.293 Y192.254 E1.69598
G1 X161.293 Y190.173 E.07353
G2 X153.679 Y190.173 I-3.807 J.011 E.42194
G1 X153.679 Y192.254 E.07353
G1 X101.813 Y192.254 E1.83325
G1 X101.324 Y192.192 E.01741
G1 X101.019 Y192.037 E.01212
G1 X100.782 Y191.8 E.01183
G1 X100.624 Y191.488 E.01234
G1 X100.564 Y191.103 E.0138
G1 X100.567 Y161.627 E1.04184
G1 X114.453 Y137.582 E.98144
G1 X205.549 Y137.579 E3.21988
G1 X219.436 Y161.632 E.98169
G1 X219.436 Y190.924 E1.03533
G1 X219.373 Y191.497 E.02039
G1 X219.223 Y191.792 E.01171
G1 X218.98 Y192.037 E.0122
G1 X218.676 Y192.192 E.01206
G1 X218.286 Y192.253 E.01398
G1 X217.411 Y192.251 E.0309
G1 X217.119 Y191.815 E.01856
G1 X217.061 Y191.765 E.0027
G1 X217.354 Y191.426 F36000
G1 F3000
G1 X217.138 Y191.238 E.01012
G1 X216.571 Y190.992 E.02181
G1 X216.148 Y190.935 E.0151
G1 X210.538 Y190.935 E.19831
G1 X210.432 Y190.94 E.00373
G1 X209.877 Y191.062 E.02011
G1 X209.394 Y191.36 E.02005
G1 X209.008 Y191.796 E.02059
G1 X161.75 Y191.796 E1.67037
G1 X161.75 Y190.173 E.05738
G2 X153.222 Y190.173 I-4.264 J.015 E.47244
G1 X153.222 Y191.796 E.05738
G1 X101.813 Y191.796 E1.8171
G3 X101.291 Y191.662 I.005 J-1.103 E.01926
G1 X101.114 Y191.444 E.00992
G1 X101.021 Y191.067 E.01371
G1 X101.024 Y161.75 E1.03625
G1 X114.716 Y138.039 E.96779
M73 P2 R30
G1 X205.285 Y138.036 E3.20122
G1 X218.979 Y161.755 E.96803
M73 P2 R29
G1 X218.979 Y190.165 E1.00418
G1 X218.949 Y191.255 E.03853
G1 X218.848 Y191.521 E.01007
G1 X218.62 Y191.708 E.01042
G1 X218.25 Y191.796 E.01344
G1 X217.679 Y191.795 E.02021
G1 X217.481 Y191.537 E.01147
G1 X217.36 Y191.431 E.0057
G1 X217.639 Y191.068 F36000
G1 F3000
G1 X217.363 Y190.84 E.01267
G1 X217.16 Y190.725 E.00825
G1 X216.652 Y190.542 E.01909
G1 X216.148 Y190.478 E.01794
G1 X210.538 Y190.478 E.19831
G1 X210.034 Y190.542 E.01794
G1 X209.586 Y190.693 E.01673
G1 X209.138 Y190.98 E.01878
G1 X208.807 Y191.339 E.01726
G1 X162.207 Y191.339 E1.64712
G2 X162.204 Y190.069 I-19.499 J-.583 E.04491
G2 X152.765 Y190.173 I-4.719 J.119 E.51944
G1 X152.765 Y191.339 E.04122
G1 X101.787 Y191.339 E1.80186
G1 X101.547 Y191.272 E.00879
G1 X101.478 Y191.032 E.00885
G1 X101.481 Y161.872 E1.03067
G1 X114.98 Y138.496 E.95413
G1 X205.021 Y138.494 E3.18257
G1 X218.522 Y161.877 E.95438
G1 X218.522 Y190.165 E.99985
G1 X218.493 Y191.212 E.03701
G1 X218.391 Y191.312 E.00505
G1 X217.905 Y191.338 E.01721
G1 X217.791 Y191.193 E.00652
G1 X217.646 Y191.074 E.00665
G1 E-.5
G1 X183.952 Y160.884 F36000
G1 E.5 F1800
;TYPE:Outer wall
G1 F3000
G1 X183.784 Y160.859 E.00599
G1 X172.997 Y154.619 E.44048
G1 X172.938 Y154.442 E.0066
G1 X172.968 Y154.351 E.00339
G1 X173.514 Y153.404 E.03863
G1 X173.634 Y153.304 E.00552
G1 X173.826 Y153.321 E.00683
G1 X184.559 Y159.517 E.43804
G1 X184.657 Y159.629 E.00526
G1 X184.643 Y159.829 E.00709
G1 X184.096 Y160.776 E.03863
G1 X183.958 Y160.879 E.00609
G1 X184.078 Y161.311 F36000
;TYPE:Inner wall
G1 F3000
G1 X184.017 Y161.337 E.00235
G1 X183.722 Y161.324 E.01044
G1 X183.391 Y161.16 E.01305
G1 X172.823 Y155.059 E.43131
G1 X172.659 Y154.928 E.00741
G1 X172.501 Y154.633 E.01182
G1 X172.483 Y154.396 E.0084
G1 X172.572 Y154.122 E.01017
G1 X173.118 Y153.176 E.03863
G1 X173.369 Y152.925 E.01254
G1 X173.477 Y152.875 E.0042
G1 X173.787 Y152.837 E.01102
G1 X174.055 Y152.925 E.00998
G1 X184.787 Y159.121 E.43804
G1 X185.08 Y159.458 E.01577
G1 X185.122 Y159.823 E.01299
G1 X185.038 Y160.058 E.00881
G1 X184.492 Y161.004 E.03863
G1 X184.295 Y161.221 E.01036
G1 X184.085 Y161.308 E.00801
G1 X184.164 Y161.756 F36000
G1 F3000
G1 X183.941 Y161.803 E.00806
G1 X183.55 Y161.75 E.01395
G1 X183.162 Y161.556 E.01533
G1 X172.594 Y155.455 E.43131
G1 X172.322 Y155.236 E.01235
G3 X172.058 Y154.745 I.844 J-.771 E.0199
G1 X172.029 Y154.35 E.014
G1 X172.176 Y153.894 E.01695
G1 X172.722 Y152.947 E.03863
;WIDTH:0.510265
G1 X172.975 Y152.639 E.01441
G1 X173.319 Y152.44 E.01433
;WIDTH:0.555729
G1 X173.494 Y152.397 E.00716
;WIDTH:0.601193
G1 X173.669 Y152.353 E.00779
;WIDTH:0.646656
G1 X173.844 Y152.31 E.00843
G1 X174.074 Y152.402 E.01156
;WIDTH:0.614479
G1 X174.304 Y152.493 E.01094
;WIDTH:0.582302
G1 X185.037 Y158.69 E.51691
G1 X185.27 Y158.988 E.0158
;WIDTH:0.541151
G1 X185.504 Y159.286 E.0146
;WIDTH:0.499999
G1 X185.573 Y159.895 E.02165
G1 X185.434 Y160.286 E.01468
G1 X184.888 Y161.233 E.03863
G1 X184.639 Y161.531 E.01372
G1 X184.325 Y161.722 E.01301
G1 X184.172 Y161.754 E.00552
G1 E-.5
G1 X187.837 Y158.968 F36000
G1 X188.947 Y157.044
G1 X173.877 Y148.343
G1 X146.164 Y148.343
G1 X145.882 Y148.506
G1 X146.05 Y148.797
G1 E.5 F1800
;TYPE:Outer wall
G1 F3000
G1 X146.224 Y148.775 E.00622
G1 X146.278 Y148.797 E.00207
G1 X160.021 Y156.731 E.56087
G1 X173.763 Y148.797 E.56087
G1 X173.937 Y148.775 E.00622
G1 X188.291 Y157.053 E.58568
G1 X188.398 Y157.194 E.00625
G1 X188.375 Y157.365 E.00611
G1 X187.828 Y158.312 E.03863
G1 X187.69 Y158.418 E.00617
G1 X187.516 Y158.395 E.0062
G1 X173.877 Y150.521 E.55666
G1 X160.796 Y158.073 E.5339
G1 X160.796 Y173.944 E.56097
G1 X160.726 Y174.105 E.0062
G1 X146.278 Y182.455 E.58982
G1 X146.112 Y182.48 E.00593
G1 X131.647 Y174.139 E.59018
G1 X131.539 Y173.995 E.00638
G1 X131.533 Y173.941 E.0019
G1 X131.533 Y157.31 E.58784
G1 X131.596 Y157.152 E.00603
G1 X146.043 Y148.801 E.5898
M73 P3 R29
G1 X145.905 Y148.373 F36000
;TYPE:Inner wall
G1 F3000
G1 X146.073 Y148.316 E.00625
G1 X146.345 Y148.334 E.00963
G1 X146.507 Y148.401 E.00622
G1 X160.021 Y156.203 E.55154
G1 X173.534 Y148.401 E.55154
G1 X173.785 Y148.316 E.00939
G1 X174.057 Y148.334 E.00963
G1 X174.22 Y148.401 E.00622
G1 X188.52 Y156.657 E.58363
G1 X188.731 Y156.848 E.01007
G1 X188.85 Y157.121 E.01052
G1 X188.837 Y157.435 E.01111
G1 X188.224 Y158.54 E.04468
G1 X188.009 Y158.769 E.0111
G1 X187.712 Y158.878 E.01117
G1 X187.423 Y158.851 E.01026
G1 X186.421 Y158.291 E.04057
G1 X173.877 Y151.049 E.51199
G1 X161.253 Y158.337 E.51525
G1 X161.253 Y173.941 E.55154
G1 X161.183 Y174.243 E.01095
G1 X161.045 Y174.433 E.00829
G1 X160.205 Y174.942 E.03472
G1 X146.507 Y182.851 E.55907
G1 X146.217 Y182.941 E.01074
G1 X145.911 Y182.894 E.01093
G1 X145.821 Y182.851 E.00352
G1 X131.418 Y174.535 E.58784
G1 X131.195 Y174.328 E.01078
G1 X131.082 Y174.035 E.01108
G1 X131.076 Y173.941 E.00332
G1 X131.076 Y157.31 E.58784
G1 X131.141 Y157.018 E.01061
G1 X131.337 Y156.772 E.01109
G1 X131.418 Y156.717 E.00349
G1 X145.821 Y148.401 E.58784
G1 X145.898 Y148.375 E.00286
G1 X145.748 Y147.949 F36000
G1 F3000
G1 X145.967 Y147.869 E.00821
G1 X146.362 Y147.869 E.01396
G1 X146.735 Y148.005 E.01406
G1 X160.021 Y155.676 E.54221
G1 X173.306 Y148.005 E.54221
G1 X173.679 Y147.869 E.01406
G1 X174.074 Y147.869 E.01396
G1 X174.448 Y148.005 E.01406
G1 X188.748 Y156.261 E.58363
G1 X189.055 Y156.52 E.01421
G1 X189.25 Y156.859 E.01381
G1 X189.319 Y157.239 E.01365
G1 X189.26 Y157.615 E.01346
G1 X188.62 Y158.769 E.04663
G1 X188.37 Y159.068 E.01377
G1 X188.013 Y159.274 E.0146
G1 X187.767 Y159.332 E.00892
G1 X187.285 Y159.287 E.0171
G1 X186.193 Y158.687 E.04405
;WIDTH:0.541151
G1 X185.75 Y158.455 E.01928
;WIDTH:0.582302
G1 X185.306 Y158.223 E.02087
G1 X174.574 Y152.026 E.51691
;WIDTH:0.614479
G1 X174.301 Y151.887 E.01354
;WIDTH:0.646656
G3 X173.877 Y151.661 I1.937 J-4.142 E.02244
G1 X173.625 Y151.78 E.013
;WIDTH:0.601193
G1 X173.373 Y151.899 E.01202
;WIDTH:0.555729
G1 X173.122 Y152.018 E.01105
;WIDTH:0.510265
G1 X172.276 Y152.501 E.03518
;WIDTH:0.499999
G1 X161.71 Y158.601 E.43125
G1 X161.71 Y173.941 E.54221
G1 X161.645 Y174.321 E.01359
G1 X161.477 Y174.633 E.01253
G1 X161.364 Y174.761 E.00604
G1 X161.138 Y174.931 E.00998
G1 X146.735 Y183.247 E.58784
G1 X146.362 Y183.383 E.01406
G1 X145.967 Y183.383 E.01396
G1 X145.593 Y183.247 E.01406
G1 X131.19 Y174.931 E.58784
G1 X130.917 Y174.711 E.01239
G1 X130.712 Y174.393 E.01339
G1 X130.619 Y173.941 E.01629
G1 X130.619 Y157.31 E.58784
G1 X130.688 Y156.919 E.01407
G1 X130.887 Y156.575 E.01404
G1 X131.19 Y156.321 E.01397
G1 X145.593 Y148.005 E.58784
G1 X145.741 Y147.952 E.00557
G1 E-.5
G1 X173.877 Y148.343 F36000
G1 X188.947 Y157.044
G1 X187.837 Y158.968
G1 X184.312 Y162.191
G1 E.5 F1800
G1 F3000
G1 X184.175 Y162.237 E.00512
G1 X183.719 Y162.251 E.01611
G1 X183.266 Y162.131 E.01657
G1 X172.366 Y155.851 E.44466
G1 X171.984 Y155.544 E.01729
G1 X171.78 Y155.265 E.01223
G1 X171.615 Y154.857 E.01557
G1 X171.574 Y154.304 E.01959
G1 X171.78 Y153.665 E.02373
G1 X172.084 Y153.14 E.02145
G1 X162.167 Y158.865 E.40475
G1 X162.167 Y173.941 E.53289
G1 X162.103 Y174.388 E.01594
G1 X161.903 Y174.822 E.0169
G1 X161.636 Y175.132 E.01447
G1 X161.367 Y175.327 E.01173
G1 X146.964 Y183.642 E.58784
G1 X146.527 Y183.815 E.01662
G1 X146.042 Y183.852 E.01719
G1 X145.573 Y183.744 E.01699
