; HEADER_BLOCK_START
; generated by OrcaSlicer 1.7.0-beta on 2023-10-02 at 18:13:09
; total layer number: 15
; HEADER_BLOCK_END

; THUMBNAIL_BLOCK_START
; THUMBNAIL_BLOCK_END

; external perimeters extrusion width = 0.40mm
; perimeters extrusion width = 0.46mm
; infill extrusion width = 0.64mm
; solid infill extrusion width = 0.56mm
; top infill extrusion width = 0.40mm
; first layer extrusion width = 0.50mm

; external perimeters extrusion width = 0.40mm
; perimeters extrusion width = 0.46mm
; infill extrusion width = 0.64mm
; solid infill extrusion width = 0.56mm
; top infill extrusion width = 0.40mm
; first layer extrusion width = 0.50mm

; EXECUTABLE_BLOCK_START
EXCLUDE_OBJECT_DEFINE NAME=V6_Plenum_Lid.stl_id_0_copy_0 CENTER=160,184.564 POLYGON=[[99.757,178.987],[112.932,156.167],[113.005,156.054],[113.065,155.977],[113.105,155.932],[113.218,155.822],[113.23,155.812],[113.344,155.726],[113.42,155.679],[113.48,155.646],[113.625,155.583],[113.631,155.58],[113.775,155.537],[113.856,155.52],[113.93,155.509],[114.088,155.5],[205.952,155.5],[206.11,155.509],[206.184,155.52],[206.265,155.537],[206.409,155.58],[206.416,155.583],[206.56,155.646],[206.62,155.679],[206.696,155.727],[206.81,155.812],[206.822,155.822],[206.935,155.931],[206.975,155.977],[207.035,156.054],[207.108,156.167],[220.243,178.918],[220.243,210.963],[220.22,211.26],[220.217,211.276],[220.15,211.55],[220.14,211.58],[220.036,211.826],[220.014,211.867],[219.88,212.08],[219.843,212.13],[219.686,212.306],[219.63,212.361],[219.495,212.474],[219.46,212.5],[219.349,212.575],[219.206,212.656],[219.195,212.661],[219.034,212.733],[218.93,212.77],[218.866,212.789],[218.694,212.83],[218.64,212.84],[218.519,212.855],[205.642,213.628],[102.356,213.628],[100.651,212.575],[100.54,212.5],[100.505,212.474],[100.37,212.361],[100.314,212.306],[100.157,212.13],[100.12,212.08],[99.9859,211.867],[99.9641,211.826],[99.8599,211.58],[99.85,211.55],[99.7829,211.276],[99.7804,211.26],[99.757,210.963],[99.757,178.987]]
EXCLUDE_OBJECT_DEFINE NAME=V6_Plenum_Lid.stl_id_1_copy_0 CENTER=160,121.436 POLYGON=[[99.757,115.971],[112.932,93.6072],[113.005,93.4965],[113.065,93.4205],[113.105,93.3764],[113.218,93.2688],[113.23,93.2593],[113.344,93.1751],[113.42,93.1286],[113.48,93.0967],[113.625,93.0345],[113.631,93.0322],[113.775,92.9896],[113.856,92.9732],[113.93,92.9625],[114.088,92.9534],[205.952,92.9534],[206.11,92.9625],[206.184,92.9732],[206.265,92.9897],[206.409,93.0322],[206.416,93.0348],[206.56,93.0969],[206.62,93.1286],[206.696,93.1754],[206.81,93.2593],[206.822,93.2689],[206.935,93.3762],[206.975,93.4205],[207.035,93.4961],[207.108,93.6072],[220.243,115.903],[220.243,147.307],[220.22,147.598],[220.217,147.613],[220.15,147.882],[220.14,147.911],[220.036,148.152],[220.014,148.193],[219.88,148.401],[219.843,148.45],[219.686,148.624],[219.63,148.677],[219.495,148.788],[219.46,148.813],[219.349,148.886],[219.206,148.966],[219.195,148.971],[219.034,149.042],[218.93,149.078],[218.866,149.097],[218.694,149.137],[218.64,149.146],[218.519,149.161],[205.642,149.919],[102.356,149.919],[100.651,148.886],[100.54,148.813],[100.505,148.788],[100.37,148.677],[100.314,148.624],[100.157,148.45],[100.12,148.401],[99.9859,148.193],[99.9641,148.152],[99.8599,147.911],[99.85,147.882],[99.7829,147.613],[99.7804,147.598],[99.757,147.307],[99.757,115.971]]
M73 P0 R46
;TYPE:Custom
START_PRINT T_BED=110 T_EXTRUDER=260
G90
G21
M83 ; use relative distances for extrusion
; Filament gcode
PRESSURE_ADVANCE_SELECT FILAMENT=ASA
M106 S0
;LAYER_CHANGE
;Z:0.2
;HEIGHT:0.2
;BEFORE_LAYER_CHANGE
;0.2
G92 E0

G1 E-.5 F3000
;_SET_FAN_SPEED_CHANGING_LAYER
SET_VELOCITY_LIMIT ACCEL=2000 ACCEL_TO_DECEL=1000
G1 X111.912 Y91.999 F36000
G1 Z.2
G1 E.5 F1800
;TYPE:Skirt
;WIDTH:0.5
G1 F3000
G1 X112.36 Y91.633 E.02045
G1 X112.852 Y91.362 E.01987
G1 X113.362 Y91.187 E.01905
G1 X114.129 Y91.092 E.02733
G1 X205.874 Y91.092 E3.2428
G1 X206.679 Y91.198 E.02869
G1 X207.64 Y91.633 E.0373
G1 X208.088 Y91.999 E.02045
G1 X208.598 Y92.649 E.0292
G1 X222.72 Y116.621 E.98341
G1 X223.039 Y117.371 E.02881
G1 X223.141 Y117.914 E.01951
G1 X223.157 Y210.963 E3.28891
G1 X223.053 Y211.942 E.03481
G1 X222.841 Y212.668 E.02673
G1 X222.52 Y213.35 E.02663
G1 X221.906 Y214.194 E.03689
G1 X221.353 Y214.715 E.02687
G1 X220.318 Y215.349 E.04291
G1 X219.309 Y215.675 E.03747
G1 X218.343 Y215.777 E.03434
G1 X101.657 Y215.777 E4.12437
G1 X100.678 Y215.673 E.03482
G1 X99.953 Y215.461 E.02668
G1 X99.264 Y215.136 E.02694
G1 X98.423 Y214.524 E.03674
G1 X97.638 Y213.607 E.0427
G1 X97.268 Y212.931 E.02723
G1 X96.947 Y211.941 E.03678
G1 X96.843 Y210.963 E.03476
G1 X96.86 Y117.904 E3.28926
G1 X96.964 Y117.359 E.01961
G1 X97.28 Y116.62 E.02839
G1 X111.402 Y92.649 E.98338
G1 X111.887 Y92.03 E.0278
G1 X112.23 Y92.327 F36000
G1 F3000
G1 X113.039 Y91.779 E.03457
G1 X113.476 Y91.63 E.0163
G1 X114.129 Y91.549 E.02327
G1 X205.874 Y91.549 E3.2428
G1 X206.565 Y91.64 E.02464
G1 X207.382 Y92.011 E.0317
G1 X207.77 Y92.327 E.01771
G1 X208.204 Y92.881 E.02487
G1 X222.326 Y116.853 E.98341
G1 X222.598 Y117.492 E.02453
G1 X222.686 Y117.955 E.01667
G1 X222.7 Y210.963 E3.28744
G1 X222.608 Y211.835 E.031
G1 X222.419 Y212.493 E.02419
G1 X222.13 Y213.111 E.0241
G1 X221.558 Y213.898 E.03441
G1 X221.056 Y214.368 E.02428
G1 X220.143 Y214.927 E.03784
G1 X219.203 Y215.231 E.03491
G1 X218.343 Y215.32 E.03058
G1 X101.657 Y215.32 E4.12437
G1 X100.784 Y215.228 E.03102
G1 X100.129 Y215.039 E.02412
G1 X99.503 Y214.746 E.02442
G1 X98.72 Y214.177 E.03422
G1 X98.027 Y213.367 E.03766
G1 X97.691 Y212.758 E.02461
G1 X97.391 Y211.834 E.03431
G1 X97.3 Y210.963 E.03097
G1 X97.315 Y117.947 E3.28774
G1 X97.405 Y117.481 E.01676
G1 X97.674 Y116.852 E.02417
G1 X111.796 Y92.881 E.98338
G1 X112.205 Y92.359 E.02347
; printing object V6_Plenum_Lid.stl id:0 copy 0
G1 E-.35
;WIPE_START
G1 X113.026 Y91.788 E-.15
;WIPE_END
EXCLUDE_OBJECT_START NAME=V6_Plenum_Lid.stl_id_0_copy_0
G1 X131.654 Y130.498 F36000
G1 X188.323 Y177.014
G1 X216.801 Y211.96
G1 E.5 F1800
;TYPE:Outer wall
;WIDTH:0.499999
G1 F3000
G1 X216.756 Y211.896 E.0028
G1 X216.484 Y211.721 E.01143
G1 X216.148 Y211.651 E.01211
G1 X210.538 Y211.651 E.19831
G1 X210.275 Y211.695 E.00942
G1 X209.904 Y211.921 E.01535
G1 X209.657 Y212.31 E.01631
G1 X209.597 Y212.513 E.00747
G1 X160.836 Y212.513 E1.72349
G1 X160.836 Y209.976 E.08969
G2 X154.367 Y208.764 I-3.35 J.012 E.3273
G1 X154.167 Y209.528 E.02793
G1 X154.136 Y209.976 E.01586
G1 X154.136 Y212.513 E.08969
G1 X101.68 Y212.513 E1.85411
G1 X101.181 Y212.435 E.01783
G1 X100.747 Y212.213 E.01724
G1 X100.407 Y211.874 E.01697
G1 X100.184 Y211.433 E.01748
G1 X100.107 Y210.94 E.01761
G1 X100.11 Y181.307 E1.04742
G1 X114.189 Y156.927 E.9951
G1 X205.799 Y156.925 E3.23803
M73 P1 R46
G1 X205.817 Y156.931 E.00069
G1 X219.893 Y181.33 E.99562
G1 X219.893 Y210.94 E1.0466
G1 X219.814 Y211.442 E.01796
G1 X219.598 Y211.866 E.0168
G1 X219.253 Y212.214 E.01733
G1 X218.819 Y212.435 E.01722
G1 X218.321 Y212.513 E.01782
G1 X217.082 Y212.51 E.0438
G1 X217.01 Y212.255 E.00936
G1 X216.806 Y211.967 E.01248
G1 X217.055 Y211.562 F36000
;TYPE:Inner wall
G1 F3000
G1 X216.912 Y211.438 E.00669
G1 X216.491 Y211.245 E.01637
G1 X216.148 Y211.194 E.01226
G1 X210.538 Y211.194 E.19831
G1 X210.088 Y211.272 E.01612
G1 X209.649 Y211.541 E.01821
G2 X209.275 Y212.056 I.896 J1.042 E.02267
G1 X161.293 Y212.056 E1.69598
G1 X161.293 Y209.976 E.07353
G2 X153.679 Y209.976 I-3.807 J.011 E.42194
G1 X153.679 Y212.056 E.07353
G1 X101.813 Y212.056 E1.83325
G1 X101.324 Y211.994 E.01741
G1 X101.019 Y211.839 E.01212
G1 X100.782 Y211.602 E.01183
G1 X100.624 Y211.291 E.01234
G1 X100.564 Y210.905 E.0138
G1 X100.567 Y181.429 E1.04184
G1 X114.453 Y157.384 E.98144
G1 X205.549 Y157.382 E3.21988
G1 X219.436 Y181.435 E.98169
G1 X219.436 Y210.726 E1.03533
G1 X219.373 Y211.299 E.02039
G1 X219.223 Y211.595 E.01171
G1 X218.98 Y211.839 E.0122
G1 X218.676 Y211.994 E.01206
G1 X218.286 Y212.056 E.01398
G1 X217.411 Y212.054 E.0309
G1 X217.119 Y211.618 E.01856
G1 X217.061 Y211.568 E.0027
G1 X217.354 Y211.228 F36000
G1 F3000
G1 X217.138 Y211.04 E.01012
G1 X216.571 Y210.795 E.02181
G1 X216.148 Y210.737 E.0151
G1 X210.538 Y210.737 E.19831
G1 X210.432 Y210.742 E.00373
G1 X209.877 Y210.864 E.02011
G1 X209.394 Y211.162 E.02005
G1 X209.008 Y211.599 E.02059
G1 X161.75 Y211.599 E1.67037
G1 X161.75 Y209.976 E.05738
G2 X153.222 Y209.976 I-4.264 J.015 E.47244
G1 X153.222 Y211.599 E.05738
G1 X101.813 Y211.599 E1.8171
G3 X101.291 Y211.464 I.005 J-1.103 E.01926
G1 X101.114 Y211.246 E.00992
G1 X101.021 Y210.869 E.01371
G1 X101.024 Y181.552 E1.03625
G1 X114.716 Y157.841 E.96779
G1 X205.285 Y157.839 E3.20122
G1 X218.979 Y181.557 E.96803
G1 X218.979 Y209.967 E1.00418
G1 X218.949 Y211.057 E.03853
G1 X218.848 Y211.323 E.01007
G1 X218.62 Y211.51 E.01042
G1 X218.25 Y211.599 E.01344
G1 X217.679 Y211.597 E.02021
G1 X217.481 Y211.34 E.01147
G1 X217.36 Y211.234 E.0057
G1 X217.639 Y210.871 F36000
G1 F3000
G1 X217.363 Y210.643 E.01267
G1 X217.16 Y210.528 E.00825
G1 X216.652 Y210.345 E.01909
G1 X216.148 Y210.28 E.01794
G1 X210.538 Y210.28 E.19831
G1 X210.034 Y210.345 E.01794
G1 X209.586 Y210.496 E.01673
G1 X209.138 Y210.783 E.01878
G1 X208.807 Y211.142 E.01726
G1 X162.207 Y211.142 E1.64712
G2 X162.204 Y209.871 I-19.499 J-.583 E.04491
G2 X152.765 Y209.976 I-4.719 J.119 E.51944
G1 X152.765 Y211.142 E.04122
G1 X101.787 Y211.142 E1.80186
G1 X101.547 Y211.075 E.00879
G1 X101.478 Y210.834 E.00885
G1 X101.481 Y181.674 E1.03067
G1 X114.98 Y158.298 E.95413
G1 X205.021 Y158.296 E3.18257
G1 X218.522 Y181.679 E.95438
G1 X218.522 Y209.967 E.99985
G1 X218.493 Y211.014 E.03701
G1 X218.391 Y211.114 E.00505
G1 X217.905 Y211.141 E.01721
G1 X217.791 Y210.996 E.00652
G1 X217.646 Y210.876 E.00665
G1 E-.5
G1 X183.952 Y180.686 F36000
G1 E.5 F1800
;TYPE:Outer wall
G1 F3000
G1 X183.784 Y180.662 E.00599
G1 X172.997 Y174.422 E.44048
G1 X172.938 Y174.244 E.0066
G1 X172.968 Y174.153 E.00339
G1 X173.514 Y173.207 E.03863
G1 X173.634 Y173.106 E.00552
G1 X173.826 Y173.123 E.00683
G1 X184.559 Y179.319 E.43804
G1 X184.657 Y179.432 E.00526
G1 X184.643 Y179.632 E.00709
G1 X184.096 Y180.578 E.03863
G1 X183.958 Y180.681 E.00609
G1 X184.078 Y181.114 F36000
;TYPE:Inner wall
G1 F3000
G1 X184.017 Y181.139 E.00235
G1 X183.722 Y181.126 E.01044
G1 X183.391 Y180.962 E.01305
G1 X172.823 Y174.861 E.43131
G1 X172.659 Y174.73 E.00741
G1 X172.501 Y174.435 E.01182
G1 X172.483 Y174.198 E.0084
G1 X172.572 Y173.925 E.01017
G1 X173.118 Y172.978 E.03863
G1 X173.369 Y172.727 E.01254
G1 X173.477 Y172.677 E.0042
G1 X173.787 Y172.639 E.01102
G1 X174.055 Y172.727 E.00998
G1 X184.787 Y178.924 E.43804
G1 X185.08 Y179.26 E.01577
G1 X185.122 Y179.625 E.01299
G1 X185.038 Y179.86 E.00881
G1 X184.492 Y180.807 E.03863
G1 X184.295 Y181.023 E.01036
G1 X184.085 Y181.111 E.00801
G1 X184.164 Y181.558 F36000
G1 F3000
G1 X183.941 Y181.606 E.00806
G1 X183.55 Y181.552 E.01395
G1 X183.162 Y181.358 E.01533
G1 X172.594 Y175.257 E.43131
G1 X172.322 Y175.038 E.01235
G3 X172.058 Y174.547 I.844 J-.771 E.0199
G1 X172.029 Y174.152 E.014
G1 X172.176 Y173.696 E.01695
G1 X172.722 Y172.75 E.03863
;WIDTH:0.510265
G1 X172.975 Y172.441 E.01441
G1 X173.319 Y172.243 E.01433
;WIDTH:0.555729
G1 X173.494 Y172.199 E.00716
;WIDTH:0.601193
G1 X173.669 Y172.156 E.00779
;WIDTH:0.646656
G1 X173.844 Y172.112 E.00843
G1 X174.074 Y172.204 E.01156
;WIDTH:0.614479
G1 X174.304 Y172.296 E.01094
;WIDTH:0.582302
G1 X185.037 Y178.492 E.51691
G1 X185.27 Y178.79 E.0158
;WIDTH:0.541151
G1 X185.504 Y179.089 E.0146
;WIDTH:0.499999
G1 X185.573 Y179.697 E.02165
G1 X185.434 Y180.089 E.01468
G1 X184.888 Y181.035 E.03863
G1 X184.639 Y181.334 E.01372
G1 X184.325 Y181.524 E.01301
G1 X184.172 Y181.557 E.00552
G1 E-.5
G1 X187.837 Y178.771 F36000
G1 X188.947 Y176.847
G1 X173.877 Y168.146
G1 X146.164 Y168.146
G1 X145.882 Y168.309
G1 X146.05 Y168.599
G1 E.5 F1800
;TYPE:Outer wall
G1 F3000
G1 X146.224 Y168.577 E.00622
G1 X146.278 Y168.599 E.00207
G1 X160.021 Y176.533 E.56087
M73 P2 R46
G1 X173.763 Y168.599 E.56087
G1 X173.937 Y168.577 E.00622
G1 X188.291 Y176.855 E.58568
G1 X188.398 Y176.996 E.00625
G1 X188.375 Y177.168 E.00611
G1 X187.828 Y178.114 E.03863
G1 X187.69 Y178.22 E.00617
G1 X187.516 Y178.198 E.0062
G1 X173.877 Y170.323 E.55666
G1 X160.796 Y177.876 E.5339
G1 X160.796 Y193.747 E.56097
G1 X160.726 Y193.908 E.0062
G1 X146.278 Y202.257 E.58982
G1 X146.112 Y202.282 E.00593
G1 X131.647 Y193.942 E.59018
M73 P2 R45
G1 X131.539 Y193.797 E.00638
G1 X131.533 Y193.744 E.0019
G1 X131.533 Y177.113 E.58784
G1 X131.596 Y176.954 E.00603
G1 X146.043 Y168.603 E.5898
G1 X145.905 Y168.175 F36000
;TYPE:Inner wall
G1 F3000
G1 X146.073 Y168.118 E.00625
G1 X146.345 Y168.136 E.00963
G1 X146.507 Y168.204 E.00622
G1 X160.021 Y176.006 E.55154
G1 X173.534 Y168.204 E.55154
G1 X173.785 Y168.118 E.00939
G1 X174.057 Y168.136 E.00963
G1 X174.22 Y168.204 E.00622
G1 X188.52 Y176.46 E.58363
G1 X188.731 Y176.65 E.01007
G1 X188.85 Y176.923 E.01052
G1 X188.837 Y177.237 E.01111
G1 X188.224 Y178.343 E.04468
G1 X188.009 Y178.571 E.0111
G1 X187.712 Y178.68 E.01117
G1 X187.423 Y178.653 E.01026
G1 X186.421 Y178.094 E.04057
G1 X173.877 Y170.851 E.51199
G1 X161.253 Y178.14 E.51525
G1 X161.253 Y193.744 E.55154
G1 X161.183 Y194.046 E.01095
G1 X161.045 Y194.235 E.00829
G1 X160.205 Y194.745 E.03472
G1 X146.507 Y202.653 E.55907
G1 X146.217 Y202.743 E.01074
G1 X145.911 Y202.696 E.01093
G1 X145.821 Y202.653 E.00352
G1 X131.418 Y194.338 E.58784
G1 X131.195 Y194.13 E.01078
G1 X131.082 Y193.838 E.01108
G1 X131.076 Y193.744 E.00332
G1 X131.076 Y177.113 E.58784
G1 X131.141 Y176.82 E.01061
G1 X131.337 Y176.575 E.01109
G1 X131.418 Y176.519 E.00349
G1 X145.821 Y168.204 E.58784
G1 X145.898 Y168.177 E.00286
G1 X145.748 Y167.751 F36000
G1 F3000
G1 X145.967 Y167.672 E.00821
G1 X146.362 Y167.672 E.01396
G1 X146.735 Y167.808 E.01406
G1 X160.021 Y175.478 E.54221
G1 X173.306 Y167.808 E.54221
G1 X173.679 Y167.672 E.01406
G1 X174.074 Y167.672 E.01396
G1 X174.448 Y167.808 E.01406
G1 X188.748 Y176.064 E.58363
G1 X189.055 Y176.323 E.01421
G1 X189.25 Y176.662 E.01381
G1 X189.319 Y177.041 E.01365
G1 X189.26 Y177.417 E.01346
G1 X188.62 Y178.571 E.04663
G1 X188.37 Y178.87 E.01377
G1 X188.013 Y179.077 E.0146
G1 X187.767 Y179.134 E.00892
G1 X187.285 Y179.089 E.0171
G1 X186.193 Y178.489 E.04405
;WIDTH:0.541151
G1 X185.75 Y178.257 E.01928
;WIDTH:0.582302
G1 X185.306 Y178.025 E.02087
G1 X174.574 Y171.829 E.51691
;WIDTH:0.614479
G1 X174.301 Y171.69 E.01354
;WIDTH:0.646656
G3 X173.877 Y171.463 I1.937 J-4.142 E.02244
G1 X173.625 Y171.583 E.013
;WIDTH:0.601193
G1 X173.373 Y171.702 E.01202
;WIDTH:0.555729
G1 X173.122 Y171.821 E.01105
;WIDTH:0.510265
G1 X172.276 Y172.303 E.03518
;WIDTH:0.499999
G1 X161.71 Y178.404 E.43125
G1 X161.71 Y193.744 E.54221
G1 X161.645 Y194.123 E.01359
G1 X161.477 Y194.435 E.01253
G1 X161.364 Y194.563 E.00604
G1 X161.138 Y194.733 E.00998
G1 X146.735 Y203.049 E.58784
G1 X146.362 Y203.185 E.01406
G1 X145.967 Y203.185 E.01396
G1 X145.593 Y203.049 E.01406
G1 X131.19 Y194.733 E.58784
G1 X130.917 Y194.514 E.01239
G1 X130.712 Y194.195 E.01339
G1 X130.619 Y193.744 E.01629
G1 X130.619 Y177.113 E.58784
G1 X130.688 Y176.721 E.01407
G1 X130.887 Y176.377 E.01404
G1 X131.19 Y176.123 E.01397
G1 X145.593 Y167.808 E.58784
G1 X145.741 Y167.754 E.00557
G1 E-.5
G1 X173.877 Y168.146 F36000
G1 X188.947 Y176.847
G1 X187.837 Y178.771
G1 X184.312 Y181.993
G1 E.5 F1800
G1 F3000
G1 X184.175 Y182.04 E.00512
G1 X183.719 Y182.054 E.01611
G1 X183.266 Y181.933 E.01657
G1 X172.366 Y175.653 E.44466
G1 X171.984 Y175.346 E.01729
G1 X171.78 Y175.067 E.01223
G1 X171.615 Y174.659 E.01557
G1 X171.574 Y174.106 E.01959
G1 X171.78 Y173.468 E.02373
G1 X172.084 Y172.942 E.02145
G1 X162.167 Y178.667 E.40475
G1 X162.167 Y193.744 E.53289
G1 X162.103 Y194.19 E.01594
G1 X161.903 Y194.624 E.0169
G1 X161.636 Y194.934 E.01447
G1 X161.367 Y195.129 E.01173
G1 X146.964 Y203.445 E.58784
G1 X146.527 Y203.617 E.01662
G1 X146.042 Y203.654 E.01719
G1 X145.573 Y203.546 E.01699
G1 X145.364 Y203.445 E.00821
G1 X130.961 Y195.129 E.58784
G1 X130.579 Y194.822 E.01734
G1 X130.333 Y194.465 E.01529
G1 X130.186 Y194.02 E.01658
G1 X130.161 Y193.744 E.0098
