
; ### Ellis' Pressure Advance / Linear Advance Calibration Tool ###
;
; Original Marlin linear advance calibration tool by Sineos [https://github.com/Sineos]
; Heavily modified/rewritten by Andrew Ellis [https://github.com/AndrewEllis93]
;
; -------------------------------------------
; Generated: Wed Sep 27 2023 13:35:09 GMT-0700 (Pacific Daylight Saving Time)
; -------------------------------------------
;
; Advanced Mode: false
;
; Printer:
;  - Firmware: klipper
;  - Bed Shape: Rect
;  - Bed Size X: 322 mm
;  - Bed Size Y: 314 mm
;  - Origin Bed Center: false
;  - Travel Speed: 200 mm/s
;  - Nozzle Diameter: 0.4 mm
;  - Filament Diameter: 1.75 mm
;  - Extrusion Multiplier: 1
;
; Retraction / Z Hop:
;  - Retraction Distance: 0.8 mm
;  - Retract Speed: 40 mm/s
;  - Unretract Speed: 30 mm/s
;  - Z Hop Enable: false
;
; First Layer Settings:
;  - First Layer Height: 0.2 mm
;  - First Layer Printing Speed: 30 mm/s
;  - First Layer Fan Speed: 0%
;  - Anchor Option: anchor_frame
;
; Print Settings:
;  - Layer Height: 0.2 mm
;  - Print Speed: 200 mm/s
;  - Acceleration: 25000 mm/s^2
;  - Fan Speed: 100%
;
; Pressure Advance Stepping:
;  - PA Start Value: 0
;  - PA End Value: 0.08
;  - PA Increment: 0.005
;
; Start / End G-code:
;  - Hotend Temp: 200C
;  - Bed Temp: 110C
;  - Don't Add G28: false
;  - Don't Add Heating G-Codes: false
;
; Calculated Values:
;  - Print Size X: 84.76 mm
;  - Print Size Y: 53.99 mm
;  - Number of Patterns to Print: 17
;  - PA Values: 0, 0.005, 0.01, 0.015, 0.02, 0.025, 0.03, 0.035, 0.04, 0.045, 0.05, 0.055, 0.06, 0.065, 0.07, 0.075, 0.08
;
; Prepare printing
;
START_PRINT T_BED=110 T_EXTRUDER=260
G21 ; Millimeter units
G90 ; Absolute XYZ
M83 ; Relative E
G92 E0 ; Reset extruder distance
;
;  Begin printing
;
M106 S0 ; Set fan speed
SET_VELOCITY_LIMIT ACCEL=20000 ; Set printing acceleration
G1 E-0.8 F2400 ; Retract
G0 Z5 F12000 ; Z raise
G0 X118.6202 Y130.0068 F12000 ; Move to start position
G0 Z0.2 F12000 ; Move to start layer height
G1 E0.8 F1800 ; Un-retract
SET_PRESSURE_ADVANCE ADVANCE=0 ; Set pressure advance to start value
M117 PA 0
G1 X118.6202 Y172.4332 E1.82414 F1800 ; Draw perimeter (up)
G1 X203.3798 Y172.4332 E3.64426 F1800 ; Draw perimeter (right)
G1 X203.3798 Y130.0068 E1.82414 F1800 ; Draw perimeter (down)
G1 X118.6202 Y130.0068 E3.64426 F1800 ; Draw perimeter (left)
G0 X119.1373 Y130.5239 F12000 ; Step inwards to print next perimeter
G1 X119.1373 Y171.9161 E1.77967 F1800 ; Draw perimeter (up)
G1 X202.8627 Y171.9161 E3.5998 F1800 ; Draw perimeter (right)
G1 X202.8627 Y130.5239 E1.77967 F1800 ; Draw perimeter (down)
G1 X119.1373 Y130.5239 E3.5998 F1800 ; Draw perimeter (left)
G0 X119.6544 Y131.041 F12000 ; Step inwards to print next perimeter
G1 X119.6544 Y171.399 E1.73521 F1800 ; Draw perimeter (up)
G1 X202.3456 Y171.399 E3.55534 F1800 ; Draw perimeter (right)
G1 X202.3456 Y131.041 E1.73521 F1800 ; Draw perimeter (down)
G1 X119.6544 Y131.041 E3.55534 F1800 ; Draw perimeter (left)
G0 X120.1715 Y131.558 F12000 ; Step inwards to print next perimeter
G1 X120.1715 Y170.882 E1.69075 F1800 ; Draw perimeter (up)
G1 X201.8285 Y170.882 E3.51087 F1800 ; Draw perimeter (right)
G1 X201.8285 Y131.558 E1.69075 F1800 ; Draw perimeter (down)
G1 X120.1715 Y131.558 E3.51087 F1800 ; Draw perimeter (left)
G1 E-0.8 F2400 ; Retract
G0 X118.6202 Y172.9503 F12000 ; Move to box start
G1 E0.8 F1800 ; Un-retract
G1 X118.6202 Y184.4674 E0.49518 F1800 ; Draw perimeter (up)
G1 X182.8747 Y184.4674 E2.76264 F1800 ; Draw perimeter (right)
G1 X182.8747 Y172.9503 E0.49518 F1800 ; Draw perimeter (down)
G1 X118.6202 Y172.9503 E2.76264 F1800 ; Draw perimeter (left)
G0 X119.1373 Y173.4674 F12000 ; Step inwards to print next perimeter
G1 X119.1373 Y183.9503 E0.45072 F1800 ; Draw perimeter (up)
G1 X182.3576 Y183.9503 E2.71818 F1800 ; Draw perimeter (right)
G1 X182.3576 Y173.4674 E0.45072 F1800 ; Draw perimeter (down)
G1 X119.1373 Y173.4674 E2.71818 F1800 ; Draw perimeter (left)
G0 X119.6544 Y173.9844 F12000 ; Step inwards to print next perimeter
G1 X119.6544 Y183.4332 E0.40625 F1800 ; Draw perimeter (up)
G1 X181.8406 Y183.4332 E2.67372 F1800 ; Draw perimeter (right)
G1 X181.8406 Y173.9844 E0.40625 F1800 ; Draw perimeter (down)
G1 X119.6544 Y173.9844 E2.67372 F1800 ; Draw perimeter (left)
G0 X120.1715 Y174.5015 F12000 ; Step inwards to print next perimeter
G1 X120.1715 Y182.9161 E0.36179 F1800 ; Draw perimeter (up)
G1 X181.3235 Y182.9161 E2.62925 F1800 ; Draw perimeter (right)
G1 X181.3235 Y174.5015 E0.36179 F1800 ; Draw perimeter (down)
G1 X120.1715 Y174.5015 E2.62925 F1800 ; Draw perimeter (left)
G0 X120.5448 Y174.8749 F12000 ; Move to fill start
G0 X121.2761 Y174.8749 F12000 ; Move
G1 X120.5448 Y175.6061 E0.04446 F1800 ; Fill
G0 X120.5448 Y176.3374 F12000 ; Move
G1 X122.0073 Y174.8749 E0.08893 F1800 ; Fill
G0 X122.7386 Y174.8749 F12000 ; Move
G1 X120.5448 Y177.0686 E0.13339 F1800 ; Fill
G0 X120.5448 Y177.7999 F12000 ; Move
G1 X123.4699 Y174.8749 E0.17786 F1800 ; Fill
G0 X124.2011 Y174.8749 F12000 ; Move
G1 X120.5448 Y178.5312 E0.22232 F1800 ; Fill
G0 X120.5448 Y179.2624 F12000 ; Move
G1 X124.9324 Y174.8749 E0.26678 F1800 ; Fill
G0 X125.6636 Y174.8749 F12000 ; Move
G1 X120.5448 Y179.9937 E0.31125 F1800 ; Fill
G0 X120.5448 Y180.7249 F12000 ; Move
G1 X126.3949 Y174.8749 E0.35571 F1800 ; Fill
G0 X127.1262 Y174.8749 F12000 ; Move
G1 X120.5448 Y181.4562 E0.40018 F1800 ; Fill
G0 X120.5448 Y182.1875 F12000 ; Move
G1 X127.8574 Y174.8749 E0.44464 F1800 ; Fill
G0 X128.5887 Y174.8749 F12000 ; Move
G1 X120.9207 Y182.5428 E0.46625 F1800 ; Fill
G0 X121.652 Y182.5428 F12000 ; Move
G1 X129.3199 Y174.8749 E0.46625 F1800 ; Fill
G0 X130.0512 Y174.8749 F12000 ; Move
G1 X122.3833 Y182.5428 E0.46625 F1800 ; Fill
G0 X123.1145 Y182.5428 F12000 ; Move
G1 X130.7825 Y174.8749 E0.46625 F1800 ; Fill
G0 X131.5137 Y174.8749 F12000 ; Move
G1 X123.8458 Y182.5428 E0.46625 F1800 ; Fill
G0 X124.5771 Y182.5428 F12000 ; Move
G1 X132.245 Y174.8749 E0.46625 F1800 ; Fill
G0 X132.9762 Y174.8749 F12000 ; Move
G1 X125.3083 Y182.5428 E0.46625 F1800 ; Fill
G0 X126.0396 Y182.5428 F12000 ; Move
G1 X133.7075 Y174.8749 E0.46625 F1800 ; Fill
G0 X134.4388 Y174.8749 F12000 ; Move
G1 X126.7708 Y182.5428 E0.46625 F1800 ; Fill
G0 X127.5021 Y182.5428 F12000 ; Move
G1 X135.17 Y174.8749 E0.46625 F1800 ; Fill
G0 X135.9013 Y174.8749 F12000 ; Move
G1 X128.2334 Y182.5428 E0.46625 F1800 ; Fill
G0 X128.9646 Y182.5428 F12000 ; Move
G1 X136.6326 Y174.8749 E0.46625 F1800 ; Fill
G0 X137.3638 Y174.8749 F12000 ; Move
G1 X129.6959 Y182.5428 E0.46625 F1800 ; Fill
G0 X130.4271 Y182.5428 F12000 ; Move
G1 X138.0951 Y174.8749 E0.46625 F1800 ; Fill
G0 X138.8263 Y174.8749 F12000 ; Move
G1 X131.1584 Y182.5428 E0.46625 F1800 ; Fill
G0 X131.8897 Y182.5428 F12000 ; Move
G1 X139.5576 Y174.8749 E0.46625 F1800 ; Fill
G0 X140.2889 Y174.8749 F12000 ; Move
G1 X132.6209 Y182.5428 E0.46625 F1800 ; Fill
G0 X133.3522 Y182.5428 F12000 ; Move
G1 X141.0201 Y174.8749 E0.46625 F1800 ; Fill
G0 X141.7514 Y174.8749 F12000 ; Move
G1 X134.0834 Y182.5428 E0.46625 F1800 ; Fill
G0 X134.8147 Y182.5428 F12000 ; Move
G1 X142.4826 Y174.8749 E0.46625 F1800 ; Fill
G0 X143.2139 Y174.8749 F12000 ; Move
G1 X135.546 Y182.5428 E0.46625 F1800 ; Fill
G0 X136.2772 Y182.5428 F12000 ; Move
G1 X143.9452 Y174.8749 E0.46625 F1800 ; Fill
G0 X144.6764 Y174.8749 F12000 ; Move
G1 X137.0085 Y182.5428 E0.46625 F1800 ; Fill
G0 X137.7398 Y182.5428 F12000 ; Move
G1 X145.4077 Y174.8749 E0.46625 F1800 ; Fill
G0 X146.1389 Y174.8749 F12000 ; Move
G1 X138.471 Y182.5428 E0.46625 F1800 ; Fill
G0 X139.2023 Y182.5428 F12000 ; Move
G1 X146.8702 Y174.8749 E0.46625 F1800 ; Fill
G0 X147.6015 Y174.8749 F12000 ; Move
G1 X139.9335 Y182.5428 E0.46625 F1800 ; Fill
G0 X140.6648 Y182.5428 F12000 ; Move
G1 X148.3327 Y174.8749 E0.46625 F1800 ; Fill
G0 X149.064 Y174.8749 F12000 ; Move
G1 X141.3961 Y182.5428 E0.46625 F1800 ; Fill
G0 X142.1273 Y182.5428 F12000 ; Move
G1 X149.7953 Y174.8749 E0.46625 F1800 ; Fill
G0 X150.5265 Y174.8749 F12000 ; Move
G1 X142.8586 Y182.5428 E0.46625 F1800 ; Fill
G0 X143.5898 Y182.5428 F12000 ; Move
G1 X151.2578 Y174.8749 E0.46625 F1800 ; Fill
G0 X151.989 Y174.8749 F12000 ; Move
G1 X144.3211 Y182.5428 E0.46625 F1800 ; Fill
G0 X145.0524 Y182.5428 F12000 ; Move
G1 X152.7203 Y174.8749 E0.46625 F1800 ; Fill
G0 X153.4516 Y174.8749 F12000 ; Move
G1 X145.7836 Y182.5428 E0.46625 F1800 ; Fill
G0 X146.5149 Y182.5428 F12000 ; Move
G1 X154.1828 Y174.8749 E0.46625 F1800 ; Fill
G0 X154.9141 Y174.8749 F12000 ; Move
G1 X147.2461 Y182.5428 E0.46625 F1800 ; Fill
G0 X147.9774 Y182.5428 F12000 ; Move
G1 X155.6453 Y174.8749 E0.46625 F1800 ; Fill
G0 X156.3766 Y174.8749 F12000 ; Move
G1 X148.7087 Y182.5428 E0.46625 F1800 ; Fill
G0 X149.4399 Y182.5428 F12000 ; Move
G1 X157.1079 Y174.8749 E0.46625 F1800 ; Fill
G0 X157.8391 Y174.8749 F12000 ; Move
G1 X150.1712 Y182.5428 E0.46625 F1800 ; Fill
G0 X150.9025 Y182.5428 F12000 ; Move
G1 X158.5704 Y174.8749 E0.46625 F1800 ; Fill
G0 X159.3016 Y174.8749 F12000 ; Move
G1 X151.6337 Y182.5428 E0.46625 F1800 ; Fill
G0 X152.365 Y182.5428 F12000 ; Move
G1 X160.0329 Y174.8749 E0.46625 F1800 ; Fill
G0 X160.7642 Y174.8749 F12000 ; Move
G1 X153.0962 Y182.5428 E0.46625 F1800 ; Fill
G0 X153.8275 Y182.5428 F12000 ; Move
G1 X161.4954 Y174.8749 E0.46625 F1800 ; Fill
G0 X162.2267 Y174.8749 F12000 ; Move
G1 X154.5588 Y182.5428 E0.46625 F1800 ; Fill
G0 X155.29 Y182.5428 F12000 ; Move
G1 X162.958 Y174.8749 E0.46625 F1800 ; Fill
G0 X163.6892 Y174.8749 F12000 ; Move
G1 X156.0213 Y182.5428 E0.46625 F1800 ; Fill
G0 X156.7525 Y182.5428 F12000 ; Move
G1 X164.4205 Y174.8749 E0.46625 F1800 ; Fill
G0 X165.1517 Y174.8749 F12000 ; Move
G1 X157.4838 Y182.5428 E0.46625 F1800 ; Fill
G0 X158.2151 Y182.5428 F12000 ; Move
G1 X165.883 Y174.8749 E0.46625 F1800 ; Fill
G0 X166.6143 Y174.8749 F12000 ; Move
G1 X158.9463 Y182.5428 E0.46625 F1800 ; Fill
G0 X159.6776 Y182.5428 F12000 ; Move
G1 X167.3455 Y174.8749 E0.46625 F1800 ; Fill
G0 X168.0768 Y174.8749 F12000 ; Move
G1 X160.4088 Y182.5428 E0.46625 F1800 ; Fill
G0 X161.1401 Y182.5428 F12000 ; Move
G1 X168.808 Y174.8749 E0.46625 F1800 ; Fill
G0 X169.5393 Y174.8749 F12000 ; Move
G1 X161.8714 Y182.5428 E0.46625 F1800 ; Fill
G0 X162.6026 Y182.5428 F12000 ; Move
G1 X170.2706 Y174.8749 E0.46625 F1800 ; Fill
G0 X171.0018 Y174.8749 F12000 ; Move
G1 X163.3339 Y182.5428 E0.46625 F1800 ; Fill
G0 X164.0651 Y182.5428 F12000 ; Move
G1 X171.7331 Y174.8749 E0.46625 F1800 ; Fill
G0 X172.4643 Y174.8749 F12000 ; Move
G1 X164.7964 Y182.5428 E0.46625 F1800 ; Fill
G0 X165.5277 Y182.5428 F12000 ; Move
G1 X173.1956 Y174.8749 E0.46625 F1800 ; Fill
G0 X173.9269 Y174.8749 F12000 ; Move
G1 X166.2589 Y182.5428 E0.46625 F1800 ; Fill
G0 X166.9902 Y182.5428 F12000 ; Move
G1 X174.6581 Y174.8749 E0.46625 F1800 ; Fill
G0 X175.3894 Y174.8749 F12000 ; Move
G1 X167.7215 Y182.5428 E0.46625 F1800 ; Fill
G0 X168.4527 Y182.5428 F12000 ; Move
G1 X176.1206 Y174.8749 E0.46625 F1800 ; Fill
G0 X176.8519 Y174.8749 F12000 ; Move
G1 X169.184 Y182.5428 E0.46625 F1800 ; Fill
G0 X169.9152 Y182.5428 F12000 ; Move
G1 X177.5832 Y174.8749 E0.46625 F1800 ; Fill
G0 X178.3144 Y174.8749 F12000 ; Move
G1 X170.6465 Y182.5428 E0.46625 F1800 ; Fill
G0 X171.3778 Y182.5428 F12000 ; Move
G1 X179.0457 Y174.8749 E0.46625 F1800 ; Fill
G0 X179.777 Y174.8749 F12000 ; Move
G1 X172.109 Y182.5428 E0.46625 F1800 ; Fill
G0 X172.8403 Y182.5428 F12000 ; Move
G1 X180.5082 Y174.8749 E0.46625 F1800 ; Fill
G0 X180.9501 Y175.1642 F12000 ; Move
G1 X173.5715 Y182.5428 E0.44865 F1800 ; Fill
G0 X174.3028 Y182.5428 F12000 ; Move
G1 X180.9501 Y175.8955 E0.40419 F1800 ; Fill
G0 X180.9501 Y176.6267 F12000 ; Move
G1 X175.0341 Y182.5428 E0.35972 F1800 ; Fill
G0 X175.7653 Y182.5428 F12000 ; Move
G1 X180.9501 Y177.358 E0.31526 F1800 ; Fill
G0 X180.9501 Y178.0892 F12000 ; Move
G1 X176.4966 Y182.5428 E0.2708 F1800 ; Fill
G0 X177.2278 Y182.5428 F12000 ; Move
G1 X180.9501 Y178.8205 E0.22633 F1800 ; Fill
G0 X180.9501 Y179.5518 F12000 ; Move
G1 X177.9591 Y182.5428 E0.18187 F1800 ; Fill
G0 X178.6904 Y182.5428 F12000 ; Move
G1 X180.9501 Y180.283 E0.1374 F1800 ; Fill
G0 X180.9501 Y181.0143 F12000 ; Move
G1 X179.4216 Y182.5428 E0.09294 F1800 ; Fill
G0 X180.1529 Y182.5428 F12000 ; Move
G1 X180.9501 Y181.7455 E0.04848 F1800 ; Fill
G0 X180.9501 Y182.4768 F12000 ; Move
G1 X180.8842 Y182.5428 E0.00401 F1800 ; Fill
G0 Z0.2 F12000 ; Move to layer height
G1 E-0.8 F2400 ; Retract
G0 X123.2491 Y131.9314 F12000 ; Move to pattern start

G1 E0.8 F1800 ; Un-retract
SET_PRESSURE_ADVANCE ADVANCE=0 ; Set pressure advance
M117 PA 0
G1 X142.5377 Y151.22 E0.92334 F1800 ; Print pattern wall
G1 X123.2491 Y170.5086 E0.92334 F1800 ; Print pattern wall
G1 E-0.8 F2400 ; Retract
G0 X123.8248 Y131.9314 F12000 ; Move to start next pattern wall
G1 E0.8 F1800 ; Un-retract
G1 X143.1134 Y151.22 E0.92334 F1800 ; Print pattern wall
G1 X123.8248 Y170.5086 E0.92334 F1800 ; Print pattern wall
G1 E-0.8 F2400 ; Retract
G0 X124.4005 Y131.9314 F12000 ; Move to start next pattern wall
G1 E0.8 F1800 ; Un-retract
G1 X143.6891 Y151.22 E0.92334 F1800 ; Print pattern wall
G1 X124.4005 Y170.5086 E0.92334 F1800 ; Print pattern wall
G1 E-0.8 F2400 ; Retract
G0 X126.8505 Y131.9314 F12000 ; Move to next pattern
G1 E0.8 F1800 ; Un-retract
SET_PRESSURE_ADVANCE ADVANCE=0.005 ; Set pressure advance
M117 PA 0.005
G1 X146.1391 Y151.22 E0.92334 F1800 ; Print pattern wall
G1 X126.8505 Y170.5086 E0.92334 F1800 ; Print pattern wall
G1 E-0.8 F2400 ; Retract
G0 X127.4262 Y131.9314 F12000 ; Move to start next pattern wall
G1 E0.8 F1800 ; Un-retract
G1 X146.7148 Y151.22 E0.92334 F1800 ; Print pattern wall
G1 X127.4262 Y170.5086 E0.92334 F1800 ; Print pattern wall
G1 E-0.8 F2400 ; Retract
G0 X128.0019 Y131.9314 F12000 ; Move to start next pattern wall
G1 E0.8 F1800 ; Un-retract
G1 X147.2905 Y151.22 E0.92334 F1800 ; Print pattern wall
G1 X128.0019 Y170.5086 E0.92334 F1800 ; Print pattern wall
G1 E-0.8 F2400 ; Retract
G0 X130.4519 Y131.9314 F12000 ; Move to next pattern
G1 E0.8 F1800 ; Un-retract
SET_PRESSURE_ADVANCE ADVANCE=0.01 ; Set pressure advance
M117 PA 0.01
G1 X149.7405 Y151.22 E0.92334 F1800 ; Print pattern wall
G1 X130.4519 Y170.5086 E0.92334 F1800 ; Print pattern wall
G1 E-0.8 F2400 ; Retract
G0 X131.0276 Y131.9314 F12000 ; Move to start next pattern wall
G1 E0.8 F1800 ; Un-retract
G1 X150.3162 Y151.22 E0.92334 F1800 ; Print pattern wall
G1 X131.0276 Y170.5086 E0.92334 F1800 ; Print pattern wall
G1 E-0.8 F2400 ; Retract
G0 X131.6033 Y131.9314 F12000 ; Move to start next pattern wall
G1 E0.8 F1800 ; Un-retract
G1 X150.8919 Y151.22 E0.92334 F1800 ; Print pattern wall
G1 X131.6033 Y170.5086 E0.92334 F1800 ; Print pattern wall
G1 E-0.8 F2400 ; Retract
G0 X134.0533 Y131.9314 F12000 ; Move to next pattern
G1 E0.8 F1800 ; Un-retract
SET_PRESSURE_ADVANCE ADVANCE=0.015 ; Set pressure advance
M117 PA 0.015
G1 X153.3419 Y151.22 E0.92334 F1800 ; Print pattern wall
G1 X134.0533 Y170.5086 E0.92334 F1800 ; Print pattern wall
G1 E-0.8 F2400 ; Retract
G0 X134.629 Y131.9314 F12000 ; Move to start next pattern wall
G1 E0.8 F1800 ; Un-retract
G1 X153.9176 Y151.22 E0.92334 F1800 ; Print pattern wall
G1 X134.629 Y170.5086 E0.92334 F1800 ; Print pattern wall
G1 E-0.8 F2400 ; Retract
G0 X135.2047 Y131.9314 F12000 ; Move to start next pattern wall
G1 E0.8 F1800 ; Un-retract
G1 X154.4933 Y151.22 E0.92334 F1800 ; Print pattern wall
G1 X135.2047 Y170.5086 E0.92334 F1800 ; Print pattern wall
G1 E-0.8 F2400 ; Retract
G0 X137.6547 Y131.9314 F12000 ; Move to next pattern
G1 E0.8 F1800 ; Un-retract
SET_PRESSURE_ADVANCE ADVANCE=0.02 ; Set pressure advance
M117 PA 0.02
G1 X156.9433 Y151.22 E0.92334 F1800 ; Print pattern wall
G1 X137.6547 Y170.5086 E0.92334 F1800 ; Print pattern wall
G1 E-0.8 F2400 ; Retract
G0 X138.2304 Y131.9314 F12000 ; Move to start next pattern wall
G1 E0.8 F1800 ; Un-retract
G1 X157.519 Y151.22 E0.92334 F1800 ; Print pattern wall
G1 X138.2304 Y170.5086 E0.92334 F1800 ; Print pattern wall
G1 E-0.8 F2400 ; Retract
G0 X138.8061 Y131.9314 F12000 ; Move to start next pattern wall
G1 E0.8 F1800 ; Un-retract
G1 X158.0947 Y151.22 E0.92334 F1800 ; Print pattern wall
G1 X138.8061 Y170.5086 E0.92334 F1800 ; Print pattern wall
G1 E-0.8 F2400 ; Retract
G0 X141.2561 Y131.9314 F12000 ; Move to next pattern
G1 E0.8 F1800 ; Un-retract
SET_PRESSURE_ADVANCE ADVANCE=0.025 ; Set pressure advance
M117 PA 0.025
G1 X160.5447 Y151.22 E0.92334 F1800 ; Print pattern wall
G1 X141.2561 Y170.5086 E0.92334 F1800 ; Print pattern wall
G1 E-0.8 F2400 ; Retract
G0 X141.8318 Y131.9314 F12000 ; Move to start next pattern wall
G1 E0.8 F1800 ; Un-retract
G1 X161.1204 Y151.22 E0.92334 F1800 ; Print pattern wall
G1 X141.8318 Y170.5086 E0.92334 F1800 ; Print pattern wall
G1 E-0.8 F2400 ; Retract
G0 X142.4075 Y131.9314 F12000 ; Move to start next pattern wall
G1 E0.8 F1800 ; Un-retract
G1 X161.6961 Y151.22 E0.92334 F1800 ; Print pattern wall
G1 X142.4075 Y170.5086 E0.92334 F1800 ; Print pattern wall
G1 E-0.8 F2400 ; Retract
G0 X144.8575 Y131.9314 F12000 ; Move to next pattern
G1 E0.8 F1800 ; Un-retract
SET_PRESSURE_ADVANCE ADVANCE=0.03 ; Set pressure advance
M117 PA 0.03
G1 X164.1461 Y151.22 E0.92334 F1800 ; Print pattern wall
G1 X144.8575 Y170.5086 E0.92334 F1800 ; Print pattern wall
G1 E-0.8 F2400 ; Retract
G0 X145.4332 Y131.9314 F12000 ; Move to start next pattern wall
G1 E0.8 F1800 ; Un-retract
G1 X164.7218 Y151.22 E0.92334 F1800 ; Print pattern wall
G1 X145.4332 Y170.5086 E0.92334 F1800 ; Print pattern wall
G1 E-0.8 F2400 ; Retract
G0 X146.0089 Y131.9314 F12000 ; Move to start next pattern wall
G1 E0.8 F1800 ; Un-retract
G1 X165.2975 Y151.22 E0.92334 F1800 ; Print pattern wall
G1 X146.0089 Y170.5086 E0.92334 F1800 ; Print pattern wall
G1 E-0.8 F2400 ; Retract
G0 X148.4589 Y131.9314 F12000 ; Move to next pattern
G1 E0.8 F1800 ; Un-retract
SET_PRESSURE_ADVANCE ADVANCE=0.035 ; Set pressure advance
M117 PA 0.035
G1 X167.7475 Y151.22 E0.92334 F1800 ; Print pattern wall
G1 X148.4589 Y170.5086 E0.92334 F1800 ; Print pattern wall
G1 E-0.8 F2400 ; Retract
G0 X149.0346 Y131.9314 F12000 ; Move to start next pattern wall
G1 E0.8 F1800 ; Un-retract
G1 X168.3232 Y151.22 E0.92334 F1800 ; Print pattern wall
G1 X149.0346 Y170.5086 E0.92334 F1800 ; Print pattern wall
G1 E-0.8 F2400 ; Retract
G0 X149.6103 Y131.9314 F12000 ; Move to start next pattern wall
G1 E0.8 F1800 ; Un-retract
G1 X168.8989 Y151.22 E0.92334 F1800 ; Print pattern wall
G1 X149.6103 Y170.5086 E0.92334 F1800 ; Print pattern wall
G1 E-0.8 F2400 ; Retract
G0 X152.0603 Y131.9314 F12000 ; Move to next pattern
G1 E0.8 F1800 ; Un-retract
SET_PRESSURE_ADVANCE ADVANCE=0.04 ; Set pressure advance
M117 PA 0.04
G1 X171.3489 Y151.22 E0.92334 F1800 ; Print pattern wall
G1 X152.0603 Y170.5086 E0.92334 F1800 ; Print pattern wall
G1 E-0.8 F2400 ; Retract
G0 X152.636 Y131.9314 F12000 ; Move to start next pattern wall
G1 E0.8 F1800 ; Un-retract
G1 X171.9246 Y151.22 E0.92334 F1800 ; Print pattern wall
G1 X152.636 Y170.5086 E0.92334 F1800 ; Print pattern wall
G1 E-0.8 F2400 ; Retract
G0 X153.2117 Y131.9314 F12000 ; Move to start next pattern wall
G1 E0.8 F1800 ; Un-retract
G1 X172.5003 Y151.22 E0.92334 F1800 ; Print pattern wall
G1 X153.2117 Y170.5086 E0.92334 F1800 ; Print pattern wall
G1 E-0.8 F2400 ; Retract
G0 X155.6617 Y131.9314 F12000 ; Move to next pattern
G1 E0.8 F1800 ; Un-retract
SET_PRESSURE_ADVANCE ADVANCE=0.045 ; Set pressure advance
M117 PA 0.045
G1 X174.9503 Y151.22 E0.92334 F1800 ; Print pattern wall
G1 X155.6617 Y170.5086 E0.92334 F1800 ; Print pattern wall
G1 E-0.8 F2400 ; Retract
G0 X156.2374 Y131.9314 F12000 ; Move to start next pattern wall
G1 E0.8 F1800 ; Un-retract
G1 X175.526 Y151.22 E0.92334 F1800 ; Print pattern wall
G1 X156.2374 Y170.5086 E0.92334 F1800 ; Print pattern wall
G1 E-0.8 F2400 ; Retract
G0 X156.8131 Y131.9314 F12000 ; Move to start next pattern wall
G1 E0.8 F1800 ; Un-retract
G1 X176.1017 Y151.22 E0.92334 F1800 ; Print pattern wall
G1 X156.8131 Y170.5086 E0.92334 F1800 ; Print pattern wall
G1 E-0.8 F2400 ; Retract
G0 X159.2631 Y131.9314 F12000 ; Move to next pattern
G1 E0.8 F1800 ; Un-retract
SET_PRESSURE_ADVANCE ADVANCE=0.05 ; Set pressure advance
M117 PA 0.05
G1 X178.5517 Y151.22 E0.92334 F1800 ; Print pattern wall
G1 X159.2631 Y170.5086 E0.92334 F1800 ; Print pattern wall
G1 E-0.8 F2400 ; Retract
G0 X159.8388 Y131.9314 F12000 ; Move to start next pattern wall
G1 E0.8 F1800 ; Un-retract
G1 X179.1274 Y151.22 E0.92334 F1800 ; Print pattern wall
G1 X159.8388 Y170.5086 E0.92334 F1800 ; Print pattern wall
G1 E-0.8 F2400 ; Retract
G0 X160.4145 Y131.9314 F12000 ; Move to start next pattern wall
G1 E0.8 F1800 ; Un-retract
G1 X179.7031 Y151.22 E0.92334 F1800 ; Print pattern wall
G1 X160.4145 Y170.5086 E0.92334 F1800 ; Print pattern wall
G1 E-0.8 F2400 ; Retract
G0 X162.8645 Y131.9314 F12000 ; Move to next pattern
G1 E0.8 F1800 ; Un-retract
SET_PRESSURE_ADVANCE ADVANCE=0.055 ; Set pressure advance
M117 PA 0.055
G1 X182.1531 Y151.22 E0.92334 F1800 ; Print pattern wall
G1 X162.8645 Y170.5086 E0.92334 F1800 ; Print pattern wall
G1 E-0.8 F2400 ; Retract
G0 X163.4402 Y131.9314 F12000 ; Move to start next pattern wall
G1 E0.8 F1800 ; Un-retract
G1 X182.7288 Y151.22 E0.92334 F1800 ; Print pattern wall
G1 X163.4402 Y170.5086 E0.92334 F1800 ; Print pattern wall
G1 E-0.8 F2400 ; Retract
G0 X164.0159 Y131.9314 F12000 ; Move to start next pattern wall
G1 E0.8 F1800 ; Un-retract
G1 X183.3045 Y151.22 E0.92334 F1800 ; Print pattern wall
G1 X164.0159 Y170.5086 E0.92334 F1800 ; Print pattern wall
G1 E-0.8 F2400 ; Retract
G0 X166.4659 Y131.9314 F12000 ; Move to next pattern
G1 E0.8 F1800 ; Un-retract
SET_PRESSURE_ADVANCE ADVANCE=0.06 ; Set pressure advance
M117 PA 0.06
G1 X185.7545 Y151.22 E0.92334 F1800 ; Print pattern wall
G1 X166.4659 Y170.5086 E0.92334 F1800 ; Print pattern wall
G1 E-0.8 F2400 ; Retract
G0 X167.0416 Y131.9314 F12000 ; Move to start next pattern wall
G1 E0.8 F1800 ; Un-retract
G1 X186.3302 Y151.22 E0.92334 F1800 ; Print pattern wall
G1 X167.0416 Y170.5086 E0.92334 F1800 ; Print pattern wall
G1 E-0.8 F2400 ; Retract
G0 X167.6173 Y131.9314 F12000 ; Move to start next pattern wall
G1 E0.8 F1800 ; Un-retract
G1 X186.9059 Y151.22 E0.92334 F1800 ; Print pattern wall
G1 X167.6173 Y170.5086 E0.92334 F1800 ; Print pattern wall
G1 E-0.8 F2400 ; Retract
G0 X170.0673 Y131.9314 F12000 ; Move to next pattern
G1 E0.8 F1800 ; Un-retract
SET_PRESSURE_ADVANCE ADVANCE=0.065 ; Set pressure advance
M117 PA 0.065
G1 X189.3559 Y151.22 E0.92334 F1800 ; Print pattern wall
G1 X170.0673 Y170.5086 E0.92334 F1800 ; Print pattern wall
G1 E-0.8 F2400 ; Retract
G0 X170.6429 Y131.9314 F12000 ; Move to start next pattern wall
G1 E0.8 F1800 ; Un-retract
G1 X189.9316 Y151.22 E0.92334 F1800 ; Print pattern wall
G1 X170.6429 Y170.5086 E0.92334 F1800 ; Print pattern wall
G1 E-0.8 F2400 ; Retract
G0 X171.2186 Y131.9314 F12000 ; Move to start next pattern wall
G1 E0.8 F1800 ; Un-retract
G1 X190.5073 Y151.22 E0.92334 F1800 ; Print pattern wall
G1 X171.2186 Y170.5086 E0.92334 F1800 ; Print pattern wall
G1 E-0.8 F2400 ; Retract
G0 X173.6686 Y131.9314 F12000 ; Move to next pattern
G1 E0.8 F1800 ; Un-retract
SET_PRESSURE_ADVANCE ADVANCE=0.07 ; Set pressure advance
M117 PA 0.07
G1 X192.9573 Y151.22 E0.92334 F1800 ; Print pattern wall
G1 X173.6686 Y170.5086 E0.92334 F1800 ; Print pattern wall
G1 E-0.8 F2400 ; Retract
G0 X174.2443 Y131.9314 F12000 ; Move to start next pattern wall
G1 E0.8 F1800 ; Un-retract
G1 X193.533 Y151.22 E0.92334 F1800 ; Print pattern wall
G1 X174.2443 Y170.5086 E0.92334 F1800 ; Print pattern wall
G1 E-0.8 F2400 ; Retract
G0 X174.82 Y131.9314 F12000 ; Move to start next pattern wall
G1 E0.8 F1800 ; Un-retract
G1 X194.1087 Y151.22 E0.92334 F1800 ; Print pattern wall
G1 X174.82 Y170.5086 E0.92334 F1800 ; Print pattern wall
G1 E-0.8 F2400 ; Retract
G0 X177.27 Y131.9314 F12000 ; Move to next pattern
G1 E0.8 F1800 ; Un-retract
SET_PRESSURE_ADVANCE ADVANCE=0.075 ; Set pressure advance
M117 PA 0.075
G1 X196.5587 Y151.22 E0.92334 F1800 ; Print pattern wall
G1 X177.27 Y170.5086 E0.92334 F1800 ; Print pattern wall
G1 E-0.8 F2400 ; Retract
G0 X177.8457 Y131.9314 F12000 ; Move to start next pattern wall
G1 E0.8 F1800 ; Un-retract
G1 X197.1344 Y151.22 E0.92334 F1800 ; Print pattern wall
G1 X177.8457 Y170.5086 E0.92334 F1800 ; Print pattern wall
G1 E-0.8 F2400 ; Retract
G0 X178.4214 Y131.9314 F12000 ; Move to start next pattern wall
G1 E0.8 F1800 ; Un-retract
G1 X197.7101 Y151.22 E0.92334 F1800 ; Print pattern wall
G1 X178.4214 Y170.5086 E0.92334 F1800 ; Print pattern wall
G1 E-0.8 F2400 ; Retract
G0 X180.8714 Y131.9314 F12000 ; Move to next pattern
G1 E0.8 F1800 ; Un-retract
SET_PRESSURE_ADVANCE ADVANCE=0.08 ; Set pressure advance
M117 PA 0.08
G1 X200.1601 Y151.22 E0.92334 F1800 ; Print pattern wall
G1 X180.8714 Y170.5086 E0.92334 F1800 ; Print pattern wall
G1 E-0.8 F2400 ; Retract
G0 X181.4471 Y131.9314 F12000 ; Move to start next pattern wall
G1 E0.8 F1800 ; Un-retract
G1 X200.7358 Y151.22 E0.92334 F1800 ; Print pattern wall
G1 X181.4471 Y170.5086 E0.92334 F1800 ; Print pattern wall
G1 E-0.8 F2400 ; Retract
G0 X182.0228 Y131.9314 F12000 ; Move to start next pattern wall
G1 E0.8 F1800 ; Un-retract
G1 X201.3115 Y151.22 E0.92334 F1800 ; Print pattern wall
G1 X182.0228 Y170.5086 E0.92334 F1800 ; Print pattern wall
G1 E-0.8 F2400 ; Retract
G0 X123.2491 Y131.9314 F12000 ; Move back to start position
G1 E0.8 F1800 ; Un-retract
M106 S255 ; Set fan speed
G0 Z0.4 F12000 ; Move to layer height
SET_PRESSURE_ADVANCE ADVANCE=0 ; Set pressure advance to start value for numbering
M117 PA 0
G1 E-0.8 F2400 ; Retract
G0 X119.9002 Y173.8832 F12000 ; Move
G1 E0.8 F1800 ; Un-retract
G1 X121.9002 Y173.8832 E0.0677 F1800 ; Glyph: 0
G1 X123.9002 Y173.8832 E0.0677 F1800 ; Glyph: 0
G1 X123.9002 Y175.8832 E0.0677 F1800 ; Glyph: 0
G1 X121.9002 Y175.8832 E0.0677 F1800 ; Glyph: 0
G1 X119.9002 Y175.8832 E0.0677 F1800 ; Glyph: 0
G1 X119.9002 Y173.8832 E0.0677 F1800 ; Glyph: 0
G1 E-0.8 F2400 ; Retract
G0 X127.103 Y173.8832 F12000 ; Move
G1 E0.8 F1800 ; Un-retract
G1 X129.103 Y173.8832 E0.0677 F1800 ; Glyph: 0
G1 X131.103 Y173.8832 E0.0677 F1800 ; Glyph: 0
G1 X131.103 Y175.8832 E0.0677 F1800 ; Glyph: 0
G1 X129.103 Y175.8832 E0.0677 F1800 ; Glyph: 0
G1 X127.103 Y175.8832 E0.0677 F1800 ; Glyph: 0
G1 X127.103 Y173.8832 E0.0677 F1800 ; Glyph: 0
G1 E-0.8 F2400 ; Retract
G0 X131.103 Y176.8832 F12000 ; Move
G1 E0.8 F1800 ; Un-retract
G1 X130.353 Y176.8832 E0.02539 F1800 ; Glyph: .
G1 E-0.8 F2400 ; Retract
G0 X127.103 Y177.8832 F12000 ; Move
G1 E0.8 F1800 ; Un-retract
G1 X129.103 Y177.8832 E0.0677 F1800 ; Glyph: 0
G1 X131.103 Y177.8832 E0.0677 F1800 ; Glyph: 0
G1 X131.103 Y179.8832 E0.0677 F1800 ; Glyph: 0
G1 X129.103 Y179.8832 E0.0677 F1800 ; Glyph: 0
G1 X127.103 Y179.8832 E0.0677 F1800 ; Glyph: 0
G1 X127.103 Y177.8832 E0.0677 F1800 ; Glyph: 0
G1 E-0.8 F2400 ; Retract
G0 X127.103 Y180.8832 F12000 ; Move
G1 E0.8 F1800 ; Un-retract
G1 X129.103 Y180.8832 E0.0677 F1800 ; Glyph: 1
G1 X131.103 Y180.8832 E0.0677 F1800 ; Glyph: 1
G1 E-0.8 F2400 ; Retract
G0 X134.3058 Y173.8832 F12000 ; Move
G1 E0.8 F1800 ; Un-retract
G1 X136.3058 Y173.8832 E0.0677 F1800 ; Glyph: 0
G1 X138.3058 Y173.8832 E0.0677 F1800 ; Glyph: 0
G1 X138.3058 Y175.8832 E0.0677 F1800 ; Glyph: 0
G1 X136.3058 Y175.8832 E0.0677 F1800 ; Glyph: 0
G1 X134.3058 Y175.8832 E0.0677 F1800 ; Glyph: 0
G1 X134.3058 Y173.8832 E0.0677 F1800 ; Glyph: 0
G1 E-0.8 F2400 ; Retract
G0 X138.3058 Y176.8832 F12000 ; Move
G1 E0.8 F1800 ; Un-retract
G1 X137.5558 Y176.8832 E0.02539 F1800 ; Glyph: .
G1 E-0.8 F2400 ; Retract
G0 X134.3058 Y177.8832 F12000 ; Move
G1 E0.8 F1800 ; Un-retract
G1 X136.3058 Y177.8832 E0.0677 F1800 ; Glyph: 0
G1 X138.3058 Y177.8832 E0.0677 F1800 ; Glyph: 0
G1 X138.3058 Y179.8832 E0.0677 F1800 ; Glyph: 0
G1 X136.3058 Y179.8832 E0.0677 F1800 ; Glyph: 0
G1 X134.3058 Y179.8832 E0.0677 F1800 ; Glyph: 0
G1 X134.3058 Y177.8832 E0.0677 F1800 ; Glyph: 0
G1 E-0.8 F2400 ; Retract
G0 X134.3058 Y180.8832 F12000 ; Move
G1 E0.8 F1800 ; Un-retract
G1 X134.3058 Y182.8832 E0.0677 F1800 ; Glyph: 2
G1 X136.3058 Y182.8832 E0.0677 F1800 ; Glyph: 2
G1 X136.3058 Y180.8832 E0.0677 F1800 ; Glyph: 2
G1 X138.3058 Y180.8832 E0.0677 F1800 ; Glyph: 2
G1 X138.3058 Y182.8832 E0.0677 F1800 ; Glyph: 2
G1 E-0.8 F2400 ; Retract
G0 X141.5086 Y173.8832 F12000 ; Move
G1 E0.8 F1800 ; Un-retract
G1 X143.5086 Y173.8832 E0.0677 F1800 ; Glyph: 0
G1 X145.5086 Y173.8832 E0.0677 F1800 ; Glyph: 0
G1 X145.5086 Y175.8832 E0.0677 F1800 ; Glyph: 0
G1 X143.5086 Y175.8832 E0.0677 F1800 ; Glyph: 0
G1 X141.5086 Y175.8832 E0.0677 F1800 ; Glyph: 0
G1 X141.5086 Y173.8832 E0.0677 F1800 ; Glyph: 0
G1 E-0.8 F2400 ; Retract
G0 X145.5086 Y176.8832 F12000 ; Move
G1 E0.8 F1800 ; Un-retract
G1 X144.7586 Y176.8832 E0.02539 F1800 ; Glyph: .
G1 E-0.8 F2400 ; Retract
G0 X141.5086 Y177.8832 F12000 ; Move
G1 E0.8 F1800 ; Un-retract
G1 X143.5086 Y177.8832 E0.0677 F1800 ; Glyph: 0
G1 X145.5086 Y177.8832 E0.0677 F1800 ; Glyph: 0
G1 X145.5086 Y179.8832 E0.0677 F1800 ; Glyph: 0
G1 X143.5086 Y179.8832 E0.0677 F1800 ; Glyph: 0
G1 X141.5086 Y179.8832 E0.0677 F1800 ; Glyph: 0
G1 X141.5086 Y177.8832 E0.0677 F1800 ; Glyph: 0
G1 E-0.8 F2400 ; Retract
G0 X141.5086 Y180.8832 F12000 ; Move
G1 E0.8 F1800 ; Un-retract
G1 X141.5086 Y182.8832 E0.0677 F1800 ; Glyph: 3
G1 X143.5086 Y182.8832 E0.0677 F1800 ; Glyph: 3
G1 X143.5086 Y180.8832 E0.0677 F1800 ; Glyph: 3
G0 X143.5086 Y182.8832 F12000 ; Move
G1 X145.5086 Y182.8832 E0.0677 F1800 ; Glyph: 3
G1 X145.5086 Y180.8832 E0.0677 F1800 ; Glyph: 3
G1 E-0.8 F2400 ; Retract
G0 X148.7114 Y173.8832 F12000 ; Move
G1 E0.8 F1800 ; Un-retract
G1 X150.7114 Y173.8832 E0.0677 F1800 ; Glyph: 0
G1 X152.7114 Y173.8832 E0.0677 F1800 ; Glyph: 0
G1 X152.7114 Y175.8832 E0.0677 F1800 ; Glyph: 0
G1 X150.7114 Y175.8832 E0.0677 F1800 ; Glyph: 0
G1 X148.7114 Y175.8832 E0.0677 F1800 ; Glyph: 0
G1 X148.7114 Y173.8832 E0.0677 F1800 ; Glyph: 0
G1 E-0.8 F2400 ; Retract
G0 X152.7114 Y176.8832 F12000 ; Move
G1 E0.8 F1800 ; Un-retract
G1 X151.9614 Y176.8832 E0.02539 F1800 ; Glyph: .
G1 E-0.8 F2400 ; Retract
G0 X148.7114 Y177.8832 F12000 ; Move
G1 E0.8 F1800 ; Un-retract
G1 X150.7114 Y177.8832 E0.0677 F1800 ; Glyph: 0
G1 X152.7114 Y177.8832 E0.0677 F1800 ; Glyph: 0
G1 X152.7114 Y179.8832 E0.0677 F1800 ; Glyph: 0
G1 X150.7114 Y179.8832 E0.0677 F1800 ; Glyph: 0
G1 X148.7114 Y179.8832 E0.0677 F1800 ; Glyph: 0
G1 X148.7114 Y177.8832 E0.0677 F1800 ; Glyph: 0
G1 E-0.8 F2400 ; Retract
G0 X148.7114 Y182.8832 F12000 ; Move
G1 E0.8 F1800 ; Un-retract
G1 X150.7114 Y182.8832 E0.0677 F1800 ; Glyph: 4
G1 X152.7114 Y182.8832 E0.0677 F1800 ; Glyph: 4
G0 X150.7114 Y182.8832 F12000 ; Move
G1 X150.7114 Y180.8832 E0.0677 F1800 ; Glyph: 4
G1 X148.7114 Y180.8832 E0.0677 F1800 ; Glyph: 4
G1 E-0.8 F2400 ; Retract
G0 X155.9142 Y173.8832 F12000 ; Move
G1 E0.8 F1800 ; Un-retract
G1 X157.9142 Y173.8832 E0.0677 F1800 ; Glyph: 0
G1 X159.9142 Y173.8832 E0.0677 F1800 ; Glyph: 0
G1 X159.9142 Y175.8832 E0.0677 F1800 ; Glyph: 0
G1 X157.9142 Y175.8832 E0.0677 F1800 ; Glyph: 0
G1 X155.9142 Y175.8832 E0.0677 F1800 ; Glyph: 0
G1 X155.9142 Y173.8832 E0.0677 F1800 ; Glyph: 0
G1 E-0.8 F2400 ; Retract
G0 X159.9142 Y176.8832 F12000 ; Move
G1 E0.8 F1800 ; Un-retract
G1 X159.1642 Y176.8832 E0.02539 F1800 ; Glyph: .
G1 E-0.8 F2400 ; Retract
G0 X155.9142 Y177.8832 F12000 ; Move
G1 E0.8 F1800 ; Un-retract
G1 X157.9142 Y177.8832 E0.0677 F1800 ; Glyph: 0
G1 X159.9142 Y177.8832 E0.0677 F1800 ; Glyph: 0
G1 X159.9142 Y179.8832 E0.0677 F1800 ; Glyph: 0
G1 X157.9142 Y179.8832 E0.0677 F1800 ; Glyph: 0
G1 X155.9142 Y179.8832 E0.0677 F1800 ; Glyph: 0
G1 X155.9142 Y177.8832 E0.0677 F1800 ; Glyph: 0
G1 E-0.8 F2400 ; Retract
G0 X155.9142 Y182.8832 F12000 ; Move
G1 E0.8 F1800 ; Un-retract
G1 X155.9142 Y180.8832 E0.0677 F1800 ; Glyph: 5
G1 X157.9142 Y180.8832 E0.0677 F1800 ; Glyph: 5
G1 X157.9142 Y182.8832 E0.0677 F1800 ; Glyph: 5
G1 X159.9142 Y182.8832 E0.0677 F1800 ; Glyph: 5
G1 X159.9142 Y180.8832 E0.0677 F1800 ; Glyph: 5
G1 E-0.8 F2400 ; Retract
G0 X163.117 Y173.8832 F12000 ; Move
G1 E0.8 F1800 ; Un-retract
G1 X165.117 Y173.8832 E0.0677 F1800 ; Glyph: 0
G1 X167.117 Y173.8832 E0.0677 F1800 ; Glyph: 0
G1 X167.117 Y175.8832 E0.0677 F1800 ; Glyph: 0
G1 X165.117 Y175.8832 E0.0677 F1800 ; Glyph: 0
G1 X163.117 Y175.8832 E0.0677 F1800 ; Glyph: 0
G1 X163.117 Y173.8832 E0.0677 F1800 ; Glyph: 0
G1 E-0.8 F2400 ; Retract
G0 X167.117 Y176.8832 F12000 ; Move
G1 E0.8 F1800 ; Un-retract
G1 X166.367 Y176.8832 E0.02539 F1800 ; Glyph: .
G1 E-0.8 F2400 ; Retract
G0 X163.117 Y177.8832 F12000 ; Move
G1 E0.8 F1800 ; Un-retract
G1 X165.117 Y177.8832 E0.0677 F1800 ; Glyph: 0
G1 X167.117 Y177.8832 E0.0677 F1800 ; Glyph: 0
G1 X167.117 Y179.8832 E0.0677 F1800 ; Glyph: 0
G1 X165.117 Y179.8832 E0.0677 F1800 ; Glyph: 0
G1 X163.117 Y179.8832 E0.0677 F1800 ; Glyph: 0
G1 X163.117 Y177.8832 E0.0677 F1800 ; Glyph: 0
G1 E-0.8 F2400 ; Retract
G0 X163.117 Y182.8832 F12000 ; Move
G1 E0.8 F1800 ; Un-retract
G1 X163.117 Y180.8832 E0.0677 F1800 ; Glyph: 6
G1 X165.117 Y180.8832 E0.0677 F1800 ; Glyph: 6
G1 X167.117 Y180.8832 E0.0677 F1800 ; Glyph: 6
G1 X167.117 Y182.8832 E0.0677 F1800 ; Glyph: 6
G1 X165.117 Y182.8832 E0.0677 F1800 ; Glyph: 6
G1 X165.117 Y180.8832 E0.0677 F1800 ; Glyph: 6
G1 E-0.8 F2400 ; Retract
G0 X170.3198 Y173.8832 F12000 ; Move
G1 E0.8 F1800 ; Un-retract
G1 X172.3198 Y173.8832 E0.0677 F1800 ; Glyph: 0
G1 X174.3198 Y173.8832 E0.0677 F1800 ; Glyph: 0
G1 X174.3198 Y175.8832 E0.0677 F1800 ; Glyph: 0
G1 X172.3198 Y175.8832 E0.0677 F1800 ; Glyph: 0
G1 X170.3198 Y175.8832 E0.0677 F1800 ; Glyph: 0
G1 X170.3198 Y173.8832 E0.0677 F1800 ; Glyph: 0
G1 E-0.8 F2400 ; Retract
G0 X174.3198 Y176.8832 F12000 ; Move
G1 E0.8 F1800 ; Un-retract
G1 X173.5698 Y176.8832 E0.02539 F1800 ; Glyph: .
G1 E-0.8 F2400 ; Retract
G0 X170.3198 Y177.8832 F12000 ; Move
G1 E0.8 F1800 ; Un-retract
G1 X172.3198 Y177.8832 E0.0677 F1800 ; Glyph: 0
G1 X174.3198 Y177.8832 E0.0677 F1800 ; Glyph: 0
G1 X174.3198 Y179.8832 E0.0677 F1800 ; Glyph: 0
G1 X172.3198 Y179.8832 E0.0677 F1800 ; Glyph: 0
G1 X170.3198 Y179.8832 E0.0677 F1800 ; Glyph: 0
G1 X170.3198 Y177.8832 E0.0677 F1800 ; Glyph: 0
G1 E-0.8 F2400 ; Retract
G0 X170.3198 Y180.8832 F12000 ; Move
G1 E0.8 F1800 ; Un-retract
G1 X170.3198 Y182.8832 E0.0677 F1800 ; Glyph: 7
G1 X172.3198 Y182.8832 E0.0677 F1800 ; Glyph: 7
G1 X174.3198 Y182.8832 E0.0677 F1800 ; Glyph: 7
G1 E-0.8 F2400 ; Retract
G0 X177.5226 Y173.8832 F12000 ; Move
G1 E0.8 F1800 ; Un-retract
G1 X179.5226 Y173.8832 E0.0677 F1800 ; Glyph: 0
G1 X181.5226 Y173.8832 E0.0677 F1800 ; Glyph: 0
G1 X181.5226 Y175.8832 E0.0677 F1800 ; Glyph: 0
G1 X179.5226 Y175.8832 E0.0677 F1800 ; Glyph: 0
G1 X177.5226 Y175.8832 E0.0677 F1800 ; Glyph: 0
G1 X177.5226 Y173.8832 E0.0677 F1800 ; Glyph: 0
G1 E-0.8 F2400 ; Retract
G0 X181.5226 Y176.8832 F12000 ; Move
G1 E0.8 F1800 ; Un-retract
G1 X180.7726 Y176.8832 E0.02539 F1800 ; Glyph: .
G1 E-0.8 F2400 ; Retract
G0 X177.5226 Y177.8832 F12000 ; Move
G1 E0.8 F1800 ; Un-retract
G1 X179.5226 Y177.8832 E0.0677 F1800 ; Glyph: 0
G1 X181.5226 Y177.8832 E0.0677 F1800 ; Glyph: 0
G1 X181.5226 Y179.8832 E0.0677 F1800 ; Glyph: 0
G1 X179.5226 Y179.8832 E0.0677 F1800 ; Glyph: 0
G1 X177.5226 Y179.8832 E0.0677 F1800 ; Glyph: 0
G1 X177.5226 Y177.8832 E0.0677 F1800 ; Glyph: 0
G1 E-0.8 F2400 ; Retract
G0 X177.5226 Y180.8832 F12000 ; Move
G1 E0.8 F1800 ; Un-retract
G1 X179.5226 Y180.8832 E0.0677 F1800 ; Glyph: 8
G1 X181.5226 Y180.8832 E0.0677 F1800 ; Glyph: 8
G1 X181.5226 Y182.8832 E0.0677 F1800 ; Glyph: 8
G1 X179.5226 Y182.8832 E0.0677 F1800 ; Glyph: 8
G1 X177.5226 Y182.8832 E0.0677 F1800 ; Glyph: 8
G1 X177.5226 Y180.8832 E0.0677 F1800 ; Glyph: 8
G0 X179.5226 Y180.8832 F12000 ; Move
G1 X179.5226 Y182.8832 E0.0677 F1800 ; Glyph: 8
G1 E-0.8 F2400 ; Retract
G0 X121.3245 Y130.0068 F12000 ; Move to pattern start

G1 E0.8 F1800 ; Un-retract
SET_PRESSURE_ADVANCE ADVANCE=0 ; Set pressure advance
M117 PA 0
G1 X142.5377 Y151.22 E1.01546 F12000 ; Print pattern wall
G1 X121.3245 Y172.4332 E1.01546 F12000 ; Print pattern wall
G1 E-0.8 F2400 ; Retract
G0 X121.9002 Y130.0068 F12000 ; Move to start next pattern wall
G1 E0.8 F1800 ; Un-retract
G1 X143.1134 Y151.22 E1.01546 F12000 ; Print pattern wall
G1 X121.9002 Y172.4332 E1.01546 F12000 ; Print pattern wall
G1 E-0.8 F2400 ; Retract
G0 X122.4759 Y130.0068 F12000 ; Move to start next pattern wall
G1 E0.8 F1800 ; Un-retract
G1 X143.6891 Y151.22 E1.01546 F12000 ; Print pattern wall
G1 X122.4759 Y172.4332 E1.01546 F12000 ; Print pattern wall
G1 E-0.8 F2400 ; Retract
G0 X124.9259 Y130.0068 F12000 ; Move to next pattern
G1 E0.8 F1800 ; Un-retract
SET_PRESSURE_ADVANCE ADVANCE=0.005 ; Set pressure advance
M117 PA 0.005
G1 X146.1391 Y151.22 E1.01546 F12000 ; Print pattern wall
G1 X124.9259 Y172.4332 E1.01546 F12000 ; Print pattern wall
G1 E-0.8 F2400 ; Retract
G0 X125.5016 Y130.0068 F12000 ; Move to start next pattern wall
G1 E0.8 F1800 ; Un-retract
G1 X146.7148 Y151.22 E1.01546 F12000 ; Print pattern wall
G1 X125.5016 Y172.4332 E1.01546 F12000 ; Print pattern wall
G1 E-0.8 F2400 ; Retract
G0 X126.0773 Y130.0068 F12000 ; Move to start next pattern wall
G1 E0.8 F1800 ; Un-retract
G1 X147.2905 Y151.22 E1.01546 F12000 ; Print pattern wall
G1 X126.0773 Y172.4332 E1.01546 F12000 ; Print pattern wall
G1 E-0.8 F2400 ; Retract
G0 X128.5273 Y130.0068 F12000 ; Move to next pattern
G1 E0.8 F1800 ; Un-retract
SET_PRESSURE_ADVANCE ADVANCE=0.01 ; Set pressure advance
M117 PA 0.01
G1 X149.7405 Y151.22 E1.01546 F12000 ; Print pattern wall
G1 X128.5273 Y172.4332 E1.01546 F12000 ; Print pattern wall
G1 E-0.8 F2400 ; Retract
G0 X129.103 Y130.0068 F12000 ; Move to start next pattern wall
G1 E0.8 F1800 ; Un-retract
G1 X150.3162 Y151.22 E1.01546 F12000 ; Print pattern wall
G1 X129.103 Y172.4332 E1.01546 F12000 ; Print pattern wall
G1 E-0.8 F2400 ; Retract
G0 X129.6787 Y130.0068 F12000 ; Move to start next pattern wall
G1 E0.8 F1800 ; Un-retract
G1 X150.8919 Y151.22 E1.01546 F12000 ; Print pattern wall
G1 X129.6787 Y172.4332 E1.01546 F12000 ; Print pattern wall
G1 E-0.8 F2400 ; Retract
G0 X132.1287 Y130.0068 F12000 ; Move to next pattern
G1 E0.8 F1800 ; Un-retract
SET_PRESSURE_ADVANCE ADVANCE=0.015 ; Set pressure advance
M117 PA 0.015
G1 X153.3419 Y151.22 E1.01546 F12000 ; Print pattern wall
G1 X132.1287 Y172.4332 E1.01546 F12000 ; Print pattern wall
G1 E-0.8 F2400 ; Retract
G0 X132.7044 Y130.0068 F12000 ; Move to start next pattern wall
G1 E0.8 F1800 ; Un-retract
G1 X153.9176 Y151.22 E1.01546 F12000 ; Print pattern wall
G1 X132.7044 Y172.4332 E1.01546 F12000 ; Print pattern wall
G1 E-0.8 F2400 ; Retract
G0 X133.2801 Y130.0068 F12000 ; Move to start next pattern wall
G1 E0.8 F1800 ; Un-retract
G1 X154.4933 Y151.22 E1.01546 F12000 ; Print pattern wall
G1 X133.2801 Y172.4332 E1.01546 F12000 ; Print pattern wall
G1 E-0.8 F2400 ; Retract
G0 X135.7301 Y130.0068 F12000 ; Move to next pattern
G1 E0.8 F1800 ; Un-retract
SET_PRESSURE_ADVANCE ADVANCE=0.02 ; Set pressure advance
M117 PA 0.02
G1 X156.9433 Y151.22 E1.01546 F12000 ; Print pattern wall
G1 X135.7301 Y172.4332 E1.01546 F12000 ; Print pattern wall
G1 E-0.8 F2400 ; Retract
G0 X136.3058 Y130.0068 F12000 ; Move to start next pattern wall
G1 E0.8 F1800 ; Un-retract
G1 X157.519 Y151.22 E1.01546 F12000 ; Print pattern wall
G1 X136.3058 Y172.4332 E1.01546 F12000 ; Print pattern wall
G1 E-0.8 F2400 ; Retract
G0 X136.8815 Y130.0068 F12000 ; Move to start next pattern wall
G1 E0.8 F1800 ; Un-retract
G1 X158.0947 Y151.22 E1.01546 F12000 ; Print pattern wall
G1 X136.8815 Y172.4332 E1.01546 F12000 ; Print pattern wall
G1 E-0.8 F2400 ; Retract
G0 X139.3315 Y130.0068 F12000 ; Move to next pattern
G1 E0.8 F1800 ; Un-retract
SET_PRESSURE_ADVANCE ADVANCE=0.025 ; Set pressure advance
M117 PA 0.025
G1 X160.5447 Y151.22 E1.01546 F12000 ; Print pattern wall
G1 X139.3315 Y172.4332 E1.01546 F12000 ; Print pattern wall
G1 E-0.8 F2400 ; Retract
G0 X139.9072 Y130.0068 F12000 ; Move to start next pattern wall
G1 E0.8 F1800 ; Un-retract
G1 X161.1204 Y151.22 E1.01546 F12000 ; Print pattern wall
G1 X139.9072 Y172.4332 E1.01546 F12000 ; Print pattern wall
G1 E-0.8 F2400 ; Retract
G0 X140.4829 Y130.0068 F12000 ; Move to start next pattern wall
G1 E0.8 F1800 ; Un-retract
G1 X161.6961 Y151.22 E1.01546 F12000 ; Print pattern wall
G1 X140.4829 Y172.4332 E1.01546 F12000 ; Print pattern wall
G1 E-0.8 F2400 ; Retract
G0 X142.9329 Y130.0068 F12000 ; Move to next pattern
G1 E0.8 F1800 ; Un-retract
SET_PRESSURE_ADVANCE ADVANCE=0.03 ; Set pressure advance
M117 PA 0.03
G1 X164.1461 Y151.22 E1.01546 F12000 ; Print pattern wall
G1 X142.9329 Y172.4332 E1.01546 F12000 ; Print pattern wall
G1 E-0.8 F2400 ; Retract
G0 X143.5086 Y130.0068 F12000 ; Move to start next pattern wall
G1 E0.8 F1800 ; Un-retract
G1 X164.7218 Y151.22 E1.01546 F12000 ; Print pattern wall
G1 X143.5086 Y172.4332 E1.01546 F12000 ; Print pattern wall
G1 E-0.8 F2400 ; Retract
G0 X144.0843 Y130.0068 F12000 ; Move to start next pattern wall
G1 E0.8 F1800 ; Un-retract
G1 X165.2975 Y151.22 E1.01546 F12000 ; Print pattern wall
G1 X144.0843 Y172.4332 E1.01546 F12000 ; Print pattern wall
G1 E-0.8 F2400 ; Retract
G0 X146.5343 Y130.0068 F12000 ; Move to next pattern
G1 E0.8 F1800 ; Un-retract
SET_PRESSURE_ADVANCE ADVANCE=0.035 ; Set pressure advance
M117 PA 0.035
G1 X167.7475 Y151.22 E1.01546 F12000 ; Print pattern wall
G1 X146.5343 Y172.4332 E1.01546 F12000 ; Print pattern wall
G1 E-0.8 F2400 ; Retract
G0 X147.11 Y130.0068 F12000 ; Move to start next pattern wall
G1 E0.8 F1800 ; Un-retract
G1 X168.3232 Y151.22 E1.01546 F12000 ; Print pattern wall
G1 X147.11 Y172.4332 E1.01546 F12000 ; Print pattern wall
G1 E-0.8 F2400 ; Retract
G0 X147.6857 Y130.0068 F12000 ; Move to start next pattern wall
G1 E0.8 F1800 ; Un-retract
G1 X168.8989 Y151.22 E1.01546 F12000 ; Print pattern wall
G1 X147.6857 Y172.4332 E1.01546 F12000 ; Print pattern wall
G1 E-0.8 F2400 ; Retract
G0 X150.1357 Y130.0068 F12000 ; Move to next pattern
G1 E0.8 F1800 ; Un-retract
SET_PRESSURE_ADVANCE ADVANCE=0.04 ; Set pressure advance
M117 PA 0.04
G1 X171.3489 Y151.22 E1.01546 F12000 ; Print pattern wall
G1 X150.1357 Y172.4332 E1.01546 F12000 ; Print pattern wall
G1 E-0.8 F2400 ; Retract
G0 X150.7114 Y130.0068 F12000 ; Move to start next pattern wall
G1 E0.8 F1800 ; Un-retract
G1 X171.9246 Y151.22 E1.01546 F12000 ; Print pattern wall
G1 X150.7114 Y172.4332 E1.01546 F12000 ; Print pattern wall
G1 E-0.8 F2400 ; Retract
G0 X151.2871 Y130.0068 F12000 ; Move to start next pattern wall
G1 E0.8 F1800 ; Un-retract
G1 X172.5003 Y151.22 E1.01546 F12000 ; Print pattern wall
G1 X151.2871 Y172.4332 E1.01546 F12000 ; Print pattern wall
G1 E-0.8 F2400 ; Retract
G0 X153.7371 Y130.0068 F12000 ; Move to next pattern
G1 E0.8 F1800 ; Un-retract
SET_PRESSURE_ADVANCE ADVANCE=0.045 ; Set pressure advance
M117 PA 0.045
G1 X174.9503 Y151.22 E1.01546 F12000 ; Print pattern wall
G1 X153.7371 Y172.4332 E1.01546 F12000 ; Print pattern wall
G1 E-0.8 F2400 ; Retract
G0 X154.3128 Y130.0068 F12000 ; Move to start next pattern wall
G1 E0.8 F1800 ; Un-retract
G1 X175.526 Y151.22 E1.01546 F12000 ; Print pattern wall
G1 X154.3128 Y172.4332 E1.01546 F12000 ; Print pattern wall
G1 E-0.8 F2400 ; Retract
G0 X154.8885 Y130.0068 F12000 ; Move to start next pattern wall
G1 E0.8 F1800 ; Un-retract
G1 X176.1017 Y151.22 E1.01546 F12000 ; Print pattern wall
G1 X154.8885 Y172.4332 E1.01546 F12000 ; Print pattern wall
G1 E-0.8 F2400 ; Retract
G0 X157.3385 Y130.0068 F12000 ; Move to next pattern
G1 E0.8 F1800 ; Un-retract
SET_PRESSURE_ADVANCE ADVANCE=0.05 ; Set pressure advance
M117 PA 0.05
G1 X178.5517 Y151.22 E1.01546 F12000 ; Print pattern wall
G1 X157.3385 Y172.4332 E1.01546 F12000 ; Print pattern wall
G1 E-0.8 F2400 ; Retract
G0 X157.9142 Y130.0068 F12000 ; Move to start next pattern wall
G1 E0.8 F1800 ; Un-retract
G1 X179.1274 Y151.22 E1.01546 F12000 ; Print pattern wall
G1 X157.9142 Y172.4332 E1.01546 F12000 ; Print pattern wall
G1 E-0.8 F2400 ; Retract
G0 X158.4899 Y130.0068 F12000 ; Move to start next pattern wall
G1 E0.8 F1800 ; Un-retract
G1 X179.7031 Y151.22 E1.01546 F12000 ; Print pattern wall
G1 X158.4899 Y172.4332 E1.01546 F12000 ; Print pattern wall
G1 E-0.8 F2400 ; Retract
G0 X160.9399 Y130.0068 F12000 ; Move to next pattern
G1 E0.8 F1800 ; Un-retract
SET_PRESSURE_ADVANCE ADVANCE=0.055 ; Set pressure advance
M117 PA 0.055
G1 X182.1531 Y151.22 E1.01546 F12000 ; Print pattern wall
G1 X160.9399 Y172.4332 E1.01546 F12000 ; Print pattern wall
G1 E-0.8 F2400 ; Retract
G0 X161.5156 Y130.0068 F12000 ; Move to start next pattern wall
G1 E0.8 F1800 ; Un-retract
G1 X182.7288 Y151.22 E1.01546 F12000 ; Print pattern wall
G1 X161.5156 Y172.4332 E1.01546 F12000 ; Print pattern wall
G1 E-0.8 F2400 ; Retract
G0 X162.0913 Y130.0068 F12000 ; Move to start next pattern wall
G1 E0.8 F1800 ; Un-retract
G1 X183.3045 Y151.22 E1.01546 F12000 ; Print pattern wall
G1 X162.0913 Y172.4332 E1.01546 F12000 ; Print pattern wall
G1 E-0.8 F2400 ; Retract
G0 X164.5413 Y130.0068 F12000 ; Move to next pattern
G1 E0.8 F1800 ; Un-retract
SET_PRESSURE_ADVANCE ADVANCE=0.06 ; Set pressure advance
M117 PA 0.06
G1 X185.7545 Y151.22 E1.01546 F12000 ; Print pattern wall
G1 X164.5413 Y172.4332 E1.01546 F12000 ; Print pattern wall
G1 E-0.8 F2400 ; Retract
G0 X165.117 Y130.0068 F12000 ; Move to start next pattern wall
G1 E0.8 F1800 ; Un-retract
G1 X186.3302 Y151.22 E1.01546 F12000 ; Print pattern wall
G1 X165.117 Y172.4332 E1.01546 F12000 ; Print pattern wall
G1 E-0.8 F2400 ; Retract
G0 X165.6927 Y130.0068 F12000 ; Move to start next pattern wall
G1 E0.8 F1800 ; Un-retract
G1 X186.9059 Y151.22 E1.01546 F12000 ; Print pattern wall
G1 X165.6927 Y172.4332 E1.01546 F12000 ; Print pattern wall
G1 E-0.8 F2400 ; Retract
G0 X168.1427 Y130.0068 F12000 ; Move to next pattern
G1 E0.8 F1800 ; Un-retract
SET_PRESSURE_ADVANCE ADVANCE=0.065 ; Set pressure advance
M117 PA 0.065
G1 X189.3559 Y151.22 E1.01546 F12000 ; Print pattern wall
G1 X168.1427 Y172.4332 E1.01546 F12000 ; Print pattern wall
G1 E-0.8 F2400 ; Retract
G0 X168.7184 Y130.0068 F12000 ; Move to start next pattern wall
G1 E0.8 F1800 ; Un-retract
G1 X189.9316 Y151.22 E1.01546 F12000 ; Print pattern wall
G1 X168.7184 Y172.4332 E1.01546 F12000 ; Print pattern wall
G1 E-0.8 F2400 ; Retract
G0 X169.2941 Y130.0068 F12000 ; Move to start next pattern wall
G1 E0.8 F1800 ; Un-retract
G1 X190.5073 Y151.22 E1.01546 F12000 ; Print pattern wall
G1 X169.2941 Y172.4332 E1.01546 F12000 ; Print pattern wall
G1 E-0.8 F2400 ; Retract
G0 X171.7441 Y130.0068 F12000 ; Move to next pattern
G1 E0.8 F1800 ; Un-retract
SET_PRESSURE_ADVANCE ADVANCE=0.07 ; Set pressure advance
M117 PA 0.07
G1 X192.9573 Y151.22 E1.01546 F12000 ; Print pattern wall
G1 X171.7441 Y172.4332 E1.01546 F12000 ; Print pattern wall
G1 E-0.8 F2400 ; Retract
G0 X172.3198 Y130.0068 F12000 ; Move to start next pattern wall
G1 E0.8 F1800 ; Un-retract
G1 X193.533 Y151.22 E1.01546 F12000 ; Print pattern wall
G1 X172.3198 Y172.4332 E1.01546 F12000 ; Print pattern wall
G1 E-0.8 F2400 ; Retract
G0 X172.8955 Y130.0068 F12000 ; Move to start next pattern wall
G1 E0.8 F1800 ; Un-retract
G1 X194.1087 Y151.22 E1.01546 F12000 ; Print pattern wall
G1 X172.8955 Y172.4332 E1.01546 F12000 ; Print pattern wall
G1 E-0.8 F2400 ; Retract
G0 X175.3455 Y130.0068 F12000 ; Move to next pattern
G1 E0.8 F1800 ; Un-retract
SET_PRESSURE_ADVANCE ADVANCE=0.075 ; Set pressure advance
M117 PA 0.075
G1 X196.5587 Y151.22 E1.01546 F12000 ; Print pattern wall
G1 X175.3455 Y172.4332 E1.01546 F12000 ; Print pattern wall
G1 E-0.8 F2400 ; Retract
G0 X175.9212 Y130.0068 F12000 ; Move to start next pattern wall
G1 E0.8 F1800 ; Un-retract
G1 X197.1344 Y151.22 E1.01546 F12000 ; Print pattern wall
G1 X175.9212 Y172.4332 E1.01546 F12000 ; Print pattern wall
G1 E-0.8 F2400 ; Retract
G0 X176.4969 Y130.0068 F12000 ; Move to start next pattern wall
G1 E0.8 F1800 ; Un-retract
G1 X197.7101 Y151.22 E1.01546 F12000 ; Print pattern wall
G1 X176.4969 Y172.4332 E1.01546 F12000 ; Print pattern wall
G1 E-0.8 F2400 ; Retract
G0 X178.9469 Y130.0068 F12000 ; Move to next pattern
G1 E0.8 F1800 ; Un-retract
SET_PRESSURE_ADVANCE ADVANCE=0.08 ; Set pressure advance
M117 PA 0.08
G1 X200.1601 Y151.22 E1.01546 F12000 ; Print pattern wall
G1 X178.9469 Y172.4332 E1.01546 F12000 ; Print pattern wall
G1 E-0.8 F2400 ; Retract
G0 X179.5226 Y130.0068 F12000 ; Move to start next pattern wall
G1 E0.8 F1800 ; Un-retract
G1 X200.7358 Y151.22 E1.01546 F12000 ; Print pattern wall
G1 X179.5226 Y172.4332 E1.01546 F12000 ; Print pattern wall
G1 E-0.8 F2400 ; Retract
G0 X180.0983 Y130.0068 F12000 ; Move to start next pattern wall
G1 E0.8 F1800 ; Un-retract
G1 X201.3115 Y151.22 E1.01546 F12000 ; Print pattern wall
G1 X180.0983 Y172.4332 E1.01546 F12000 ; Print pattern wall
G1 E-0.8 F2400 ; Retract
G0 X121.3245 Y130.0068 F12000 ; Move back to start position
G1 E0.8 F1800 ; Un-retract
G0 Z0.6 F12000 ; Move to layer height
SET_PRESSURE_ADVANCE ADVANCE=0 ; Set pressure advance
M117 PA 0
G1 X142.5377 Y151.22 E1.01546 F12000 ; Print pattern wall
G1 X121.3245 Y172.4332 E1.01546 F12000 ; Print pattern wall
G1 E-0.8 F2400 ; Retract
G0 X121.9002 Y130.0068 F12000 ; Move to start next pattern wall
G1 E0.8 F1800 ; Un-retract
G1 X143.1134 Y151.22 E1.01546 F12000 ; Print pattern wall
G1 X121.9002 Y172.4332 E1.01546 F12000 ; Print pattern wall
G1 E-0.8 F2400 ; Retract
G0 X122.4759 Y130.0068 F12000 ; Move to start next pattern wall
G1 E0.8 F1800 ; Un-retract
G1 X143.6891 Y151.22 E1.01546 F12000 ; Print pattern wall
G1 X122.4759 Y172.4332 E1.01546 F12000 ; Print pattern wall
G1 E-0.8 F2400 ; Retract
G0 X124.9259 Y130.0068 F12000 ; Move to next pattern
G1 E0.8 F1800 ; Un-retract
SET_PRESSURE_ADVANCE ADVANCE=0.005 ; Set pressure advance
M117 PA 0.005
G1 X146.1391 Y151.22 E1.01546 F12000 ; Print pattern wall
G1 X124.9259 Y172.4332 E1.01546 F12000 ; Print pattern wall
G1 E-0.8 F2400 ; Retract
G0 X125.5016 Y130.0068 F12000 ; Move to start next pattern wall
G1 E0.8 F1800 ; Un-retract
G1 X146.7148 Y151.22 E1.01546 F12000 ; Print pattern wall
G1 X125.5016 Y172.4332 E1.01546 F12000 ; Print pattern wall
G1 E-0.8 F2400 ; Retract
G0 X126.0773 Y130.0068 F12000 ; Move to start next pattern wall
G1 E0.8 F1800 ; Un-retract
G1 X147.2905 Y151.22 E1.01546 F12000 ; Print pattern wall
G1 X126.0773 Y172.4332 E1.01546 F12000 ; Print pattern wall
G1 E-0.8 F2400 ; Retract
G0 X128.5273 Y130.0068 F12000 ; Move to next pattern
G1 E0.8 F1800 ; Un-retract
SET_PRESSURE_ADVANCE ADVANCE=0.01 ; Set pressure advance
M117 PA 0.01
G1 X149.7405 Y151.22 E1.01546 F12000 ; Print pattern wall
G1 X128.5273 Y172.4332 E1.01546 F12000 ; Print pattern wall
G1 E-0.8 F2400 ; Retract
G0 X129.103 Y130.0068 F12000 ; Move to start next pattern wall
G1 E0.8 F1800 ; Un-retract
G1 X150.3162 Y151.22 E1.01546 F12000 ; Print pattern wall
G1 X129.103 Y172.4332 E1.01546 F12000 ; Print pattern wall
G1 E-0.8 F2400 ; Retract
G0 X129.6787 Y130.0068 F12000 ; Move to start next pattern wall
G1 E0.8 F1800 ; Un-retract
G1 X150.8919 Y151.22 E1.01546 F12000 ; Print pattern wall
G1 X129.6787 Y172.4332 E1.01546 F12000 ; Print pattern wall
G1 E-0.8 F2400 ; Retract
G0 X132.1287 Y130.0068 F12000 ; Move to next pattern
G1 E0.8 F1800 ; Un-retract
SET_PRESSURE_ADVANCE ADVANCE=0.015 ; Set pressure advance
M117 PA 0.015
G1 X153.3419 Y151.22 E1.01546 F12000 ; Print pattern wall
G1 X132.1287 Y172.4332 E1.01546 F12000 ; Print pattern wall
G1 E-0.8 F2400 ; Retract
G0 X132.7044 Y130.0068 F12000 ; Move to start next pattern wall
G1 E0.8 F1800 ; Un-retract
G1 X153.9176 Y151.22 E1.01546 F12000 ; Print pattern wall
G1 X132.7044 Y172.4332 E1.01546 F12000 ; Print pattern wall
G1 E-0.8 F2400 ; Retract
G0 X133.2801 Y130.0068 F12000 ; Move to start next pattern wall
G1 E0.8 F1800 ; Un-retract
G1 X154.4933 Y151.22 E1.01546 F12000 ; Print pattern wall
G1 X133.2801 Y172.4332 E1.01546 F12000 ; Print pattern wall
G1 E-0.8 F2400 ; Retract
G0 X135.7301 Y130.0068 F12000 ; Move to next pattern
G1 E0.8 F1800 ; Un-retract
SET_PRESSURE_ADVANCE ADVANCE=0.02 ; Set pressure advance
M117 PA 0.02
G1 X156.9433 Y151.22 E1.01546 F12000 ; Print pattern wall
G1 X135.7301 Y172.4332 E1.01546 F12000 ; Print pattern wall
G1 E-0.8 F2400 ; Retract
G0 X136.3058 Y130.0068 F12000 ; Move to start next pattern wall
G1 E0.8 F1800 ; Un-retract
G1 X157.519 Y151.22 E1.01546 F12000 ; Print pattern wall
G1 X136.3058 Y172.4332 E1.01546 F12000 ; Print pattern wall
G1 E-0.8 F2400 ; Retract
G0 X136.8815 Y130.0068 F12000 ; Move to start next pattern wall
G1 E0.8 F1800 ; Un-retract
G1 X158.0947 Y151.22 E1.01546 F12000 ; Print pattern wall
G1 X136.8815 Y172.4332 E1.01546 F12000 ; Print pattern wall
G1 E-0.8 F2400 ; Retract
G0 X139.3315 Y130.0068 F12000 ; Move to next pattern
G1 E0.8 F1800 ; Un-retract
SET_PRESSURE_ADVANCE ADVANCE=0.025 ; Set pressure advance
M117 PA 0.025
G1 X160.5447 Y151.22 E1.01546 F12000 ; Print pattern wall
G1 X139.3315 Y172.4332 E1.01546 F12000 ; Print pattern wall
G1 E-0.8 F2400 ; Retract
G0 X139.9072 Y130.0068 F12000 ; Move to start next pattern wall
G1 E0.8 F1800 ; Un-retract
G1 X161.1204 Y151.22 E1.01546 F12000 ; Print pattern wall
G1 X139.9072 Y172.4332 E1.01546 F12000 ; Print pattern wall
G1 E-0.8 F2400 ; Retract
G0 X140.4829 Y130.0068 F12000 ; Move to start next pattern wall
G1 E0.8 F1800 ; Un-retract
G1 X161.6961 Y151.22 E1.01546 F12000 ; Print pattern wall
G1 X140.4829 Y172.4332 E1.01546 F12000 ; Print pattern wall
G1 E-0.8 F2400 ; Retract
G0 X142.9329 Y130.0068 F12000 ; Move to next pattern
G1 E0.8 F1800 ; Un-retract
SET_PRESSURE_ADVANCE ADVANCE=0.03 ; Set pressure advance
M117 PA 0.03
G1 X164.1461 Y151.22 E1.01546 F12000 ; Print pattern wall
G1 X142.9329 Y172.4332 E1.01546 F12000 ; Print pattern wall
G1 E-0.8 F2400 ; Retract
G0 X143.5086 Y130.0068 F12000 ; Move to start next pattern wall
G1 E0.8 F1800 ; Un-retract
G1 X164.7218 Y151.22 E1.01546 F12000 ; Print pattern wall
G1 X143.5086 Y172.4332 E1.01546 F12000 ; Print pattern wall
G1 E-0.8 F2400 ; Retract
G0 X144.0843 Y130.0068 F12000 ; Move to start next pattern wall
G1 E0.8 F1800 ; Un-retract
G1 X165.2975 Y151.22 E1.01546 F12000 ; Print pattern wall
G1 X144.0843 Y172.4332 E1.01546 F12000 ; Print pattern wall
G1 E-0.8 F2400 ; Retract
G0 X146.5343 Y130.0068 F12000 ; Move to next pattern
G1 E0.8 F1800 ; Un-retract
SET_PRESSURE_ADVANCE ADVANCE=0.035 ; Set pressure advance
M117 PA 0.035
G1 X167.7475 Y151.22 E1.01546 F12000 ; Print pattern wall
G1 X146.5343 Y172.4332 E1.01546 F12000 ; Print pattern wall
G1 E-0.8 F2400 ; Retract
G0 X147.11 Y130.0068 F12000 ; Move to start next pattern wall
G1 E0.8 F1800 ; Un-retract
G1 X168.3232 Y151.22 E1.01546 F12000 ; Print pattern wall
G1 X147.11 Y172.4332 E1.01546 F12000 ; Print pattern wall
G1 E-0.8 F2400 ; Retract
G0 X147.6857 Y130.0068 F12000 ; Move to start next pattern wall
G1 E0.8 F1800 ; Un-retract
G1 X168.8989 Y151.22 E1.01546 F12000 ; Print pattern wall
G1 X147.6857 Y172.4332 E1.01546 F12000 ; Print pattern wall
G1 E-0.8 F2400 ; Retract
G0 X150.1357 Y130.0068 F12000 ; Move to next pattern
G1 E0.8 F1800 ; Un-retract
SET_PRESSURE_ADVANCE ADVANCE=0.04 ; Set pressure advance
M117 PA 0.04
G1 X171.3489 Y151.22 E1.01546 F12000 ; Print pattern wall
G1 X150.1357 Y172.4332 E1.01546 F12000 ; Print pattern wall
G1 E-0.8 F2400 ; Retract
G0 X150.7114 Y130.0068 F12000 ; Move to start next pattern wall
G1 E0.8 F1800 ; Un-retract
G1 X171.9246 Y151.22 E1.01546 F12000 ; Print pattern wall
G1 X150.7114 Y172.4332 E1.01546 F12000 ; Print pattern wall
G1 E-0.8 F2400 ; Retract
G0 X151.2871 Y130.0068 F12000 ; Move to start next pattern wall
G1 E0.8 F1800 ; Un-retract
G1 X172.5003 Y151.22 E1.01546 F12000 ; Print pattern wall
G1 X151.2871 Y172.4332 E1.01546 F12000 ; Print pattern wall
G1 E-0.8 F2400 ; Retract
G0 X153.7371 Y130.0068 F12000 ; Move to next pattern
G1 E0.8 F1800 ; Un-retract
SET_PRESSURE_ADVANCE ADVANCE=0.045 ; Set pressure advance
M117 PA 0.045
G1 X174.9503 Y151.22 E1.01546 F12000 ; Print pattern wall
G1 X153.7371 Y172.4332 E1.01546 F12000 ; Print pattern wall
G1 E-0.8 F2400 ; Retract
G0 X154.3128 Y130.0068 F12000 ; Move to start next pattern wall
G1 E0.8 F1800 ; Un-retract
G1 X175.526 Y151.22 E1.01546 F12000 ; Print pattern wall
G1 X154.3128 Y172.4332 E1.01546 F12000 ; Print pattern wall
G1 E-0.8 F2400 ; Retract
G0 X154.8885 Y130.0068 F12000 ; Move to start next pattern wall
G1 E0.8 F1800 ; Un-retract
G1 X176.1017 Y151.22 E1.01546 F12000 ; Print pattern wall
G1 X154.8885 Y172.4332 E1.01546 F12000 ; Print pattern wall
G1 E-0.8 F2400 ; Retract
G0 X157.3385 Y130.0068 F12000 ; Move to next pattern
G1 E0.8 F1800 ; Un-retract
SET_PRESSURE_ADVANCE ADVANCE=0.05 ; Set pressure advance
M117 PA 0.05
G1 X178.5517 Y151.22 E1.01546 F12000 ; Print pattern wall
G1 X157.3385 Y172.4332 E1.01546 F12000 ; Print pattern wall
G1 E-0.8 F2400 ; Retract
G0 X157.9142 Y130.0068 F12000 ; Move to start next pattern wall
G1 E0.8 F1800 ; Un-retract
G1 X179.1274 Y151.22 E1.01546 F12000 ; Print pattern wall
G1 X157.9142 Y172.4332 E1.01546 F12000 ; Print pattern wall
G1 E-0.8 F2400 ; Retract
G0 X158.4899 Y130.0068 F12000 ; Move to start next pattern wall
G1 E0.8 F1800 ; Un-retract
G1 X179.7031 Y151.22 E1.01546 F12000 ; Print pattern wall
G1 X158.4899 Y172.4332 E1.01546 F12000 ; Print pattern wall
G1 E-0.8 F2400 ; Retract
G0 X160.9399 Y130.0068 F12000 ; Move to next pattern
G1 E0.8 F1800 ; Un-retract
SET_PRESSURE_ADVANCE ADVANCE=0.055 ; Set pressure advance
M117 PA 0.055
G1 X182.1531 Y151.22 E1.01546 F12000 ; Print pattern wall
G1 X160.9399 Y172.4332 E1.01546 F12000 ; Print pattern wall
G1 E-0.8 F2400 ; Retract
G0 X161.5156 Y130.0068 F12000 ; Move to start next pattern wall
G1 E0.8 F1800 ; Un-retract
G1 X182.7288 Y151.22 E1.01546 F12000 ; Print pattern wall
G1 X161.5156 Y172.4332 E1.01546 F12000 ; Print pattern wall
G1 E-0.8 F2400 ; Retract
G0 X162.0913 Y130.0068 F12000 ; Move to start next pattern wall
G1 E0.8 F1800 ; Un-retract
G1 X183.3045 Y151.22 E1.01546 F12000 ; Print pattern wall
G1 X162.0913 Y172.4332 E1.01546 F12000 ; Print pattern wall
G1 E-0.8 F2400 ; Retract
G0 X164.5413 Y130.0068 F12000 ; Move to next pattern
G1 E0.8 F1800 ; Un-retract
SET_PRESSURE_ADVANCE ADVANCE=0.06 ; Set pressure advance
M117 PA 0.06
G1 X185.7545 Y151.22 E1.01546 F12000 ; Print pattern wall
G1 X164.5413 Y172.4332 E1.01546 F12000 ; Print pattern wall
G1 E-0.8 F2400 ; Retract
G0 X165.117 Y130.0068 F12000 ; Move to start next pattern wall
G1 E0.8 F1800 ; Un-retract
G1 X186.3302 Y151.22 E1.01546 F12000 ; Print pattern wall
G1 X165.117 Y172.4332 E1.01546 F12000 ; Print pattern wall
G1 E-0.8 F2400 ; Retract
G0 X165.6927 Y130.0068 F12000 ; Move to start next pattern wall
G1 E0.8 F1800 ; Un-retract
G1 X186.9059 Y151.22 E1.01546 F12000 ; Print pattern wall
G1 X165.6927 Y172.4332 E1.01546 F12000 ; Print pattern wall
G1 E-0.8 F2400 ; Retract
G0 X168.1427 Y130.0068 F12000 ; Move to next pattern
G1 E0.8 F1800 ; Un-retract
SET_PRESSURE_ADVANCE ADVANCE=0.065 ; Set pressure advance
M117 PA 0.065
G1 X189.3559 Y151.22 E1.01546 F12000 ; Print pattern wall
G1 X168.1427 Y172.4332 E1.01546 F12000 ; Print pattern wall
G1 E-0.8 F2400 ; Retract
G0 X168.7184 Y130.0068 F12000 ; Move to start next pattern wall
G1 E0.8 F1800 ; Un-retract
G1 X189.9316 Y151.22 E1.01546 F12000 ; Print pattern wall
G1 X168.7184 Y172.4332 E1.01546 F12000 ; Print pattern wall
G1 E-0.8 F2400 ; Retract
G0 X169.2941 Y130.0068 F12000 ; Move to start next pattern wall
G1 E0.8 F1800 ; Un-retract
G1 X190.5073 Y151.22 E1.01546 F12000 ; Print pattern wall
G1 X169.2941 Y172.4332 E1.01546 F12000 ; Print pattern wall
G1 E-0.8 F2400 ; Retract
G0 X171.7441 Y130.0068 F12000 ; Move to next pattern
G1 E0.8 F1800 ; Un-retract
SET_PRESSURE_ADVANCE ADVANCE=0.07 ; Set pressure advance
M117 PA 0.07
G1 X192.9573 Y151.22 E1.01546 F12000 ; Print pattern wall
G1 X171.7441 Y172.4332 E1.01546 F12000 ; Print pattern wall
G1 E-0.8 F2400 ; Retract
G0 X172.3198 Y130.0068 F12000 ; Move to start next pattern wall
G1 E0.8 F1800 ; Un-retract
G1 X193.533 Y151.22 E1.01546 F12000 ; Print pattern wall
G1 X172.3198 Y172.4332 E1.01546 F12000 ; Print pattern wall
G1 E-0.8 F2400 ; Retract
G0 X172.8955 Y130.0068 F12000 ; Move to start next pattern wall
G1 E0.8 F1800 ; Un-retract
G1 X194.1087 Y151.22 E1.01546 F12000 ; Print pattern wall
G1 X172.8955 Y172.4332 E1.01546 F12000 ; Print pattern wall
G1 E-0.8 F2400 ; Retract
G0 X175.3455 Y130.0068 F12000 ; Move to next pattern
G1 E0.8 F1800 ; Un-retract
SET_PRESSURE_ADVANCE ADVANCE=0.075 ; Set pressure advance
M117 PA 0.075
G1 X196.5587 Y151.22 E1.01546 F12000 ; Print pattern wall
G1 X175.3455 Y172.4332 E1.01546 F12000 ; Print pattern wall
G1 E-0.8 F2400 ; Retract
G0 X175.9212 Y130.0068 F12000 ; Move to start next pattern wall
G1 E0.8 F1800 ; Un-retract
G1 X197.1344 Y151.22 E1.01546 F12000 ; Print pattern wall
G1 X175.9212 Y172.4332 E1.01546 F12000 ; Print pattern wall
G1 E-0.8 F2400 ; Retract
G0 X176.4969 Y130.0068 F12000 ; Move to start next pattern wall
G1 E0.8 F1800 ; Un-retract
G1 X197.7101 Y151.22 E1.01546 F12000 ; Print pattern wall
G1 X176.4969 Y172.4332 E1.01546 F12000 ; Print pattern wall
G1 E-0.8 F2400 ; Retract
G0 X178.9469 Y130.0068 F12000 ; Move to next pattern
G1 E0.8 F1800 ; Un-retract
SET_PRESSURE_ADVANCE ADVANCE=0.08 ; Set pressure advance
M117 PA 0.08
G1 X200.1601 Y151.22 E1.01546 F12000 ; Print pattern wall
G1 X178.9469 Y172.4332 E1.01546 F12000 ; Print pattern wall
G1 E-0.8 F2400 ; Retract
G0 X179.5226 Y130.0068 F12000 ; Move to start next pattern wall
G1 E0.8 F1800 ; Un-retract
G1 X200.7358 Y151.22 E1.01546 F12000 ; Print pattern wall
G1 X179.5226 Y172.4332 E1.01546 F12000 ; Print pattern wall
G1 E-0.8 F2400 ; Retract
G0 X180.0983 Y130.0068 F12000 ; Move to start next pattern wall
G1 E0.8 F1800 ; Un-retract
G1 X201.3115 Y151.22 E1.01546 F12000 ; Print pattern wall
G1 X180.0983 Y172.4332 E1.01546 F12000 ; Print pattern wall
G1 E-0.8 F2400 ; Retract
G0 X121.3245 Y130.0068 F12000 ; Move back to start position
G1 E0.8 F1800 ; Un-retract
G0 Z0.8 F12000 ; Move to layer height
SET_PRESSURE_ADVANCE ADVANCE=0 ; Set pressure advance
M117 PA 0
G1 X142.5377 Y151.22 E1.01546 F12000 ; Print pattern wall
G1 X121.3245 Y172.4332 E1.01546 F12000 ; Print pattern wall
G1 E-0.8 F2400 ; Retract
G0 X121.9002 Y130.0068 F12000 ; Move to start next pattern wall
G1 E0.8 F1800 ; Un-retract
G1 X143.1134 Y151.22 E1.01546 F12000 ; Print pattern wall
G1 X121.9002 Y172.4332 E1.01546 F12000 ; Print pattern wall
G1 E-0.8 F2400 ; Retract
G0 X122.4759 Y130.0068 F12000 ; Move to start next pattern wall
G1 E0.8 F1800 ; Un-retract
G1 X143.6891 Y151.22 E1.01546 F12000 ; Print pattern wall
G1 X122.4759 Y172.4332 E1.01546 F12000 ; Print pattern wall
G1 E-0.8 F2400 ; Retract
G0 X124.9259 Y130.0068 F12000 ; Move to next pattern
G1 E0.8 F1800 ; Un-retract
SET_PRESSURE_ADVANCE ADVANCE=0.005 ; Set pressure advance
M117 PA 0.005
G1 X146.1391 Y151.22 E1.01546 F12000 ; Print pattern wall
G1 X124.9259 Y172.4332 E1.01546 F12000 ; Print pattern wall
G1 E-0.8 F2400 ; Retract
G0 X125.5016 Y130.0068 F12000 ; Move to start next pattern wall
G1 E0.8 F1800 ; Un-retract
G1 X146.7148 Y151.22 E1.01546 F12000 ; Print pattern wall
G1 X125.5016 Y172.4332 E1.01546 F12000 ; Print pattern wall
G1 E-0.8 F2400 ; Retract
G0 X126.0773 Y130.0068 F12000 ; Move to start next pattern wall
G1 E0.8 F1800 ; Un-retract
G1 X147.2905 Y151.22 E1.01546 F12000 ; Print pattern wall
G1 X126.0773 Y172.4332 E1.01546 F12000 ; Print pattern wall
G1 E-0.8 F2400 ; Retract
G0 X128.5273 Y130.0068 F12000 ; Move to next pattern
G1 E0.8 F1800 ; Un-retract
SET_PRESSURE_ADVANCE ADVANCE=0.01 ; Set pressure advance
M117 PA 0.01
G1 X149.7405 Y151.22 E1.01546 F12000 ; Print pattern wall
G1 X128.5273 Y172.4332 E1.01546 F12000 ; Print pattern wall
G1 E-0.8 F2400 ; Retract
G0 X129.103 Y130.0068 F12000 ; Move to start next pattern wall
G1 E0.8 F1800 ; Un-retract
G1 X150.3162 Y151.22 E1.01546 F12000 ; Print pattern wall
G1 X129.103 Y172.4332 E1.01546 F12000 ; Print pattern wall
G1 E-0.8 F2400 ; Retract
G0 X129.6787 Y130.0068 F12000 ; Move to start next pattern wall
G1 E0.8 F1800 ; Un-retract
G1 X150.8919 Y151.22 E1.01546 F12000 ; Print pattern wall
G1 X129.6787 Y172.4332 E1.01546 F12000 ; Print pattern wall
G1 E-0.8 F2400 ; Retract
G0 X132.1287 Y130.0068 F12000 ; Move to next pattern
G1 E0.8 F1800 ; Un-retract
SET_PRESSURE_ADVANCE ADVANCE=0.015 ; Set pressure advance
M117 PA 0.015
G1 X153.3419 Y151.22 E1.01546 F12000 ; Print pattern wall
G1 X132.1287 Y172.4332 E1.01546 F12000 ; Print pattern wall
G1 E-0.8 F2400 ; Retract
G0 X132.7044 Y130.0068 F12000 ; Move to start next pattern wall
G1 E0.8 F1800 ; Un-retract
G1 X153.9176 Y151.22 E1.01546 F12000 ; Print pattern wall
G1 X132.7044 Y172.4332 E1.01546 F12000 ; Print pattern wall
G1 E-0.8 F2400 ; Retract
G0 X133.2801 Y130.0068 F12000 ; Move to start next pattern wall
G1 E0.8 F1800 ; Un-retract
G1 X154.4933 Y151.22 E1.01546 F12000 ; Print pattern wall
G1 X133.2801 Y172.4332 E1.01546 F12000 ; Print pattern wall
G1 E-0.8 F2400 ; Retract
G0 X135.7301 Y130.0068 F12000 ; Move to next pattern
G1 E0.8 F1800 ; Un-retract
SET_PRESSURE_ADVANCE ADVANCE=0.02 ; Set pressure advance
M117 PA 0.02
G1 X156.9433 Y151.22 E1.01546 F12000 ; Print pattern wall
G1 X135.7301 Y172.4332 E1.01546 F12000 ; Print pattern wall
G1 E-0.8 F2400 ; Retract
G0 X136.3058 Y130.0068 F12000 ; Move to start next pattern wall
G1 E0.8 F1800 ; Un-retract
G1 X157.519 Y151.22 E1.01546 F12000 ; Print pattern wall
G1 X136.3058 Y172.4332 E1.01546 F12000 ; Print pattern wall
G1 E-0.8 F2400 ; Retract
G0 X136.8815 Y130.0068 F12000 ; Move to start next pattern wall
G1 E0.8 F1800 ; Un-retract
G1 X158.0947 Y151.22 E1.01546 F12000 ; Print pattern wall
G1 X136.8815 Y172.4332 E1.01546 F12000 ; Print pattern wall
G1 E-0.8 F2400 ; Retract
G0 X139.3315 Y130.0068 F12000 ; Move to next pattern
G1 E0.8 F1800 ; Un-retract
SET_PRESSURE_ADVANCE ADVANCE=0.025 ; Set pressure advance
M117 PA 0.025
G1 X160.5447 Y151.22 E1.01546 F12000 ; Print pattern wall
G1 X139.3315 Y172.4332 E1.01546 F12000 ; Print pattern wall
G1 E-0.8 F2400 ; Retract
G0 X139.9072 Y130.0068 F12000 ; Move to start next pattern wall
G1 E0.8 F1800 ; Un-retract
G1 X161.1204 Y151.22 E1.01546 F12000 ; Print pattern wall
G1 X139.9072 Y172.4332 E1.01546 F12000 ; Print pattern wall
G1 E-0.8 F2400 ; Retract
G0 X140.4829 Y130.0068 F12000 ; Move to start next pattern wall
G1 E0.8 F1800 ; Un-retract
G1 X161.6961 Y151.22 E1.01546 F12000 ; Print pattern wall
G1 X140.4829 Y172.4332 E1.01546 F12000 ; Print pattern wall
G1 E-0.8 F2400 ; Retract
G0 X142.9329 Y130.0068 F12000 ; Move to next pattern
G1 E0.8 F1800 ; Un-retract
SET_PRESSURE_ADVANCE ADVANCE=0.03 ; Set pressure advance
M117 PA 0.03
G1 X164.1461 Y151.22 E1.01546 F12000 ; Print pattern wall
G1 X142.9329 Y172.4332 E1.01546 F12000 ; Print pattern wall
G1 E-0.8 F2400 ; Retract
G0 X143.5086 Y130.0068 F12000 ; Move to start next pattern wall
G1 E0.8 F1800 ; Un-retract
G1 X164.7218 Y151.22 E1.01546 F12000 ; Print pattern wall
G1 X143.5086 Y172.4332 E1.01546 F12000 ; Print pattern wall
G1 E-0.8 F2400 ; Retract
G0 X144.0843 Y130.0068 F12000 ; Move to start next pattern wall
G1 E0.8 F1800 ; Un-retract
G1 X165.2975 Y151.22 E1.01546 F12000 ; Print pattern wall
G1 X144.0843 Y172.4332 E1.01546 F12000 ; Print pattern wall
G1 E-0.8 F2400 ; Retract
G0 X146.5343 Y130.0068 F12000 ; Move to next pattern
G1 E0.8 F1800 ; Un-retract
SET_PRESSURE_ADVANCE ADVANCE=0.035 ; Set pressure advance
M117 PA 0.035
G1 X167.7475 Y151.22 E1.01546 F12000 ; Print pattern wall
G1 X146.5343 Y172.4332 E1.01546 F12000 ; Print pattern wall
G1 E-0.8 F2400 ; Retract
G0 X147.11 Y130.0068 F12000 ; Move to start next pattern wall
G1 E0.8 F1800 ; Un-retract
G1 X168.3232 Y151.22 E1.01546 F12000 ; Print pattern wall
G1 X147.11 Y172.4332 E1.01546 F12000 ; Print pattern wall
G1 E-0.8 F2400 ; Retract
G0 X147.6857 Y130.0068 F12000 ; Move to start next pattern wall
G1 E0.8 F1800 ; Un-retract
G1 X168.8989 Y151.22 E1.01546 F12000 ; Print pattern wall
G1 X147.6857 Y172.4332 E1.01546 F12000 ; Print pattern wall
G1 E-0.8 F2400 ; Retract
G0 X150.1357 Y130.0068 F12000 ; Move to next pattern
G1 E0.8 F1800 ; Un-retract
SET_PRESSURE_ADVANCE ADVANCE=0.04 ; Set pressure advance
M117 PA 0.04
G1 X171.3489 Y151.22 E1.01546 F12000 ; Print pattern wall
G1 X150.1357 Y172.4332 E1.01546 F12000 ; Print pattern wall
G1 E-0.8 F2400 ; Retract
G0 X150.7114 Y130.0068 F12000 ; Move to start next pattern wall
G1 E0.8 F1800 ; Un-retract
G1 X171.9246 Y151.22 E1.01546 F12000 ; Print pattern wall
G1 X150.7114 Y172.4332 E1.01546 F12000 ; Print pattern wall
G1 E-0.8 F2400 ; Retract
G0 X151.2871 Y130.0068 F12000 ; Move to start next pattern wall
G1 E0.8 F1800 ; Un-retract
G1 X172.5003 Y151.22 E1.01546 F12000 ; Print pattern wall
G1 X151.2871 Y172.4332 E1.01546 F12000 ; Print pattern wall
G1 E-0.8 F2400 ; Retract
G0 X153.7371 Y130.0068 F12000 ; Move to next pattern
G1 E0.8 F1800 ; Un-retract
SET_PRESSURE_ADVANCE ADVANCE=0.045 ; Set pressure advance
M117 PA 0.045
G1 X174.9503 Y151.22 E1.01546 F12000 ; Print pattern wall
G1 X153.7371 Y172.4332 E1.01546 F12000 ; Print pattern wall
G1 E-0.8 F2400 ; Retract
G0 X154.3128 Y130.0068 F12000 ; Move to start next pattern wall
G1 E0.8 F1800 ; Un-retract
G1 X175.526 Y151.22 E1.01546 F12000 ; Print pattern wall
G1 X154.3128 Y172.4332 E1.01546 F12000 ; Print pattern wall
G1 E-0.8 F2400 ; Retract
G0 X154.8885 Y130.0068 F12000 ; Move to start next pattern wall
G1 E0.8 F1800 ; Un-retract
G1 X176.1017 Y151.22 E1.01546 F12000 ; Print pattern wall
G1 X154.8885 Y172.4332 E1.01546 F12000 ; Print pattern wall
G1 E-0.8 F2400 ; Retract
G0 X157.3385 Y130.0068 F12000 ; Move to next pattern
G1 E0.8 F1800 ; Un-retract
SET_PRESSURE_ADVANCE ADVANCE=0.05 ; Set pressure advance
M117 PA 0.05
G1 X178.5517 Y151.22 E1.01546 F12000 ; Print pattern wall
G1 X157.3385 Y172.4332 E1.01546 F12000 ; Print pattern wall
G1 E-0.8 F2400 ; Retract
G0 X157.9142 Y130.0068 F12000 ; Move to start next pattern wall
G1 E0.8 F1800 ; Un-retract
G1 X179.1274 Y151.22 E1.01546 F12000 ; Print pattern wall
G1 X157.9142 Y172.4332 E1.01546 F12000 ; Print pattern wall
G1 E-0.8 F2400 ; Retract
G0 X158.4899 Y130.0068 F12000 ; Move to start next pattern wall
G1 E0.8 F1800 ; Un-retract
G1 X179.7031 Y151.22 E1.01546 F12000 ; Print pattern wall
G1 X158.4899 Y172.4332 E1.01546 F12000 ; Print pattern wall
G1 E-0.8 F2400 ; Retract
G0 X160.9399 Y130.0068 F12000 ; Move to next pattern
G1 E0.8 F1800 ; Un-retract
SET_PRESSURE_ADVANCE ADVANCE=0.055 ; Set pressure advance
M117 PA 0.055
G1 X182.1531 Y151.22 E1.01546 F12000 ; Print pattern wall
G1 X160.9399 Y172.4332 E1.01546 F12000 ; Print pattern wall
G1 E-0.8 F2400 ; Retract
G0 X161.5156 Y130.0068 F12000 ; Move to start next pattern wall
G1 E0.8 F1800 ; Un-retract
G1 X182.7288 Y151.22 E1.01546 F12000 ; Print pattern wall
G1 X161.5156 Y172.4332 E1.01546 F12000 ; Print pattern wall
G1 E-0.8 F2400 ; Retract
G0 X162.0913 Y130.0068 F12000 ; Move to start next pattern wall
G1 E0.8 F1800 ; Un-retract
G1 X183.3045 Y151.22 E1.01546 F12000 ; Print pattern wall
G1 X162.0913 Y172.4332 E1.01546 F12000 ; Print pattern wall
G1 E-0.8 F2400 ; Retract
G0 X164.5413 Y130.0068 F12000 ; Move to next pattern
G1 E0.8 F1800 ; Un-retract
SET_PRESSURE_ADVANCE ADVANCE=0.06 ; Set pressure advance
M117 PA 0.06
G1 X185.7545 Y151.22 E1.01546 F12000 ; Print pattern wall
G1 X164.5413 Y172.4332 E1.01546 F12000 ; Print pattern wall
G1 E-0.8 F2400 ; Retract
G0 X165.117 Y130.0068 F12000 ; Move to start next pattern wall
G1 E0.8 F1800 ; Un-retract
G1 X186.3302 Y151.22 E1.01546 F12000 ; Print pattern wall
G1 X165.117 Y172.4332 E1.01546 F12000 ; Print pattern wall
G1 E-0.8 F2400 ; Retract
G0 X165.6927 Y130.0068 F12000 ; Move to start next pattern wall
G1 E0.8 F1800 ; Un-retract
G1 X186.9059 Y151.22 E1.01546 F12000 ; Print pattern wall
G1 X165.6927 Y172.4332 E1.01546 F12000 ; Print pattern wall
G1 E-0.8 F2400 ; Retract
G0 X168.1427 Y130.0068 F12000 ; Move to next pattern
G1 E0.8 F1800 ; Un-retract
SET_PRESSURE_ADVANCE ADVANCE=0.065 ; Set pressure advance
M117 PA 0.065
G1 X189.3559 Y151.22 E1.01546 F12000 ; Print pattern wall
G1 X168.1427 Y172.4332 E1.01546 F12000 ; Print pattern wall
G1 E-0.8 F2400 ; Retract
G0 X168.7184 Y130.0068 F12000 ; Move to start next pattern wall
G1 E0.8 F1800 ; Un-retract
G1 X189.9316 Y151.22 E1.01546 F12000 ; Print pattern wall
G1 X168.7184 Y172.4332 E1.01546 F12000 ; Print pattern wall
G1 E-0.8 F2400 ; Retract
G0 X169.2941 Y130.0068 F12000 ; Move to start next pattern wall
G1 E0.8 F1800 ; Un-retract
G1 X190.5073 Y151.22 E1.01546 F12000 ; Print pattern wall
G1 X169.2941 Y172.4332 E1.01546 F12000 ; Print pattern wall
G1 E-0.8 F2400 ; Retract
G0 X171.7441 Y130.0068 F12000 ; Move to next pattern
G1 E0.8 F1800 ; Un-retract
SET_PRESSURE_ADVANCE ADVANCE=0.07 ; Set pressure advance
M117 PA 0.07
G1 X192.9573 Y151.22 E1.01546 F12000 ; Print pattern wall
G1 X171.7441 Y172.4332 E1.01546 F12000 ; Print pattern wall
G1 E-0.8 F2400 ; Retract
G0 X172.3198 Y130.0068 F12000 ; Move to start next pattern wall
G1 E0.8 F1800 ; Un-retract
G1 X193.533 Y151.22 E1.01546 F12000 ; Print pattern wall
G1 X172.3198 Y172.4332 E1.01546 F12000 ; Print pattern wall
G1 E-0.8 F2400 ; Retract
G0 X172.8955 Y130.0068 F12000 ; Move to start next pattern wall
G1 E0.8 F1800 ; Un-retract
G1 X194.1087 Y151.22 E1.01546 F12000 ; Print pattern wall
G1 X172.8955 Y172.4332 E1.01546 F12000 ; Print pattern wall
G1 E-0.8 F2400 ; Retract
G0 X175.3455 Y130.0068 F12000 ; Move to next pattern
G1 E0.8 F1800 ; Un-retract
SET_PRESSURE_ADVANCE ADVANCE=0.075 ; Set pressure advance
M117 PA 0.075
G1 X196.5587 Y151.22 E1.01546 F12000 ; Print pattern wall
G1 X175.3455 Y172.4332 E1.01546 F12000 ; Print pattern wall
G1 E-0.8 F2400 ; Retract
G0 X175.9212 Y130.0068 F12000 ; Move to start next pattern wall
G1 E0.8 F1800 ; Un-retract
G1 X197.1344 Y151.22 E1.01546 F12000 ; Print pattern wall
G1 X175.9212 Y172.4332 E1.01546 F12000 ; Print pattern wall
G1 E-0.8 F2400 ; Retract
G0 X176.4969 Y130.0068 F12000 ; Move to start next pattern wall
G1 E0.8 F1800 ; Un-retract
G1 X197.7101 Y151.22 E1.01546 F12000 ; Print pattern wall
G1 X176.4969 Y172.4332 E1.01546 F12000 ; Print pattern wall
G1 E-0.8 F2400 ; Retract
G0 X178.9469 Y130.0068 F12000 ; Move to next pattern
G1 E0.8 F1800 ; Un-retract
SET_PRESSURE_ADVANCE ADVANCE=0.08 ; Set pressure advance
M117 PA 0.08
G1 X200.1601 Y151.22 E1.01546 F12000 ; Print pattern wall
G1 X178.9469 Y172.4332 E1.01546 F12000 ; Print pattern wall
G1 E-0.8 F2400 ; Retract
G0 X179.5226 Y130.0068 F12000 ; Move to start next pattern wall
G1 E0.8 F1800 ; Un-retract
G1 X200.7358 Y151.22 E1.01546 F12000 ; Print pattern wall
G1 X179.5226 Y172.4332 E1.01546 F12000 ; Print pattern wall
G1 E-0.8 F2400 ; Retract
G0 X180.0983 Y130.0068 F12000 ; Move to start next pattern wall
G1 E0.8 F1800 ; Un-retract
G1 X201.3115 Y151.22 E1.01546 F12000 ; Print pattern wall
G1 X180.0983 Y172.4332 E1.01546 F12000 ; Print pattern wall
SET_PRESSURE_ADVANCE ADVANCE=0 ; Set pressure advance back to start value
M117 PA 0
G1 E-0.8 F2400 ; Retract
G0 Z5.8 F12000 ; Z raise
M104 S0 ; Turn off hotend
M140 S0 ; Turn off bed
M107    ; Turn off fan
;
; End G-code
;
END_PRINT
;
; FINISH
;
