
; ### Ellis' Pressure Advance / Linear Advance Calibration Tool ###
;
; Original Marlin linear advance calibration tool by Sineos [https://github.com/Sineos]
; Heavily modified/rewritten by Andrew Ellis [https://github.com/AndrewEllis93]
;
; -------------------------------------------
; Generated: Fri Aug 18 2023 22:06:55 GMT-0700 (Pacific Daylight Saving Time)
; -------------------------------------------
;
; Advanced Mode: false
;
; Printer:
;  - Firmware: klipper
;  - Bed Shape: Rect
;  - Bed Size X: 330 mm
;  - Bed Size Y: 330 mm
;  - Origin Bed Center: false
;  - Travel Speed: 150 mm/s
;  - Nozzle Diameter: 0.4 mm
;  - Filament Diameter: 1.75 mm
;  - Extrusion Multiplier: 1
;
; Retraction / Z Hop:
;  - Retraction Distance: 0.5 mm
;  - Retract Speed: 50 mm/s
;  - Unretract Speed: 30 mm/s
;  - Z Hop Enable: true
;  - Z Hop Height: 0.2mm
;
; First Layer Settings:
;  - First Layer Height: 0.2 mm
;  - First Layer Printing Speed: 50 mm/s
;  - First Layer Fan Speed: 0%
;  - Anchor Option: anchor_frame
;
; Print Settings:
;  - Layer Height: 0.2 mm
;  - Print Speed: 250 mm/s
;  - Acceleration: 15000 mm/s^2
;  - Fan Speed: 100%
;
; Pressure Advance Stepping:
;  - PA Start Value: 0.03
;  - PA End Value: 0.05
;  - PA Increment: 0.001
;
; Start / End G-code:
;  - Hotend Temp: 260C
;  - Bed Temp: 110C
;  - Don't Add G28: false
;  - Don't Add Heating G-Codes: false
;
; Calculated Values:
;  - Print Size X: 99.17 mm
;  - Print Size Y: 56.99 mm
;  - Number of Patterns to Print: 21
;  - PA Values: 0.03, 0.031, 0.032, 0.033, 0.034, 0.035, 0.036, 0.037, 0.038, 0.039, 0.04, 0.041, 0.042, 0.043, 0.044, 0.045, 0.046, 0.047, 0.048, 0.049, 0.05
;
; Prepare printing
;
G28 ; Home all axes
M190 S110 ; Set & wait for bed temp
M109 S260 ; Set & wait for hotend temp
START_PRINT T_BED=110 T_EXTRUDER=260
G21 ; Millimeter units
G90 ; Absolute XYZ
M83 ; Relative E
G92 E0 ; Reset extruder distance
;
;  Begin printing
;
M106 S0 ; Set fan speed
SET_VELOCITY_LIMIT ACCEL=15000 ; Set printing acceleration
G1 E-0.5 F3000 ; Retract
G0 Z5 F9000 ; Z raise
G0 X115.4174 Y136.5068 F9000 ; Move to start position
G0 Z0.2 F9000 ; Move to start layer height
G1 E0.5 F1800 ; Un-retract
SET_PRESSURE_ADVANCE ADVANCE=0.03 ; Set pressure advance to start value
M117 PA 0.03
G1 X115.4174 Y178.9332 E1.82414 F3000 ; Draw perimeter (up)
G1 X214.5826 Y178.9332 E4.26364 F3000 ; Draw perimeter (right)
G1 X214.5826 Y136.5068 E1.82414 F3000 ; Draw perimeter (down)
G1 X115.4174 Y136.5068 E4.26364 F3000 ; Draw perimeter (left)
G0 X115.9345 Y137.0239 F9000 ; Step inwards to print next perimeter
G1 X115.9345 Y178.4161 E1.77967 F3000 ; Draw perimeter (up)
G1 X214.0655 Y178.4161 E4.21917 F3000 ; Draw perimeter (right)
G1 X214.0655 Y137.0239 E1.77967 F3000 ; Draw perimeter (down)
G1 X115.9345 Y137.0239 E4.21917 F3000 ; Draw perimeter (left)
G0 X116.4516 Y137.541 F9000 ; Step inwards to print next perimeter
G1 X116.4516 Y177.899 E1.73521 F3000 ; Draw perimeter (up)
G1 X213.5484 Y177.899 E4.17471 F3000 ; Draw perimeter (right)
G1 X213.5484 Y137.541 E1.73521 F3000 ; Draw perimeter (down)
G1 X116.4516 Y137.541 E4.17471 F3000 ; Draw perimeter (left)
G0 X116.9687 Y138.058 F9000 ; Step inwards to print next perimeter
G1 X116.9687 Y177.382 E1.69075 F3000 ; Draw perimeter (up)
G1 X213.0313 Y177.382 E4.13025 F3000 ; Draw perimeter (right)
G1 X213.0313 Y138.058 E1.69075 F3000 ; Draw perimeter (down)
G1 X116.9687 Y138.058 E4.13025 F3000 ; Draw perimeter (left)
G1 E-0.5 F3000 ; Retract
G1 Z0.4 F9000 ; Z hop
G0 X115.4174 Y179.4503 F9000 ; Move to box start
G1 Z0.2 F9000 ; Z hop return
G1 E0.5 F1800 ; Un-retract
G1 X115.4174 Y193.9674 E0.62417 F3000 ; Draw perimeter (up)
G1 X194.0775 Y193.9674 E3.38202 F3000 ; Draw perimeter (right)
G1 X194.0775 Y179.4503 E0.62417 F3000 ; Draw perimeter (down)
G1 X115.4174 Y179.4503 E3.38202 F3000 ; Draw perimeter (left)
G0 X115.9345 Y179.9674 F9000 ; Step inwards to print next perimeter
G1 X115.9345 Y193.4503 E0.5797 F3000 ; Draw perimeter (up)
G1 X193.5604 Y193.4503 E3.33755 F3000 ; Draw perimeter (right)
G1 X193.5604 Y179.9674 E0.5797 F3000 ; Draw perimeter (down)
G1 X115.9345 Y179.9674 E3.33755 F3000 ; Draw perimeter (left)
G0 X116.4516 Y180.4844 F9000 ; Step inwards to print next perimeter
G1 X116.4516 Y192.9332 E0.53524 F3000 ; Draw perimeter (up)
G1 X193.0433 Y192.9332 E3.29309 F3000 ; Draw perimeter (right)
G1 X193.0433 Y180.4844 E0.53524 F3000 ; Draw perimeter (down)
G1 X116.4516 Y180.4844 E3.29309 F3000 ; Draw perimeter (left)
G0 X116.9687 Y181.0015 F9000 ; Step inwards to print next perimeter
G1 X116.9687 Y192.4161 E0.49077 F3000 ; Draw perimeter (up)
G1 X192.5263 Y192.4161 E3.24862 F3000 ; Draw perimeter (right)
G1 X192.5263 Y181.0015 E0.49077 F3000 ; Draw perimeter (down)
G1 X116.9687 Y181.0015 E3.24862 F3000 ; Draw perimeter (left)
G0 X117.342 Y181.3749 F9000 ; Move to fill start
G0 X118.0733 Y181.3749 F9000 ; Move
G1 X117.342 Y182.1061 E0.04446 F3000 ; Fill
G0 X117.342 Y182.8374 F9000 ; Move
G1 X118.8045 Y181.3749 E0.08893 F3000 ; Fill
G0 X119.5358 Y181.3749 F9000 ; Move
G1 X117.342 Y183.5686 E0.13339 F3000 ; Fill
G0 X117.342 Y184.2999 F9000 ; Move
G1 X120.2671 Y181.3749 E0.17786 F3000 ; Fill
G0 X120.9983 Y181.3749 F9000 ; Move
G1 X117.342 Y185.0312 E0.22232 F3000 ; Fill
G0 X117.342 Y185.7624 F9000 ; Move
G1 X121.7296 Y181.3749 E0.26678 F3000 ; Fill
G0 X122.4608 Y181.3749 F9000 ; Move
G1 X117.342 Y186.4937 E0.31125 F3000 ; Fill
G0 X117.342 Y187.2249 F9000 ; Move
G1 X123.1921 Y181.3749 E0.35571 F3000 ; Fill
G0 X123.9234 Y181.3749 F9000 ; Move
G1 X117.342 Y187.9562 E0.40018 F3000 ; Fill
G0 X117.342 Y188.6875 F9000 ; Move
G1 X124.6546 Y181.3749 E0.44464 F3000 ; Fill
G0 X125.3859 Y181.3749 F9000 ; Move
G1 X117.342 Y189.4187 E0.4891 F3000 ; Fill
G0 X117.342 Y190.15 F9000 ; Move
G1 X126.1171 Y181.3749 E0.53357 F3000 ; Fill
G0 X126.8484 Y181.3749 F9000 ; Move
G1 X117.342 Y190.8813 E0.57803 F3000 ; Fill
G0 X117.342 Y191.6125 F9000 ; Move
G1 X127.5797 Y181.3749 E0.6225 F3000 ; Fill
G0 X128.3109 Y181.3749 F9000 ; Move
G1 X117.643 Y192.0428 E0.64866 F3000 ; Fill
G0 X118.3743 Y192.0428 F9000 ; Move
G1 X129.0422 Y181.3749 E0.64866 F3000 ; Fill
G0 X129.7734 Y181.3749 F9000 ; Move
G1 X119.1055 Y192.0428 E0.64866 F3000 ; Fill
G0 X119.8368 Y192.0428 F9000 ; Move
G1 X130.5047 Y181.3749 E0.64866 F3000 ; Fill
G0 X131.236 Y181.3749 F9000 ; Move
G1 X120.568 Y192.0428 E0.64866 F3000 ; Fill
G0 X121.2993 Y192.0428 F9000 ; Move
G1 X131.9672 Y181.3749 E0.64866 F3000 ; Fill
G0 X132.6985 Y181.3749 F9000 ; Move
G1 X122.0306 Y192.0428 E0.64866 F3000 ; Fill
G0 X122.7618 Y192.0428 F9000 ; Move
G1 X133.4298 Y181.3749 E0.64866 F3000 ; Fill
G0 X134.161 Y181.3749 F9000 ; Move
G1 X123.4931 Y192.0428 E0.64866 F3000 ; Fill
G0 X124.2243 Y192.0428 F9000 ; Move
G1 X134.8923 Y181.3749 E0.64866 F3000 ; Fill
G0 X135.6235 Y181.3749 F9000 ; Move
G1 X124.9556 Y192.0428 E0.64866 F3000 ; Fill
G0 X125.6869 Y192.0428 F9000 ; Move
G1 X136.3548 Y181.3749 E0.64866 F3000 ; Fill
G0 X137.0861 Y181.3749 F9000 ; Move
G1 X126.4181 Y192.0428 E0.64866 F3000 ; Fill
G0 X127.1494 Y192.0428 F9000 ; Move
G1 X137.8173 Y181.3749 E0.64866 F3000 ; Fill
G0 X138.5486 Y181.3749 F9000 ; Move
G1 X127.8806 Y192.0428 E0.64866 F3000 ; Fill
G0 X128.6119 Y192.0428 F9000 ; Move
G1 X139.2798 Y181.3749 E0.64866 F3000 ; Fill
G0 X140.0111 Y181.3749 F9000 ; Move
G1 X129.3432 Y192.0428 E0.64866 F3000 ; Fill
G0 X130.0744 Y192.0428 F9000 ; Move
G1 X140.7424 Y181.3749 E0.64866 F3000 ; Fill
G0 X141.4736 Y181.3749 F9000 ; Move
G1 X130.8057 Y192.0428 E0.64866 F3000 ; Fill
G0 X131.537 Y192.0428 F9000 ; Move
G1 X142.2049 Y181.3749 E0.64866 F3000 ; Fill
G0 X142.9361 Y181.3749 F9000 ; Move
G1 X132.2682 Y192.0428 E0.64866 F3000 ; Fill
G0 X132.9995 Y192.0428 F9000 ; Move
G1 X143.6674 Y181.3749 E0.64866 F3000 ; Fill
G0 X144.3987 Y181.3749 F9000 ; Move
G1 X133.7307 Y192.0428 E0.64866 F3000 ; Fill
G0 X134.462 Y192.0428 F9000 ; Move
G1 X145.1299 Y181.3749 E0.64866 F3000 ; Fill
G0 X145.8612 Y181.3749 F9000 ; Move
G1 X135.1933 Y192.0428 E0.64866 F3000 ; Fill
G0 X135.9245 Y192.0428 F9000 ; Move
G1 X146.5925 Y181.3749 E0.64866 F3000 ; Fill
G0 X147.3237 Y181.3749 F9000 ; Move
G1 X136.6558 Y192.0428 E0.64866 F3000 ; Fill
G0 X137.387 Y192.0428 F9000 ; Move
G1 X148.055 Y181.3749 E0.64866 F3000 ; Fill
G0 X148.7862 Y181.3749 F9000 ; Move
G1 X138.1183 Y192.0428 E0.64866 F3000 ; Fill
G0 X138.8496 Y192.0428 F9000 ; Move
G1 X149.5175 Y181.3749 E0.64866 F3000 ; Fill
G0 X150.2488 Y181.3749 F9000 ; Move
G1 X139.5808 Y192.0428 E0.64866 F3000 ; Fill
G0 X140.3121 Y192.0428 F9000 ; Move
G1 X150.98 Y181.3749 E0.64866 F3000 ; Fill
G0 X151.7113 Y181.3749 F9000 ; Move
G1 X141.0433 Y192.0428 E0.64866 F3000 ; Fill
G0 X141.7746 Y192.0428 F9000 ; Move
G1 X152.4425 Y181.3749 E0.64866 F3000 ; Fill
G0 X153.1738 Y181.3749 F9000 ; Move
G1 X142.5059 Y192.0428 E0.64866 F3000 ; Fill
G0 X143.2371 Y192.0428 F9000 ; Move
G1 X153.9051 Y181.3749 E0.64866 F3000 ; Fill
G0 X154.6363 Y181.3749 F9000 ; Move
G1 X143.9684 Y192.0428 E0.64866 F3000 ; Fill
G0 X144.6997 Y192.0428 F9000 ; Move
G1 X155.3676 Y181.3749 E0.64866 F3000 ; Fill
G0 X156.0988 Y181.3749 F9000 ; Move
G1 X145.4309 Y192.0428 E0.64866 F3000 ; Fill
G0 X146.1622 Y192.0428 F9000 ; Move
G1 X156.8301 Y181.3749 E0.64866 F3000 ; Fill
G0 X157.5614 Y181.3749 F9000 ; Move
G1 X146.8934 Y192.0428 E0.64866 F3000 ; Fill
G0 X147.6247 Y192.0428 F9000 ; Move
G1 X158.2926 Y181.3749 E0.64866 F3000 ; Fill
G0 X159.0239 Y181.3749 F9000 ; Move
G1 X148.356 Y192.0428 E0.64866 F3000 ; Fill
G0 X149.0872 Y192.0428 F9000 ; Move
G1 X159.7552 Y181.3749 E0.64866 F3000 ; Fill
G0 X160.4864 Y181.3749 F9000 ; Move
G1 X149.8185 Y192.0428 E0.64866 F3000 ; Fill
G0 X150.5497 Y192.0428 F9000 ; Move
G1 X161.2177 Y181.3749 E0.64866 F3000 ; Fill
G0 X161.9489 Y181.3749 F9000 ; Move
G1 X151.281 Y192.0428 E0.64866 F3000 ; Fill
G0 X152.0123 Y192.0428 F9000 ; Move
G1 X162.6802 Y181.3749 E0.64866 F3000 ; Fill
G0 X163.4115 Y181.3749 F9000 ; Move
G1 X152.7435 Y192.0428 E0.64866 F3000 ; Fill
G0 X153.4748 Y192.0428 F9000 ; Move
G1 X164.1427 Y181.3749 E0.64866 F3000 ; Fill
G0 X164.874 Y181.3749 F9000 ; Move
G1 X154.206 Y192.0428 E0.64866 F3000 ; Fill
G0 X154.9373 Y192.0428 F9000 ; Move
G1 X165.6052 Y181.3749 E0.64866 F3000 ; Fill
G0 X166.3365 Y181.3749 F9000 ; Move
G1 X155.6686 Y192.0428 E0.64866 F3000 ; Fill
G0 X156.3998 Y192.0428 F9000 ; Move
G1 X167.0678 Y181.3749 E0.64866 F3000 ; Fill
G0 X167.799 Y181.3749 F9000 ; Move
G1 X157.1311 Y192.0428 E0.64866 F3000 ; Fill
G0 X157.8623 Y192.0428 F9000 ; Move
G1 X168.5303 Y181.3749 E0.64866 F3000 ; Fill
G0 X169.2615 Y181.3749 F9000 ; Move
G1 X158.5936 Y192.0428 E0.64866 F3000 ; Fill
G0 X159.3249 Y192.0428 F9000 ; Move
G1 X169.9928 Y181.3749 E0.64866 F3000 ; Fill
G0 X170.7241 Y181.3749 F9000 ; Move
G1 X160.0561 Y192.0428 E0.64866 F3000 ; Fill
G0 X160.7874 Y192.0428 F9000 ; Move
G1 X171.4553 Y181.3749 E0.64866 F3000 ; Fill
G0 X172.1866 Y181.3749 F9000 ; Move
G1 X161.5187 Y192.0428 E0.64866 F3000 ; Fill
G0 X162.2499 Y192.0428 F9000 ; Move
G1 X172.9178 Y181.3749 E0.64866 F3000 ; Fill
G0 X173.6491 Y181.3749 F9000 ; Move
G1 X162.9812 Y192.0428 E0.64866 F3000 ; Fill
G0 X163.7124 Y192.0428 F9000 ; Move
G1 X174.3804 Y181.3749 E0.64866 F3000 ; Fill
G0 X175.1116 Y181.3749 F9000 ; Move
G1 X164.4437 Y192.0428 E0.64866 F3000 ; Fill
G0 X165.175 Y192.0428 F9000 ; Move
G1 X175.8429 Y181.3749 E0.64866 F3000 ; Fill
G0 X176.5742 Y181.3749 F9000 ; Move
G1 X165.9062 Y192.0428 E0.64866 F3000 ; Fill
G0 X166.6375 Y192.0428 F9000 ; Move
G1 X177.3054 Y181.3749 E0.64866 F3000 ; Fill
G0 X178.0367 Y181.3749 F9000 ; Move
G1 X167.3687 Y192.0428 E0.64866 F3000 ; Fill
G0 X168.1 Y192.0428 F9000 ; Move
G1 X178.7679 Y181.3749 E0.64866 F3000 ; Fill
G0 X179.4992 Y181.3749 F9000 ; Move
G1 X168.8313 Y192.0428 E0.64866 F3000 ; Fill
G0 X169.5625 Y192.0428 F9000 ; Move
G1 X180.2305 Y181.3749 E0.64866 F3000 ; Fill
G0 X180.9617 Y181.3749 F9000 ; Move
G1 X170.2938 Y192.0428 E0.64866 F3000 ; Fill
G0 X171.025 Y192.0428 F9000 ; Move
G1 X181.693 Y181.3749 E0.64866 F3000 ; Fill
G0 X182.4242 Y181.3749 F9000 ; Move
G1 X171.7563 Y192.0428 E0.64866 F3000 ; Fill
G0 X172.4876 Y192.0428 F9000 ; Move
G1 X183.1555 Y181.3749 E0.64866 F3000 ; Fill
G0 X183.8868 Y181.3749 F9000 ; Move
G1 X173.2188 Y192.0428 E0.64866 F3000 ; Fill
G0 X173.9501 Y192.0428 F9000 ; Move
G1 X184.618 Y181.3749 E0.64866 F3000 ; Fill
G0 X185.3493 Y181.3749 F9000 ; Move
G1 X174.6814 Y192.0428 E0.64866 F3000 ; Fill
G0 X175.4126 Y192.0428 F9000 ; Move
G1 X186.0805 Y181.3749 E0.64866 F3000 ; Fill
G0 X186.8118 Y181.3749 F9000 ; Move
G1 X176.1439 Y192.0428 E0.64866 F3000 ; Fill
G0 X176.8751 Y192.0428 F9000 ; Move
G1 X187.5431 Y181.3749 E0.64866 F3000 ; Fill
G0 X188.2743 Y181.3749 F9000 ; Move
G1 X177.6064 Y192.0428 E0.64866 F3000 ; Fill
G0 X178.3377 Y192.0428 F9000 ; Move
G1 X189.0056 Y181.3749 E0.64866 F3000 ; Fill
G0 X189.7369 Y181.3749 F9000 ; Move
G1 X179.0689 Y192.0428 E0.64866 F3000 ; Fill
G0 X179.8002 Y192.0428 F9000 ; Move
G1 X190.4681 Y181.3749 E0.64866 F3000 ; Fill
G0 X191.1994 Y181.3749 F9000 ; Move
G1 X180.5314 Y192.0428 E0.64866 F3000 ; Fill
G0 X181.2627 Y192.0428 F9000 ; Move
G1 X191.9306 Y181.3749 E0.64866 F3000 ; Fill
G0 X192.1529 Y181.8838 F9000 ; Move
G1 X181.994 Y192.0428 E0.61771 F3000 ; Fill
G0 X182.7252 Y192.0428 F9000 ; Move
G1 X192.1529 Y182.6151 E0.57325 F3000 ; Fill
G0 X192.1529 Y183.3464 F9000 ; Move
G1 X183.4565 Y192.0428 E0.52878 F3000 ; Fill
G0 X184.1877 Y192.0428 F9000 ; Move
G1 X192.1529 Y184.0776 E0.48432 F3000 ; Fill
G0 X192.1529 Y184.8089 F9000 ; Move
G1 X184.919 Y192.0428 E0.43986 F3000 ; Fill
G0 X185.6503 Y192.0428 F9000 ; Move
G1 X192.1529 Y185.5401 E0.39539 F3000 ; Fill
G0 X192.1529 Y186.2714 F9000 ; Move
G1 X186.3815 Y192.0428 E0.35093 F3000 ; Fill
G0 X187.1128 Y192.0428 F9000 ; Move
G1 X192.1529 Y187.0027 E0.30646 F3000 ; Fill
G0 X192.1529 Y187.7339 F9000 ; Move
G1 X187.8441 Y192.0428 E0.262 F3000 ; Fill
G0 X188.5753 Y192.0428 F9000 ; Move
G1 X192.1529 Y188.4652 E0.21754 F3000 ; Fill
G0 X192.1529 Y189.1964 F9000 ; Move
G1 X189.3066 Y192.0428 E0.17307 F3000 ; Fill
G0 X190.0378 Y192.0428 F9000 ; Move
G1 X192.1529 Y189.9277 E0.12861 F3000 ; Fill
G0 X192.1529 Y190.659 F9000 ; Move
G1 X190.7691 Y192.0428 E0.08414 F3000 ; Fill
G0 X191.5004 Y192.0428 F9000 ; Move
G1 X192.1529 Y191.3902 E0.03968 F3000 ; Fill
G0 Z0.2 F9000 ; Move to layer height
G1 E-0.5 F3000 ; Retract
G1 Z0.4 F9000 ; Z hop
G0 X120.0463 Y138.4314 F9000 ; Move to pattern start

G1 Z0.2 F9000 ; Z hop return
G1 E0.5 F1800 ; Un-retract
SET_PRESSURE_ADVANCE ADVANCE=0.03 ; Set pressure advance
M117 PA 0.03
G1 X139.3349 Y157.72 E0.92334 F3000 ; Print pattern wall
G1 X120.0463 Y177.0086 E0.92334 F3000 ; Print pattern wall
G1 E-0.5 F3000 ; Retract
G1 Z0.4 F9000 ; Z hop
G0 X120.622 Y138.4314 F9000 ; Move to start next pattern wall
G1 Z0.2 F9000 ; Z hop return
G1 E0.5 F1800 ; Un-retract
G1 X139.9106 Y157.72 E0.92334 F3000 ; Print pattern wall
G1 X120.622 Y177.0086 E0.92334 F3000 ; Print pattern wall
G1 E-0.5 F3000 ; Retract
G1 Z0.4 F9000 ; Z hop
G0 X121.1977 Y138.4314 F9000 ; Move to start next pattern wall
G1 Z0.2 F9000 ; Z hop return
G1 E0.5 F1800 ; Un-retract
G1 X140.4863 Y157.72 E0.92334 F3000 ; Print pattern wall
G1 X121.1977 Y177.0086 E0.92334 F3000 ; Print pattern wall
G1 E-0.5 F3000 ; Retract
G1 Z0.4 F9000 ; Z hop
G0 X123.6477 Y138.4314 F9000 ; Move to next pattern
G1 Z0.2 F9000 ; Z hop return
G1 E0.5 F1800 ; Un-retract
SET_PRESSURE_ADVANCE ADVANCE=0.031 ; Set pressure advance
M117 PA 0.031
G1 X142.9363 Y157.72 E0.92334 F3000 ; Print pattern wall
G1 X123.6477 Y177.0086 E0.92334 F3000 ; Print pattern wall
G1 E-0.5 F3000 ; Retract
G1 Z0.4 F9000 ; Z hop
G0 X124.2234 Y138.4314 F9000 ; Move to start next pattern wall
G1 Z0.2 F9000 ; Z hop return
G1 E0.5 F1800 ; Un-retract
G1 X143.512 Y157.72 E0.92334 F3000 ; Print pattern wall
G1 X124.2234 Y177.0086 E0.92334 F3000 ; Print pattern wall
G1 E-0.5 F3000 ; Retract
G1 Z0.4 F9000 ; Z hop
G0 X124.7991 Y138.4314 F9000 ; Move to start next pattern wall
G1 Z0.2 F9000 ; Z hop return
G1 E0.5 F1800 ; Un-retract
G1 X144.0877 Y157.72 E0.92334 F3000 ; Print pattern wall
G1 X124.7991 Y177.0086 E0.92334 F3000 ; Print pattern wall
G1 E-0.5 F3000 ; Retract
G1 Z0.4 F9000 ; Z hop
G0 X127.2491 Y138.4314 F9000 ; Move to next pattern
G1 Z0.2 F9000 ; Z hop return
G1 E0.5 F1800 ; Un-retract
SET_PRESSURE_ADVANCE ADVANCE=0.032 ; Set pressure advance
M117 PA 0.032
G1 X146.5377 Y157.72 E0.92334 F3000 ; Print pattern wall
G1 X127.2491 Y177.0086 E0.92334 F3000 ; Print pattern wall
G1 E-0.5 F3000 ; Retract
G1 Z0.4 F9000 ; Z hop
G0 X127.8248 Y138.4314 F9000 ; Move to start next pattern wall
G1 Z0.2 F9000 ; Z hop return
G1 E0.5 F1800 ; Un-retract
G1 X147.1134 Y157.72 E0.92334 F3000 ; Print pattern wall
G1 X127.8248 Y177.0086 E0.92334 F3000 ; Print pattern wall
G1 E-0.5 F3000 ; Retract
G1 Z0.4 F9000 ; Z hop
G0 X128.4005 Y138.4314 F9000 ; Move to start next pattern wall
G1 Z0.2 F9000 ; Z hop return
G1 E0.5 F1800 ; Un-retract
G1 X147.6891 Y157.72 E0.92334 F3000 ; Print pattern wall
G1 X128.4005 Y177.0086 E0.92334 F3000 ; Print pattern wall
G1 E-0.5 F3000 ; Retract
G1 Z0.4 F9000 ; Z hop
G0 X130.8505 Y138.4314 F9000 ; Move to next pattern
G1 Z0.2 F9000 ; Z hop return
G1 E0.5 F1800 ; Un-retract
SET_PRESSURE_ADVANCE ADVANCE=0.033 ; Set pressure advance
M117 PA 0.033
G1 X150.1391 Y157.72 E0.92334 F3000 ; Print pattern wall
G1 X130.8505 Y177.0086 E0.92334 F3000 ; Print pattern wall
G1 E-0.5 F3000 ; Retract
G1 Z0.4 F9000 ; Z hop
G0 X131.4262 Y138.4314 F9000 ; Move to start next pattern wall
G1 Z0.2 F9000 ; Z hop return
G1 E0.5 F1800 ; Un-retract
G1 X150.7148 Y157.72 E0.92334 F3000 ; Print pattern wall
G1 X131.4262 Y177.0086 E0.92334 F3000 ; Print pattern wall
G1 E-0.5 F3000 ; Retract
G1 Z0.4 F9000 ; Z hop
G0 X132.0019 Y138.4314 F9000 ; Move to start next pattern wall
G1 Z0.2 F9000 ; Z hop return
G1 E0.5 F1800 ; Un-retract
G1 X151.2905 Y157.72 E0.92334 F3000 ; Print pattern wall
G1 X132.0019 Y177.0086 E0.92334 F3000 ; Print pattern wall
G1 E-0.5 F3000 ; Retract
G1 Z0.4 F9000 ; Z hop
G0 X134.4519 Y138.4314 F9000 ; Move to next pattern
G1 Z0.2 F9000 ; Z hop return
G1 E0.5 F1800 ; Un-retract
SET_PRESSURE_ADVANCE ADVANCE=0.034 ; Set pressure advance
M117 PA 0.034
G1 X153.7405 Y157.72 E0.92334 F3000 ; Print pattern wall
G1 X134.4519 Y177.0086 E0.92334 F3000 ; Print pattern wall
G1 E-0.5 F3000 ; Retract
G1 Z0.4 F9000 ; Z hop
G0 X135.0276 Y138.4314 F9000 ; Move to start next pattern wall
G1 Z0.2 F9000 ; Z hop return
G1 E0.5 F1800 ; Un-retract
G1 X154.3162 Y157.72 E0.92334 F3000 ; Print pattern wall
G1 X135.0276 Y177.0086 E0.92334 F3000 ; Print pattern wall
G1 E-0.5 F3000 ; Retract
G1 Z0.4 F9000 ; Z hop
G0 X135.6033 Y138.4314 F9000 ; Move to start next pattern wall
G1 Z0.2 F9000 ; Z hop return
G1 E0.5 F1800 ; Un-retract
G1 X154.8919 Y157.72 E0.92334 F3000 ; Print pattern wall
G1 X135.6033 Y177.0086 E0.92334 F3000 ; Print pattern wall
G1 E-0.5 F3000 ; Retract
G1 Z0.4 F9000 ; Z hop
G0 X138.0533 Y138.4314 F9000 ; Move to next pattern
G1 Z0.2 F9000 ; Z hop return
G1 E0.5 F1800 ; Un-retract
SET_PRESSURE_ADVANCE ADVANCE=0.035 ; Set pressure advance
M117 PA 0.035
G1 X157.3419 Y157.72 E0.92334 F3000 ; Print pattern wall
G1 X138.0533 Y177.0086 E0.92334 F3000 ; Print pattern wall
G1 E-0.5 F3000 ; Retract
G1 Z0.4 F9000 ; Z hop
G0 X138.629 Y138.4314 F9000 ; Move to start next pattern wall
G1 Z0.2 F9000 ; Z hop return
G1 E0.5 F1800 ; Un-retract
G1 X157.9176 Y157.72 E0.92334 F3000 ; Print pattern wall
G1 X138.629 Y177.0086 E0.92334 F3000 ; Print pattern wall
G1 E-0.5 F3000 ; Retract
G1 Z0.4 F9000 ; Z hop
G0 X139.2047 Y138.4314 F9000 ; Move to start next pattern wall
G1 Z0.2 F9000 ; Z hop return
G1 E0.5 F1800 ; Un-retract
G1 X158.4933 Y157.72 E0.92334 F3000 ; Print pattern wall
G1 X139.2047 Y177.0086 E0.92334 F3000 ; Print pattern wall
G1 E-0.5 F3000 ; Retract
G1 Z0.4 F9000 ; Z hop
G0 X141.6547 Y138.4314 F9000 ; Move to next pattern
G1 Z0.2 F9000 ; Z hop return
G1 E0.5 F1800 ; Un-retract
SET_PRESSURE_ADVANCE ADVANCE=0.036 ; Set pressure advance
M117 PA 0.036
G1 X160.9433 Y157.72 E0.92334 F3000 ; Print pattern wall
G1 X141.6547 Y177.0086 E0.92334 F3000 ; Print pattern wall
G1 E-0.5 F3000 ; Retract
G1 Z0.4 F9000 ; Z hop
G0 X142.2304 Y138.4314 F9000 ; Move to start next pattern wall
G1 Z0.2 F9000 ; Z hop return
G1 E0.5 F1800 ; Un-retract
G1 X161.519 Y157.72 E0.92334 F3000 ; Print pattern wall
G1 X142.2304 Y177.0086 E0.92334 F3000 ; Print pattern wall
G1 E-0.5 F3000 ; Retract
G1 Z0.4 F9000 ; Z hop
G0 X142.8061 Y138.4314 F9000 ; Move to start next pattern wall
G1 Z0.2 F9000 ; Z hop return
G1 E0.5 F1800 ; Un-retract
G1 X162.0947 Y157.72 E0.92334 F3000 ; Print pattern wall
G1 X142.8061 Y177.0086 E0.92334 F3000 ; Print pattern wall
G1 E-0.5 F3000 ; Retract
G1 Z0.4 F9000 ; Z hop
G0 X145.2561 Y138.4314 F9000 ; Move to next pattern
G1 Z0.2 F9000 ; Z hop return
G1 E0.5 F1800 ; Un-retract
SET_PRESSURE_ADVANCE ADVANCE=0.037 ; Set pressure advance
M117 PA 0.037
G1 X164.5447 Y157.72 E0.92334 F3000 ; Print pattern wall
G1 X145.2561 Y177.0086 E0.92334 F3000 ; Print pattern wall
G1 E-0.5 F3000 ; Retract
G1 Z0.4 F9000 ; Z hop
G0 X145.8318 Y138.4314 F9000 ; Move to start next pattern wall
G1 Z0.2 F9000 ; Z hop return
G1 E0.5 F1800 ; Un-retract
G1 X165.1204 Y157.72 E0.92334 F3000 ; Print pattern wall
G1 X145.8318 Y177.0086 E0.92334 F3000 ; Print pattern wall
G1 E-0.5 F3000 ; Retract
G1 Z0.4 F9000 ; Z hop
G0 X146.4075 Y138.4314 F9000 ; Move to start next pattern wall
G1 Z0.2 F9000 ; Z hop return
G1 E0.5 F1800 ; Un-retract
G1 X165.6961 Y157.72 E0.92334 F3000 ; Print pattern wall
G1 X146.4075 Y177.0086 E0.92334 F3000 ; Print pattern wall
G1 E-0.5 F3000 ; Retract
G1 Z0.4 F9000 ; Z hop
G0 X148.8575 Y138.4314 F9000 ; Move to next pattern
G1 Z0.2 F9000 ; Z hop return
G1 E0.5 F1800 ; Un-retract
SET_PRESSURE_ADVANCE ADVANCE=0.038 ; Set pressure advance
M117 PA 0.038
G1 X168.1461 Y157.72 E0.92334 F3000 ; Print pattern wall
G1 X148.8575 Y177.0086 E0.92334 F3000 ; Print pattern wall
G1 E-0.5 F3000 ; Retract
G1 Z0.4 F9000 ; Z hop
G0 X149.4332 Y138.4314 F9000 ; Move to start next pattern wall
G1 Z0.2 F9000 ; Z hop return
G1 E0.5 F1800 ; Un-retract
G1 X168.7218 Y157.72 E0.92334 F3000 ; Print pattern wall
G1 X149.4332 Y177.0086 E0.92334 F3000 ; Print pattern wall
G1 E-0.5 F3000 ; Retract
G1 Z0.4 F9000 ; Z hop
G0 X150.0089 Y138.4314 F9000 ; Move to start next pattern wall
G1 Z0.2 F9000 ; Z hop return
G1 E0.5 F1800 ; Un-retract
G1 X169.2975 Y157.72 E0.92334 F3000 ; Print pattern wall
G1 X150.0089 Y177.0086 E0.92334 F3000 ; Print pattern wall
G1 E-0.5 F3000 ; Retract
G1 Z0.4 F9000 ; Z hop
G0 X152.4589 Y138.4314 F9000 ; Move to next pattern
G1 Z0.2 F9000 ; Z hop return
G1 E0.5 F1800 ; Un-retract
SET_PRESSURE_ADVANCE ADVANCE=0.039 ; Set pressure advance
M117 PA 0.039
G1 X171.7475 Y157.72 E0.92334 F3000 ; Print pattern wall
G1 X152.4589 Y177.0086 E0.92334 F3000 ; Print pattern wall
G1 E-0.5 F3000 ; Retract
G1 Z0.4 F9000 ; Z hop
G0 X153.0346 Y138.4314 F9000 ; Move to start next pattern wall
G1 Z0.2 F9000 ; Z hop return
G1 E0.5 F1800 ; Un-retract
G1 X172.3232 Y157.72 E0.92334 F3000 ; Print pattern wall
G1 X153.0346 Y177.0086 E0.92334 F3000 ; Print pattern wall
G1 E-0.5 F3000 ; Retract
G1 Z0.4 F9000 ; Z hop
G0 X153.6103 Y138.4314 F9000 ; Move to start next pattern wall
G1 Z0.2 F9000 ; Z hop return
G1 E0.5 F1800 ; Un-retract
G1 X172.8989 Y157.72 E0.92334 F3000 ; Print pattern wall
G1 X153.6103 Y177.0086 E0.92334 F3000 ; Print pattern wall
G1 E-0.5 F3000 ; Retract
G1 Z0.4 F9000 ; Z hop
G0 X156.0603 Y138.4314 F9000 ; Move to next pattern
G1 Z0.2 F9000 ; Z hop return
G1 E0.5 F1800 ; Un-retract
SET_PRESSURE_ADVANCE ADVANCE=0.04 ; Set pressure advance
M117 PA 0.04
G1 X175.3489 Y157.72 E0.92334 F3000 ; Print pattern wall
G1 X156.0603 Y177.0086 E0.92334 F3000 ; Print pattern wall
G1 E-0.5 F3000 ; Retract
G1 Z0.4 F9000 ; Z hop
G0 X156.636 Y138.4314 F9000 ; Move to start next pattern wall
G1 Z0.2 F9000 ; Z hop return
G1 E0.5 F1800 ; Un-retract
G1 X175.9246 Y157.72 E0.92334 F3000 ; Print pattern wall
G1 X156.636 Y177.0086 E0.92334 F3000 ; Print pattern wall
G1 E-0.5 F3000 ; Retract
G1 Z0.4 F9000 ; Z hop
G0 X157.2117 Y138.4314 F9000 ; Move to start next pattern wall
G1 Z0.2 F9000 ; Z hop return
G1 E0.5 F1800 ; Un-retract
G1 X176.5003 Y157.72 E0.92334 F3000 ; Print pattern wall
G1 X157.2117 Y177.0086 E0.92334 F3000 ; Print pattern wall
G1 E-0.5 F3000 ; Retract
G1 Z0.4 F9000 ; Z hop
G0 X159.6617 Y138.4314 F9000 ; Move to next pattern
G1 Z0.2 F9000 ; Z hop return
G1 E0.5 F1800 ; Un-retract
SET_PRESSURE_ADVANCE ADVANCE=0.041 ; Set pressure advance
M117 PA 0.041
G1 X178.9503 Y157.72 E0.92334 F3000 ; Print pattern wall
G1 X159.6617 Y177.0086 E0.92334 F3000 ; Print pattern wall
G1 E-0.5 F3000 ; Retract
G1 Z0.4 F9000 ; Z hop
G0 X160.2374 Y138.4314 F9000 ; Move to start next pattern wall
G1 Z0.2 F9000 ; Z hop return
G1 E0.5 F1800 ; Un-retract
G1 X179.526 Y157.72 E0.92334 F3000 ; Print pattern wall
G1 X160.2374 Y177.0086 E0.92334 F3000 ; Print pattern wall
G1 E-0.5 F3000 ; Retract
G1 Z0.4 F9000 ; Z hop
G0 X160.8131 Y138.4314 F9000 ; Move to start next pattern wall
G1 Z0.2 F9000 ; Z hop return
G1 E0.5 F1800 ; Un-retract
G1 X180.1017 Y157.72 E0.92334 F3000 ; Print pattern wall
G1 X160.8131 Y177.0086 E0.92334 F3000 ; Print pattern wall
G1 E-0.5 F3000 ; Retract
G1 Z0.4 F9000 ; Z hop
G0 X163.2631 Y138.4314 F9000 ; Move to next pattern
G1 Z0.2 F9000 ; Z hop return
G1 E0.5 F1800 ; Un-retract
SET_PRESSURE_ADVANCE ADVANCE=0.042 ; Set pressure advance
M117 PA 0.042
G1 X182.5517 Y157.72 E0.92334 F3000 ; Print pattern wall
G1 X163.2631 Y177.0086 E0.92334 F3000 ; Print pattern wall
G1 E-0.5 F3000 ; Retract
G1 Z0.4 F9000 ; Z hop
G0 X163.8388 Y138.4314 F9000 ; Move to start next pattern wall
G1 Z0.2 F9000 ; Z hop return
G1 E0.5 F1800 ; Un-retract
G1 X183.1274 Y157.72 E0.92334 F3000 ; Print pattern wall
G1 X163.8388 Y177.0086 E0.92334 F3000 ; Print pattern wall
G1 E-0.5 F3000 ; Retract
G1 Z0.4 F9000 ; Z hop
G0 X164.4145 Y138.4314 F9000 ; Move to start next pattern wall
G1 Z0.2 F9000 ; Z hop return
G1 E0.5 F1800 ; Un-retract
G1 X183.7031 Y157.72 E0.92334 F3000 ; Print pattern wall
G1 X164.4145 Y177.0086 E0.92334 F3000 ; Print pattern wall
G1 E-0.5 F3000 ; Retract
G1 Z0.4 F9000 ; Z hop
G0 X166.8645 Y138.4314 F9000 ; Move to next pattern
G1 Z0.2 F9000 ; Z hop return
G1 E0.5 F1800 ; Un-retract
SET_PRESSURE_ADVANCE ADVANCE=0.043 ; Set pressure advance
M117 PA 0.043
G1 X186.1531 Y157.72 E0.92334 F3000 ; Print pattern wall
G1 X166.8645 Y177.0086 E0.92334 F3000 ; Print pattern wall
G1 E-0.5 F3000 ; Retract
G1 Z0.4 F9000 ; Z hop
G0 X167.4401 Y138.4314 F9000 ; Move to start next pattern wall
G1 Z0.2 F9000 ; Z hop return
G1 E0.5 F1800 ; Un-retract
G1 X186.7288 Y157.72 E0.92334 F3000 ; Print pattern wall
G1 X167.4401 Y177.0086 E0.92334 F3000 ; Print pattern wall
G1 E-0.5 F3000 ; Retract
G1 Z0.4 F9000 ; Z hop
G0 X168.0158 Y138.4314 F9000 ; Move to start next pattern wall
G1 Z0.2 F9000 ; Z hop return
G1 E0.5 F1800 ; Un-retract
G1 X187.3045 Y157.72 E0.92334 F3000 ; Print pattern wall
G1 X168.0158 Y177.0086 E0.92334 F3000 ; Print pattern wall
G1 E-0.5 F3000 ; Retract
G1 Z0.4 F9000 ; Z hop
G0 X170.4658 Y138.4314 F9000 ; Move to next pattern
G1 Z0.2 F9000 ; Z hop return
G1 E0.5 F1800 ; Un-retract
SET_PRESSURE_ADVANCE ADVANCE=0.044 ; Set pressure advance
M117 PA 0.044
G1 X189.7545 Y157.72 E0.92334 F3000 ; Print pattern wall
G1 X170.4658 Y177.0086 E0.92334 F3000 ; Print pattern wall
G1 E-0.5 F3000 ; Retract
G1 Z0.4 F9000 ; Z hop
G0 X171.0415 Y138.4314 F9000 ; Move to start next pattern wall
G1 Z0.2 F9000 ; Z hop return
G1 E0.5 F1800 ; Un-retract
G1 X190.3302 Y157.72 E0.92334 F3000 ; Print pattern wall
G1 X171.0415 Y177.0086 E0.92334 F3000 ; Print pattern wall
G1 E-0.5 F3000 ; Retract
G1 Z0.4 F9000 ; Z hop
G0 X171.6172 Y138.4314 F9000 ; Move to start next pattern wall
G1 Z0.2 F9000 ; Z hop return
G1 E0.5 F1800 ; Un-retract
G1 X190.9059 Y157.72 E0.92334 F3000 ; Print pattern wall
G1 X171.6172 Y177.0086 E0.92334 F3000 ; Print pattern wall
G1 E-0.5 F3000 ; Retract
G1 Z0.4 F9000 ; Z hop
G0 X174.0672 Y138.4314 F9000 ; Move to next pattern
G1 Z0.2 F9000 ; Z hop return
G1 E0.5 F1800 ; Un-retract
SET_PRESSURE_ADVANCE ADVANCE=0.045 ; Set pressure advance
M117 PA 0.045
G1 X193.3559 Y157.72 E0.92334 F3000 ; Print pattern wall
G1 X174.0672 Y177.0086 E0.92334 F3000 ; Print pattern wall
G1 E-0.5 F3000 ; Retract
G1 Z0.4 F9000 ; Z hop
G0 X174.6429 Y138.4314 F9000 ; Move to start next pattern wall
G1 Z0.2 F9000 ; Z hop return
G1 E0.5 F1800 ; Un-retract
G1 X193.9316 Y157.72 E0.92334 F3000 ; Print pattern wall
G1 X174.6429 Y177.0086 E0.92334 F3000 ; Print pattern wall
G1 E-0.5 F3000 ; Retract
G1 Z0.4 F9000 ; Z hop
G0 X175.2186 Y138.4314 F9000 ; Move to start next pattern wall
G1 Z0.2 F9000 ; Z hop return
G1 E0.5 F1800 ; Un-retract
G1 X194.5073 Y157.72 E0.92334 F3000 ; Print pattern wall
G1 X175.2186 Y177.0086 E0.92334 F3000 ; Print pattern wall
G1 E-0.5 F3000 ; Retract
G1 Z0.4 F9000 ; Z hop
G0 X177.6686 Y138.4314 F9000 ; Move to next pattern
G1 Z0.2 F9000 ; Z hop return
G1 E0.5 F1800 ; Un-retract
SET_PRESSURE_ADVANCE ADVANCE=0.046 ; Set pressure advance
M117 PA 0.046
G1 X196.9573 Y157.72 E0.92334 F3000 ; Print pattern wall
G1 X177.6686 Y177.0086 E0.92334 F3000 ; Print pattern wall
G1 E-0.5 F3000 ; Retract
G1 Z0.4 F9000 ; Z hop
G0 X178.2443 Y138.4314 F9000 ; Move to start next pattern wall
G1 Z0.2 F9000 ; Z hop return
G1 E0.5 F1800 ; Un-retract
G1 X197.533 Y157.72 E0.92334 F3000 ; Print pattern wall
G1 X178.2443 Y177.0086 E0.92334 F3000 ; Print pattern wall
G1 E-0.5 F3000 ; Retract
G1 Z0.4 F9000 ; Z hop
G0 X178.82 Y138.4314 F9000 ; Move to start next pattern wall
G1 Z0.2 F9000 ; Z hop return
G1 E0.5 F1800 ; Un-retract
G1 X198.1087 Y157.72 E0.92334 F3000 ; Print pattern wall
G1 X178.82 Y177.0086 E0.92334 F3000 ; Print pattern wall
G1 E-0.5 F3000 ; Retract
G1 Z0.4 F9000 ; Z hop
G0 X181.27 Y138.4314 F9000 ; Move to next pattern
G1 Z0.2 F9000 ; Z hop return
G1 E0.5 F1800 ; Un-retract
SET_PRESSURE_ADVANCE ADVANCE=0.047 ; Set pressure advance
M117 PA 0.047
G1 X200.5587 Y157.72 E0.92334 F3000 ; Print pattern wall
G1 X181.27 Y177.0086 E0.92334 F3000 ; Print pattern wall
G1 E-0.5 F3000 ; Retract
G1 Z0.4 F9000 ; Z hop
G0 X181.8457 Y138.4314 F9000 ; Move to start next pattern wall
G1 Z0.2 F9000 ; Z hop return
G1 E0.5 F1800 ; Un-retract
G1 X201.1344 Y157.72 E0.92334 F3000 ; Print pattern wall
G1 X181.8457 Y177.0086 E0.92334 F3000 ; Print pattern wall
G1 E-0.5 F3000 ; Retract
G1 Z0.4 F9000 ; Z hop
G0 X182.4214 Y138.4314 F9000 ; Move to start next pattern wall
G1 Z0.2 F9000 ; Z hop return
G1 E0.5 F1800 ; Un-retract
G1 X201.7101 Y157.72 E0.92334 F3000 ; Print pattern wall
G1 X182.4214 Y177.0086 E0.92334 F3000 ; Print pattern wall
G1 E-0.5 F3000 ; Retract
G1 Z0.4 F9000 ; Z hop
G0 X184.8714 Y138.4314 F9000 ; Move to next pattern
G1 Z0.2 F9000 ; Z hop return
G1 E0.5 F1800 ; Un-retract
SET_PRESSURE_ADVANCE ADVANCE=0.048 ; Set pressure advance
M117 PA 0.048
G1 X204.1601 Y157.72 E0.92334 F3000 ; Print pattern wall
G1 X184.8714 Y177.0086 E0.92334 F3000 ; Print pattern wall
G1 E-0.5 F3000 ; Retract
G1 Z0.4 F9000 ; Z hop
G0 X185.4471 Y138.4314 F9000 ; Move to start next pattern wall
G1 Z0.2 F9000 ; Z hop return
G1 E0.5 F1800 ; Un-retract
G1 X204.7358 Y157.72 E0.92334 F3000 ; Print pattern wall
G1 X185.4471 Y177.0086 E0.92334 F3000 ; Print pattern wall
G1 E-0.5 F3000 ; Retract
G1 Z0.4 F9000 ; Z hop
G0 X186.0228 Y138.4314 F9000 ; Move to start next pattern wall
G1 Z0.2 F9000 ; Z hop return
G1 E0.5 F1800 ; Un-retract
G1 X205.3115 Y157.72 E0.92334 F3000 ; Print pattern wall
G1 X186.0228 Y177.0086 E0.92334 F3000 ; Print pattern wall
G1 E-0.5 F3000 ; Retract
G1 Z0.4 F9000 ; Z hop
G0 X188.4728 Y138.4314 F9000 ; Move to next pattern
G1 Z0.2 F9000 ; Z hop return
G1 E0.5 F1800 ; Un-retract
SET_PRESSURE_ADVANCE ADVANCE=0.049 ; Set pressure advance
M117 PA 0.049
G1 X207.7615 Y157.72 E0.92334 F3000 ; Print pattern wall
G1 X188.4728 Y177.0086 E0.92334 F3000 ; Print pattern wall
G1 E-0.5 F3000 ; Retract
G1 Z0.4 F9000 ; Z hop
G0 X189.0485 Y138.4314 F9000 ; Move to start next pattern wall
G1 Z0.2 F9000 ; Z hop return
G1 E0.5 F1800 ; Un-retract
G1 X208.3371 Y157.72 E0.92334 F3000 ; Print pattern wall
G1 X189.0485 Y177.0086 E0.92334 F3000 ; Print pattern wall
G1 E-0.5 F3000 ; Retract
G1 Z0.4 F9000 ; Z hop
G0 X189.6242 Y138.4314 F9000 ; Move to start next pattern wall
G1 Z0.2 F9000 ; Z hop return
G1 E0.5 F1800 ; Un-retract
G1 X208.9128 Y157.72 E0.92334 F3000 ; Print pattern wall
G1 X189.6242 Y177.0086 E0.92334 F3000 ; Print pattern wall
G1 E-0.5 F3000 ; Retract
G1 Z0.4 F9000 ; Z hop
G0 X192.0742 Y138.4314 F9000 ; Move to next pattern
G1 Z0.2 F9000 ; Z hop return
G1 E0.5 F1800 ; Un-retract
SET_PRESSURE_ADVANCE ADVANCE=0.05 ; Set pressure advance
M117 PA 0.05
G1 X211.3628 Y157.72 E0.92334 F3000 ; Print pattern wall
G1 X192.0742 Y177.0086 E0.92334 F3000 ; Print pattern wall
G1 E-0.5 F3000 ; Retract
G1 Z0.4 F9000 ; Z hop
G0 X192.6499 Y138.4314 F9000 ; Move to start next pattern wall
G1 Z0.2 F9000 ; Z hop return
G1 E0.5 F1800 ; Un-retract
G1 X211.9385 Y157.72 E0.92334 F3000 ; Print pattern wall
G1 X192.6499 Y177.0086 E0.92334 F3000 ; Print pattern wall
G1 E-0.5 F3000 ; Retract
G1 Z0.4 F9000 ; Z hop
G0 X193.2256 Y138.4314 F9000 ; Move to start next pattern wall
G1 Z0.2 F9000 ; Z hop return
G1 E0.5 F1800 ; Un-retract
G1 X212.5142 Y157.72 E0.92334 F3000 ; Print pattern wall
G1 X193.2256 Y177.0086 E0.92334 F3000 ; Print pattern wall
G1 E-0.5 F3000 ; Retract
G1 Z0.4 F9000 ; Z hop
G0 X120.0463 Y138.4314 F9000 ; Move back to start position
G1 Z0.2 F9000 ; Z hop return
G1 E0.5 F1800 ; Un-retract
M106 S255 ; Set fan speed
G0 Z0.4 F9000 ; Move to layer height
SET_PRESSURE_ADVANCE ADVANCE=0.03 ; Set pressure advance to start value for numbering
M117 PA 0.03
G1 E-0.5 F3000 ; Retract
G1 Z0.6 F9000 ; Z hop
G0 X116.6974 Y180.3832 F9000 ; Move
G1 Z0.4 F9000 ; Z hop return
G1 E0.5 F1800 ; Un-retract
G1 X118.6974 Y180.3832 E0.0677 F3000 ; Glyph: 0
G1 X120.6974 Y180.3832 E0.0677 F3000 ; Glyph: 0
G1 X120.6974 Y182.3832 E0.0677 F3000 ; Glyph: 0
G1 X118.6974 Y182.3832 E0.0677 F3000 ; Glyph: 0
G1 X116.6974 Y182.3832 E0.0677 F3000 ; Glyph: 0
G1 X116.6974 Y180.3832 E0.0677 F3000 ; Glyph: 0
G1 E-0.5 F3000 ; Retract
G1 Z0.6 F9000 ; Z hop
G0 X120.6974 Y183.3832 F9000 ; Move
G1 Z0.4 F9000 ; Z hop return
G1 E0.5 F1800 ; Un-retract
G1 X119.9474 Y183.3832 E0.02539 F3000 ; Glyph: .
G1 E-0.5 F3000 ; Retract
G1 Z0.6 F9000 ; Z hop
G0 X116.6974 Y184.3832 F9000 ; Move
G1 Z0.4 F9000 ; Z hop return
G1 E0.5 F1800 ; Un-retract
G1 X118.6974 Y184.3832 E0.0677 F3000 ; Glyph: 0
G1 X120.6974 Y184.3832 E0.0677 F3000 ; Glyph: 0
G1 X120.6974 Y186.3832 E0.0677 F3000 ; Glyph: 0
G1 X118.6974 Y186.3832 E0.0677 F3000 ; Glyph: 0
G1 X116.6974 Y186.3832 E0.0677 F3000 ; Glyph: 0
G1 X116.6974 Y184.3832 E0.0677 F3000 ; Glyph: 0
G1 E-0.5 F3000 ; Retract
G1 Z0.6 F9000 ; Z hop
G0 X116.6974 Y187.3832 F9000 ; Move
G1 Z0.4 F9000 ; Z hop return
G1 E0.5 F1800 ; Un-retract
G1 X116.6974 Y189.3832 E0.0677 F3000 ; Glyph: 3
G1 X118.6974 Y189.3832 E0.0677 F3000 ; Glyph: 3
G1 X118.6974 Y187.3832 E0.0677 F3000 ; Glyph: 3
G0 X118.6974 Y189.3832 F9000 ; Move
G1 X120.6974 Y189.3832 E0.0677 F3000 ; Glyph: 3
G1 X120.6974 Y187.3832 E0.0677 F3000 ; Glyph: 3
G1 E-0.5 F3000 ; Retract
G1 Z0.6 F9000 ; Z hop
G0 X123.9002 Y180.3832 F9000 ; Move
G1 Z0.4 F9000 ; Z hop return
G1 E0.5 F1800 ; Un-retract
G1 X125.9002 Y180.3832 E0.0677 F3000 ; Glyph: 0
G1 X127.9002 Y180.3832 E0.0677 F3000 ; Glyph: 0
G1 X127.9002 Y182.3832 E0.0677 F3000 ; Glyph: 0
G1 X125.9002 Y182.3832 E0.0677 F3000 ; Glyph: 0
G1 X123.9002 Y182.3832 E0.0677 F3000 ; Glyph: 0
G1 X123.9002 Y180.3832 E0.0677 F3000 ; Glyph: 0
G1 E-0.5 F3000 ; Retract
G1 Z0.6 F9000 ; Z hop
G0 X127.9002 Y183.3832 F9000 ; Move
G1 Z0.4 F9000 ; Z hop return
G1 E0.5 F1800 ; Un-retract
G1 X127.1502 Y183.3832 E0.02539 F3000 ; Glyph: .
G1 E-0.5 F3000 ; Retract
G1 Z0.6 F9000 ; Z hop
G0 X123.9002 Y184.3832 F9000 ; Move
G1 Z0.4 F9000 ; Z hop return
G1 E0.5 F1800 ; Un-retract
G1 X125.9002 Y184.3832 E0.0677 F3000 ; Glyph: 0
G1 X127.9002 Y184.3832 E0.0677 F3000 ; Glyph: 0
G1 X127.9002 Y186.3832 E0.0677 F3000 ; Glyph: 0
G1 X125.9002 Y186.3832 E0.0677 F3000 ; Glyph: 0
G1 X123.9002 Y186.3832 E0.0677 F3000 ; Glyph: 0
G1 X123.9002 Y184.3832 E0.0677 F3000 ; Glyph: 0
G1 E-0.5 F3000 ; Retract
G1 Z0.6 F9000 ; Z hop
G0 X123.9002 Y187.3832 F9000 ; Move
G1 Z0.4 F9000 ; Z hop return
G1 E0.5 F1800 ; Un-retract
G1 X123.9002 Y189.3832 E0.0677 F3000 ; Glyph: 3
G1 X125.9002 Y189.3832 E0.0677 F3000 ; Glyph: 3
G1 X125.9002 Y187.3832 E0.0677 F3000 ; Glyph: 3
G0 X125.9002 Y189.3832 F9000 ; Move
G1 X127.9002 Y189.3832 E0.0677 F3000 ; Glyph: 3
G1 X127.9002 Y187.3832 E0.0677 F3000 ; Glyph: 3
G1 E-0.5 F3000 ; Retract
G1 Z0.6 F9000 ; Z hop
G0 X123.9002 Y190.3832 F9000 ; Move
G1 Z0.4 F9000 ; Z hop return
G1 E0.5 F1800 ; Un-retract
G1 X123.9002 Y192.3832 E0.0677 F3000 ; Glyph: 2
G1 X125.9002 Y192.3832 E0.0677 F3000 ; Glyph: 2
G1 X125.9002 Y190.3832 E0.0677 F3000 ; Glyph: 2
G1 X127.9002 Y190.3832 E0.0677 F3000 ; Glyph: 2
G1 X127.9002 Y192.3832 E0.0677 F3000 ; Glyph: 2
G1 E-0.5 F3000 ; Retract
G1 Z0.6 F9000 ; Z hop
G0 X131.103 Y180.3832 F9000 ; Move
G1 Z0.4 F9000 ; Z hop return
G1 E0.5 F1800 ; Un-retract
G1 X133.103 Y180.3832 E0.0677 F3000 ; Glyph: 0
G1 X135.103 Y180.3832 E0.0677 F3000 ; Glyph: 0
G1 X135.103 Y182.3832 E0.0677 F3000 ; Glyph: 0
G1 X133.103 Y182.3832 E0.0677 F3000 ; Glyph: 0
G1 X131.103 Y182.3832 E0.0677 F3000 ; Glyph: 0
G1 X131.103 Y180.3832 E0.0677 F3000 ; Glyph: 0
G1 E-0.5 F3000 ; Retract
G1 Z0.6 F9000 ; Z hop
G0 X135.103 Y183.3832 F9000 ; Move
G1 Z0.4 F9000 ; Z hop return
G1 E0.5 F1800 ; Un-retract
G1 X134.353 Y183.3832 E0.02539 F3000 ; Glyph: .
G1 E-0.5 F3000 ; Retract
G1 Z0.6 F9000 ; Z hop
G0 X131.103 Y184.3832 F9000 ; Move
G1 Z0.4 F9000 ; Z hop return
G1 E0.5 F1800 ; Un-retract
G1 X133.103 Y184.3832 E0.0677 F3000 ; Glyph: 0
G1 X135.103 Y184.3832 E0.0677 F3000 ; Glyph: 0
G1 X135.103 Y186.3832 E0.0677 F3000 ; Glyph: 0
G1 X133.103 Y186.3832 E0.0677 F3000 ; Glyph: 0
G1 X131.103 Y186.3832 E0.0677 F3000 ; Glyph: 0
G1 X131.103 Y184.3832 E0.0677 F3000 ; Glyph: 0
G1 E-0.5 F3000 ; Retract
G1 Z0.6 F9000 ; Z hop
G0 X131.103 Y187.3832 F9000 ; Move
G1 Z0.4 F9000 ; Z hop return
G1 E0.5 F1800 ; Un-retract
G1 X131.103 Y189.3832 E0.0677 F3000 ; Glyph: 3
G1 X133.103 Y189.3832 E0.0677 F3000 ; Glyph: 3
G1 X133.103 Y187.3832 E0.0677 F3000 ; Glyph: 3
G0 X133.103 Y189.3832 F9000 ; Move
G1 X135.103 Y189.3832 E0.0677 F3000 ; Glyph: 3
G1 X135.103 Y187.3832 E0.0677 F3000 ; Glyph: 3
G1 E-0.5 F3000 ; Retract
G1 Z0.6 F9000 ; Z hop
G0 X131.103 Y192.3832 F9000 ; Move
G1 Z0.4 F9000 ; Z hop return
G1 E0.5 F1800 ; Un-retract
G1 X133.103 Y192.3832 E0.0677 F3000 ; Glyph: 4
G1 X135.103 Y192.3832 E0.0677 F3000 ; Glyph: 4
G0 X133.103 Y192.3832 F9000 ; Move
G1 X133.103 Y190.3832 E0.0677 F3000 ; Glyph: 4
G1 X131.103 Y190.3832 E0.0677 F3000 ; Glyph: 4
G1 E-0.5 F3000 ; Retract
G1 Z0.6 F9000 ; Z hop
G0 X138.3058 Y180.3832 F9000 ; Move
G1 Z0.4 F9000 ; Z hop return
G1 E0.5 F1800 ; Un-retract
G1 X140.3058 Y180.3832 E0.0677 F3000 ; Glyph: 0
G1 X142.3058 Y180.3832 E0.0677 F3000 ; Glyph: 0
G1 X142.3058 Y182.3832 E0.0677 F3000 ; Glyph: 0
G1 X140.3058 Y182.3832 E0.0677 F3000 ; Glyph: 0
G1 X138.3058 Y182.3832 E0.0677 F3000 ; Glyph: 0
G1 X138.3058 Y180.3832 E0.0677 F3000 ; Glyph: 0
G1 E-0.5 F3000 ; Retract
G1 Z0.6 F9000 ; Z hop
G0 X142.3058 Y183.3832 F9000 ; Move
G1 Z0.4 F9000 ; Z hop return
G1 E0.5 F1800 ; Un-retract
G1 X141.5558 Y183.3832 E0.02539 F3000 ; Glyph: .
G1 E-0.5 F3000 ; Retract
G1 Z0.6 F9000 ; Z hop
G0 X138.3058 Y184.3832 F9000 ; Move
G1 Z0.4 F9000 ; Z hop return
G1 E0.5 F1800 ; Un-retract
G1 X140.3058 Y184.3832 E0.0677 F3000 ; Glyph: 0
G1 X142.3058 Y184.3832 E0.0677 F3000 ; Glyph: 0
G1 X142.3058 Y186.3832 E0.0677 F3000 ; Glyph: 0
G1 X140.3058 Y186.3832 E0.0677 F3000 ; Glyph: 0
G1 X138.3058 Y186.3832 E0.0677 F3000 ; Glyph: 0
G1 X138.3058 Y184.3832 E0.0677 F3000 ; Glyph: 0
G1 E-0.5 F3000 ; Retract
G1 Z0.6 F9000 ; Z hop
G0 X138.3058 Y187.3832 F9000 ; Move
G1 Z0.4 F9000 ; Z hop return
G1 E0.5 F1800 ; Un-retract
G1 X138.3058 Y189.3832 E0.0677 F3000 ; Glyph: 3
G1 X140.3058 Y189.3832 E0.0677 F3000 ; Glyph: 3
G1 X140.3058 Y187.3832 E0.0677 F3000 ; Glyph: 3
G0 X140.3058 Y189.3832 F9000 ; Move
G1 X142.3058 Y189.3832 E0.0677 F3000 ; Glyph: 3
G1 X142.3058 Y187.3832 E0.0677 F3000 ; Glyph: 3
G1 E-0.5 F3000 ; Retract
G1 Z0.6 F9000 ; Z hop
G0 X138.3058 Y192.3832 F9000 ; Move
G1 Z0.4 F9000 ; Z hop return
G1 E0.5 F1800 ; Un-retract
G1 X138.3058 Y190.3832 E0.0677 F3000 ; Glyph: 6
G1 X140.3058 Y190.3832 E0.0677 F3000 ; Glyph: 6
G1 X142.3058 Y190.3832 E0.0677 F3000 ; Glyph: 6
G1 X142.3058 Y192.3832 E0.0677 F3000 ; Glyph: 6
G1 X140.3058 Y192.3832 E0.0677 F3000 ; Glyph: 6
G1 X140.3058 Y190.3832 E0.0677 F3000 ; Glyph: 6
G1 E-0.5 F3000 ; Retract
G1 Z0.6 F9000 ; Z hop
G0 X145.5086 Y180.3832 F9000 ; Move
G1 Z0.4 F9000 ; Z hop return
G1 E0.5 F1800 ; Un-retract
G1 X147.5086 Y180.3832 E0.0677 F3000 ; Glyph: 0
G1 X149.5086 Y180.3832 E0.0677 F3000 ; Glyph: 0
G1 X149.5086 Y182.3832 E0.0677 F3000 ; Glyph: 0
G1 X147.5086 Y182.3832 E0.0677 F3000 ; Glyph: 0
G1 X145.5086 Y182.3832 E0.0677 F3000 ; Glyph: 0
G1 X145.5086 Y180.3832 E0.0677 F3000 ; Glyph: 0
G1 E-0.5 F3000 ; Retract
G1 Z0.6 F9000 ; Z hop
G0 X149.5086 Y183.3832 F9000 ; Move
G1 Z0.4 F9000 ; Z hop return
G1 E0.5 F1800 ; Un-retract
G1 X148.7586 Y183.3832 E0.02539 F3000 ; Glyph: .
G1 E-0.5 F3000 ; Retract
G1 Z0.6 F9000 ; Z hop
G0 X145.5086 Y184.3832 F9000 ; Move
G1 Z0.4 F9000 ; Z hop return
G1 E0.5 F1800 ; Un-retract
G1 X147.5086 Y184.3832 E0.0677 F3000 ; Glyph: 0
G1 X149.5086 Y184.3832 E0.0677 F3000 ; Glyph: 0
G1 X149.5086 Y186.3832 E0.0677 F3000 ; Glyph: 0
G1 X147.5086 Y186.3832 E0.0677 F3000 ; Glyph: 0
G1 X145.5086 Y186.3832 E0.0677 F3000 ; Glyph: 0
G1 X145.5086 Y184.3832 E0.0677 F3000 ; Glyph: 0
G1 E-0.5 F3000 ; Retract
G1 Z0.6 F9000 ; Z hop
G0 X145.5086 Y187.3832 F9000 ; Move
G1 Z0.4 F9000 ; Z hop return
G1 E0.5 F1800 ; Un-retract
G1 X145.5086 Y189.3832 E0.0677 F3000 ; Glyph: 3
G1 X147.5086 Y189.3832 E0.0677 F3000 ; Glyph: 3
G1 X147.5086 Y187.3832 E0.0677 F3000 ; Glyph: 3
G0 X147.5086 Y189.3832 F9000 ; Move
G1 X149.5086 Y189.3832 E0.0677 F3000 ; Glyph: 3
G1 X149.5086 Y187.3832 E0.0677 F3000 ; Glyph: 3
G1 E-0.5 F3000 ; Retract
G1 Z0.6 F9000 ; Z hop
G0 X145.5086 Y190.3832 F9000 ; Move
G1 Z0.4 F9000 ; Z hop return
G1 E0.5 F1800 ; Un-retract
G1 X147.5086 Y190.3832 E0.0677 F3000 ; Glyph: 8
G1 X149.5086 Y190.3832 E0.0677 F3000 ; Glyph: 8
G1 X149.5086 Y192.3832 E0.0677 F3000 ; Glyph: 8
G1 X147.5086 Y192.3832 E0.0677 F3000 ; Glyph: 8
G1 X145.5086 Y192.3832 E0.0677 F3000 ; Glyph: 8
G1 X145.5086 Y190.3832 E0.0677 F3000 ; Glyph: 8
G0 X147.5086 Y190.3832 F9000 ; Move
G1 X147.5086 Y192.3832 E0.0677 F3000 ; Glyph: 8
G1 E-0.5 F3000 ; Retract
G1 Z0.6 F9000 ; Z hop
G0 X152.7114 Y180.3832 F9000 ; Move
G1 Z0.4 F9000 ; Z hop return
G1 E0.5 F1800 ; Un-retract
G1 X154.7114 Y180.3832 E0.0677 F3000 ; Glyph: 0
G1 X156.7114 Y180.3832 E0.0677 F3000 ; Glyph: 0
G1 X156.7114 Y182.3832 E0.0677 F3000 ; Glyph: 0
G1 X154.7114 Y182.3832 E0.0677 F3000 ; Glyph: 0
G1 X152.7114 Y182.3832 E0.0677 F3000 ; Glyph: 0
G1 X152.7114 Y180.3832 E0.0677 F3000 ; Glyph: 0
G1 E-0.5 F3000 ; Retract
G1 Z0.6 F9000 ; Z hop
G0 X156.7114 Y183.3832 F9000 ; Move
G1 Z0.4 F9000 ; Z hop return
G1 E0.5 F1800 ; Un-retract
G1 X155.9614 Y183.3832 E0.02539 F3000 ; Glyph: .
G1 E-0.5 F3000 ; Retract
G1 Z0.6 F9000 ; Z hop
G0 X152.7114 Y184.3832 F9000 ; Move
G1 Z0.4 F9000 ; Z hop return
G1 E0.5 F1800 ; Un-retract
G1 X154.7114 Y184.3832 E0.0677 F3000 ; Glyph: 0
G1 X156.7114 Y184.3832 E0.0677 F3000 ; Glyph: 0
G1 X156.7114 Y186.3832 E0.0677 F3000 ; Glyph: 0
G1 X154.7114 Y186.3832 E0.0677 F3000 ; Glyph: 0
G1 X152.7114 Y186.3832 E0.0677 F3000 ; Glyph: 0
G1 X152.7114 Y184.3832 E0.0677 F3000 ; Glyph: 0
G1 E-0.5 F3000 ; Retract
G1 Z0.6 F9000 ; Z hop
G0 X152.7114 Y189.3832 F9000 ; Move
G1 Z0.4 F9000 ; Z hop return
G1 E0.5 F1800 ; Un-retract
G1 X154.7114 Y189.3832 E0.0677 F3000 ; Glyph: 4
G1 X156.7114 Y189.3832 E0.0677 F3000 ; Glyph: 4
G0 X154.7114 Y189.3832 F9000 ; Move
G1 X154.7114 Y187.3832 E0.0677 F3000 ; Glyph: 4
G1 X152.7114 Y187.3832 E0.0677 F3000 ; Glyph: 4
G1 E-0.5 F3000 ; Retract
G1 Z0.6 F9000 ; Z hop
G0 X159.9142 Y180.3832 F9000 ; Move
G1 Z0.4 F9000 ; Z hop return
G1 E0.5 F1800 ; Un-retract
G1 X161.9142 Y180.3832 E0.0677 F3000 ; Glyph: 0
G1 X163.9142 Y180.3832 E0.0677 F3000 ; Glyph: 0
G1 X163.9142 Y182.3832 E0.0677 F3000 ; Glyph: 0
G1 X161.9142 Y182.3832 E0.0677 F3000 ; Glyph: 0
G1 X159.9142 Y182.3832 E0.0677 F3000 ; Glyph: 0
G1 X159.9142 Y180.3832 E0.0677 F3000 ; Glyph: 0
G1 E-0.5 F3000 ; Retract
G1 Z0.6 F9000 ; Z hop
G0 X163.9142 Y183.3832 F9000 ; Move
G1 Z0.4 F9000 ; Z hop return
G1 E0.5 F1800 ; Un-retract
G1 X163.1642 Y183.3832 E0.02539 F3000 ; Glyph: .
G1 E-0.5 F3000 ; Retract
G1 Z0.6 F9000 ; Z hop
G0 X159.9142 Y184.3832 F9000 ; Move
G1 Z0.4 F9000 ; Z hop return
G1 E0.5 F1800 ; Un-retract
G1 X161.9142 Y184.3832 E0.0677 F3000 ; Glyph: 0
G1 X163.9142 Y184.3832 E0.0677 F3000 ; Glyph: 0
G1 X163.9142 Y186.3832 E0.0677 F3000 ; Glyph: 0
G1 X161.9142 Y186.3832 E0.0677 F3000 ; Glyph: 0
G1 X159.9142 Y186.3832 E0.0677 F3000 ; Glyph: 0
G1 X159.9142 Y184.3832 E0.0677 F3000 ; Glyph: 0
G1 E-0.5 F3000 ; Retract
G1 Z0.6 F9000 ; Z hop
G0 X159.9142 Y189.3832 F9000 ; Move
G1 Z0.4 F9000 ; Z hop return
G1 E0.5 F1800 ; Un-retract
G1 X161.9142 Y189.3832 E0.0677 F3000 ; Glyph: 4
G1 X163.9142 Y189.3832 E0.0677 F3000 ; Glyph: 4
G0 X161.9142 Y189.3832 F9000 ; Move
G1 X161.9142 Y187.3832 E0.0677 F3000 ; Glyph: 4
G1 X159.9142 Y187.3832 E0.0677 F3000 ; Glyph: 4
G1 E-0.5 F3000 ; Retract
G1 Z0.6 F9000 ; Z hop
G0 X159.9142 Y190.3832 F9000 ; Move
G1 Z0.4 F9000 ; Z hop return
G1 E0.5 F1800 ; Un-retract
G1 X159.9142 Y192.3832 E0.0677 F3000 ; Glyph: 2
G1 X161.9142 Y192.3832 E0.0677 F3000 ; Glyph: 2
G1 X161.9142 Y190.3832 E0.0677 F3000 ; Glyph: 2
G1 X163.9142 Y190.3832 E0.0677 F3000 ; Glyph: 2
G1 X163.9142 Y192.3832 E0.0677 F3000 ; Glyph: 2
G1 E-0.5 F3000 ; Retract
G1 Z0.6 F9000 ; Z hop
G0 X167.117 Y180.3832 F9000 ; Move
G1 Z0.4 F9000 ; Z hop return
G1 E0.5 F1800 ; Un-retract
G1 X169.117 Y180.3832 E0.0677 F3000 ; Glyph: 0
G1 X171.117 Y180.3832 E0.0677 F3000 ; Glyph: 0
G1 X171.117 Y182.3832 E0.0677 F3000 ; Glyph: 0
G1 X169.117 Y182.3832 E0.0677 F3000 ; Glyph: 0
G1 X167.117 Y182.3832 E0.0677 F3000 ; Glyph: 0
G1 X167.117 Y180.3832 E0.0677 F3000 ; Glyph: 0
G1 E-0.5 F3000 ; Retract
G1 Z0.6 F9000 ; Z hop
G0 X171.117 Y183.3832 F9000 ; Move
G1 Z0.4 F9000 ; Z hop return
G1 E0.5 F1800 ; Un-retract
G1 X170.367 Y183.3832 E0.02539 F3000 ; Glyph: .
G1 E-0.5 F3000 ; Retract
G1 Z0.6 F9000 ; Z hop
G0 X167.117 Y184.3832 F9000 ; Move
G1 Z0.4 F9000 ; Z hop return
G1 E0.5 F1800 ; Un-retract
G1 X169.117 Y184.3832 E0.0677 F3000 ; Glyph: 0
G1 X171.117 Y184.3832 E0.0677 F3000 ; Glyph: 0
G1 X171.117 Y186.3832 E0.0677 F3000 ; Glyph: 0
G1 X169.117 Y186.3832 E0.0677 F3000 ; Glyph: 0
G1 X167.117 Y186.3832 E0.0677 F3000 ; Glyph: 0
G1 X167.117 Y184.3832 E0.0677 F3000 ; Glyph: 0
G1 E-0.5 F3000 ; Retract
G1 Z0.6 F9000 ; Z hop
G0 X167.117 Y189.3832 F9000 ; Move
G1 Z0.4 F9000 ; Z hop return
G1 E0.5 F1800 ; Un-retract
G1 X169.117 Y189.3832 E0.0677 F3000 ; Glyph: 4
G1 X171.117 Y189.3832 E0.0677 F3000 ; Glyph: 4
G0 X169.117 Y189.3832 F9000 ; Move
G1 X169.117 Y187.3832 E0.0677 F3000 ; Glyph: 4
G1 X167.117 Y187.3832 E0.0677 F3000 ; Glyph: 4
G1 E-0.5 F3000 ; Retract
G1 Z0.6 F9000 ; Z hop
G0 X167.117 Y192.3832 F9000 ; Move
G1 Z0.4 F9000 ; Z hop return
G1 E0.5 F1800 ; Un-retract
G1 X169.117 Y192.3832 E0.0677 F3000 ; Glyph: 4
G1 X171.117 Y192.3832 E0.0677 F3000 ; Glyph: 4
G0 X169.117 Y192.3832 F9000 ; Move
G1 X169.117 Y190.3832 E0.0677 F3000 ; Glyph: 4
G1 X167.117 Y190.3832 E0.0677 F3000 ; Glyph: 4
G1 E-0.5 F3000 ; Retract
G1 Z0.6 F9000 ; Z hop
G0 X174.3198 Y180.3832 F9000 ; Move
G1 Z0.4 F9000 ; Z hop return
G1 E0.5 F1800 ; Un-retract
G1 X176.3198 Y180.3832 E0.0677 F3000 ; Glyph: 0
G1 X178.3198 Y180.3832 E0.0677 F3000 ; Glyph: 0
G1 X178.3198 Y182.3832 E0.0677 F3000 ; Glyph: 0
G1 X176.3198 Y182.3832 E0.0677 F3000 ; Glyph: 0
G1 X174.3198 Y182.3832 E0.0677 F3000 ; Glyph: 0
G1 X174.3198 Y180.3832 E0.0677 F3000 ; Glyph: 0
G1 E-0.5 F3000 ; Retract
G1 Z0.6 F9000 ; Z hop
G0 X178.3198 Y183.3832 F9000 ; Move
G1 Z0.4 F9000 ; Z hop return
G1 E0.5 F1800 ; Un-retract
G1 X177.5698 Y183.3832 E0.02539 F3000 ; Glyph: .
G1 E-0.5 F3000 ; Retract
G1 Z0.6 F9000 ; Z hop
G0 X174.3198 Y184.3832 F9000 ; Move
G1 Z0.4 F9000 ; Z hop return
G1 E0.5 F1800 ; Un-retract
G1 X176.3198 Y184.3832 E0.0677 F3000 ; Glyph: 0
G1 X178.3198 Y184.3832 E0.0677 F3000 ; Glyph: 0
G1 X178.3198 Y186.3832 E0.0677 F3000 ; Glyph: 0
G1 X176.3198 Y186.3832 E0.0677 F3000 ; Glyph: 0
G1 X174.3198 Y186.3832 E0.0677 F3000 ; Glyph: 0
G1 X174.3198 Y184.3832 E0.0677 F3000 ; Glyph: 0
G1 E-0.5 F3000 ; Retract
G1 Z0.6 F9000 ; Z hop
G0 X174.3198 Y189.3832 F9000 ; Move
G1 Z0.4 F9000 ; Z hop return
G1 E0.5 F1800 ; Un-retract
G1 X176.3198 Y189.3832 E0.0677 F3000 ; Glyph: 4
G1 X178.3198 Y189.3832 E0.0677 F3000 ; Glyph: 4
G0 X176.3198 Y189.3832 F9000 ; Move
G1 X176.3198 Y187.3832 E0.0677 F3000 ; Glyph: 4
G1 X174.3198 Y187.3832 E0.0677 F3000 ; Glyph: 4
G1 E-0.5 F3000 ; Retract
G1 Z0.6 F9000 ; Z hop
G0 X174.3198 Y192.3832 F9000 ; Move
G1 Z0.4 F9000 ; Z hop return
G1 E0.5 F1800 ; Un-retract
G1 X174.3198 Y190.3832 E0.0677 F3000 ; Glyph: 6
G1 X176.3198 Y190.3832 E0.0677 F3000 ; Glyph: 6
G1 X178.3198 Y190.3832 E0.0677 F3000 ; Glyph: 6
G1 X178.3198 Y192.3832 E0.0677 F3000 ; Glyph: 6
G1 X176.3198 Y192.3832 E0.0677 F3000 ; Glyph: 6
G1 X176.3198 Y190.3832 E0.0677 F3000 ; Glyph: 6
G1 E-0.5 F3000 ; Retract
G1 Z0.6 F9000 ; Z hop
G0 X181.5226 Y180.3832 F9000 ; Move
G1 Z0.4 F9000 ; Z hop return
G1 E0.5 F1800 ; Un-retract
G1 X183.5226 Y180.3832 E0.0677 F3000 ; Glyph: 0
G1 X185.5226 Y180.3832 E0.0677 F3000 ; Glyph: 0
G1 X185.5226 Y182.3832 E0.0677 F3000 ; Glyph: 0
G1 X183.5226 Y182.3832 E0.0677 F3000 ; Glyph: 0
G1 X181.5226 Y182.3832 E0.0677 F3000 ; Glyph: 0
G1 X181.5226 Y180.3832 E0.0677 F3000 ; Glyph: 0
G1 E-0.5 F3000 ; Retract
G1 Z0.6 F9000 ; Z hop
G0 X185.5226 Y183.3832 F9000 ; Move
G1 Z0.4 F9000 ; Z hop return
G1 E0.5 F1800 ; Un-retract
G1 X184.7726 Y183.3832 E0.02539 F3000 ; Glyph: .
G1 E-0.5 F3000 ; Retract
G1 Z0.6 F9000 ; Z hop
G0 X181.5226 Y184.3832 F9000 ; Move
G1 Z0.4 F9000 ; Z hop return
G1 E0.5 F1800 ; Un-retract
G1 X183.5226 Y184.3832 E0.0677 F3000 ; Glyph: 0
G1 X185.5226 Y184.3832 E0.0677 F3000 ; Glyph: 0
G1 X185.5226 Y186.3832 E0.0677 F3000 ; Glyph: 0
G1 X183.5226 Y186.3832 E0.0677 F3000 ; Glyph: 0
G1 X181.5226 Y186.3832 E0.0677 F3000 ; Glyph: 0
G1 X181.5226 Y184.3832 E0.0677 F3000 ; Glyph: 0
G1 E-0.5 F3000 ; Retract
G1 Z0.6 F9000 ; Z hop
G0 X181.5226 Y189.3832 F9000 ; Move
G1 Z0.4 F9000 ; Z hop return
G1 E0.5 F1800 ; Un-retract
G1 X183.5226 Y189.3832 E0.0677 F3000 ; Glyph: 4
G1 X185.5226 Y189.3832 E0.0677 F3000 ; Glyph: 4
G0 X183.5226 Y189.3832 F9000 ; Move
G1 X183.5226 Y187.3832 E0.0677 F3000 ; Glyph: 4
G1 X181.5226 Y187.3832 E0.0677 F3000 ; Glyph: 4
G1 E-0.5 F3000 ; Retract
G1 Z0.6 F9000 ; Z hop
G0 X181.5226 Y190.3832 F9000 ; Move
G1 Z0.4 F9000 ; Z hop return
G1 E0.5 F1800 ; Un-retract
G1 X183.5226 Y190.3832 E0.0677 F3000 ; Glyph: 8
G1 X185.5226 Y190.3832 E0.0677 F3000 ; Glyph: 8
G1 X185.5226 Y192.3832 E0.0677 F3000 ; Glyph: 8
G1 X183.5226 Y192.3832 E0.0677 F3000 ; Glyph: 8
G1 X181.5226 Y192.3832 E0.0677 F3000 ; Glyph: 8
G1 X181.5226 Y190.3832 E0.0677 F3000 ; Glyph: 8
G0 X183.5226 Y190.3832 F9000 ; Move
G1 X183.5226 Y192.3832 E0.0677 F3000 ; Glyph: 8
G1 E-0.5 F3000 ; Retract
G1 Z0.6 F9000 ; Z hop
G0 X188.7253 Y180.3832 F9000 ; Move
G1 Z0.4 F9000 ; Z hop return
G1 E0.5 F1800 ; Un-retract
G1 X190.7253 Y180.3832 E0.0677 F3000 ; Glyph: 0
G1 X192.7253 Y180.3832 E0.0677 F3000 ; Glyph: 0
G1 X192.7253 Y182.3832 E0.0677 F3000 ; Glyph: 0
G1 X190.7253 Y182.3832 E0.0677 F3000 ; Glyph: 0
G1 X188.7253 Y182.3832 E0.0677 F3000 ; Glyph: 0
G1 X188.7253 Y180.3832 E0.0677 F3000 ; Glyph: 0
G1 E-0.5 F3000 ; Retract
G1 Z0.6 F9000 ; Z hop
G0 X192.7253 Y183.3832 F9000 ; Move
G1 Z0.4 F9000 ; Z hop return
G1 E0.5 F1800 ; Un-retract
G1 X191.9753 Y183.3832 E0.02539 F3000 ; Glyph: .
G1 E-0.5 F3000 ; Retract
G1 Z0.6 F9000 ; Z hop
G0 X188.7253 Y184.3832 F9000 ; Move
G1 Z0.4 F9000 ; Z hop return
G1 E0.5 F1800 ; Un-retract
G1 X190.7253 Y184.3832 E0.0677 F3000 ; Glyph: 0
G1 X192.7253 Y184.3832 E0.0677 F3000 ; Glyph: 0
G1 X192.7253 Y186.3832 E0.0677 F3000 ; Glyph: 0
G1 X190.7253 Y186.3832 E0.0677 F3000 ; Glyph: 0
G1 X188.7253 Y186.3832 E0.0677 F3000 ; Glyph: 0
G1 X188.7253 Y184.3832 E0.0677 F3000 ; Glyph: 0
G1 E-0.5 F3000 ; Retract
G1 Z0.6 F9000 ; Z hop
G0 X188.7253 Y189.3832 F9000 ; Move
G1 Z0.4 F9000 ; Z hop return
G1 E0.5 F1800 ; Un-retract
G1 X188.7253 Y187.3832 E0.0677 F3000 ; Glyph: 5
G1 X190.7253 Y187.3832 E0.0677 F3000 ; Glyph: 5
G1 X190.7253 Y189.3832 E0.0677 F3000 ; Glyph: 5
G1 X192.7253 Y189.3832 E0.0677 F3000 ; Glyph: 5
G1 X192.7253 Y187.3832 E0.0677 F3000 ; Glyph: 5
G1 E-0.5 F3000 ; Retract
G1 Z0.6 F9000 ; Z hop
G0 X118.1217 Y136.5068 F9000 ; Move to pattern start

G1 Z0.4 F9000 ; Z hop return
G1 E0.5 F1800 ; Un-retract
SET_PRESSURE_ADVANCE ADVANCE=0.03 ; Set pressure advance
M117 PA 0.03
G1 X139.3349 Y157.72 E1.01546 F15000 ; Print pattern wall
G1 X118.1217 Y178.9332 E1.01546 F15000 ; Print pattern wall
G1 E-0.5 F3000 ; Retract
G1 Z0.6 F9000 ; Z hop
G0 X118.6974 Y136.5068 F9000 ; Move to start next pattern wall
G1 Z0.4 F9000 ; Z hop return
G1 E0.5 F1800 ; Un-retract
G1 X139.9106 Y157.72 E1.01546 F15000 ; Print pattern wall
G1 X118.6974 Y178.9332 E1.01546 F15000 ; Print pattern wall
G1 E-0.5 F3000 ; Retract
G1 Z0.6 F9000 ; Z hop
G0 X119.2731 Y136.5068 F9000 ; Move to start next pattern wall
G1 Z0.4 F9000 ; Z hop return
G1 E0.5 F1800 ; Un-retract
G1 X140.4863 Y157.72 E1.01546 F15000 ; Print pattern wall
G1 X119.2731 Y178.9332 E1.01546 F15000 ; Print pattern wall
G1 E-0.5 F3000 ; Retract
G1 Z0.6 F9000 ; Z hop
G0 X121.7231 Y136.5068 F9000 ; Move to next pattern
G1 Z0.4 F9000 ; Z hop return
G1 E0.5 F1800 ; Un-retract
SET_PRESSURE_ADVANCE ADVANCE=0.031 ; Set pressure advance
M117 PA 0.031
G1 X142.9363 Y157.72 E1.01546 F15000 ; Print pattern wall
G1 X121.7231 Y178.9332 E1.01546 F15000 ; Print pattern wall
G1 E-0.5 F3000 ; Retract
G1 Z0.6 F9000 ; Z hop
G0 X122.2988 Y136.5068 F9000 ; Move to start next pattern wall
G1 Z0.4 F9000 ; Z hop return
G1 E0.5 F1800 ; Un-retract
G1 X143.512 Y157.72 E1.01546 F15000 ; Print pattern wall
G1 X122.2988 Y178.9332 E1.01546 F15000 ; Print pattern wall
G1 E-0.5 F3000 ; Retract
G1 Z0.6 F9000 ; Z hop
G0 X122.8745 Y136.5068 F9000 ; Move to start next pattern wall
G1 Z0.4 F9000 ; Z hop return
G1 E0.5 F1800 ; Un-retract
G1 X144.0877 Y157.72 E1.01546 F15000 ; Print pattern wall
G1 X122.8745 Y178.9332 E1.01546 F15000 ; Print pattern wall
G1 E-0.5 F3000 ; Retract
G1 Z0.6 F9000 ; Z hop
G0 X125.3245 Y136.5068 F9000 ; Move to next pattern
G1 Z0.4 F9000 ; Z hop return
G1 E0.5 F1800 ; Un-retract
SET_PRESSURE_ADVANCE ADVANCE=0.032 ; Set pressure advance
M117 PA 0.032
G1 X146.5377 Y157.72 E1.01546 F15000 ; Print pattern wall
G1 X125.3245 Y178.9332 E1.01546 F15000 ; Print pattern wall
G1 E-0.5 F3000 ; Retract
G1 Z0.6 F9000 ; Z hop
G0 X125.9002 Y136.5068 F9000 ; Move to start next pattern wall
G1 Z0.4 F9000 ; Z hop return
G1 E0.5 F1800 ; Un-retract
G1 X147.1134 Y157.72 E1.01546 F15000 ; Print pattern wall
G1 X125.9002 Y178.9332 E1.01546 F15000 ; Print pattern wall
G1 E-0.5 F3000 ; Retract
G1 Z0.6 F9000 ; Z hop
G0 X126.4759 Y136.5068 F9000 ; Move to start next pattern wall
G1 Z0.4 F9000 ; Z hop return
G1 E0.5 F1800 ; Un-retract
G1 X147.6891 Y157.72 E1.01546 F15000 ; Print pattern wall
G1 X126.4759 Y178.9332 E1.01546 F15000 ; Print pattern wall
G1 E-0.5 F3000 ; Retract
G1 Z0.6 F9000 ; Z hop
G0 X128.9259 Y136.5068 F9000 ; Move to next pattern
G1 Z0.4 F9000 ; Z hop return
G1 E0.5 F1800 ; Un-retract
SET_PRESSURE_ADVANCE ADVANCE=0.033 ; Set pressure advance
M117 PA 0.033
G1 X150.1391 Y157.72 E1.01546 F15000 ; Print pattern wall
G1 X128.9259 Y178.9332 E1.01546 F15000 ; Print pattern wall
G1 E-0.5 F3000 ; Retract
G1 Z0.6 F9000 ; Z hop
G0 X129.5016 Y136.5068 F9000 ; Move to start next pattern wall
G1 Z0.4 F9000 ; Z hop return
G1 E0.5 F1800 ; Un-retract
G1 X150.7148 Y157.72 E1.01546 F15000 ; Print pattern wall
G1 X129.5016 Y178.9332 E1.01546 F15000 ; Print pattern wall
G1 E-0.5 F3000 ; Retract
G1 Z0.6 F9000 ; Z hop
G0 X130.0773 Y136.5068 F9000 ; Move to start next pattern wall
G1 Z0.4 F9000 ; Z hop return
G1 E0.5 F1800 ; Un-retract
G1 X151.2905 Y157.72 E1.01546 F15000 ; Print pattern wall
G1 X130.0773 Y178.9332 E1.01546 F15000 ; Print pattern wall
G1 E-0.5 F3000 ; Retract
G1 Z0.6 F9000 ; Z hop
G0 X132.5273 Y136.5068 F9000 ; Move to next pattern
G1 Z0.4 F9000 ; Z hop return
G1 E0.5 F1800 ; Un-retract
SET_PRESSURE_ADVANCE ADVANCE=0.034 ; Set pressure advance
M117 PA 0.034
G1 X153.7405 Y157.72 E1.01546 F15000 ; Print pattern wall
G1 X132.5273 Y178.9332 E1.01546 F15000 ; Print pattern wall
G1 E-0.5 F3000 ; Retract
G1 Z0.6 F9000 ; Z hop
G0 X133.103 Y136.5068 F9000 ; Move to start next pattern wall
G1 Z0.4 F9000 ; Z hop return
G1 E0.5 F1800 ; Un-retract
G1 X154.3162 Y157.72 E1.01546 F15000 ; Print pattern wall
G1 X133.103 Y178.9332 E1.01546 F15000 ; Print pattern wall
G1 E-0.5 F3000 ; Retract
G1 Z0.6 F9000 ; Z hop
G0 X133.6787 Y136.5068 F9000 ; Move to start next pattern wall
G1 Z0.4 F9000 ; Z hop return
G1 E0.5 F1800 ; Un-retract
G1 X154.8919 Y157.72 E1.01546 F15000 ; Print pattern wall
G1 X133.6787 Y178.9332 E1.01546 F15000 ; Print pattern wall
G1 E-0.5 F3000 ; Retract
G1 Z0.6 F9000 ; Z hop
G0 X136.1287 Y136.5068 F9000 ; Move to next pattern
G1 Z0.4 F9000 ; Z hop return
G1 E0.5 F1800 ; Un-retract
SET_PRESSURE_ADVANCE ADVANCE=0.035 ; Set pressure advance
M117 PA 0.035
G1 X157.3419 Y157.72 E1.01546 F15000 ; Print pattern wall
G1 X136.1287 Y178.9332 E1.01546 F15000 ; Print pattern wall
G1 E-0.5 F3000 ; Retract
G1 Z0.6 F9000 ; Z hop
G0 X136.7044 Y136.5068 F9000 ; Move to start next pattern wall
G1 Z0.4 F9000 ; Z hop return
G1 E0.5 F1800 ; Un-retract
G1 X157.9176 Y157.72 E1.01546 F15000 ; Print pattern wall
G1 X136.7044 Y178.9332 E1.01546 F15000 ; Print pattern wall
G1 E-0.5 F3000 ; Retract
G1 Z0.6 F9000 ; Z hop
G0 X137.2801 Y136.5068 F9000 ; Move to start next pattern wall
G1 Z0.4 F9000 ; Z hop return
G1 E0.5 F1800 ; Un-retract
G1 X158.4933 Y157.72 E1.01546 F15000 ; Print pattern wall
G1 X137.2801 Y178.9332 E1.01546 F15000 ; Print pattern wall
G1 E-0.5 F3000 ; Retract
G1 Z0.6 F9000 ; Z hop
G0 X139.7301 Y136.5068 F9000 ; Move to next pattern
G1 Z0.4 F9000 ; Z hop return
G1 E0.5 F1800 ; Un-retract
SET_PRESSURE_ADVANCE ADVANCE=0.036 ; Set pressure advance
M117 PA 0.036
G1 X160.9433 Y157.72 E1.01546 F15000 ; Print pattern wall
G1 X139.7301 Y178.9332 E1.01546 F15000 ; Print pattern wall
G1 E-0.5 F3000 ; Retract
G1 Z0.6 F9000 ; Z hop
G0 X140.3058 Y136.5068 F9000 ; Move to start next pattern wall
G1 Z0.4 F9000 ; Z hop return
G1 E0.5 F1800 ; Un-retract
G1 X161.519 Y157.72 E1.01546 F15000 ; Print pattern wall
G1 X140.3058 Y178.9332 E1.01546 F15000 ; Print pattern wall
G1 E-0.5 F3000 ; Retract
G1 Z0.6 F9000 ; Z hop
G0 X140.8815 Y136.5068 F9000 ; Move to start next pattern wall
G1 Z0.4 F9000 ; Z hop return
G1 E0.5 F1800 ; Un-retract
G1 X162.0947 Y157.72 E1.01546 F15000 ; Print pattern wall
G1 X140.8815 Y178.9332 E1.01546 F15000 ; Print pattern wall
G1 E-0.5 F3000 ; Retract
G1 Z0.6 F9000 ; Z hop
G0 X143.3315 Y136.5068 F9000 ; Move to next pattern
G1 Z0.4 F9000 ; Z hop return
G1 E0.5 F1800 ; Un-retract
SET_PRESSURE_ADVANCE ADVANCE=0.037 ; Set pressure advance
M117 PA 0.037
G1 X164.5447 Y157.72 E1.01546 F15000 ; Print pattern wall
G1 X143.3315 Y178.9332 E1.01546 F15000 ; Print pattern wall
G1 E-0.5 F3000 ; Retract
G1 Z0.6 F9000 ; Z hop
G0 X143.9072 Y136.5068 F9000 ; Move to start next pattern wall
G1 Z0.4 F9000 ; Z hop return
G1 E0.5 F1800 ; Un-retract
G1 X165.1204 Y157.72 E1.01546 F15000 ; Print pattern wall
G1 X143.9072 Y178.9332 E1.01546 F15000 ; Print pattern wall
G1 E-0.5 F3000 ; Retract
G1 Z0.6 F9000 ; Z hop
G0 X144.4829 Y136.5068 F9000 ; Move to start next pattern wall
G1 Z0.4 F9000 ; Z hop return
G1 E0.5 F1800 ; Un-retract
G1 X165.6961 Y157.72 E1.01546 F15000 ; Print pattern wall
G1 X144.4829 Y178.9332 E1.01546 F15000 ; Print pattern wall
G1 E-0.5 F3000 ; Retract
G1 Z0.6 F9000 ; Z hop
G0 X146.9329 Y136.5068 F9000 ; Move to next pattern
G1 Z0.4 F9000 ; Z hop return
G1 E0.5 F1800 ; Un-retract
SET_PRESSURE_ADVANCE ADVANCE=0.038 ; Set pressure advance
M117 PA 0.038
G1 X168.1461 Y157.72 E1.01546 F15000 ; Print pattern wall
G1 X146.9329 Y178.9332 E1.01546 F15000 ; Print pattern wall
G1 E-0.5 F3000 ; Retract
G1 Z0.6 F9000 ; Z hop
G0 X147.5086 Y136.5068 F9000 ; Move to start next pattern wall
G1 Z0.4 F9000 ; Z hop return
G1 E0.5 F1800 ; Un-retract
G1 X168.7218 Y157.72 E1.01546 F15000 ; Print pattern wall
G1 X147.5086 Y178.9332 E1.01546 F15000 ; Print pattern wall
G1 E-0.5 F3000 ; Retract
G1 Z0.6 F9000 ; Z hop
G0 X148.0843 Y136.5068 F9000 ; Move to start next pattern wall
G1 Z0.4 F9000 ; Z hop return
G1 E0.5 F1800 ; Un-retract
G1 X169.2975 Y157.72 E1.01546 F15000 ; Print pattern wall
G1 X148.0843 Y178.9332 E1.01546 F15000 ; Print pattern wall
G1 E-0.5 F3000 ; Retract
G1 Z0.6 F9000 ; Z hop
G0 X150.5343 Y136.5068 F9000 ; Move to next pattern
G1 Z0.4 F9000 ; Z hop return
G1 E0.5 F1800 ; Un-retract
SET_PRESSURE_ADVANCE ADVANCE=0.039 ; Set pressure advance
M117 PA 0.039
G1 X171.7475 Y157.72 E1.01546 F15000 ; Print pattern wall
G1 X150.5343 Y178.9332 E1.01546 F15000 ; Print pattern wall
G1 E-0.5 F3000 ; Retract
G1 Z0.6 F9000 ; Z hop
G0 X151.11 Y136.5068 F9000 ; Move to start next pattern wall
G1 Z0.4 F9000 ; Z hop return
G1 E0.5 F1800 ; Un-retract
G1 X172.3232 Y157.72 E1.01546 F15000 ; Print pattern wall
G1 X151.11 Y178.9332 E1.01546 F15000 ; Print pattern wall
G1 E-0.5 F3000 ; Retract
G1 Z0.6 F9000 ; Z hop
G0 X151.6857 Y136.5068 F9000 ; Move to start next pattern wall
G1 Z0.4 F9000 ; Z hop return
G1 E0.5 F1800 ; Un-retract
G1 X172.8989 Y157.72 E1.01546 F15000 ; Print pattern wall
G1 X151.6857 Y178.9332 E1.01546 F15000 ; Print pattern wall
G1 E-0.5 F3000 ; Retract
G1 Z0.6 F9000 ; Z hop
G0 X154.1357 Y136.5068 F9000 ; Move to next pattern
G1 Z0.4 F9000 ; Z hop return
G1 E0.5 F1800 ; Un-retract
SET_PRESSURE_ADVANCE ADVANCE=0.04 ; Set pressure advance
M117 PA 0.04
G1 X175.3489 Y157.72 E1.01546 F15000 ; Print pattern wall
G1 X154.1357 Y178.9332 E1.01546 F15000 ; Print pattern wall
G1 E-0.5 F3000 ; Retract
G1 Z0.6 F9000 ; Z hop
G0 X154.7114 Y136.5068 F9000 ; Move to start next pattern wall
G1 Z0.4 F9000 ; Z hop return
G1 E0.5 F1800 ; Un-retract
G1 X175.9246 Y157.72 E1.01546 F15000 ; Print pattern wall
G1 X154.7114 Y178.9332 E1.01546 F15000 ; Print pattern wall
G1 E-0.5 F3000 ; Retract
G1 Z0.6 F9000 ; Z hop
G0 X155.2871 Y136.5068 F9000 ; Move to start next pattern wall
G1 Z0.4 F9000 ; Z hop return
G1 E0.5 F1800 ; Un-retract
G1 X176.5003 Y157.72 E1.01546 F15000 ; Print pattern wall
G1 X155.2871 Y178.9332 E1.01546 F15000 ; Print pattern wall
G1 E-0.5 F3000 ; Retract
G1 Z0.6 F9000 ; Z hop
G0 X157.7371 Y136.5068 F9000 ; Move to next pattern
G1 Z0.4 F9000 ; Z hop return
G1 E0.5 F1800 ; Un-retract
SET_PRESSURE_ADVANCE ADVANCE=0.041 ; Set pressure advance
M117 PA 0.041
G1 X178.9503 Y157.72 E1.01546 F15000 ; Print pattern wall
G1 X157.7371 Y178.9332 E1.01546 F15000 ; Print pattern wall
G1 E-0.5 F3000 ; Retract
G1 Z0.6 F9000 ; Z hop
G0 X158.3128 Y136.5068 F9000 ; Move to start next pattern wall
G1 Z0.4 F9000 ; Z hop return
G1 E0.5 F1800 ; Un-retract
G1 X179.526 Y157.72 E1.01546 F15000 ; Print pattern wall
G1 X158.3128 Y178.9332 E1.01546 F15000 ; Print pattern wall
G1 E-0.5 F3000 ; Retract
G1 Z0.6 F9000 ; Z hop
G0 X158.8885 Y136.5068 F9000 ; Move to start next pattern wall
G1 Z0.4 F9000 ; Z hop return
G1 E0.5 F1800 ; Un-retract
G1 X180.1017 Y157.72 E1.01546 F15000 ; Print pattern wall
G1 X158.8885 Y178.9332 E1.01546 F15000 ; Print pattern wall
G1 E-0.5 F3000 ; Retract
G1 Z0.6 F9000 ; Z hop
G0 X161.3385 Y136.5068 F9000 ; Move to next pattern
G1 Z0.4 F9000 ; Z hop return
G1 E0.5 F1800 ; Un-retract
SET_PRESSURE_ADVANCE ADVANCE=0.042 ; Set pressure advance
M117 PA 0.042
G1 X182.5517 Y157.72 E1.01546 F15000 ; Print pattern wall
G1 X161.3385 Y178.9332 E1.01546 F15000 ; Print pattern wall
G1 E-0.5 F3000 ; Retract
G1 Z0.6 F9000 ; Z hop
G0 X161.9142 Y136.5068 F9000 ; Move to start next pattern wall
G1 Z0.4 F9000 ; Z hop return
G1 E0.5 F1800 ; Un-retract
G1 X183.1274 Y157.72 E1.01546 F15000 ; Print pattern wall
G1 X161.9142 Y178.9332 E1.01546 F15000 ; Print pattern wall
G1 E-0.5 F3000 ; Retract
G1 Z0.6 F9000 ; Z hop
G0 X162.4899 Y136.5068 F9000 ; Move to start next pattern wall
G1 Z0.4 F9000 ; Z hop return
G1 E0.5 F1800 ; Un-retract
G1 X183.7031 Y157.72 E1.01546 F15000 ; Print pattern wall
G1 X162.4899 Y178.9332 E1.01546 F15000 ; Print pattern wall
G1 E-0.5 F3000 ; Retract
G1 Z0.6 F9000 ; Z hop
G0 X164.9399 Y136.5068 F9000 ; Move to next pattern
G1 Z0.4 F9000 ; Z hop return
G1 E0.5 F1800 ; Un-retract
SET_PRESSURE_ADVANCE ADVANCE=0.043 ; Set pressure advance
M117 PA 0.043
G1 X186.1531 Y157.72 E1.01546 F15000 ; Print pattern wall
G1 X164.9399 Y178.9332 E1.01546 F15000 ; Print pattern wall
G1 E-0.5 F3000 ; Retract
G1 Z0.6 F9000 ; Z hop
G0 X165.5156 Y136.5068 F9000 ; Move to start next pattern wall
G1 Z0.4 F9000 ; Z hop return
G1 E0.5 F1800 ; Un-retract
G1 X186.7288 Y157.72 E1.01546 F15000 ; Print pattern wall
G1 X165.5156 Y178.9332 E1.01546 F15000 ; Print pattern wall
G1 E-0.5 F3000 ; Retract
G1 Z0.6 F9000 ; Z hop
G0 X166.0913 Y136.5068 F9000 ; Move to start next pattern wall
G1 Z0.4 F9000 ; Z hop return
G1 E0.5 F1800 ; Un-retract
G1 X187.3045 Y157.72 E1.01546 F15000 ; Print pattern wall
G1 X166.0913 Y178.9332 E1.01546 F15000 ; Print pattern wall
G1 E-0.5 F3000 ; Retract
G1 Z0.6 F9000 ; Z hop
G0 X168.5413 Y136.5068 F9000 ; Move to next pattern
G1 Z0.4 F9000 ; Z hop return
G1 E0.5 F1800 ; Un-retract
SET_PRESSURE_ADVANCE ADVANCE=0.044 ; Set pressure advance
M117 PA 0.044
G1 X189.7545 Y157.72 E1.01546 F15000 ; Print pattern wall
G1 X168.5413 Y178.9332 E1.01546 F15000 ; Print pattern wall
G1 E-0.5 F3000 ; Retract
G1 Z0.6 F9000 ; Z hop
G0 X169.117 Y136.5068 F9000 ; Move to start next pattern wall
G1 Z0.4 F9000 ; Z hop return
G1 E0.5 F1800 ; Un-retract
G1 X190.3302 Y157.72 E1.01546 F15000 ; Print pattern wall
G1 X169.117 Y178.9332 E1.01546 F15000 ; Print pattern wall
G1 E-0.5 F3000 ; Retract
G1 Z0.6 F9000 ; Z hop
G0 X169.6927 Y136.5068 F9000 ; Move to start next pattern wall
G1 Z0.4 F9000 ; Z hop return
G1 E0.5 F1800 ; Un-retract
G1 X190.9059 Y157.72 E1.01546 F15000 ; Print pattern wall
G1 X169.6927 Y178.9332 E1.01546 F15000 ; Print pattern wall
G1 E-0.5 F3000 ; Retract
G1 Z0.6 F9000 ; Z hop
G0 X172.1427 Y136.5068 F9000 ; Move to next pattern
G1 Z0.4 F9000 ; Z hop return
G1 E0.5 F1800 ; Un-retract
SET_PRESSURE_ADVANCE ADVANCE=0.045 ; Set pressure advance
M117 PA 0.045
G1 X193.3559 Y157.72 E1.01546 F15000 ; Print pattern wall
G1 X172.1427 Y178.9332 E1.01546 F15000 ; Print pattern wall
G1 E-0.5 F3000 ; Retract
G1 Z0.6 F9000 ; Z hop
G0 X172.7184 Y136.5068 F9000 ; Move to start next pattern wall
G1 Z0.4 F9000 ; Z hop return
G1 E0.5 F1800 ; Un-retract
G1 X193.9316 Y157.72 E1.01546 F15000 ; Print pattern wall
G1 X172.7184 Y178.9332 E1.01546 F15000 ; Print pattern wall
G1 E-0.5 F3000 ; Retract
G1 Z0.6 F9000 ; Z hop
G0 X173.2941 Y136.5068 F9000 ; Move to start next pattern wall
G1 Z0.4 F9000 ; Z hop return
G1 E0.5 F1800 ; Un-retract
G1 X194.5073 Y157.72 E1.01546 F15000 ; Print pattern wall
G1 X173.2941 Y178.9332 E1.01546 F15000 ; Print pattern wall
G1 E-0.5 F3000 ; Retract
G1 Z0.6 F9000 ; Z hop
G0 X175.7441 Y136.5068 F9000 ; Move to next pattern
G1 Z0.4 F9000 ; Z hop return
G1 E0.5 F1800 ; Un-retract
SET_PRESSURE_ADVANCE ADVANCE=0.046 ; Set pressure advance
M117 PA 0.046
G1 X196.9573 Y157.72 E1.01546 F15000 ; Print pattern wall
G1 X175.7441 Y178.9332 E1.01546 F15000 ; Print pattern wall
G1 E-0.5 F3000 ; Retract
G1 Z0.6 F9000 ; Z hop
G0 X176.3198 Y136.5068 F9000 ; Move to start next pattern wall
G1 Z0.4 F9000 ; Z hop return
G1 E0.5 F1800 ; Un-retract
G1 X197.533 Y157.72 E1.01546 F15000 ; Print pattern wall
G1 X176.3198 Y178.9332 E1.01546 F15000 ; Print pattern wall
G1 E-0.5 F3000 ; Retract
G1 Z0.6 F9000 ; Z hop
G0 X176.8955 Y136.5068 F9000 ; Move to start next pattern wall
G1 Z0.4 F9000 ; Z hop return
G1 E0.5 F1800 ; Un-retract
G1 X198.1087 Y157.72 E1.01546 F15000 ; Print pattern wall
G1 X176.8955 Y178.9332 E1.01546 F15000 ; Print pattern wall
G1 E-0.5 F3000 ; Retract
G1 Z0.6 F9000 ; Z hop
G0 X179.3455 Y136.5068 F9000 ; Move to next pattern
G1 Z0.4 F9000 ; Z hop return
G1 E0.5 F1800 ; Un-retract
SET_PRESSURE_ADVANCE ADVANCE=0.047 ; Set pressure advance
M117 PA 0.047
G1 X200.5587 Y157.72 E1.01546 F15000 ; Print pattern wall
G1 X179.3455 Y178.9332 E1.01546 F15000 ; Print pattern wall
G1 E-0.5 F3000 ; Retract
G1 Z0.6 F9000 ; Z hop
G0 X179.9212 Y136.5068 F9000 ; Move to start next pattern wall
G1 Z0.4 F9000 ; Z hop return
G1 E0.5 F1800 ; Un-retract
G1 X201.1344 Y157.72 E1.01546 F15000 ; Print pattern wall
G1 X179.9212 Y178.9332 E1.01546 F15000 ; Print pattern wall
G1 E-0.5 F3000 ; Retract
G1 Z0.6 F9000 ; Z hop
G0 X180.4969 Y136.5068 F9000 ; Move to start next pattern wall
G1 Z0.4 F9000 ; Z hop return
G1 E0.5 F1800 ; Un-retract
G1 X201.7101 Y157.72 E1.01546 F15000 ; Print pattern wall
G1 X180.4969 Y178.9332 E1.01546 F15000 ; Print pattern wall
G1 E-0.5 F3000 ; Retract
G1 Z0.6 F9000 ; Z hop
G0 X182.9469 Y136.5068 F9000 ; Move to next pattern
G1 Z0.4 F9000 ; Z hop return
G1 E0.5 F1800 ; Un-retract
SET_PRESSURE_ADVANCE ADVANCE=0.048 ; Set pressure advance
M117 PA 0.048
G1 X204.1601 Y157.72 E1.01546 F15000 ; Print pattern wall
G1 X182.9469 Y178.9332 E1.01546 F15000 ; Print pattern wall
G1 E-0.5 F3000 ; Retract
G1 Z0.6 F9000 ; Z hop
G0 X183.5226 Y136.5068 F9000 ; Move to start next pattern wall
G1 Z0.4 F9000 ; Z hop return
G1 E0.5 F1800 ; Un-retract
G1 X204.7358 Y157.72 E1.01546 F15000 ; Print pattern wall
G1 X183.5226 Y178.9332 E1.01546 F15000 ; Print pattern wall
G1 E-0.5 F3000 ; Retract
G1 Z0.6 F9000 ; Z hop
G0 X184.0982 Y136.5068 F9000 ; Move to start next pattern wall
G1 Z0.4 F9000 ; Z hop return
G1 E0.5 F1800 ; Un-retract
G1 X205.3115 Y157.72 E1.01546 F15000 ; Print pattern wall
G1 X184.0982 Y178.9332 E1.01546 F15000 ; Print pattern wall
G1 E-0.5 F3000 ; Retract
G1 Z0.6 F9000 ; Z hop
G0 X186.5482 Y136.5068 F9000 ; Move to next pattern
G1 Z0.4 F9000 ; Z hop return
G1 E0.5 F1800 ; Un-retract
SET_PRESSURE_ADVANCE ADVANCE=0.049 ; Set pressure advance
M117 PA 0.049
G1 X207.7615 Y157.72 E1.01546 F15000 ; Print pattern wall
G1 X186.5482 Y178.9332 E1.01546 F15000 ; Print pattern wall
G1 E-0.5 F3000 ; Retract
G1 Z0.6 F9000 ; Z hop
G0 X187.1239 Y136.5068 F9000 ; Move to start next pattern wall
G1 Z0.4 F9000 ; Z hop return
G1 E0.5 F1800 ; Un-retract
G1 X208.3371 Y157.72 E1.01546 F15000 ; Print pattern wall
G1 X187.1239 Y178.9332 E1.01546 F15000 ; Print pattern wall
G1 E-0.5 F3000 ; Retract
G1 Z0.6 F9000 ; Z hop
G0 X187.6996 Y136.5068 F9000 ; Move to start next pattern wall
G1 Z0.4 F9000 ; Z hop return
G1 E0.5 F1800 ; Un-retract
G1 X208.9128 Y157.72 E1.01546 F15000 ; Print pattern wall
G1 X187.6996 Y178.9332 E1.01546 F15000 ; Print pattern wall
G1 E-0.5 F3000 ; Retract
G1 Z0.6 F9000 ; Z hop
G0 X190.1496 Y136.5068 F9000 ; Move to next pattern
G1 Z0.4 F9000 ; Z hop return
G1 E0.5 F1800 ; Un-retract
SET_PRESSURE_ADVANCE ADVANCE=0.05 ; Set pressure advance
M117 PA 0.05
G1 X211.3628 Y157.72 E1.01546 F15000 ; Print pattern wall
G1 X190.1496 Y178.9332 E1.01546 F15000 ; Print pattern wall
G1 E-0.5 F3000 ; Retract
G1 Z0.6 F9000 ; Z hop
G0 X190.7253 Y136.5068 F9000 ; Move to start next pattern wall
G1 Z0.4 F9000 ; Z hop return
G1 E0.5 F1800 ; Un-retract
G1 X211.9385 Y157.72 E1.01546 F15000 ; Print pattern wall
G1 X190.7253 Y178.9332 E1.01546 F15000 ; Print pattern wall
G1 E-0.5 F3000 ; Retract
G1 Z0.6 F9000 ; Z hop
G0 X191.301 Y136.5068 F9000 ; Move to start next pattern wall
G1 Z0.4 F9000 ; Z hop return
G1 E0.5 F1800 ; Un-retract
G1 X212.5142 Y157.72 E1.01546 F15000 ; Print pattern wall
G1 X191.301 Y178.9332 E1.01546 F15000 ; Print pattern wall
G1 E-0.5 F3000 ; Retract
G1 Z0.6 F9000 ; Z hop
G0 X118.1217 Y136.5068 F9000 ; Move back to start position
G1 Z0.4 F9000 ; Z hop return
G1 E0.5 F1800 ; Un-retract
G0 Z0.6 F9000 ; Move to layer height
SET_PRESSURE_ADVANCE ADVANCE=0.03 ; Set pressure advance
M117 PA 0.03
G1 X139.3349 Y157.72 E1.01546 F15000 ; Print pattern wall
G1 X118.1217 Y178.9332 E1.01546 F15000 ; Print pattern wall
G1 E-0.5 F3000 ; Retract
G1 Z0.8 F9000 ; Z hop
G0 X118.6974 Y136.5068 F9000 ; Move to start next pattern wall
G1 Z0.6 F9000 ; Z hop return
G1 E0.5 F1800 ; Un-retract
G1 X139.9106 Y157.72 E1.01546 F15000 ; Print pattern wall
G1 X118.6974 Y178.9332 E1.01546 F15000 ; Print pattern wall
G1 E-0.5 F3000 ; Retract
G1 Z0.8 F9000 ; Z hop
G0 X119.2731 Y136.5068 F9000 ; Move to start next pattern wall
G1 Z0.6 F9000 ; Z hop return
G1 E0.5 F1800 ; Un-retract
G1 X140.4863 Y157.72 E1.01546 F15000 ; Print pattern wall
G1 X119.2731 Y178.9332 E1.01546 F15000 ; Print pattern wall
G1 E-0.5 F3000 ; Retract
G1 Z0.8 F9000 ; Z hop
G0 X121.7231 Y136.5068 F9000 ; Move to next pattern
G1 Z0.6 F9000 ; Z hop return
G1 E0.5 F1800 ; Un-retract
SET_PRESSURE_ADVANCE ADVANCE=0.031 ; Set pressure advance
M117 PA 0.031
G1 X142.9363 Y157.72 E1.01546 F15000 ; Print pattern wall
G1 X121.7231 Y178.9332 E1.01546 F15000 ; Print pattern wall
G1 E-0.5 F3000 ; Retract
G1 Z0.8 F9000 ; Z hop
G0 X122.2988 Y136.5068 F9000 ; Move to start next pattern wall
G1 Z0.6 F9000 ; Z hop return
G1 E0.5 F1800 ; Un-retract
G1 X143.512 Y157.72 E1.01546 F15000 ; Print pattern wall
G1 X122.2988 Y178.9332 E1.01546 F15000 ; Print pattern wall
G1 E-0.5 F3000 ; Retract
G1 Z0.8 F9000 ; Z hop
G0 X122.8745 Y136.5068 F9000 ; Move to start next pattern wall
G1 Z0.6 F9000 ; Z hop return
G1 E0.5 F1800 ; Un-retract
G1 X144.0877 Y157.72 E1.01546 F15000 ; Print pattern wall
G1 X122.8745 Y178.9332 E1.01546 F15000 ; Print pattern wall
G1 E-0.5 F3000 ; Retract
G1 Z0.8 F9000 ; Z hop
G0 X125.3245 Y136.5068 F9000 ; Move to next pattern
G1 Z0.6 F9000 ; Z hop return
G1 E0.5 F1800 ; Un-retract
SET_PRESSURE_ADVANCE ADVANCE=0.032 ; Set pressure advance
M117 PA 0.032
G1 X146.5377 Y157.72 E1.01546 F15000 ; Print pattern wall
G1 X125.3245 Y178.9332 E1.01546 F15000 ; Print pattern wall
G1 E-0.5 F3000 ; Retract
G1 Z0.8 F9000 ; Z hop
G0 X125.9002 Y136.5068 F9000 ; Move to start next pattern wall
G1 Z0.6 F9000 ; Z hop return
G1 E0.5 F1800 ; Un-retract
G1 X147.1134 Y157.72 E1.01546 F15000 ; Print pattern wall
G1 X125.9002 Y178.9332 E1.01546 F15000 ; Print pattern wall
G1 E-0.5 F3000 ; Retract
G1 Z0.8 F9000 ; Z hop
G0 X126.4759 Y136.5068 F9000 ; Move to start next pattern wall
G1 Z0.6 F9000 ; Z hop return
G1 E0.5 F1800 ; Un-retract
G1 X147.6891 Y157.72 E1.01546 F15000 ; Print pattern wall
G1 X126.4759 Y178.9332 E1.01546 F15000 ; Print pattern wall
G1 E-0.5 F3000 ; Retract
G1 Z0.8 F9000 ; Z hop
G0 X128.9259 Y136.5068 F9000 ; Move to next pattern
G1 Z0.6 F9000 ; Z hop return
G1 E0.5 F1800 ; Un-retract
SET_PRESSURE_ADVANCE ADVANCE=0.033 ; Set pressure advance
M117 PA 0.033
G1 X150.1391 Y157.72 E1.01546 F15000 ; Print pattern wall
G1 X128.9259 Y178.9332 E1.01546 F15000 ; Print pattern wall
G1 E-0.5 F3000 ; Retract
G1 Z0.8 F9000 ; Z hop
G0 X129.5016 Y136.5068 F9000 ; Move to start next pattern wall
G1 Z0.6 F9000 ; Z hop return
G1 E0.5 F1800 ; Un-retract
G1 X150.7148 Y157.72 E1.01546 F15000 ; Print pattern wall
G1 X129.5016 Y178.9332 E1.01546 F15000 ; Print pattern wall
G1 E-0.5 F3000 ; Retract
G1 Z0.8 F9000 ; Z hop
G0 X130.0773 Y136.5068 F9000 ; Move to start next pattern wall
G1 Z0.6 F9000 ; Z hop return
G1 E0.5 F1800 ; Un-retract
G1 X151.2905 Y157.72 E1.01546 F15000 ; Print pattern wall
G1 X130.0773 Y178.9332 E1.01546 F15000 ; Print pattern wall
G1 E-0.5 F3000 ; Retract
G1 Z0.8 F9000 ; Z hop
G0 X132.5273 Y136.5068 F9000 ; Move to next pattern
G1 Z0.6 F9000 ; Z hop return
G1 E0.5 F1800 ; Un-retract
SET_PRESSURE_ADVANCE ADVANCE=0.034 ; Set pressure advance
M117 PA 0.034
G1 X153.7405 Y157.72 E1.01546 F15000 ; Print pattern wall
G1 X132.5273 Y178.9332 E1.01546 F15000 ; Print pattern wall
G1 E-0.5 F3000 ; Retract
G1 Z0.8 F9000 ; Z hop
G0 X133.103 Y136.5068 F9000 ; Move to start next pattern wall
G1 Z0.6 F9000 ; Z hop return
G1 E0.5 F1800 ; Un-retract
G1 X154.3162 Y157.72 E1.01546 F15000 ; Print pattern wall
G1 X133.103 Y178.9332 E1.01546 F15000 ; Print pattern wall
G1 E-0.5 F3000 ; Retract
G1 Z0.8 F9000 ; Z hop
G0 X133.6787 Y136.5068 F9000 ; Move to start next pattern wall
G1 Z0.6 F9000 ; Z hop return
G1 E0.5 F1800 ; Un-retract
G1 X154.8919 Y157.72 E1.01546 F15000 ; Print pattern wall
G1 X133.6787 Y178.9332 E1.01546 F15000 ; Print pattern wall
G1 E-0.5 F3000 ; Retract
G1 Z0.8 F9000 ; Z hop
G0 X136.1287 Y136.5068 F9000 ; Move to next pattern
G1 Z0.6 F9000 ; Z hop return
G1 E0.5 F1800 ; Un-retract
SET_PRESSURE_ADVANCE ADVANCE=0.035 ; Set pressure advance
M117 PA 0.035
G1 X157.3419 Y157.72 E1.01546 F15000 ; Print pattern wall
G1 X136.1287 Y178.9332 E1.01546 F15000 ; Print pattern wall
G1 E-0.5 F3000 ; Retract
G1 Z0.8 F9000 ; Z hop
G0 X136.7044 Y136.5068 F9000 ; Move to start next pattern wall
G1 Z0.6 F9000 ; Z hop return
G1 E0.5 F1800 ; Un-retract
G1 X157.9176 Y157.72 E1.01546 F15000 ; Print pattern wall
G1 X136.7044 Y178.9332 E1.01546 F15000 ; Print pattern wall
G1 E-0.5 F3000 ; Retract
G1 Z0.8 F9000 ; Z hop
G0 X137.2801 Y136.5068 F9000 ; Move to start next pattern wall
G1 Z0.6 F9000 ; Z hop return
G1 E0.5 F1800 ; Un-retract
G1 X158.4933 Y157.72 E1.01546 F15000 ; Print pattern wall
G1 X137.2801 Y178.9332 E1.01546 F15000 ; Print pattern wall
G1 E-0.5 F3000 ; Retract
G1 Z0.8 F9000 ; Z hop
G0 X139.7301 Y136.5068 F9000 ; Move to next pattern
G1 Z0.6 F9000 ; Z hop return
G1 E0.5 F1800 ; Un-retract
SET_PRESSURE_ADVANCE ADVANCE=0.036 ; Set pressure advance
M117 PA 0.036
G1 X160.9433 Y157.72 E1.01546 F15000 ; Print pattern wall
G1 X139.7301 Y178.9332 E1.01546 F15000 ; Print pattern wall
G1 E-0.5 F3000 ; Retract
G1 Z0.8 F9000 ; Z hop
G0 X140.3058 Y136.5068 F9000 ; Move to start next pattern wall
G1 Z0.6 F9000 ; Z hop return
G1 E0.5 F1800 ; Un-retract
G1 X161.519 Y157.72 E1.01546 F15000 ; Print pattern wall
G1 X140.3058 Y178.9332 E1.01546 F15000 ; Print pattern wall
G1 E-0.5 F3000 ; Retract
G1 Z0.8 F9000 ; Z hop
G0 X140.8815 Y136.5068 F9000 ; Move to start next pattern wall
G1 Z0.6 F9000 ; Z hop return
G1 E0.5 F1800 ; Un-retract
G1 X162.0947 Y157.72 E1.01546 F15000 ; Print pattern wall
G1 X140.8815 Y178.9332 E1.01546 F15000 ; Print pattern wall
G1 E-0.5 F3000 ; Retract
G1 Z0.8 F9000 ; Z hop
G0 X143.3315 Y136.5068 F9000 ; Move to next pattern
G1 Z0.6 F9000 ; Z hop return
G1 E0.5 F1800 ; Un-retract
SET_PRESSURE_ADVANCE ADVANCE=0.037 ; Set pressure advance
M117 PA 0.037
G1 X164.5447 Y157.72 E1.01546 F15000 ; Print pattern wall
G1 X143.3315 Y178.9332 E1.01546 F15000 ; Print pattern wall
G1 E-0.5 F3000 ; Retract
G1 Z0.8 F9000 ; Z hop
G0 X143.9072 Y136.5068 F9000 ; Move to start next pattern wall
G1 Z0.6 F9000 ; Z hop return
G1 E0.5 F1800 ; Un-retract
G1 X165.1204 Y157.72 E1.01546 F15000 ; Print pattern wall
G1 X143.9072 Y178.9332 E1.01546 F15000 ; Print pattern wall
G1 E-0.5 F3000 ; Retract
G1 Z0.8 F9000 ; Z hop
G0 X144.4829 Y136.5068 F9000 ; Move to start next pattern wall
G1 Z0.6 F9000 ; Z hop return
G1 E0.5 F1800 ; Un-retract
G1 X165.6961 Y157.72 E1.01546 F15000 ; Print pattern wall
G1 X144.4829 Y178.9332 E1.01546 F15000 ; Print pattern wall
G1 E-0.5 F3000 ; Retract
G1 Z0.8 F9000 ; Z hop
G0 X146.9329 Y136.5068 F9000 ; Move to next pattern
G1 Z0.6 F9000 ; Z hop return
G1 E0.5 F1800 ; Un-retract
SET_PRESSURE_ADVANCE ADVANCE=0.038 ; Set pressure advance
M117 PA 0.038
G1 X168.1461 Y157.72 E1.01546 F15000 ; Print pattern wall
G1 X146.9329 Y178.9332 E1.01546 F15000 ; Print pattern wall
G1 E-0.5 F3000 ; Retract
G1 Z0.8 F9000 ; Z hop
G0 X147.5086 Y136.5068 F9000 ; Move to start next pattern wall
G1 Z0.6 F9000 ; Z hop return
G1 E0.5 F1800 ; Un-retract
G1 X168.7218 Y157.72 E1.01546 F15000 ; Print pattern wall
G1 X147.5086 Y178.9332 E1.01546 F15000 ; Print pattern wall
G1 E-0.5 F3000 ; Retract
G1 Z0.8 F9000 ; Z hop
G0 X148.0843 Y136.5068 F9000 ; Move to start next pattern wall
G1 Z0.6 F9000 ; Z hop return
G1 E0.5 F1800 ; Un-retract
G1 X169.2975 Y157.72 E1.01546 F15000 ; Print pattern wall
G1 X148.0843 Y178.9332 E1.01546 F15000 ; Print pattern wall
G1 E-0.5 F3000 ; Retract
G1 Z0.8 F9000 ; Z hop
G0 X150.5343 Y136.5068 F9000 ; Move to next pattern
G1 Z0.6 F9000 ; Z hop return
G1 E0.5 F1800 ; Un-retract
SET_PRESSURE_ADVANCE ADVANCE=0.039 ; Set pressure advance
M117 PA 0.039
G1 X171.7475 Y157.72 E1.01546 F15000 ; Print pattern wall
G1 X150.5343 Y178.9332 E1.01546 F15000 ; Print pattern wall
G1 E-0.5 F3000 ; Retract
G1 Z0.8 F9000 ; Z hop
G0 X151.11 Y136.5068 F9000 ; Move to start next pattern wall
G1 Z0.6 F9000 ; Z hop return
G1 E0.5 F1800 ; Un-retract
G1 X172.3232 Y157.72 E1.01546 F15000 ; Print pattern wall
G1 X151.11 Y178.9332 E1.01546 F15000 ; Print pattern wall
G1 E-0.5 F3000 ; Retract
G1 Z0.8 F9000 ; Z hop
G0 X151.6857 Y136.5068 F9000 ; Move to start next pattern wall
G1 Z0.6 F9000 ; Z hop return
G1 E0.5 F1800 ; Un-retract
G1 X172.8989 Y157.72 E1.01546 F15000 ; Print pattern wall
G1 X151.6857 Y178.9332 E1.01546 F15000 ; Print pattern wall
G1 E-0.5 F3000 ; Retract
G1 Z0.8 F9000 ; Z hop
G0 X154.1357 Y136.5068 F9000 ; Move to next pattern
G1 Z0.6 F9000 ; Z hop return
G1 E0.5 F1800 ; Un-retract
SET_PRESSURE_ADVANCE ADVANCE=0.04 ; Set pressure advance
M117 PA 0.04
G1 X175.3489 Y157.72 E1.01546 F15000 ; Print pattern wall
G1 X154.1357 Y178.9332 E1.01546 F15000 ; Print pattern wall
G1 E-0.5 F3000 ; Retract
G1 Z0.8 F9000 ; Z hop
G0 X154.7114 Y136.5068 F9000 ; Move to start next pattern wall
G1 Z0.6 F9000 ; Z hop return
G1 E0.5 F1800 ; Un-retract
G1 X175.9246 Y157.72 E1.01546 F15000 ; Print pattern wall
G1 X154.7114 Y178.9332 E1.01546 F15000 ; Print pattern wall
G1 E-0.5 F3000 ; Retract
G1 Z0.8 F9000 ; Z hop
G0 X155.2871 Y136.5068 F9000 ; Move to start next pattern wall
G1 Z0.6 F9000 ; Z hop return
G1 E0.5 F1800 ; Un-retract
G1 X176.5003 Y157.72 E1.01546 F15000 ; Print pattern wall
G1 X155.2871 Y178.9332 E1.01546 F15000 ; Print pattern wall
G1 E-0.5 F3000 ; Retract
G1 Z0.8 F9000 ; Z hop
G0 X157.7371 Y136.5068 F9000 ; Move to next pattern
G1 Z0.6 F9000 ; Z hop return
G1 E0.5 F1800 ; Un-retract
SET_PRESSURE_ADVANCE ADVANCE=0.041 ; Set pressure advance
M117 PA 0.041
G1 X178.9503 Y157.72 E1.01546 F15000 ; Print pattern wall
G1 X157.7371 Y178.9332 E1.01546 F15000 ; Print pattern wall
G1 E-0.5 F3000 ; Retract
G1 Z0.8 F9000 ; Z hop
G0 X158.3128 Y136.5068 F9000 ; Move to start next pattern wall
G1 Z0.6 F9000 ; Z hop return
G1 E0.5 F1800 ; Un-retract
G1 X179.526 Y157.72 E1.01546 F15000 ; Print pattern wall
G1 X158.3128 Y178.9332 E1.01546 F15000 ; Print pattern wall
G1 E-0.5 F3000 ; Retract
G1 Z0.8 F9000 ; Z hop
G0 X158.8885 Y136.5068 F9000 ; Move to start next pattern wall
G1 Z0.6 F9000 ; Z hop return
G1 E0.5 F1800 ; Un-retract
G1 X180.1017 Y157.72 E1.01546 F15000 ; Print pattern wall
G1 X158.8885 Y178.9332 E1.01546 F15000 ; Print pattern wall
G1 E-0.5 F3000 ; Retract
G1 Z0.8 F9000 ; Z hop
G0 X161.3385 Y136.5068 F9000 ; Move to next pattern
G1 Z0.6 F9000 ; Z hop return
G1 E0.5 F1800 ; Un-retract
SET_PRESSURE_ADVANCE ADVANCE=0.042 ; Set pressure advance
M117 PA 0.042
G1 X182.5517 Y157.72 E1.01546 F15000 ; Print pattern wall
G1 X161.3385 Y178.9332 E1.01546 F15000 ; Print pattern wall
G1 E-0.5 F3000 ; Retract
G1 Z0.8 F9000 ; Z hop
G0 X161.9142 Y136.5068 F9000 ; Move to start next pattern wall
G1 Z0.6 F9000 ; Z hop return
G1 E0.5 F1800 ; Un-retract
G1 X183.1274 Y157.72 E1.01546 F15000 ; Print pattern wall
G1 X161.9142 Y178.9332 E1.01546 F15000 ; Print pattern wall
G1 E-0.5 F3000 ; Retract
G1 Z0.8 F9000 ; Z hop
G0 X162.4899 Y136.5068 F9000 ; Move to start next pattern wall
G1 Z0.6 F9000 ; Z hop return
G1 E0.5 F1800 ; Un-retract
G1 X183.7031 Y157.72 E1.01546 F15000 ; Print pattern wall
G1 X162.4899 Y178.9332 E1.01546 F15000 ; Print pattern wall
G1 E-0.5 F3000 ; Retract
G1 Z0.8 F9000 ; Z hop
G0 X164.9399 Y136.5068 F9000 ; Move to next pattern
G1 Z0.6 F9000 ; Z hop return
G1 E0.5 F1800 ; Un-retract
SET_PRESSURE_ADVANCE ADVANCE=0.043 ; Set pressure advance
M117 PA 0.043
G1 X186.1531 Y157.72 E1.01546 F15000 ; Print pattern wall
G1 X164.9399 Y178.9332 E1.01546 F15000 ; Print pattern wall
G1 E-0.5 F3000 ; Retract
G1 Z0.8 F9000 ; Z hop
G0 X165.5156 Y136.5068 F9000 ; Move to start next pattern wall
G1 Z0.6 F9000 ; Z hop return
G1 E0.5 F1800 ; Un-retract
G1 X186.7288 Y157.72 E1.01546 F15000 ; Print pattern wall
G1 X165.5156 Y178.9332 E1.01546 F15000 ; Print pattern wall
G1 E-0.5 F3000 ; Retract
G1 Z0.8 F9000 ; Z hop
G0 X166.0913 Y136.5068 F9000 ; Move to start next pattern wall
G1 Z0.6 F9000 ; Z hop return
G1 E0.5 F1800 ; Un-retract
G1 X187.3045 Y157.72 E1.01546 F15000 ; Print pattern wall
G1 X166.0913 Y178.9332 E1.01546 F15000 ; Print pattern wall
G1 E-0.5 F3000 ; Retract
G1 Z0.8 F9000 ; Z hop
G0 X168.5413 Y136.5068 F9000 ; Move to next pattern
G1 Z0.6 F9000 ; Z hop return
G1 E0.5 F1800 ; Un-retract
SET_PRESSURE_ADVANCE ADVANCE=0.044 ; Set pressure advance
M117 PA 0.044
G1 X189.7545 Y157.72 E1.01546 F15000 ; Print pattern wall
G1 X168.5413 Y178.9332 E1.01546 F15000 ; Print pattern wall
G1 E-0.5 F3000 ; Retract
G1 Z0.8 F9000 ; Z hop
G0 X169.117 Y136.5068 F9000 ; Move to start next pattern wall
G1 Z0.6 F9000 ; Z hop return
G1 E0.5 F1800 ; Un-retract
G1 X190.3302 Y157.72 E1.01546 F15000 ; Print pattern wall
G1 X169.117 Y178.9332 E1.01546 F15000 ; Print pattern wall
G1 E-0.5 F3000 ; Retract
G1 Z0.8 F9000 ; Z hop
G0 X169.6927 Y136.5068 F9000 ; Move to start next pattern wall
G1 Z0.6 F9000 ; Z hop return
G1 E0.5 F1800 ; Un-retract
G1 X190.9059 Y157.72 E1.01546 F15000 ; Print pattern wall
G1 X169.6927 Y178.9332 E1.01546 F15000 ; Print pattern wall
G1 E-0.5 F3000 ; Retract
G1 Z0.8 F9000 ; Z hop
G0 X172.1427 Y136.5068 F9000 ; Move to next pattern
G1 Z0.6 F9000 ; Z hop return
G1 E0.5 F1800 ; Un-retract
SET_PRESSURE_ADVANCE ADVANCE=0.045 ; Set pressure advance
M117 PA 0.045
G1 X193.3559 Y157.72 E1.01546 F15000 ; Print pattern wall
G1 X172.1427 Y178.9332 E1.01546 F15000 ; Print pattern wall
G1 E-0.5 F3000 ; Retract
G1 Z0.8 F9000 ; Z hop
G0 X172.7184 Y136.5068 F9000 ; Move to start next pattern wall
G1 Z0.6 F9000 ; Z hop return
G1 E0.5 F1800 ; Un-retract
G1 X193.9316 Y157.72 E1.01546 F15000 ; Print pattern wall
G1 X172.7184 Y178.9332 E1.01546 F15000 ; Print pattern wall
G1 E-0.5 F3000 ; Retract
G1 Z0.8 F9000 ; Z hop
G0 X173.2941 Y136.5068 F9000 ; Move to start next pattern wall
G1 Z0.6 F9000 ; Z hop return
G1 E0.5 F1800 ; Un-retract
G1 X194.5073 Y157.72 E1.01546 F15000 ; Print pattern wall
G1 X173.2941 Y178.9332 E1.01546 F15000 ; Print pattern wall
G1 E-0.5 F3000 ; Retract
G1 Z0.8 F9000 ; Z hop
G0 X175.7441 Y136.5068 F9000 ; Move to next pattern
G1 Z0.6 F9000 ; Z hop return
G1 E0.5 F1800 ; Un-retract
SET_PRESSURE_ADVANCE ADVANCE=0.046 ; Set pressure advance
M117 PA 0.046
G1 X196.9573 Y157.72 E1.01546 F15000 ; Print pattern wall
G1 X175.7441 Y178.9332 E1.01546 F15000 ; Print pattern wall
G1 E-0.5 F3000 ; Retract
G1 Z0.8 F9000 ; Z hop
G0 X176.3198 Y136.5068 F9000 ; Move to start next pattern wall
G1 Z0.6 F9000 ; Z hop return
G1 E0.5 F1800 ; Un-retract
G1 X197.533 Y157.72 E1.01546 F15000 ; Print pattern wall
G1 X176.3198 Y178.9332 E1.01546 F15000 ; Print pattern wall
G1 E-0.5 F3000 ; Retract
G1 Z0.8 F9000 ; Z hop
G0 X176.8955 Y136.5068 F9000 ; Move to start next pattern wall
G1 Z0.6 F9000 ; Z hop return
G1 E0.5 F1800 ; Un-retract
G1 X198.1087 Y157.72 E1.01546 F15000 ; Print pattern wall
G1 X176.8955 Y178.9332 E1.01546 F15000 ; Print pattern wall
G1 E-0.5 F3000 ; Retract
G1 Z0.8 F9000 ; Z hop
G0 X179.3455 Y136.5068 F9000 ; Move to next pattern
G1 Z0.6 F9000 ; Z hop return
G1 E0.5 F1800 ; Un-retract
SET_PRESSURE_ADVANCE ADVANCE=0.047 ; Set pressure advance
M117 PA 0.047
G1 X200.5587 Y157.72 E1.01546 F15000 ; Print pattern wall
G1 X179.3455 Y178.9332 E1.01546 F15000 ; Print pattern wall
G1 E-0.5 F3000 ; Retract
G1 Z0.8 F9000 ; Z hop
G0 X179.9212 Y136.5068 F9000 ; Move to start next pattern wall
G1 Z0.6 F9000 ; Z hop return
G1 E0.5 F1800 ; Un-retract
G1 X201.1344 Y157.72 E1.01546 F15000 ; Print pattern wall
G1 X179.9212 Y178.9332 E1.01546 F15000 ; Print pattern wall
G1 E-0.5 F3000 ; Retract
G1 Z0.8 F9000 ; Z hop
G0 X180.4969 Y136.5068 F9000 ; Move to start next pattern wall
G1 Z0.6 F9000 ; Z hop return
G1 E0.5 F1800 ; Un-retract
G1 X201.7101 Y157.72 E1.01546 F15000 ; Print pattern wall
G1 X180.4969 Y178.9332 E1.01546 F15000 ; Print pattern wall
G1 E-0.5 F3000 ; Retract
G1 Z0.8 F9000 ; Z hop
G0 X182.9469 Y136.5068 F9000 ; Move to next pattern
G1 Z0.6 F9000 ; Z hop return
G1 E0.5 F1800 ; Un-retract
SET_PRESSURE_ADVANCE ADVANCE=0.048 ; Set pressure advance
M117 PA 0.048
G1 X204.1601 Y157.72 E1.01546 F15000 ; Print pattern wall
G1 X182.9469 Y178.9332 E1.01546 F15000 ; Print pattern wall
G1 E-0.5 F3000 ; Retract
G1 Z0.8 F9000 ; Z hop
G0 X183.5226 Y136.5068 F9000 ; Move to start next pattern wall
G1 Z0.6 F9000 ; Z hop return
G1 E0.5 F1800 ; Un-retract
G1 X204.7358 Y157.72 E1.01546 F15000 ; Print pattern wall
G1 X183.5226 Y178.9332 E1.01546 F15000 ; Print pattern wall
G1 E-0.5 F3000 ; Retract
G1 Z0.8 F9000 ; Z hop
G0 X184.0982 Y136.5068 F9000 ; Move to start next pattern wall
G1 Z0.6 F9000 ; Z hop return
G1 E0.5 F1800 ; Un-retract
G1 X205.3115 Y157.72 E1.01546 F15000 ; Print pattern wall
G1 X184.0982 Y178.9332 E1.01546 F15000 ; Print pattern wall
G1 E-0.5 F3000 ; Retract
G1 Z0.8 F9000 ; Z hop
G0 X186.5482 Y136.5068 F9000 ; Move to next pattern
G1 Z0.6 F9000 ; Z hop return
G1 E0.5 F1800 ; Un-retract
SET_PRESSURE_ADVANCE ADVANCE=0.049 ; Set pressure advance
M117 PA 0.049
G1 X207.7615 Y157.72 E1.01546 F15000 ; Print pattern wall
G1 X186.5482 Y178.9332 E1.01546 F15000 ; Print pattern wall
G1 E-0.5 F3000 ; Retract
G1 Z0.8 F9000 ; Z hop
G0 X187.1239 Y136.5068 F9000 ; Move to start next pattern wall
G1 Z0.6 F9000 ; Z hop return
G1 E0.5 F1800 ; Un-retract
G1 X208.3371 Y157.72 E1.01546 F15000 ; Print pattern wall
G1 X187.1239 Y178.9332 E1.01546 F15000 ; Print pattern wall
G1 E-0.5 F3000 ; Retract
G1 Z0.8 F9000 ; Z hop
G0 X187.6996 Y136.5068 F9000 ; Move to start next pattern wall
G1 Z0.6 F9000 ; Z hop return
G1 E0.5 F1800 ; Un-retract
G1 X208.9128 Y157.72 E1.01546 F15000 ; Print pattern wall
G1 X187.6996 Y178.9332 E1.01546 F15000 ; Print pattern wall
G1 E-0.5 F3000 ; Retract
G1 Z0.8 F9000 ; Z hop
G0 X190.1496 Y136.5068 F9000 ; Move to next pattern
G1 Z0.6 F9000 ; Z hop return
G1 E0.5 F1800 ; Un-retract
SET_PRESSURE_ADVANCE ADVANCE=0.05 ; Set pressure advance
M117 PA 0.05
G1 X211.3628 Y157.72 E1.01546 F15000 ; Print pattern wall
G1 X190.1496 Y178.9332 E1.01546 F15000 ; Print pattern wall
G1 E-0.5 F3000 ; Retract
G1 Z0.8 F9000 ; Z hop
G0 X190.7253 Y136.5068 F9000 ; Move to start next pattern wall
G1 Z0.6 F9000 ; Z hop return
G1 E0.5 F1800 ; Un-retract
G1 X211.9385 Y157.72 E1.01546 F15000 ; Print pattern wall
G1 X190.7253 Y178.9332 E1.01546 F15000 ; Print pattern wall
G1 E-0.5 F3000 ; Retract
G1 Z0.8 F9000 ; Z hop
G0 X191.301 Y136.5068 F9000 ; Move to start next pattern wall
G1 Z0.6 F9000 ; Z hop return
G1 E0.5 F1800 ; Un-retract
G1 X212.5142 Y157.72 E1.01546 F15000 ; Print pattern wall
G1 X191.301 Y178.9332 E1.01546 F15000 ; Print pattern wall
G1 E-0.5 F3000 ; Retract
G1 Z0.8 F9000 ; Z hop
G0 X118.1217 Y136.5068 F9000 ; Move back to start position
G1 Z0.6 F9000 ; Z hop return
G1 E0.5 F1800 ; Un-retract
G0 Z0.8 F9000 ; Move to layer height
SET_PRESSURE_ADVANCE ADVANCE=0.03 ; Set pressure advance
M117 PA 0.03
G1 X139.3349 Y157.72 E1.01546 F15000 ; Print pattern wall
G1 X118.1217 Y178.9332 E1.01546 F15000 ; Print pattern wall
G1 E-0.5 F3000 ; Retract
G1 Z1 F9000 ; Z hop
G0 X118.6974 Y136.5068 F9000 ; Move to start next pattern wall
G1 Z0.8 F9000 ; Z hop return
G1 E0.5 F1800 ; Un-retract
G1 X139.9106 Y157.72 E1.01546 F15000 ; Print pattern wall
G1 X118.6974 Y178.9332 E1.01546 F15000 ; Print pattern wall
G1 E-0.5 F3000 ; Retract
G1 Z1 F9000 ; Z hop
G0 X119.2731 Y136.5068 F9000 ; Move to start next pattern wall
G1 Z0.8 F9000 ; Z hop return
G1 E0.5 F1800 ; Un-retract
G1 X140.4863 Y157.72 E1.01546 F15000 ; Print pattern wall
G1 X119.2731 Y178.9332 E1.01546 F15000 ; Print pattern wall
G1 E-0.5 F3000 ; Retract
G1 Z1 F9000 ; Z hop
G0 X121.7231 Y136.5068 F9000 ; Move to next pattern
G1 Z0.8 F9000 ; Z hop return
G1 E0.5 F1800 ; Un-retract
SET_PRESSURE_ADVANCE ADVANCE=0.031 ; Set pressure advance
M117 PA 0.031
G1 X142.9363 Y157.72 E1.01546 F15000 ; Print pattern wall
G1 X121.7231 Y178.9332 E1.01546 F15000 ; Print pattern wall
G1 E-0.5 F3000 ; Retract
G1 Z1 F9000 ; Z hop
G0 X122.2988 Y136.5068 F9000 ; Move to start next pattern wall
G1 Z0.8 F9000 ; Z hop return
G1 E0.5 F1800 ; Un-retract
G1 X143.512 Y157.72 E1.01546 F15000 ; Print pattern wall
G1 X122.2988 Y178.9332 E1.01546 F15000 ; Print pattern wall
G1 E-0.5 F3000 ; Retract
G1 Z1 F9000 ; Z hop
G0 X122.8745 Y136.5068 F9000 ; Move to start next pattern wall
G1 Z0.8 F9000 ; Z hop return
G1 E0.5 F1800 ; Un-retract
G1 X144.0877 Y157.72 E1.01546 F15000 ; Print pattern wall
G1 X122.8745 Y178.9332 E1.01546 F15000 ; Print pattern wall
G1 E-0.5 F3000 ; Retract
G1 Z1 F9000 ; Z hop
G0 X125.3245 Y136.5068 F9000 ; Move to next pattern
G1 Z0.8 F9000 ; Z hop return
G1 E0.5 F1800 ; Un-retract
SET_PRESSURE_ADVANCE ADVANCE=0.032 ; Set pressure advance
M117 PA 0.032
G1 X146.5377 Y157.72 E1.01546 F15000 ; Print pattern wall
G1 X125.3245 Y178.9332 E1.01546 F15000 ; Print pattern wall
G1 E-0.5 F3000 ; Retract
G1 Z1 F9000 ; Z hop
G0 X125.9002 Y136.5068 F9000 ; Move to start next pattern wall
G1 Z0.8 F9000 ; Z hop return
G1 E0.5 F1800 ; Un-retract
G1 X147.1134 Y157.72 E1.01546 F15000 ; Print pattern wall
G1 X125.9002 Y178.9332 E1.01546 F15000 ; Print pattern wall
G1 E-0.5 F3000 ; Retract
G1 Z1 F9000 ; Z hop
G0 X126.4759 Y136.5068 F9000 ; Move to start next pattern wall
G1 Z0.8 F9000 ; Z hop return
G1 E0.5 F1800 ; Un-retract
G1 X147.6891 Y157.72 E1.01546 F15000 ; Print pattern wall
G1 X126.4759 Y178.9332 E1.01546 F15000 ; Print pattern wall
G1 E-0.5 F3000 ; Retract
G1 Z1 F9000 ; Z hop
G0 X128.9259 Y136.5068 F9000 ; Move to next pattern
G1 Z0.8 F9000 ; Z hop return
G1 E0.5 F1800 ; Un-retract
SET_PRESSURE_ADVANCE ADVANCE=0.033 ; Set pressure advance
M117 PA 0.033
G1 X150.1391 Y157.72 E1.01546 F15000 ; Print pattern wall
G1 X128.9259 Y178.9332 E1.01546 F15000 ; Print pattern wall
G1 E-0.5 F3000 ; Retract
G1 Z1 F9000 ; Z hop
G0 X129.5016 Y136.5068 F9000 ; Move to start next pattern wall
G1 Z0.8 F9000 ; Z hop return
G1 E0.5 F1800 ; Un-retract
G1 X150.7148 Y157.72 E1.01546 F15000 ; Print pattern wall
G1 X129.5016 Y178.9332 E1.01546 F15000 ; Print pattern wall
G1 E-0.5 F3000 ; Retract
G1 Z1 F9000 ; Z hop
G0 X130.0773 Y136.5068 F9000 ; Move to start next pattern wall
G1 Z0.8 F9000 ; Z hop return
G1 E0.5 F1800 ; Un-retract
G1 X151.2905 Y157.72 E1.01546 F15000 ; Print pattern wall
G1 X130.0773 Y178.9332 E1.01546 F15000 ; Print pattern wall
G1 E-0.5 F3000 ; Retract
G1 Z1 F9000 ; Z hop
G0 X132.5273 Y136.5068 F9000 ; Move to next pattern
G1 Z0.8 F9000 ; Z hop return
G1 E0.5 F1800 ; Un-retract
SET_PRESSURE_ADVANCE ADVANCE=0.034 ; Set pressure advance
M117 PA 0.034
G1 X153.7405 Y157.72 E1.01546 F15000 ; Print pattern wall
G1 X132.5273 Y178.9332 E1.01546 F15000 ; Print pattern wall
G1 E-0.5 F3000 ; Retract
G1 Z1 F9000 ; Z hop
G0 X133.103 Y136.5068 F9000 ; Move to start next pattern wall
G1 Z0.8 F9000 ; Z hop return
G1 E0.5 F1800 ; Un-retract
G1 X154.3162 Y157.72 E1.01546 F15000 ; Print pattern wall
G1 X133.103 Y178.9332 E1.01546 F15000 ; Print pattern wall
G1 E-0.5 F3000 ; Retract
G1 Z1 F9000 ; Z hop
G0 X133.6787 Y136.5068 F9000 ; Move to start next pattern wall
G1 Z0.8 F9000 ; Z hop return
G1 E0.5 F1800 ; Un-retract
G1 X154.8919 Y157.72 E1.01546 F15000 ; Print pattern wall
G1 X133.6787 Y178.9332 E1.01546 F15000 ; Print pattern wall
G1 E-0.5 F3000 ; Retract
G1 Z1 F9000 ; Z hop
G0 X136.1287 Y136.5068 F9000 ; Move to next pattern
G1 Z0.8 F9000 ; Z hop return
G1 E0.5 F1800 ; Un-retract
SET_PRESSURE_ADVANCE ADVANCE=0.035 ; Set pressure advance
M117 PA 0.035
G1 X157.3419 Y157.72 E1.01546 F15000 ; Print pattern wall
G1 X136.1287 Y178.9332 E1.01546 F15000 ; Print pattern wall
G1 E-0.5 F3000 ; Retract
G1 Z1 F9000 ; Z hop
G0 X136.7044 Y136.5068 F9000 ; Move to start next pattern wall
G1 Z0.8 F9000 ; Z hop return
G1 E0.5 F1800 ; Un-retract
G1 X157.9176 Y157.72 E1.01546 F15000 ; Print pattern wall
G1 X136.7044 Y178.9332 E1.01546 F15000 ; Print pattern wall
G1 E-0.5 F3000 ; Retract
G1 Z1 F9000 ; Z hop
G0 X137.2801 Y136.5068 F9000 ; Move to start next pattern wall
G1 Z0.8 F9000 ; Z hop return
G1 E0.5 F1800 ; Un-retract
G1 X158.4933 Y157.72 E1.01546 F15000 ; Print pattern wall
G1 X137.2801 Y178.9332 E1.01546 F15000 ; Print pattern wall
G1 E-0.5 F3000 ; Retract
G1 Z1 F9000 ; Z hop
G0 X139.7301 Y136.5068 F9000 ; Move to next pattern
G1 Z0.8 F9000 ; Z hop return
G1 E0.5 F1800 ; Un-retract
SET_PRESSURE_ADVANCE ADVANCE=0.036 ; Set pressure advance
M117 PA 0.036
G1 X160.9433 Y157.72 E1.01546 F15000 ; Print pattern wall
G1 X139.7301 Y178.9332 E1.01546 F15000 ; Print pattern wall
G1 E-0.5 F3000 ; Retract
G1 Z1 F9000 ; Z hop
G0 X140.3058 Y136.5068 F9000 ; Move to start next pattern wall
G1 Z0.8 F9000 ; Z hop return
G1 E0.5 F1800 ; Un-retract
G1 X161.519 Y157.72 E1.01546 F15000 ; Print pattern wall
G1 X140.3058 Y178.9332 E1.01546 F15000 ; Print pattern wall
G1 E-0.5 F3000 ; Retract
G1 Z1 F9000 ; Z hop
G0 X140.8815 Y136.5068 F9000 ; Move to start next pattern wall
G1 Z0.8 F9000 ; Z hop return
G1 E0.5 F1800 ; Un-retract
G1 X162.0947 Y157.72 E1.01546 F15000 ; Print pattern wall
G1 X140.8815 Y178.9332 E1.01546 F15000 ; Print pattern wall
G1 E-0.5 F3000 ; Retract
G1 Z1 F9000 ; Z hop
G0 X143.3315 Y136.5068 F9000 ; Move to next pattern
G1 Z0.8 F9000 ; Z hop return
G1 E0.5 F1800 ; Un-retract
SET_PRESSURE_ADVANCE ADVANCE=0.037 ; Set pressure advance
M117 PA 0.037
G1 X164.5447 Y157.72 E1.01546 F15000 ; Print pattern wall
G1 X143.3315 Y178.9332 E1.01546 F15000 ; Print pattern wall
G1 E-0.5 F3000 ; Retract
G1 Z1 F9000 ; Z hop
G0 X143.9072 Y136.5068 F9000 ; Move to start next pattern wall
G1 Z0.8 F9000 ; Z hop return
G1 E0.5 F1800 ; Un-retract
G1 X165.1204 Y157.72 E1.01546 F15000 ; Print pattern wall
G1 X143.9072 Y178.9332 E1.01546 F15000 ; Print pattern wall
G1 E-0.5 F3000 ; Retract
G1 Z1 F9000 ; Z hop
G0 X144.4829 Y136.5068 F9000 ; Move to start next pattern wall
G1 Z0.8 F9000 ; Z hop return
G1 E0.5 F1800 ; Un-retract
G1 X165.6961 Y157.72 E1.01546 F15000 ; Print pattern wall
G1 X144.4829 Y178.9332 E1.01546 F15000 ; Print pattern wall
G1 E-0.5 F3000 ; Retract
G1 Z1 F9000 ; Z hop
G0 X146.9329 Y136.5068 F9000 ; Move to next pattern
G1 Z0.8 F9000 ; Z hop return
G1 E0.5 F1800 ; Un-retract
SET_PRESSURE_ADVANCE ADVANCE=0.038 ; Set pressure advance
M117 PA 0.038
G1 X168.1461 Y157.72 E1.01546 F15000 ; Print pattern wall
G1 X146.9329 Y178.9332 E1.01546 F15000 ; Print pattern wall
G1 E-0.5 F3000 ; Retract
G1 Z1 F9000 ; Z hop
G0 X147.5086 Y136.5068 F9000 ; Move to start next pattern wall
G1 Z0.8 F9000 ; Z hop return
G1 E0.5 F1800 ; Un-retract
G1 X168.7218 Y157.72 E1.01546 F15000 ; Print pattern wall
G1 X147.5086 Y178.9332 E1.01546 F15000 ; Print pattern wall
G1 E-0.5 F3000 ; Retract
G1 Z1 F9000 ; Z hop
G0 X148.0843 Y136.5068 F9000 ; Move to start next pattern wall
G1 Z0.8 F9000 ; Z hop return
G1 E0.5 F1800 ; Un-retract
G1 X169.2975 Y157.72 E1.01546 F15000 ; Print pattern wall
G1 X148.0843 Y178.9332 E1.01546 F15000 ; Print pattern wall
G1 E-0.5 F3000 ; Retract
G1 Z1 F9000 ; Z hop
G0 X150.5343 Y136.5068 F9000 ; Move to next pattern
G1 Z0.8 F9000 ; Z hop return
G1 E0.5 F1800 ; Un-retract
SET_PRESSURE_ADVANCE ADVANCE=0.039 ; Set pressure advance
M117 PA 0.039
G1 X171.7475 Y157.72 E1.01546 F15000 ; Print pattern wall
G1 X150.5343 Y178.9332 E1.01546 F15000 ; Print pattern wall
G1 E-0.5 F3000 ; Retract
G1 Z1 F9000 ; Z hop
G0 X151.11 Y136.5068 F9000 ; Move to start next pattern wall
G1 Z0.8 F9000 ; Z hop return
G1 E0.5 F1800 ; Un-retract
G1 X172.3232 Y157.72 E1.01546 F15000 ; Print pattern wall
G1 X151.11 Y178.9332 E1.01546 F15000 ; Print pattern wall
G1 E-0.5 F3000 ; Retract
G1 Z1 F9000 ; Z hop
G0 X151.6857 Y136.5068 F9000 ; Move to start next pattern wall
G1 Z0.8 F9000 ; Z hop return
G1 E0.5 F1800 ; Un-retract
