
; ### Ellis' Pressure Advance / Linear Advance Calibration Tool ###
;
; Original Marlin linear advance calibration tool by Sineos [https://github.com/Sineos]
; Heavily modified/rewritten by Andrew Ellis [https://github.com/AndrewEllis93]
;
; -------------------------------------------
; Generated: Sat Sep 30 2023 18:32:42 GMT-0700 (Pacific Daylight Saving Time)
; -------------------------------------------
;
; Advanced Mode: false
;
; Printer:
;  - Firmware: klipper
;  - Bed Shape: Rect
;  - Bed Size X: 322 mm
;  - Bed Size Y: 314 mm
;  - Origin Bed Center: false
;  - Travel Speed: 200 mm/s
;  - Nozzle Diameter: 0.4 mm
;  - Filament Diameter: 1.75 mm
;  - Extrusion Multiplier: 1
;
; Retraction / Z Hop:
;  - Retraction Distance: 0.5 mm
;  - Retract Speed: 40 mm/s
;  - Unretract Speed: 30 mm/s
;  - Z Hop Enable: false
;
; First Layer Settings:
;  - First Layer Height: 0.2 mm
;  - First Layer Printing Speed: 30 mm/s
;  - First Layer Fan Speed: 0%
;  - Anchor Option: anchor_frame
;
; Print Settings:
;  - Layer Height: 0.2 mm
;  - Print Speed: 200 mm/s
;  - Acceleration: 22000 mm/s^2
;  - Fan Speed: 100%
;
; Pressure Advance Stepping:
;  - PA Start Value: 0.03
;  - PA End Value: 0.04
;  - PA Increment: 0.001
;
; Start / End G-code:
;  - Hotend Temp: 220C
;  - Bed Temp: 60C
;  - Don't Add G28: false
;  - Don't Add Heating G-Codes: false
;
; Calculated Values:
;  - Print Size X: 63.15 mm
;  - Print Size Y: 56.99 mm
;  - Number of Patterns to Print: 11
;  - PA Values: 0.03, 0.031, 0.032, 0.033, 0.034, 0.035, 0.036, 0.037, 0.038, 0.039, 0.04
;
; Prepare printing
;
G28 ; Home all axes
M190 S60 ; Set & wait for bed temp
M109 S220 ; Set & wait for hotend temp
START_PRINT T_BED=60 T_EXTRUDER=220
G21 ; Millimeter units
G90 ; Absolute XYZ
M83 ; Relative E
G92 E0 ; Reset extruder distance
;
;  Begin printing
;
M106 S0 ; Set fan speed
SET_VELOCITY_LIMIT ACCEL=22000 ; Set printing acceleration
G1 E-0.5 F2400 ; Retract
G0 Z5 F12000 ; Z raise
G0 X129.4244 Y128.5068 F12000 ; Move to start position
G0 Z0.2 F12000 ; Move to start layer height
G1 E0.5 F1800 ; Un-retract
SET_PRESSURE_ADVANCE ADVANCE=0.03 ; Set pressure advance to start value
M117 PA 0.03
G1 X129.4244 Y170.9332 E1.82414 F1800 ; Draw perimeter (up)
G1 X192.5756 Y170.9332 E2.7152 F1800 ; Draw perimeter (right)
G1 X192.5756 Y128.5068 E1.82414 F1800 ; Draw perimeter (down)
G1 X129.4244 Y128.5068 E2.7152 F1800 ; Draw perimeter (left)
G0 X129.9415 Y129.0239 F12000 ; Step inwards to print next perimeter
G1 X129.9415 Y170.4161 E1.77967 F1800 ; Draw perimeter (up)
G1 X192.0585 Y170.4161 E2.67074 F1800 ; Draw perimeter (right)
G1 X192.0585 Y129.0239 E1.77967 F1800 ; Draw perimeter (down)
G1 X129.9415 Y129.0239 E2.67074 F1800 ; Draw perimeter (left)
G0 X130.4586 Y129.541 F12000 ; Step inwards to print next perimeter
G1 X130.4586 Y169.899 E1.73521 F1800 ; Draw perimeter (up)
G1 X191.5414 Y169.899 E2.62628 F1800 ; Draw perimeter (right)
G1 X191.5414 Y129.541 E1.73521 F1800 ; Draw perimeter (down)
G1 X130.4586 Y129.541 E2.62628 F1800 ; Draw perimeter (left)
G0 X130.9757 Y130.058 F12000 ; Step inwards to print next perimeter
G1 X130.9757 Y169.382 E1.69075 F1800 ; Draw perimeter (up)
G1 X191.0243 Y169.382 E2.58181 F1800 ; Draw perimeter (right)
G1 X191.0243 Y130.058 E1.69075 F1800 ; Draw perimeter (down)
G1 X130.9757 Y130.058 E2.58181 F1800 ; Draw perimeter (left)
G1 E-0.5 F2400 ; Retract
G0 X129.4244 Y171.4503 F12000 ; Move to box start
G1 E0.5 F1800 ; Un-retract
G1 X129.4244 Y185.9674 E0.62417 F1800 ; Draw perimeter (up)
G1 X172.0705 Y185.9674 E1.83358 F1800 ; Draw perimeter (right)
G1 X172.0705 Y171.4503 E0.62417 F1800 ; Draw perimeter (down)
G1 X129.4244 Y171.4503 E1.83358 F1800 ; Draw perimeter (left)
G0 X129.9415 Y171.9674 F12000 ; Step inwards to print next perimeter
G1 X129.9415 Y185.4503 E0.5797 F1800 ; Draw perimeter (up)
G1 X171.5535 Y185.4503 E1.78912 F1800 ; Draw perimeter (right)
G1 X171.5535 Y171.9674 E0.5797 F1800 ; Draw perimeter (down)
G1 X129.9415 Y171.9674 E1.78912 F1800 ; Draw perimeter (left)
G0 X130.4586 Y172.4844 F12000 ; Step inwards to print next perimeter
G1 X130.4586 Y184.9332 E0.53524 F1800 ; Draw perimeter (up)
G1 X171.0364 Y184.9332 E1.74466 F1800 ; Draw perimeter (right)
G1 X171.0364 Y172.4844 E0.53524 F1800 ; Draw perimeter (down)
G1 X130.4586 Y172.4844 E1.74466 F1800 ; Draw perimeter (left)
G0 X130.9757 Y173.0015 F12000 ; Step inwards to print next perimeter
G1 X130.9757 Y184.4161 E0.49077 F1800 ; Draw perimeter (up)
G1 X170.5193 Y184.4161 E1.70019 F1800 ; Draw perimeter (right)
G1 X170.5193 Y173.0015 E0.49077 F1800 ; Draw perimeter (down)
G1 X130.9757 Y173.0015 E1.70019 F1800 ; Draw perimeter (left)
G0 X131.349 Y173.3749 F12000 ; Move to fill start
G0 X132.0803 Y173.3749 F12000 ; Move
G1 X131.349 Y174.1061 E0.04446 F1800 ; Fill
G0 X131.349 Y174.8374 F12000 ; Move
G1 X132.8115 Y173.3749 E0.08893 F1800 ; Fill
G0 X133.5428 Y173.3749 F12000 ; Move
G1 X131.349 Y175.5686 E0.13339 F1800 ; Fill
G0 X131.349 Y176.2999 F12000 ; Move
G1 X134.2741 Y173.3749 E0.17786 F1800 ; Fill
G0 X135.0053 Y173.3749 F12000 ; Move
G1 X131.349 Y177.0312 E0.22232 F1800 ; Fill
G0 X131.349 Y177.7624 F12000 ; Move
G1 X135.7366 Y173.3749 E0.26678 F1800 ; Fill
G0 X136.4678 Y173.3749 F12000 ; Move
G1 X131.349 Y178.4937 E0.31125 F1800 ; Fill
G0 X131.349 Y179.2249 F12000 ; Move
G1 X137.1991 Y173.3749 E0.35571 F1800 ; Fill
G0 X137.9304 Y173.3749 F12000 ; Move
G1 X131.349 Y179.9562 E0.40018 F1800 ; Fill
G0 X131.349 Y180.6875 F12000 ; Move
G1 X138.6616 Y173.3749 E0.44464 F1800 ; Fill
G0 X139.3929 Y173.3749 F12000 ; Move
G1 X131.349 Y181.4187 E0.4891 F1800 ; Fill
G0 X131.349 Y182.15 F12000 ; Move
G1 X140.1241 Y173.3749 E0.53357 F1800 ; Fill
G0 X140.8554 Y173.3749 F12000 ; Move
G1 X131.349 Y182.8813 E0.57803 F1800 ; Fill
G0 X131.349 Y183.6125 F12000 ; Move
G1 X141.5867 Y173.3749 E0.6225 F1800 ; Fill
G0 X142.3179 Y173.3749 F12000 ; Move
G1 X131.65 Y184.0428 E0.64866 F1800 ; Fill
G0 X132.3813 Y184.0428 F12000 ; Move
G1 X143.0492 Y173.3749 E0.64866 F1800 ; Fill
G0 X143.7804 Y173.3749 F12000 ; Move
G1 X133.1125 Y184.0428 E0.64866 F1800 ; Fill
G0 X133.8438 Y184.0428 F12000 ; Move
G1 X144.5117 Y173.3749 E0.64866 F1800 ; Fill
G0 X145.243 Y173.3749 F12000 ; Move
G1 X134.575 Y184.0428 E0.64866 F1800 ; Fill
G0 X135.3063 Y184.0428 F12000 ; Move
G1 X145.9742 Y173.3749 E0.64866 F1800 ; Fill
G0 X146.7055 Y173.3749 F12000 ; Move
G1 X136.0376 Y184.0428 E0.64866 F1800 ; Fill
G0 X136.7688 Y184.0428 F12000 ; Move
G1 X147.4368 Y173.3749 E0.64866 F1800 ; Fill
G0 X148.168 Y173.3749 F12000 ; Move
G1 X137.5001 Y184.0428 E0.64866 F1800 ; Fill
G0 X138.2313 Y184.0428 F12000 ; Move
G1 X148.8993 Y173.3749 E0.64866 F1800 ; Fill
G0 X149.6305 Y173.3749 F12000 ; Move
G1 X138.9626 Y184.0428 E0.64866 F1800 ; Fill
G0 X139.6939 Y184.0428 F12000 ; Move
G1 X150.3618 Y173.3749 E0.64866 F1800 ; Fill
G0 X151.0931 Y173.3749 F12000 ; Move
G1 X140.4251 Y184.0428 E0.64866 F1800 ; Fill
G0 X141.1564 Y184.0428 F12000 ; Move
G1 X151.8243 Y173.3749 E0.64866 F1800 ; Fill
G0 X152.5556 Y173.3749 F12000 ; Move
G1 X141.8876 Y184.0428 E0.64866 F1800 ; Fill
G0 X142.6189 Y184.0428 F12000 ; Move
G1 X153.2868 Y173.3749 E0.64866 F1800 ; Fill
G0 X154.0181 Y173.3749 F12000 ; Move
G1 X143.3502 Y184.0428 E0.64866 F1800 ; Fill
G0 X144.0814 Y184.0428 F12000 ; Move
G1 X154.7494 Y173.3749 E0.64866 F1800 ; Fill
G0 X155.4806 Y173.3749 F12000 ; Move
G1 X144.8127 Y184.0428 E0.64866 F1800 ; Fill
G0 X145.544 Y184.0428 F12000 ; Move
G1 X156.2119 Y173.3749 E0.64866 F1800 ; Fill
G0 X156.9431 Y173.3749 F12000 ; Move
G1 X146.2752 Y184.0428 E0.64866 F1800 ; Fill
G0 X147.0065 Y184.0428 F12000 ; Move
G1 X157.6744 Y173.3749 E0.64866 F1800 ; Fill
G0 X158.4057 Y173.3749 F12000 ; Move
G1 X147.7377 Y184.0428 E0.64866 F1800 ; Fill
G0 X148.469 Y184.0428 F12000 ; Move
G1 X159.1369 Y173.3749 E0.64866 F1800 ; Fill
G0 X159.8682 Y173.3749 F12000 ; Move
G1 X149.2003 Y184.0428 E0.64866 F1800 ; Fill
G0 X149.9315 Y184.0428 F12000 ; Move
G1 X160.5995 Y173.3749 E0.64866 F1800 ; Fill
G0 X161.3307 Y173.3749 F12000 ; Move
G1 X150.6628 Y184.0428 E0.64866 F1800 ; Fill
G0 X151.394 Y184.0428 F12000 ; Move
G1 X162.062 Y173.3749 E0.64866 F1800 ; Fill
G0 X162.7932 Y173.3749 F12000 ; Move
G1 X152.1253 Y184.0428 E0.64866 F1800 ; Fill
G0 X152.8566 Y184.0428 F12000 ; Move
G1 X163.5245 Y173.3749 E0.64866 F1800 ; Fill
G0 X164.2558 Y173.3749 F12000 ; Move
G1 X153.5878 Y184.0428 E0.64866 F1800 ; Fill
G0 X154.3191 Y184.0428 F12000 ; Move
G1 X164.987 Y173.3749 E0.64866 F1800 ; Fill
G0 X165.7183 Y173.3749 F12000 ; Move
G1 X155.0503 Y184.0428 E0.64866 F1800 ; Fill
G0 X155.7816 Y184.0428 F12000 ; Move
G1 X166.4495 Y173.3749 E0.64866 F1800 ; Fill
G0 X167.1808 Y173.3749 F12000 ; Move
G1 X156.5129 Y184.0428 E0.64866 F1800 ; Fill
G0 X157.2441 Y184.0428 F12000 ; Move
G1 X167.9121 Y173.3749 E0.64866 F1800 ; Fill
G0 X168.6433 Y173.3749 F12000 ; Move
G1 X157.9754 Y184.0428 E0.64866 F1800 ; Fill
G0 X158.7067 Y184.0428 F12000 ; Move
G1 X169.3746 Y173.3749 E0.64866 F1800 ; Fill
G0 X170.1058 Y173.3749 F12000 ; Move
G1 X159.4379 Y184.0428 E0.64866 F1800 ; Fill
G0 X160.1692 Y184.0428 F12000 ; Move
G1 X170.146 Y174.066 E0.60664 F1800 ; Fill
G0 X170.146 Y174.7973 F12000 ; Move
G1 X160.9004 Y184.0428 E0.56217 F1800 ; Fill
G0 X161.6317 Y184.0428 F12000 ; Move
G1 X170.146 Y175.5285 E0.51771 F1800 ; Fill
G0 X170.146 Y176.2598 F12000 ; Move
G1 X162.363 Y184.0428 E0.47324 F1800 ; Fill
G0 X163.0942 Y184.0428 F12000 ; Move
G1 X170.146 Y176.991 E0.42878 F1800 ; Fill
G0 X170.146 Y177.7223 F12000 ; Move
G1 X163.8255 Y184.0428 E0.38431 F1800 ; Fill
G0 X164.5567 Y184.0428 F12000 ; Move
G1 X170.146 Y178.4536 E0.33985 F1800 ; Fill
G0 X170.146 Y179.1848 F12000 ; Move
G1 X165.288 Y184.0428 E0.29539 F1800 ; Fill
G0 X166.0193 Y184.0428 F12000 ; Move
G1 X170.146 Y179.9161 E0.25092 F1800 ; Fill
G0 X170.146 Y180.6473 F12000 ; Move
G1 X166.7505 Y184.0428 E0.20646 F1800 ; Fill
G0 X167.4818 Y184.0428 F12000 ; Move
G1 X170.146 Y181.3786 E0.16199 F1800 ; Fill
G0 X170.146 Y182.1099 F12000 ; Move
G1 X168.213 Y184.0428 E0.11753 F1800 ; Fill
G0 X168.9443 Y184.0428 F12000 ; Move
G1 X170.146 Y182.8411 E0.07307 F1800 ; Fill
G0 X170.146 Y183.5724 F12000 ; Move
G1 X169.6756 Y184.0428 E0.0286 F1800 ; Fill
G0 Z0.2 F12000 ; Move to layer height
G1 E-0.5 F2400 ; Retract
G0 X134.0533 Y130.4314 F12000 ; Move to pattern start

G1 E0.5 F1800 ; Un-retract
SET_PRESSURE_ADVANCE ADVANCE=0.03 ; Set pressure advance
M117 PA 0.03
G1 X153.3419 Y149.72 E0.92334 F1800 ; Print pattern wall
G1 X134.0533 Y169.0086 E0.92334 F1800 ; Print pattern wall
G1 E-0.5 F2400 ; Retract
G0 X134.629 Y130.4314 F12000 ; Move to start next pattern wall
G1 E0.5 F1800 ; Un-retract
G1 X153.9176 Y149.72 E0.92334 F1800 ; Print pattern wall
G1 X134.629 Y169.0086 E0.92334 F1800 ; Print pattern wall
G1 E-0.5 F2400 ; Retract
G0 X135.2047 Y130.4314 F12000 ; Move to start next pattern wall
G1 E0.5 F1800 ; Un-retract
G1 X154.4933 Y149.72 E0.92334 F1800 ; Print pattern wall
G1 X135.2047 Y169.0086 E0.92334 F1800 ; Print pattern wall
G1 E-0.5 F2400 ; Retract
G0 X137.6547 Y130.4314 F12000 ; Move to next pattern
G1 E0.5 F1800 ; Un-retract
SET_PRESSURE_ADVANCE ADVANCE=0.031 ; Set pressure advance
M117 PA 0.031
G1 X156.9433 Y149.72 E0.92334 F1800 ; Print pattern wall
G1 X137.6547 Y169.0086 E0.92334 F1800 ; Print pattern wall
G1 E-0.5 F2400 ; Retract
G0 X138.2304 Y130.4314 F12000 ; Move to start next pattern wall
G1 E0.5 F1800 ; Un-retract
G1 X157.519 Y149.72 E0.92334 F1800 ; Print pattern wall
G1 X138.2304 Y169.0086 E0.92334 F1800 ; Print pattern wall
G1 E-0.5 F2400 ; Retract
G0 X138.8061 Y130.4314 F12000 ; Move to start next pattern wall
G1 E0.5 F1800 ; Un-retract
G1 X158.0947 Y149.72 E0.92334 F1800 ; Print pattern wall
G1 X138.8061 Y169.0086 E0.92334 F1800 ; Print pattern wall
G1 E-0.5 F2400 ; Retract
G0 X141.2561 Y130.4314 F12000 ; Move to next pattern
G1 E0.5 F1800 ; Un-retract
SET_PRESSURE_ADVANCE ADVANCE=0.032 ; Set pressure advance
M117 PA 0.032
G1 X160.5447 Y149.72 E0.92334 F1800 ; Print pattern wall
G1 X141.2561 Y169.0086 E0.92334 F1800 ; Print pattern wall
G1 E-0.5 F2400 ; Retract
G0 X141.8318 Y130.4314 F12000 ; Move to start next pattern wall
G1 E0.5 F1800 ; Un-retract
G1 X161.1204 Y149.72 E0.92334 F1800 ; Print pattern wall
G1 X141.8318 Y169.0086 E0.92334 F1800 ; Print pattern wall
G1 E-0.5 F2400 ; Retract
G0 X142.4075 Y130.4314 F12000 ; Move to start next pattern wall
G1 E0.5 F1800 ; Un-retract
G1 X161.6961 Y149.72 E0.92334 F1800 ; Print pattern wall
G1 X142.4075 Y169.0086 E0.92334 F1800 ; Print pattern wall
G1 E-0.5 F2400 ; Retract
G0 X144.8575 Y130.4314 F12000 ; Move to next pattern
G1 E0.5 F1800 ; Un-retract
SET_PRESSURE_ADVANCE ADVANCE=0.033 ; Set pressure advance
M117 PA 0.033
G1 X164.1461 Y149.72 E0.92334 F1800 ; Print pattern wall
G1 X144.8575 Y169.0086 E0.92334 F1800 ; Print pattern wall
G1 E-0.5 F2400 ; Retract
G0 X145.4332 Y130.4314 F12000 ; Move to start next pattern wall
G1 E0.5 F1800 ; Un-retract
G1 X164.7218 Y149.72 E0.92334 F1800 ; Print pattern wall
G1 X145.4332 Y169.0086 E0.92334 F1800 ; Print pattern wall
G1 E-0.5 F2400 ; Retract
G0 X146.0089 Y130.4314 F12000 ; Move to start next pattern wall
G1 E0.5 F1800 ; Un-retract
G1 X165.2975 Y149.72 E0.92334 F1800 ; Print pattern wall
G1 X146.0089 Y169.0086 E0.92334 F1800 ; Print pattern wall
G1 E-0.5 F2400 ; Retract
G0 X148.4589 Y130.4314 F12000 ; Move to next pattern
G1 E0.5 F1800 ; Un-retract
SET_PRESSURE_ADVANCE ADVANCE=0.034 ; Set pressure advance
M117 PA 0.034
G1 X167.7475 Y149.72 E0.92334 F1800 ; Print pattern wall
G1 X148.4589 Y169.0086 E0.92334 F1800 ; Print pattern wall
G1 E-0.5 F2400 ; Retract
G0 X149.0346 Y130.4314 F12000 ; Move to start next pattern wall
G1 E0.5 F1800 ; Un-retract
G1 X168.3232 Y149.72 E0.92334 F1800 ; Print pattern wall
G1 X149.0346 Y169.0086 E0.92334 F1800 ; Print pattern wall
G1 E-0.5 F2400 ; Retract
G0 X149.6103 Y130.4314 F12000 ; Move to start next pattern wall
G1 E0.5 F1800 ; Un-retract
G1 X168.8989 Y149.72 E0.92334 F1800 ; Print pattern wall
G1 X149.6103 Y169.0086 E0.92334 F1800 ; Print pattern wall
G1 E-0.5 F2400 ; Retract
G0 X152.0603 Y130.4314 F12000 ; Move to next pattern
G1 E0.5 F1800 ; Un-retract
SET_PRESSURE_ADVANCE ADVANCE=0.035 ; Set pressure advance
M117 PA 0.035
G1 X171.3489 Y149.72 E0.92334 F1800 ; Print pattern wall
G1 X152.0603 Y169.0086 E0.92334 F1800 ; Print pattern wall
G1 E-0.5 F2400 ; Retract
G0 X152.636 Y130.4314 F12000 ; Move to start next pattern wall
G1 E0.5 F1800 ; Un-retract
G1 X171.9246 Y149.72 E0.92334 F1800 ; Print pattern wall
G1 X152.636 Y169.0086 E0.92334 F1800 ; Print pattern wall
G1 E-0.5 F2400 ; Retract
G0 X153.2117 Y130.4314 F12000 ; Move to start next pattern wall
G1 E0.5 F1800 ; Un-retract
G1 X172.5003 Y149.72 E0.92334 F1800 ; Print pattern wall
G1 X153.2117 Y169.0086 E0.92334 F1800 ; Print pattern wall
G1 E-0.5 F2400 ; Retract
G0 X155.6617 Y130.4314 F12000 ; Move to next pattern
G1 E0.5 F1800 ; Un-retract
SET_PRESSURE_ADVANCE ADVANCE=0.036 ; Set pressure advance
M117 PA 0.036
G1 X174.9503 Y149.72 E0.92334 F1800 ; Print pattern wall
G1 X155.6617 Y169.0086 E0.92334 F1800 ; Print pattern wall
G1 E-0.5 F2400 ; Retract
G0 X156.2374 Y130.4314 F12000 ; Move to start next pattern wall
G1 E0.5 F1800 ; Un-retract
G1 X175.526 Y149.72 E0.92334 F1800 ; Print pattern wall
G1 X156.2374 Y169.0086 E0.92334 F1800 ; Print pattern wall
G1 E-0.5 F2400 ; Retract
G0 X156.8131 Y130.4314 F12000 ; Move to start next pattern wall
G1 E0.5 F1800 ; Un-retract
G1 X176.1017 Y149.72 E0.92334 F1800 ; Print pattern wall
G1 X156.8131 Y169.0086 E0.92334 F1800 ; Print pattern wall
G1 E-0.5 F2400 ; Retract
G0 X159.2631 Y130.4314 F12000 ; Move to next pattern
G1 E0.5 F1800 ; Un-retract
SET_PRESSURE_ADVANCE ADVANCE=0.037 ; Set pressure advance
M117 PA 0.037
G1 X178.5517 Y149.72 E0.92334 F1800 ; Print pattern wall
G1 X159.2631 Y169.0086 E0.92334 F1800 ; Print pattern wall
G1 E-0.5 F2400 ; Retract
G0 X159.8388 Y130.4314 F12000 ; Move to start next pattern wall
G1 E0.5 F1800 ; Un-retract
G1 X179.1274 Y149.72 E0.92334 F1800 ; Print pattern wall
G1 X159.8388 Y169.0086 E0.92334 F1800 ; Print pattern wall
G1 E-0.5 F2400 ; Retract
G0 X160.4145 Y130.4314 F12000 ; Move to start next pattern wall
G1 E0.5 F1800 ; Un-retract
G1 X179.7031 Y149.72 E0.92334 F1800 ; Print pattern wall
G1 X160.4145 Y169.0086 E0.92334 F1800 ; Print pattern wall
G1 E-0.5 F2400 ; Retract
G0 X162.8645 Y130.4314 F12000 ; Move to next pattern
G1 E0.5 F1800 ; Un-retract
SET_PRESSURE_ADVANCE ADVANCE=0.038 ; Set pressure advance
M117 PA 0.038
G1 X182.1531 Y149.72 E0.92334 F1800 ; Print pattern wall
G1 X162.8645 Y169.0086 E0.92334 F1800 ; Print pattern wall
G1 E-0.5 F2400 ; Retract
G0 X163.4402 Y130.4314 F12000 ; Move to start next pattern wall
G1 E0.5 F1800 ; Un-retract
G1 X182.7288 Y149.72 E0.92334 F1800 ; Print pattern wall
G1 X163.4402 Y169.0086 E0.92334 F1800 ; Print pattern wall
G1 E-0.5 F2400 ; Retract
G0 X164.0159 Y130.4314 F12000 ; Move to start next pattern wall
G1 E0.5 F1800 ; Un-retract
G1 X183.3045 Y149.72 E0.92334 F1800 ; Print pattern wall
G1 X164.0159 Y169.0086 E0.92334 F1800 ; Print pattern wall
G1 E-0.5 F2400 ; Retract
G0 X166.4659 Y130.4314 F12000 ; Move to next pattern
G1 E0.5 F1800 ; Un-retract
SET_PRESSURE_ADVANCE ADVANCE=0.039 ; Set pressure advance
M117 PA 0.039
G1 X185.7545 Y149.72 E0.92334 F1800 ; Print pattern wall
G1 X166.4659 Y169.0086 E0.92334 F1800 ; Print pattern wall
G1 E-0.5 F2400 ; Retract
G0 X167.0416 Y130.4314 F12000 ; Move to start next pattern wall
G1 E0.5 F1800 ; Un-retract
G1 X186.3302 Y149.72 E0.92334 F1800 ; Print pattern wall
G1 X167.0416 Y169.0086 E0.92334 F1800 ; Print pattern wall
G1 E-0.5 F2400 ; Retract
G0 X167.6173 Y130.4314 F12000 ; Move to start next pattern wall
G1 E0.5 F1800 ; Un-retract
G1 X186.9059 Y149.72 E0.92334 F1800 ; Print pattern wall
G1 X167.6173 Y169.0086 E0.92334 F1800 ; Print pattern wall
G1 E-0.5 F2400 ; Retract
G0 X170.0673 Y130.4314 F12000 ; Move to next pattern
G1 E0.5 F1800 ; Un-retract
SET_PRESSURE_ADVANCE ADVANCE=0.04 ; Set pressure advance
M117 PA 0.04
G1 X189.3559 Y149.72 E0.92334 F1800 ; Print pattern wall
G1 X170.0673 Y169.0086 E0.92334 F1800 ; Print pattern wall
G1 E-0.5 F2400 ; Retract
G0 X170.643 Y130.4314 F12000 ; Move to start next pattern wall
G1 E0.5 F1800 ; Un-retract
G1 X189.9316 Y149.72 E0.92334 F1800 ; Print pattern wall
G1 X170.643 Y169.0086 E0.92334 F1800 ; Print pattern wall
G1 E-0.5 F2400 ; Retract
G0 X171.2187 Y130.4314 F12000 ; Move to start next pattern wall
G1 E0.5 F1800 ; Un-retract
G1 X190.5073 Y149.72 E0.92334 F1800 ; Print pattern wall
G1 X171.2187 Y169.0086 E0.92334 F1800 ; Print pattern wall
G1 E-0.5 F2400 ; Retract
G0 X134.0533 Y130.4314 F12000 ; Move back to start position
G1 E0.5 F1800 ; Un-retract
M106 S255 ; Set fan speed
G0 Z0.4 F12000 ; Move to layer height
SET_PRESSURE_ADVANCE ADVANCE=0.03 ; Set pressure advance to start value for numbering
M117 PA 0.03
G1 E-0.5 F2400 ; Retract
G0 X130.7044 Y172.3832 F12000 ; Move
G1 E0.5 F1800 ; Un-retract
G1 X132.7044 Y172.3832 E0.0677 F1800 ; Glyph: 0
G1 X134.7044 Y172.3832 E0.0677 F1800 ; Glyph: 0
G1 X134.7044 Y174.3832 E0.0677 F1800 ; Glyph: 0
G1 X132.7044 Y174.3832 E0.0677 F1800 ; Glyph: 0
G1 X130.7044 Y174.3832 E0.0677 F1800 ; Glyph: 0
G1 X130.7044 Y172.3832 E0.0677 F1800 ; Glyph: 0
G1 E-0.5 F2400 ; Retract
G0 X134.7044 Y175.3832 F12000 ; Move
G1 E0.5 F1800 ; Un-retract
G1 X133.9544 Y175.3832 E0.02539 F1800 ; Glyph: .
G1 E-0.5 F2400 ; Retract
G0 X130.7044 Y176.3832 F12000 ; Move
G1 E0.5 F1800 ; Un-retract
G1 X132.7044 Y176.3832 E0.0677 F1800 ; Glyph: 0
G1 X134.7044 Y176.3832 E0.0677 F1800 ; Glyph: 0
G1 X134.7044 Y178.3832 E0.0677 F1800 ; Glyph: 0
G1 X132.7044 Y178.3832 E0.0677 F1800 ; Glyph: 0
G1 X130.7044 Y178.3832 E0.0677 F1800 ; Glyph: 0
G1 X130.7044 Y176.3832 E0.0677 F1800 ; Glyph: 0
G1 E-0.5 F2400 ; Retract
G0 X130.7044 Y179.3832 F12000 ; Move
G1 E0.5 F1800 ; Un-retract
G1 X130.7044 Y181.3832 E0.0677 F1800 ; Glyph: 3
G1 X132.7044 Y181.3832 E0.0677 F1800 ; Glyph: 3
G1 X132.7044 Y179.3832 E0.0677 F1800 ; Glyph: 3
G0 X132.7044 Y181.3832 F12000 ; Move
G1 X134.7044 Y181.3832 E0.0677 F1800 ; Glyph: 3
G1 X134.7044 Y179.3832 E0.0677 F1800 ; Glyph: 3
G1 E-0.5 F2400 ; Retract
G0 X137.9072 Y172.3832 F12000 ; Move
G1 E0.5 F1800 ; Un-retract
G1 X139.9072 Y172.3832 E0.0677 F1800 ; Glyph: 0
G1 X141.9072 Y172.3832 E0.0677 F1800 ; Glyph: 0
G1 X141.9072 Y174.3832 E0.0677 F1800 ; Glyph: 0
G1 X139.9072 Y174.3832 E0.0677 F1800 ; Glyph: 0
G1 X137.9072 Y174.3832 E0.0677 F1800 ; Glyph: 0
G1 X137.9072 Y172.3832 E0.0677 F1800 ; Glyph: 0
G1 E-0.5 F2400 ; Retract
G0 X141.9072 Y175.3832 F12000 ; Move
G1 E0.5 F1800 ; Un-retract
G1 X141.1572 Y175.3832 E0.02539 F1800 ; Glyph: .
G1 E-0.5 F2400 ; Retract
G0 X137.9072 Y176.3832 F12000 ; Move
G1 E0.5 F1800 ; Un-retract
G1 X139.9072 Y176.3832 E0.0677 F1800 ; Glyph: 0
G1 X141.9072 Y176.3832 E0.0677 F1800 ; Glyph: 0
G1 X141.9072 Y178.3832 E0.0677 F1800 ; Glyph: 0
G1 X139.9072 Y178.3832 E0.0677 F1800 ; Glyph: 0
G1 X137.9072 Y178.3832 E0.0677 F1800 ; Glyph: 0
G1 X137.9072 Y176.3832 E0.0677 F1800 ; Glyph: 0
G1 E-0.5 F2400 ; Retract
G0 X137.9072 Y179.3832 F12000 ; Move
G1 E0.5 F1800 ; Un-retract
G1 X137.9072 Y181.3832 E0.0677 F1800 ; Glyph: 3
G1 X139.9072 Y181.3832 E0.0677 F1800 ; Glyph: 3
G1 X139.9072 Y179.3832 E0.0677 F1800 ; Glyph: 3
G0 X139.9072 Y181.3832 F12000 ; Move
G1 X141.9072 Y181.3832 E0.0677 F1800 ; Glyph: 3
G1 X141.9072 Y179.3832 E0.0677 F1800 ; Glyph: 3
G1 E-0.5 F2400 ; Retract
G0 X137.9072 Y182.3832 F12000 ; Move
G1 E0.5 F1800 ; Un-retract
G1 X137.9072 Y184.3832 E0.0677 F1800 ; Glyph: 2
G1 X139.9072 Y184.3832 E0.0677 F1800 ; Glyph: 2
G1 X139.9072 Y182.3832 E0.0677 F1800 ; Glyph: 2
G1 X141.9072 Y182.3832 E0.0677 F1800 ; Glyph: 2
G1 X141.9072 Y184.3832 E0.0677 F1800 ; Glyph: 2
G1 E-0.5 F2400 ; Retract
G0 X145.11 Y172.3832 F12000 ; Move
G1 E0.5 F1800 ; Un-retract
G1 X147.11 Y172.3832 E0.0677 F1800 ; Glyph: 0
G1 X149.11 Y172.3832 E0.0677 F1800 ; Glyph: 0
G1 X149.11 Y174.3832 E0.0677 F1800 ; Glyph: 0
G1 X147.11 Y174.3832 E0.0677 F1800 ; Glyph: 0
G1 X145.11 Y174.3832 E0.0677 F1800 ; Glyph: 0
G1 X145.11 Y172.3832 E0.0677 F1800 ; Glyph: 0
G1 E-0.5 F2400 ; Retract
G0 X149.11 Y175.3832 F12000 ; Move
G1 E0.5 F1800 ; Un-retract
G1 X148.36 Y175.3832 E0.02539 F1800 ; Glyph: .
G1 E-0.5 F2400 ; Retract
G0 X145.11 Y176.3832 F12000 ; Move
G1 E0.5 F1800 ; Un-retract
G1 X147.11 Y176.3832 E0.0677 F1800 ; Glyph: 0
G1 X149.11 Y176.3832 E0.0677 F1800 ; Glyph: 0
G1 X149.11 Y178.3832 E0.0677 F1800 ; Glyph: 0
G1 X147.11 Y178.3832 E0.0677 F1800 ; Glyph: 0
G1 X145.11 Y178.3832 E0.0677 F1800 ; Glyph: 0
G1 X145.11 Y176.3832 E0.0677 F1800 ; Glyph: 0
G1 E-0.5 F2400 ; Retract
G0 X145.11 Y179.3832 F12000 ; Move
G1 E0.5 F1800 ; Un-retract
G1 X145.11 Y181.3832 E0.0677 F1800 ; Glyph: 3
G1 X147.11 Y181.3832 E0.0677 F1800 ; Glyph: 3
G1 X147.11 Y179.3832 E0.0677 F1800 ; Glyph: 3
G0 X147.11 Y181.3832 F12000 ; Move
G1 X149.11 Y181.3832 E0.0677 F1800 ; Glyph: 3
G1 X149.11 Y179.3832 E0.0677 F1800 ; Glyph: 3
G1 E-0.5 F2400 ; Retract
G0 X145.11 Y184.3832 F12000 ; Move
G1 E0.5 F1800 ; Un-retract
G1 X147.11 Y184.3832 E0.0677 F1800 ; Glyph: 4
G1 X149.11 Y184.3832 E0.0677 F1800 ; Glyph: 4
G0 X147.11 Y184.3832 F12000 ; Move
G1 X147.11 Y182.3832 E0.0677 F1800 ; Glyph: 4
G1 X145.11 Y182.3832 E0.0677 F1800 ; Glyph: 4
G1 E-0.5 F2400 ; Retract
G0 X152.3128 Y172.3832 F12000 ; Move
G1 E0.5 F1800 ; Un-retract
G1 X154.3128 Y172.3832 E0.0677 F1800 ; Glyph: 0
G1 X156.3128 Y172.3832 E0.0677 F1800 ; Glyph: 0
G1 X156.3128 Y174.3832 E0.0677 F1800 ; Glyph: 0
G1 X154.3128 Y174.3832 E0.0677 F1800 ; Glyph: 0
G1 X152.3128 Y174.3832 E0.0677 F1800 ; Glyph: 0
G1 X152.3128 Y172.3832 E0.0677 F1800 ; Glyph: 0
G1 E-0.5 F2400 ; Retract
G0 X156.3128 Y175.3832 F12000 ; Move
G1 E0.5 F1800 ; Un-retract
G1 X155.5628 Y175.3832 E0.02539 F1800 ; Glyph: .
G1 E-0.5 F2400 ; Retract
G0 X152.3128 Y176.3832 F12000 ; Move
G1 E0.5 F1800 ; Un-retract
G1 X154.3128 Y176.3832 E0.0677 F1800 ; Glyph: 0
G1 X156.3128 Y176.3832 E0.0677 F1800 ; Glyph: 0
G1 X156.3128 Y178.3832 E0.0677 F1800 ; Glyph: 0
G1 X154.3128 Y178.3832 E0.0677 F1800 ; Glyph: 0
G1 X152.3128 Y178.3832 E0.0677 F1800 ; Glyph: 0
G1 X152.3128 Y176.3832 E0.0677 F1800 ; Glyph: 0
G1 E-0.5 F2400 ; Retract
G0 X152.3128 Y179.3832 F12000 ; Move
G1 E0.5 F1800 ; Un-retract
G1 X152.3128 Y181.3832 E0.0677 F1800 ; Glyph: 3
G1 X154.3128 Y181.3832 E0.0677 F1800 ; Glyph: 3
G1 X154.3128 Y179.3832 E0.0677 F1800 ; Glyph: 3
G0 X154.3128 Y181.3832 F12000 ; Move
G1 X156.3128 Y181.3832 E0.0677 F1800 ; Glyph: 3
G1 X156.3128 Y179.3832 E0.0677 F1800 ; Glyph: 3
G1 E-0.5 F2400 ; Retract
G0 X152.3128 Y184.3832 F12000 ; Move
G1 E0.5 F1800 ; Un-retract
G1 X152.3128 Y182.3832 E0.0677 F1800 ; Glyph: 6
G1 X154.3128 Y182.3832 E0.0677 F1800 ; Glyph: 6
G1 X156.3128 Y182.3832 E0.0677 F1800 ; Glyph: 6
G1 X156.3128 Y184.3832 E0.0677 F1800 ; Glyph: 6
G1 X154.3128 Y184.3832 E0.0677 F1800 ; Glyph: 6
G1 X154.3128 Y182.3832 E0.0677 F1800 ; Glyph: 6
G1 E-0.5 F2400 ; Retract
G0 X159.5156 Y172.3832 F12000 ; Move
G1 E0.5 F1800 ; Un-retract
G1 X161.5156 Y172.3832 E0.0677 F1800 ; Glyph: 0
G1 X163.5156 Y172.3832 E0.0677 F1800 ; Glyph: 0
G1 X163.5156 Y174.3832 E0.0677 F1800 ; Glyph: 0
G1 X161.5156 Y174.3832 E0.0677 F1800 ; Glyph: 0
G1 X159.5156 Y174.3832 E0.0677 F1800 ; Glyph: 0
G1 X159.5156 Y172.3832 E0.0677 F1800 ; Glyph: 0
G1 E-0.5 F2400 ; Retract
G0 X163.5156 Y175.3832 F12000 ; Move
G1 E0.5 F1800 ; Un-retract
G1 X162.7656 Y175.3832 E0.02539 F1800 ; Glyph: .
G1 E-0.5 F2400 ; Retract
G0 X159.5156 Y176.3832 F12000 ; Move
G1 E0.5 F1800 ; Un-retract
G1 X161.5156 Y176.3832 E0.0677 F1800 ; Glyph: 0
G1 X163.5156 Y176.3832 E0.0677 F1800 ; Glyph: 0
G1 X163.5156 Y178.3832 E0.0677 F1800 ; Glyph: 0
G1 X161.5156 Y178.3832 E0.0677 F1800 ; Glyph: 0
G1 X159.5156 Y178.3832 E0.0677 F1800 ; Glyph: 0
G1 X159.5156 Y176.3832 E0.0677 F1800 ; Glyph: 0
G1 E-0.5 F2400 ; Retract
G0 X159.5156 Y179.3832 F12000 ; Move
G1 E0.5 F1800 ; Un-retract
G1 X159.5156 Y181.3832 E0.0677 F1800 ; Glyph: 3
G1 X161.5156 Y181.3832 E0.0677 F1800 ; Glyph: 3
G1 X161.5156 Y179.3832 E0.0677 F1800 ; Glyph: 3
G0 X161.5156 Y181.3832 F12000 ; Move
G1 X163.5156 Y181.3832 E0.0677 F1800 ; Glyph: 3
G1 X163.5156 Y179.3832 E0.0677 F1800 ; Glyph: 3
G1 E-0.5 F2400 ; Retract
G0 X159.5156 Y182.3832 F12000 ; Move
G1 E0.5 F1800 ; Un-retract
G1 X161.5156 Y182.3832 E0.0677 F1800 ; Glyph: 8
G1 X163.5156 Y182.3832 E0.0677 F1800 ; Glyph: 8
G1 X163.5156 Y184.3832 E0.0677 F1800 ; Glyph: 8
G1 X161.5156 Y184.3832 E0.0677 F1800 ; Glyph: 8
G1 X159.5156 Y184.3832 E0.0677 F1800 ; Glyph: 8
G1 X159.5156 Y182.3832 E0.0677 F1800 ; Glyph: 8
G0 X161.5156 Y182.3832 F12000 ; Move
G1 X161.5156 Y184.3832 E0.0677 F1800 ; Glyph: 8
G1 E-0.5 F2400 ; Retract
G0 X166.7184 Y172.3832 F12000 ; Move
G1 E0.5 F1800 ; Un-retract
G1 X168.7184 Y172.3832 E0.0677 F1800 ; Glyph: 0
G1 X170.7184 Y172.3832 E0.0677 F1800 ; Glyph: 0
G1 X170.7184 Y174.3832 E0.0677 F1800 ; Glyph: 0
G1 X168.7184 Y174.3832 E0.0677 F1800 ; Glyph: 0
G1 X166.7184 Y174.3832 E0.0677 F1800 ; Glyph: 0
G1 X166.7184 Y172.3832 E0.0677 F1800 ; Glyph: 0
G1 E-0.5 F2400 ; Retract
G0 X170.7184 Y175.3832 F12000 ; Move
G1 E0.5 F1800 ; Un-retract
G1 X169.9684 Y175.3832 E0.02539 F1800 ; Glyph: .
G1 E-0.5 F2400 ; Retract
G0 X166.7184 Y176.3832 F12000 ; Move
G1 E0.5 F1800 ; Un-retract
G1 X168.7184 Y176.3832 E0.0677 F1800 ; Glyph: 0
G1 X170.7184 Y176.3832 E0.0677 F1800 ; Glyph: 0
G1 X170.7184 Y178.3832 E0.0677 F1800 ; Glyph: 0
G1 X168.7184 Y178.3832 E0.0677 F1800 ; Glyph: 0
G1 X166.7184 Y178.3832 E0.0677 F1800 ; Glyph: 0
G1 X166.7184 Y176.3832 E0.0677 F1800 ; Glyph: 0
G1 E-0.5 F2400 ; Retract
G0 X166.7184 Y181.3832 F12000 ; Move
G1 E0.5 F1800 ; Un-retract
G1 X168.7184 Y181.3832 E0.0677 F1800 ; Glyph: 4
G1 X170.7184 Y181.3832 E0.0677 F1800 ; Glyph: 4
G0 X168.7184 Y181.3832 F12000 ; Move
G1 X168.7184 Y179.3832 E0.0677 F1800 ; Glyph: 4
G1 X166.7184 Y179.3832 E0.0677 F1800 ; Glyph: 4
G1 E-0.5 F2400 ; Retract
G0 X132.1287 Y128.5068 F12000 ; Move to pattern start

G1 E0.5 F1800 ; Un-retract
SET_PRESSURE_ADVANCE ADVANCE=0.03 ; Set pressure advance
M117 PA 0.03
G1 X153.3419 Y149.72 E1.01546 F12000 ; Print pattern wall
G1 X132.1287 Y170.9332 E1.01546 F12000 ; Print pattern wall
G1 E-0.5 F2400 ; Retract
G0 X132.7044 Y128.5068 F12000 ; Move to start next pattern wall
G1 E0.5 F1800 ; Un-retract
G1 X153.9176 Y149.72 E1.01546 F12000 ; Print pattern wall
G1 X132.7044 Y170.9332 E1.01546 F12000 ; Print pattern wall
G1 E-0.5 F2400 ; Retract
G0 X133.2801 Y128.5068 F12000 ; Move to start next pattern wall
G1 E0.5 F1800 ; Un-retract
G1 X154.4933 Y149.72 E1.01546 F12000 ; Print pattern wall
G1 X133.2801 Y170.9332 E1.01546 F12000 ; Print pattern wall
G1 E-0.5 F2400 ; Retract
G0 X135.7301 Y128.5068 F12000 ; Move to next pattern
G1 E0.5 F1800 ; Un-retract
SET_PRESSURE_ADVANCE ADVANCE=0.031 ; Set pressure advance
M117 PA 0.031
G1 X156.9433 Y149.72 E1.01546 F12000 ; Print pattern wall
G1 X135.7301 Y170.9332 E1.01546 F12000 ; Print pattern wall
G1 E-0.5 F2400 ; Retract
G0 X136.3058 Y128.5068 F12000 ; Move to start next pattern wall
G1 E0.5 F1800 ; Un-retract
G1 X157.519 Y149.72 E1.01546 F12000 ; Print pattern wall
G1 X136.3058 Y170.9332 E1.01546 F12000 ; Print pattern wall
G1 E-0.5 F2400 ; Retract
G0 X136.8815 Y128.5068 F12000 ; Move to start next pattern wall
G1 E0.5 F1800 ; Un-retract
G1 X158.0947 Y149.72 E1.01546 F12000 ; Print pattern wall
G1 X136.8815 Y170.9332 E1.01546 F12000 ; Print pattern wall
G1 E-0.5 F2400 ; Retract
G0 X139.3315 Y128.5068 F12000 ; Move to next pattern
G1 E0.5 F1800 ; Un-retract
SET_PRESSURE_ADVANCE ADVANCE=0.032 ; Set pressure advance
M117 PA 0.032
G1 X160.5447 Y149.72 E1.01546 F12000 ; Print pattern wall
G1 X139.3315 Y170.9332 E1.01546 F12000 ; Print pattern wall
G1 E-0.5 F2400 ; Retract
G0 X139.9072 Y128.5068 F12000 ; Move to start next pattern wall
G1 E0.5 F1800 ; Un-retract
G1 X161.1204 Y149.72 E1.01546 F12000 ; Print pattern wall
G1 X139.9072 Y170.9332 E1.01546 F12000 ; Print pattern wall
G1 E-0.5 F2400 ; Retract
G0 X140.4829 Y128.5068 F12000 ; Move to start next pattern wall
G1 E0.5 F1800 ; Un-retract
G1 X161.6961 Y149.72 E1.01546 F12000 ; Print pattern wall
G1 X140.4829 Y170.9332 E1.01546 F12000 ; Print pattern wall
G1 E-0.5 F2400 ; Retract
G0 X142.9329 Y128.5068 F12000 ; Move to next pattern
G1 E0.5 F1800 ; Un-retract
SET_PRESSURE_ADVANCE ADVANCE=0.033 ; Set pressure advance
M117 PA 0.033
G1 X164.1461 Y149.72 E1.01546 F12000 ; Print pattern wall
G1 X142.9329 Y170.9332 E1.01546 F12000 ; Print pattern wall
G1 E-0.5 F2400 ; Retract
G0 X143.5086 Y128.5068 F12000 ; Move to start next pattern wall
G1 E0.5 F1800 ; Un-retract
G1 X164.7218 Y149.72 E1.01546 F12000 ; Print pattern wall
G1 X143.5086 Y170.9332 E1.01546 F12000 ; Print pattern wall
G1 E-0.5 F2400 ; Retract
G0 X144.0843 Y128.5068 F12000 ; Move to start next pattern wall
G1 E0.5 F1800 ; Un-retract
G1 X165.2975 Y149.72 E1.01546 F12000 ; Print pattern wall
G1 X144.0843 Y170.9332 E1.01546 F12000 ; Print pattern wall
G1 E-0.5 F2400 ; Retract
G0 X146.5343 Y128.5068 F12000 ; Move to next pattern
G1 E0.5 F1800 ; Un-retract
SET_PRESSURE_ADVANCE ADVANCE=0.034 ; Set pressure advance
M117 PA 0.034
G1 X167.7475 Y149.72 E1.01546 F12000 ; Print pattern wall
G1 X146.5343 Y170.9332 E1.01546 F12000 ; Print pattern wall
G1 E-0.5 F2400 ; Retract
G0 X147.11 Y128.5068 F12000 ; Move to start next pattern wall
G1 E0.5 F1800 ; Un-retract
G1 X168.3232 Y149.72 E1.01546 F12000 ; Print pattern wall
G1 X147.11 Y170.9332 E1.01546 F12000 ; Print pattern wall
G1 E-0.5 F2400 ; Retract
G0 X147.6857 Y128.5068 F12000 ; Move to start next pattern wall
G1 E0.5 F1800 ; Un-retract
G1 X168.8989 Y149.72 E1.01546 F12000 ; Print pattern wall
G1 X147.6857 Y170.9332 E1.01546 F12000 ; Print pattern wall
G1 E-0.5 F2400 ; Retract
G0 X150.1357 Y128.5068 F12000 ; Move to next pattern
G1 E0.5 F1800 ; Un-retract
SET_PRESSURE_ADVANCE ADVANCE=0.035 ; Set pressure advance
M117 PA 0.035
G1 X171.3489 Y149.72 E1.01546 F12000 ; Print pattern wall
G1 X150.1357 Y170.9332 E1.01546 F12000 ; Print pattern wall
G1 E-0.5 F2400 ; Retract
G0 X150.7114 Y128.5068 F12000 ; Move to start next pattern wall
G1 E0.5 F1800 ; Un-retract
G1 X171.9246 Y149.72 E1.01546 F12000 ; Print pattern wall
G1 X150.7114 Y170.9332 E1.01546 F12000 ; Print pattern wall
G1 E-0.5 F2400 ; Retract
G0 X151.2871 Y128.5068 F12000 ; Move to start next pattern wall
G1 E0.5 F1800 ; Un-retract
G1 X172.5003 Y149.72 E1.01546 F12000 ; Print pattern wall
G1 X151.2871 Y170.9332 E1.01546 F12000 ; Print pattern wall
G1 E-0.5 F2400 ; Retract
G0 X153.7371 Y128.5068 F12000 ; Move to next pattern
G1 E0.5 F1800 ; Un-retract
SET_PRESSURE_ADVANCE ADVANCE=0.036 ; Set pressure advance
M117 PA 0.036
G1 X174.9503 Y149.72 E1.01546 F12000 ; Print pattern wall
G1 X153.7371 Y170.9332 E1.01546 F12000 ; Print pattern wall
G1 E-0.5 F2400 ; Retract
G0 X154.3128 Y128.5068 F12000 ; Move to start next pattern wall
G1 E0.5 F1800 ; Un-retract
G1 X175.526 Y149.72 E1.01546 F12000 ; Print pattern wall
G1 X154.3128 Y170.9332 E1.01546 F12000 ; Print pattern wall
G1 E-0.5 F2400 ; Retract
G0 X154.8885 Y128.5068 F12000 ; Move to start next pattern wall
G1 E0.5 F1800 ; Un-retract
G1 X176.1017 Y149.72 E1.01546 F12000 ; Print pattern wall
G1 X154.8885 Y170.9332 E1.01546 F12000 ; Print pattern wall
G1 E-0.5 F2400 ; Retract
G0 X157.3385 Y128.5068 F12000 ; Move to next pattern
G1 E0.5 F1800 ; Un-retract
SET_PRESSURE_ADVANCE ADVANCE=0.037 ; Set pressure advance
M117 PA 0.037
G1 X178.5517 Y149.72 E1.01546 F12000 ; Print pattern wall
G1 X157.3385 Y170.9332 E1.01546 F12000 ; Print pattern wall
G1 E-0.5 F2400 ; Retract
G0 X157.9142 Y128.5068 F12000 ; Move to start next pattern wall
G1 E0.5 F1800 ; Un-retract
G1 X179.1274 Y149.72 E1.01546 F12000 ; Print pattern wall
G1 X157.9142 Y170.9332 E1.01546 F12000 ; Print pattern wall
G1 E-0.5 F2400 ; Retract
G0 X158.4899 Y128.5068 F12000 ; Move to start next pattern wall
G1 E0.5 F1800 ; Un-retract
G1 X179.7031 Y149.72 E1.01546 F12000 ; Print pattern wall
G1 X158.4899 Y170.9332 E1.01546 F12000 ; Print pattern wall
G1 E-0.5 F2400 ; Retract
G0 X160.9399 Y128.5068 F12000 ; Move to next pattern
G1 E0.5 F1800 ; Un-retract
SET_PRESSURE_ADVANCE ADVANCE=0.038 ; Set pressure advance
M117 PA 0.038
G1 X182.1531 Y149.72 E1.01546 F12000 ; Print pattern wall
G1 X160.9399 Y170.9332 E1.01546 F12000 ; Print pattern wall
G1 E-0.5 F2400 ; Retract
G0 X161.5156 Y128.5068 F12000 ; Move to start next pattern wall
G1 E0.5 F1800 ; Un-retract
G1 X182.7288 Y149.72 E1.01546 F12000 ; Print pattern wall
G1 X161.5156 Y170.9332 E1.01546 F12000 ; Print pattern wall
G1 E-0.5 F2400 ; Retract
G0 X162.0913 Y128.5068 F12000 ; Move to start next pattern wall
G1 E0.5 F1800 ; Un-retract
G1 X183.3045 Y149.72 E1.01546 F12000 ; Print pattern wall
G1 X162.0913 Y170.9332 E1.01546 F12000 ; Print pattern wall
G1 E-0.5 F2400 ; Retract
G0 X164.5413 Y128.5068 F12000 ; Move to next pattern
G1 E0.5 F1800 ; Un-retract
SET_PRESSURE_ADVANCE ADVANCE=0.039 ; Set pressure advance
M117 PA 0.039
G1 X185.7545 Y149.72 E1.01546 F12000 ; Print pattern wall
G1 X164.5413 Y170.9332 E1.01546 F12000 ; Print pattern wall
G1 E-0.5 F2400 ; Retract
G0 X165.117 Y128.5068 F12000 ; Move to start next pattern wall
G1 E0.5 F1800 ; Un-retract
G1 X186.3302 Y149.72 E1.01546 F12000 ; Print pattern wall
G1 X165.117 Y170.9332 E1.01546 F12000 ; Print pattern wall
G1 E-0.5 F2400 ; Retract
G0 X165.6927 Y128.5068 F12000 ; Move to start next pattern wall
G1 E0.5 F1800 ; Un-retract
G1 X186.9059 Y149.72 E1.01546 F12000 ; Print pattern wall
G1 X165.6927 Y170.9332 E1.01546 F12000 ; Print pattern wall
G1 E-0.5 F2400 ; Retract
G0 X168.1427 Y128.5068 F12000 ; Move to next pattern
G1 E0.5 F1800 ; Un-retract
SET_PRESSURE_ADVANCE ADVANCE=0.04 ; Set pressure advance
M117 PA 0.04
G1 X189.3559 Y149.72 E1.01546 F12000 ; Print pattern wall
G1 X168.1427 Y170.9332 E1.01546 F12000 ; Print pattern wall
G1 E-0.5 F2400 ; Retract
G0 X168.7184 Y128.5068 F12000 ; Move to start next pattern wall
G1 E0.5 F1800 ; Un-retract
G1 X189.9316 Y149.72 E1.01546 F12000 ; Print pattern wall
G1 X168.7184 Y170.9332 E1.01546 F12000 ; Print pattern wall
G1 E-0.5 F2400 ; Retract
G0 X169.2941 Y128.5068 F12000 ; Move to start next pattern wall
G1 E0.5 F1800 ; Un-retract
G1 X190.5073 Y149.72 E1.01546 F12000 ; Print pattern wall
G1 X169.2941 Y170.9332 E1.01546 F12000 ; Print pattern wall
G1 E-0.5 F2400 ; Retract
G0 X132.1287 Y128.5068 F12000 ; Move back to start position
G1 E0.5 F1800 ; Un-retract
G0 Z0.6 F12000 ; Move to layer height
SET_PRESSURE_ADVANCE ADVANCE=0.03 ; Set pressure advance
M117 PA 0.03
G1 X153.3419 Y149.72 E1.01546 F12000 ; Print pattern wall
G1 X132.1287 Y170.9332 E1.01546 F12000 ; Print pattern wall
G1 E-0.5 F2400 ; Retract
G0 X132.7044 Y128.5068 F12000 ; Move to start next pattern wall
G1 E0.5 F1800 ; Un-retract
G1 X153.9176 Y149.72 E1.01546 F12000 ; Print pattern wall
G1 X132.7044 Y170.9332 E1.01546 F12000 ; Print pattern wall
G1 E-0.5 F2400 ; Retract
G0 X133.2801 Y128.5068 F12000 ; Move to start next pattern wall
G1 E0.5 F1800 ; Un-retract
G1 X154.4933 Y149.72 E1.01546 F12000 ; Print pattern wall
G1 X133.2801 Y170.9332 E1.01546 F12000 ; Print pattern wall
G1 E-0.5 F2400 ; Retract
G0 X135.7301 Y128.5068 F12000 ; Move to next pattern
G1 E0.5 F1800 ; Un-retract
SET_PRESSURE_ADVANCE ADVANCE=0.031 ; Set pressure advance
M117 PA 0.031
G1 X156.9433 Y149.72 E1.01546 F12000 ; Print pattern wall
G1 X135.7301 Y170.9332 E1.01546 F12000 ; Print pattern wall
G1 E-0.5 F2400 ; Retract
G0 X136.3058 Y128.5068 F12000 ; Move to start next pattern wall
G1 E0.5 F1800 ; Un-retract
G1 X157.519 Y149.72 E1.01546 F12000 ; Print pattern wall
G1 X136.3058 Y170.9332 E1.01546 F12000 ; Print pattern wall
G1 E-0.5 F2400 ; Retract
G0 X136.8815 Y128.5068 F12000 ; Move to start next pattern wall
G1 E0.5 F1800 ; Un-retract
G1 X158.0947 Y149.72 E1.01546 F12000 ; Print pattern wall
G1 X136.8815 Y170.9332 E1.01546 F12000 ; Print pattern wall
G1 E-0.5 F2400 ; Retract
G0 X139.3315 Y128.5068 F12000 ; Move to next pattern
G1 E0.5 F1800 ; Un-retract
SET_PRESSURE_ADVANCE ADVANCE=0.032 ; Set pressure advance
M117 PA 0.032
G1 X160.5447 Y149.72 E1.01546 F12000 ; Print pattern wall
G1 X139.3315 Y170.9332 E1.01546 F12000 ; Print pattern wall
G1 E-0.5 F2400 ; Retract
G0 X139.9072 Y128.5068 F12000 ; Move to start next pattern wall
G1 E0.5 F1800 ; Un-retract
G1 X161.1204 Y149.72 E1.01546 F12000 ; Print pattern wall
G1 X139.9072 Y170.9332 E1.01546 F12000 ; Print pattern wall
G1 E-0.5 F2400 ; Retract
G0 X140.4829 Y128.5068 F12000 ; Move to start next pattern wall
G1 E0.5 F1800 ; Un-retract
G1 X161.6961 Y149.72 E1.01546 F12000 ; Print pattern wall
G1 X140.4829 Y170.9332 E1.01546 F12000 ; Print pattern wall
G1 E-0.5 F2400 ; Retract
G0 X142.9329 Y128.5068 F12000 ; Move to next pattern
G1 E0.5 F1800 ; Un-retract
SET_PRESSURE_ADVANCE ADVANCE=0.033 ; Set pressure advance
M117 PA 0.033
G1 X164.1461 Y149.72 E1.01546 F12000 ; Print pattern wall
G1 X142.9329 Y170.9332 E1.01546 F12000 ; Print pattern wall
G1 E-0.5 F2400 ; Retract
G0 X143.5086 Y128.5068 F12000 ; Move to start next pattern wall
G1 E0.5 F1800 ; Un-retract
G1 X164.7218 Y149.72 E1.01546 F12000 ; Print pattern wall
G1 X143.5086 Y170.9332 E1.01546 F12000 ; Print pattern wall
G1 E-0.5 F2400 ; Retract
G0 X144.0843 Y128.5068 F12000 ; Move to start next pattern wall
G1 E0.5 F1800 ; Un-retract
G1 X165.2975 Y149.72 E1.01546 F12000 ; Print pattern wall
G1 X144.0843 Y170.9332 E1.01546 F12000 ; Print pattern wall
G1 E-0.5 F2400 ; Retract
G0 X146.5343 Y128.5068 F12000 ; Move to next pattern
G1 E0.5 F1800 ; Un-retract
SET_PRESSURE_ADVANCE ADVANCE=0.034 ; Set pressure advance
M117 PA 0.034
G1 X167.7475 Y149.72 E1.01546 F12000 ; Print pattern wall
G1 X146.5343 Y170.9332 E1.01546 F12000 ; Print pattern wall
G1 E-0.5 F2400 ; Retract
G0 X147.11 Y128.5068 F12000 ; Move to start next pattern wall
G1 E0.5 F1800 ; Un-retract
G1 X168.3232 Y149.72 E1.01546 F12000 ; Print pattern wall
G1 X147.11 Y170.9332 E1.01546 F12000 ; Print pattern wall
G1 E-0.5 F2400 ; Retract
G0 X147.6857 Y128.5068 F12000 ; Move to start next pattern wall
G1 E0.5 F1800 ; Un-retract
G1 X168.8989 Y149.72 E1.01546 F12000 ; Print pattern wall
G1 X147.6857 Y170.9332 E1.01546 F12000 ; Print pattern wall
G1 E-0.5 F2400 ; Retract
G0 X150.1357 Y128.5068 F12000 ; Move to next pattern
G1 E0.5 F1800 ; Un-retract
SET_PRESSURE_ADVANCE ADVANCE=0.035 ; Set pressure advance
M117 PA 0.035
G1 X171.3489 Y149.72 E1.01546 F12000 ; Print pattern wall
G1 X150.1357 Y170.9332 E1.01546 F12000 ; Print pattern wall
G1 E-0.5 F2400 ; Retract
G0 X150.7114 Y128.5068 F12000 ; Move to start next pattern wall
G1 E0.5 F1800 ; Un-retract
G1 X171.9246 Y149.72 E1.01546 F12000 ; Print pattern wall
G1 X150.7114 Y170.9332 E1.01546 F12000 ; Print pattern wall
G1 E-0.5 F2400 ; Retract
G0 X151.2871 Y128.5068 F12000 ; Move to start next pattern wall
G1 E0.5 F1800 ; Un-retract
G1 X172.5003 Y149.72 E1.01546 F12000 ; Print pattern wall
G1 X151.2871 Y170.9332 E1.01546 F12000 ; Print pattern wall
G1 E-0.5 F2400 ; Retract
G0 X153.7371 Y128.5068 F12000 ; Move to next pattern
G1 E0.5 F1800 ; Un-retract
SET_PRESSURE_ADVANCE ADVANCE=0.036 ; Set pressure advance
M117 PA 0.036
G1 X174.9503 Y149.72 E1.01546 F12000 ; Print pattern wall
G1 X153.7371 Y170.9332 E1.01546 F12000 ; Print pattern wall
G1 E-0.5 F2400 ; Retract
G0 X154.3128 Y128.5068 F12000 ; Move to start next pattern wall
G1 E0.5 F1800 ; Un-retract
G1 X175.526 Y149.72 E1.01546 F12000 ; Print pattern wall
G1 X154.3128 Y170.9332 E1.01546 F12000 ; Print pattern wall
G1 E-0.5 F2400 ; Retract
G0 X154.8885 Y128.5068 F12000 ; Move to start next pattern wall
G1 E0.5 F1800 ; Un-retract
G1 X176.1017 Y149.72 E1.01546 F12000 ; Print pattern wall
G1 X154.8885 Y170.9332 E1.01546 F12000 ; Print pattern wall
G1 E-0.5 F2400 ; Retract
G0 X157.3385 Y128.5068 F12000 ; Move to next pattern
G1 E0.5 F1800 ; Un-retract
SET_PRESSURE_ADVANCE ADVANCE=0.037 ; Set pressure advance
M117 PA 0.037
G1 X178.5517 Y149.72 E1.01546 F12000 ; Print pattern wall
G1 X157.3385 Y170.9332 E1.01546 F12000 ; Print pattern wall
G1 E-0.5 F2400 ; Retract
G0 X157.9142 Y128.5068 F12000 ; Move to start next pattern wall
G1 E0.5 F1800 ; Un-retract
G1 X179.1274 Y149.72 E1.01546 F12000 ; Print pattern wall
G1 X157.9142 Y170.9332 E1.01546 F12000 ; Print pattern wall
G1 E-0.5 F2400 ; Retract
G0 X158.4899 Y128.5068 F12000 ; Move to start next pattern wall
G1 E0.5 F1800 ; Un-retract
G1 X179.7031 Y149.72 E1.01546 F12000 ; Print pattern wall
G1 X158.4899 Y170.9332 E1.01546 F12000 ; Print pattern wall
G1 E-0.5 F2400 ; Retract
G0 X160.9399 Y128.5068 F12000 ; Move to next pattern
G1 E0.5 F1800 ; Un-retract
SET_PRESSURE_ADVANCE ADVANCE=0.038 ; Set pressure advance
M117 PA 0.038
G1 X182.1531 Y149.72 E1.01546 F12000 ; Print pattern wall
G1 X160.9399 Y170.9332 E1.01546 F12000 ; Print pattern wall
G1 E-0.5 F2400 ; Retract
G0 X161.5156 Y128.5068 F12000 ; Move to start next pattern wall
G1 E0.5 F1800 ; Un-retract
G1 X182.7288 Y149.72 E1.01546 F12000 ; Print pattern wall
G1 X161.5156 Y170.9332 E1.01546 F12000 ; Print pattern wall
G1 E-0.5 F2400 ; Retract
G0 X162.0913 Y128.5068 F12000 ; Move to start next pattern wall
G1 E0.5 F1800 ; Un-retract
G1 X183.3045 Y149.72 E1.01546 F12000 ; Print pattern wall
G1 X162.0913 Y170.9332 E1.01546 F12000 ; Print pattern wall
G1 E-0.5 F2400 ; Retract
G0 X164.5413 Y128.5068 F12000 ; Move to next pattern
G1 E0.5 F1800 ; Un-retract
SET_PRESSURE_ADVANCE ADVANCE=0.039 ; Set pressure advance
M117 PA 0.039
G1 X185.7545 Y149.72 E1.01546 F12000 ; Print pattern wall
G1 X164.5413 Y170.9332 E1.01546 F12000 ; Print pattern wall
G1 E-0.5 F2400 ; Retract
G0 X165.117 Y128.5068 F12000 ; Move to start next pattern wall
G1 E0.5 F1800 ; Un-retract
G1 X186.3302 Y149.72 E1.01546 F12000 ; Print pattern wall
G1 X165.117 Y170.9332 E1.01546 F12000 ; Print pattern wall
G1 E-0.5 F2400 ; Retract
G0 X165.6927 Y128.5068 F12000 ; Move to start next pattern wall
G1 E0.5 F1800 ; Un-retract
G1 X186.9059 Y149.72 E1.01546 F12000 ; Print pattern wall
G1 X165.6927 Y170.9332 E1.01546 F12000 ; Print pattern wall
G1 E-0.5 F2400 ; Retract
G0 X168.1427 Y128.5068 F12000 ; Move to next pattern
G1 E0.5 F1800 ; Un-retract
SET_PRESSURE_ADVANCE ADVANCE=0.04 ; Set pressure advance
M117 PA 0.04
G1 X189.3559 Y149.72 E1.01546 F12000 ; Print pattern wall
G1 X168.1427 Y170.9332 E1.01546 F12000 ; Print pattern wall
G1 E-0.5 F2400 ; Retract
G0 X168.7184 Y128.5068 F12000 ; Move to start next pattern wall
G1 E0.5 F1800 ; Un-retract
G1 X189.9316 Y149.72 E1.01546 F12000 ; Print pattern wall
G1 X168.7184 Y170.9332 E1.01546 F12000 ; Print pattern wall
G1 E-0.5 F2400 ; Retract
G0 X169.2941 Y128.5068 F12000 ; Move to start next pattern wall
G1 E0.5 F1800 ; Un-retract
G1 X190.5073 Y149.72 E1.01546 F12000 ; Print pattern wall
G1 X169.2941 Y170.9332 E1.01546 F12000 ; Print pattern wall
G1 E-0.5 F2400 ; Retract
G0 X132.1287 Y128.5068 F12000 ; Move back to start position
G1 E0.5 F1800 ; Un-retract
G0 Z0.8 F12000 ; Move to layer height
SET_PRESSURE_ADVANCE ADVANCE=0.03 ; Set pressure advance
M117 PA 0.03
G1 X153.3419 Y149.72 E1.01546 F12000 ; Print pattern wall
G1 X132.1287 Y170.9332 E1.01546 F12000 ; Print pattern wall
G1 E-0.5 F2400 ; Retract
G0 X132.7044 Y128.5068 F12000 ; Move to start next pattern wall
G1 E0.5 F1800 ; Un-retract
G1 X153.9176 Y149.72 E1.01546 F12000 ; Print pattern wall
G1 X132.7044 Y170.9332 E1.01546 F12000 ; Print pattern wall
G1 E-0.5 F2400 ; Retract
G0 X133.2801 Y128.5068 F12000 ; Move to start next pattern wall
G1 E0.5 F1800 ; Un-retract
G1 X154.4933 Y149.72 E1.01546 F12000 ; Print pattern wall
G1 X133.2801 Y170.9332 E1.01546 F12000 ; Print pattern wall
G1 E-0.5 F2400 ; Retract
G0 X135.7301 Y128.5068 F12000 ; Move to next pattern
G1 E0.5 F1800 ; Un-retract
SET_PRESSURE_ADVANCE ADVANCE=0.031 ; Set pressure advance
M117 PA 0.031
G1 X156.9433 Y149.72 E1.01546 F12000 ; Print pattern wall
G1 X135.7301 Y170.9332 E1.01546 F12000 ; Print pattern wall
G1 E-0.5 F2400 ; Retract
G0 X136.3058 Y128.5068 F12000 ; Move to start next pattern wall
G1 E0.5 F1800 ; Un-retract
G1 X157.519 Y149.72 E1.01546 F12000 ; Print pattern wall
G1 X136.3058 Y170.9332 E1.01546 F12000 ; Print pattern wall
G1 E-0.5 F2400 ; Retract
G0 X136.8815 Y128.5068 F12000 ; Move to start next pattern wall
G1 E0.5 F1800 ; Un-retract
G1 X158.0947 Y149.72 E1.01546 F12000 ; Print pattern wall
G1 X136.8815 Y170.9332 E1.01546 F12000 ; Print pattern wall
G1 E-0.5 F2400 ; Retract
G0 X139.3315 Y128.5068 F12000 ; Move to next pattern
G1 E0.5 F1800 ; Un-retract
SET_PRESSURE_ADVANCE ADVANCE=0.032 ; Set pressure advance
M117 PA 0.032
G1 X160.5447 Y149.72 E1.01546 F12000 ; Print pattern wall
G1 X139.3315 Y170.9332 E1.01546 F12000 ; Print pattern wall
G1 E-0.5 F2400 ; Retract
G0 X139.9072 Y128.5068 F12000 ; Move to start next pattern wall
G1 E0.5 F1800 ; Un-retract
G1 X161.1204 Y149.72 E1.01546 F12000 ; Print pattern wall
G1 X139.9072 Y170.9332 E1.01546 F12000 ; Print pattern wall
G1 E-0.5 F2400 ; Retract
G0 X140.4829 Y128.5068 F12000 ; Move to start next pattern wall
G1 E0.5 F1800 ; Un-retract
G1 X161.6961 Y149.72 E1.01546 F12000 ; Print pattern wall
G1 X140.4829 Y170.9332 E1.01546 F12000 ; Print pattern wall
G1 E-0.5 F2400 ; Retract
G0 X142.9329 Y128.5068 F12000 ; Move to next pattern
G1 E0.5 F1800 ; Un-retract
SET_PRESSURE_ADVANCE ADVANCE=0.033 ; Set pressure advance
M117 PA 0.033
G1 X164.1461 Y149.72 E1.01546 F12000 ; Print pattern wall
G1 X142.9329 Y170.9332 E1.01546 F12000 ; Print pattern wall
G1 E-0.5 F2400 ; Retract
G0 X143.5086 Y128.5068 F12000 ; Move to start next pattern wall
G1 E0.5 F1800 ; Un-retract
G1 X164.7218 Y149.72 E1.01546 F12000 ; Print pattern wall
G1 X143.5086 Y170.9332 E1.01546 F12000 ; Print pattern wall
G1 E-0.5 F2400 ; Retract
G0 X144.0843 Y128.5068 F12000 ; Move to start next pattern wall
G1 E0.5 F1800 ; Un-retract
G1 X165.2975 Y149.72 E1.01546 F12000 ; Print pattern wall
G1 X144.0843 Y170.9332 E1.01546 F12000 ; Print pattern wall
G1 E-0.5 F2400 ; Retract
G0 X146.5343 Y128.5068 F12000 ; Move to next pattern
G1 E0.5 F1800 ; Un-retract
SET_PRESSURE_ADVANCE ADVANCE=0.034 ; Set pressure advance
M117 PA 0.034
G1 X167.7475 Y149.72 E1.01546 F12000 ; Print pattern wall
G1 X146.5343 Y170.9332 E1.01546 F12000 ; Print pattern wall
G1 E-0.5 F2400 ; Retract
G0 X147.11 Y128.5068 F12000 ; Move to start next pattern wall
G1 E0.5 F1800 ; Un-retract
G1 X168.3232 Y149.72 E1.01546 F12000 ; Print pattern wall
G1 X147.11 Y170.9332 E1.01546 F12000 ; Print pattern wall
G1 E-0.5 F2400 ; Retract
G0 X147.6857 Y128.5068 F12000 ; Move to start next pattern wall
G1 E0.5 F1800 ; Un-retract
G1 X168.8989 Y149.72 E1.01546 F12000 ; Print pattern wall
G1 X147.6857 Y170.9332 E1.01546 F12000 ; Print pattern wall
G1 E-0.5 F2400 ; Retract
G0 X150.1357 Y128.5068 F12000 ; Move to next pattern
G1 E0.5 F1800 ; Un-retract
SET_PRESSURE_ADVANCE ADVANCE=0.035 ; Set pressure advance
M117 PA 0.035
G1 X171.3489 Y149.72 E1.01546 F12000 ; Print pattern wall
G1 X150.1357 Y170.9332 E1.01546 F12000 ; Print pattern wall
G1 E-0.5 F2400 ; Retract
G0 X150.7114 Y128.5068 F12000 ; Move to start next pattern wall
G1 E0.5 F1800 ; Un-retract
G1 X171.9246 Y149.72 E1.01546 F12000 ; Print pattern wall
G1 X150.7114 Y170.9332 E1.01546 F12000 ; Print pattern wall
G1 E-0.5 F2400 ; Retract
G0 X151.2871 Y128.5068 F12000 ; Move to start next pattern wall
G1 E0.5 F1800 ; Un-retract
G1 X172.5003 Y149.72 E1.01546 F12000 ; Print pattern wall
G1 X151.2871 Y170.9332 E1.01546 F12000 ; Print pattern wall
G1 E-0.5 F2400 ; Retract
G0 X153.7371 Y128.5068 F12000 ; Move to next pattern
G1 E0.5 F1800 ; Un-retract
SET_PRESSURE_ADVANCE ADVANCE=0.036 ; Set pressure advance
M117 PA 0.036
G1 X174.9503 Y149.72 E1.01546 F12000 ; Print pattern wall
G1 X153.7371 Y170.9332 E1.01546 F12000 ; Print pattern wall
G1 E-0.5 F2400 ; Retract
G0 X154.3128 Y128.5068 F12000 ; Move to start next pattern wall
G1 E0.5 F1800 ; Un-retract
G1 X175.526 Y149.72 E1.01546 F12000 ; Print pattern wall
G1 X154.3128 Y170.9332 E1.01546 F12000 ; Print pattern wall
G1 E-0.5 F2400 ; Retract
G0 X154.8885 Y128.5068 F12000 ; Move to start next pattern wall
G1 E0.5 F1800 ; Un-retract
G1 X176.1017 Y149.72 E1.01546 F12000 ; Print pattern wall
G1 X154.8885 Y170.9332 E1.01546 F12000 ; Print pattern wall
G1 E-0.5 F2400 ; Retract
G0 X157.3385 Y128.5068 F12000 ; Move to next pattern
G1 E0.5 F1800 ; Un-retract
SET_PRESSURE_ADVANCE ADVANCE=0.037 ; Set pressure advance
M117 PA 0.037
G1 X178.5517 Y149.72 E1.01546 F12000 ; Print pattern wall
G1 X157.3385 Y170.9332 E1.01546 F12000 ; Print pattern wall
G1 E-0.5 F2400 ; Retract
G0 X157.9142 Y128.5068 F12000 ; Move to start next pattern wall
G1 E0.5 F1800 ; Un-retract
G1 X179.1274 Y149.72 E1.01546 F12000 ; Print pattern wall
G1 X157.9142 Y170.9332 E1.01546 F12000 ; Print pattern wall
G1 E-0.5 F2400 ; Retract
G0 X158.4899 Y128.5068 F12000 ; Move to start next pattern wall
G1 E0.5 F1800 ; Un-retract
G1 X179.7031 Y149.72 E1.01546 F12000 ; Print pattern wall
G1 X158.4899 Y170.9332 E1.01546 F12000 ; Print pattern wall
G1 E-0.5 F2400 ; Retract
G0 X160.9399 Y128.5068 F12000 ; Move to next pattern
G1 E0.5 F1800 ; Un-retract
SET_PRESSURE_ADVANCE ADVANCE=0.038 ; Set pressure advance
M117 PA 0.038
G1 X182.1531 Y149.72 E1.01546 F12000 ; Print pattern wall
G1 X160.9399 Y170.9332 E1.01546 F12000 ; Print pattern wall
G1 E-0.5 F2400 ; Retract
G0 X161.5156 Y128.5068 F12000 ; Move to start next pattern wall
G1 E0.5 F1800 ; Un-retract
G1 X182.7288 Y149.72 E1.01546 F12000 ; Print pattern wall
G1 X161.5156 Y170.9332 E1.01546 F12000 ; Print pattern wall
G1 E-0.5 F2400 ; Retract
G0 X162.0913 Y128.5068 F12000 ; Move to start next pattern wall
G1 E0.5 F1800 ; Un-retract
G1 X183.3045 Y149.72 E1.01546 F12000 ; Print pattern wall
G1 X162.0913 Y170.9332 E1.01546 F12000 ; Print pattern wall
G1 E-0.5 F2400 ; Retract
G0 X164.5413 Y128.5068 F12000 ; Move to next pattern
G1 E0.5 F1800 ; Un-retract
SET_PRESSURE_ADVANCE ADVANCE=0.039 ; Set pressure advance
M117 PA 0.039
G1 X185.7545 Y149.72 E1.01546 F12000 ; Print pattern wall
G1 X164.5413 Y170.9332 E1.01546 F12000 ; Print pattern wall
G1 E-0.5 F2400 ; Retract
G0 X165.117 Y128.5068 F12000 ; Move to start next pattern wall
G1 E0.5 F1800 ; Un-retract
G1 X186.3302 Y149.72 E1.01546 F12000 ; Print pattern wall
G1 X165.117 Y170.9332 E1.01546 F12000 ; Print pattern wall
G1 E-0.5 F2400 ; Retract
G0 X165.6927 Y128.5068 F12000 ; Move to start next pattern wall
G1 E0.5 F1800 ; Un-retract
G1 X186.9059 Y149.72 E1.01546 F12000 ; Print pattern wall
G1 X165.6927 Y170.9332 E1.01546 F12000 ; Print pattern wall
G1 E-0.5 F2400 ; Retract
G0 X168.1427 Y128.5068 F12000 ; Move to next pattern
G1 E0.5 F1800 ; Un-retract
SET_PRESSURE_ADVANCE ADVANCE=0.04 ; Set pressure advance
M117 PA 0.04
G1 X189.3559 Y149.72 E1.01546 F12000 ; Print pattern wall
G1 X168.1427 Y170.9332 E1.01546 F12000 ; Print pattern wall
G1 E-0.5 F2400 ; Retract
G0 X168.7184 Y128.5068 F12000 ; Move to start next pattern wall
G1 E0.5 F1800 ; Un-retract
G1 X189.9316 Y149.72 E1.01546 F12000 ; Print pattern wall
G1 X168.7184 Y170.9332 E1.01546 F12000 ; Print pattern wall
G1 E-0.5 F2400 ; Retract
G0 X169.2941 Y128.5068 F12000 ; Move to start next pattern wall
G1 E0.5 F1800 ; Un-retract
G1 X190.5073 Y149.72 E1.01546 F12000 ; Print pattern wall
G1 X169.2941 Y170.9332 E1.01546 F12000 ; Print pattern wall
SET_PRESSURE_ADVANCE ADVANCE=0.03 ; Set pressure advance back to start value
M117 PA 0.03
G1 E-0.5 F2400 ; Retract
G0 Z5.8 F12000 ; Z raise
M104 S0 ; Turn off hotend
M140 S0 ; Turn off bed
M107    ; Turn off fan
;
; End G-code
;
END_PRINT
;
; FINISH
;
