
; ### Ellis' Pressure Advance / Linear Advance Calibration Tool ###
;
; Original Marlin linear advance calibration tool by Sineos [https://github.com/Sineos]
; Heavily modified/rewritten by Andrew Ellis [https://github.com/AndrewEllis93]
;
; -------------------------------------------
; Generated: Sat Sep 30 2023 23:37:45 GMT-0700 (Pacific Daylight Saving Time)
; -------------------------------------------
;
; Advanced Mode: false
;
; Printer:
;  - Firmware: klipper
;  - Bed Shape: Rect
;  - Bed Size X: 322 mm
;  - Bed Size Y: 314 mm
;  - Origin Bed Center: false
;  - Travel Speed: 200 mm/s
;  - Nozzle Diameter: 0.4 mm
;  - Filament Diameter: 1.75 mm
;  - Extrusion Multiplier: 1
;
; Retraction / Z Hop:
;  - Retraction Distance: 0.5 mm
;  - Retract Speed: 40 mm/s
;  - Unretract Speed: 30 mm/s
;  - Z Hop Enable: false
;
; First Layer Settings:
;  - First Layer Height: 0.2 mm
;  - First Layer Printing Speed: 30 mm/s
;  - First Layer Fan Speed: 0%
;  - Anchor Option: anchor_frame
;
; Print Settings:
;  - Layer Height: 0.2 mm
;  - Print Speed: 200 mm/s
;  - Acceleration: 22000 mm/s^2
;  - Fan Speed: 100%
;
; Pressure Advance Stepping:
;  - PA Start Value: 0.01
;  - PA End Value: 0.03
;  - PA Increment: 0.001
;
; Start / End G-code:
;  - Hotend Temp: 220C
;  - Bed Temp: 60C
;  - Don't Add G28: false
;  - Don't Add Heating G-Codes: false
;
; Calculated Values:
;  - Print Size X: 99.17 mm
;  - Print Size Y: 56.99 mm
;  - Number of Patterns to Print: 21
;  - PA Values: 0.01, 0.011, 0.012, 0.013, 0.014, 0.015, 0.016, 0.017, 0.018, 0.019, 0.02, 0.021, 0.022, 0.023, 0.024, 0.025, 0.026, 0.027, 0.028, 0.029, 0.03
;
; Prepare printing
;
G28 ; Home all axes
M190 S60 ; Set & wait for bed temp
M109 S220 ; Set & wait for hotend temp
START_PRINT T_BED=60 T_EXTRUDER=220
G21 ; Millimeter units
G90 ; Absolute XYZ
M83 ; Relative E
G92 E0 ; Reset extruder distance
;
;  Begin printing
;
M106 S0 ; Set fan speed
SET_VELOCITY_LIMIT ACCEL=22000 ; Set printing acceleration
G1 E-0.5 F2400 ; Retract
G0 Z5 F12000 ; Z raise
G0 X111.4174 Y128.5068 F12000 ; Move to start position
G0 Z0.2 F12000 ; Move to start layer height
G1 E0.5 F1800 ; Un-retract
SET_PRESSURE_ADVANCE ADVANCE=0.01 ; Set pressure advance to start value
M117 PA 0.01
G1 X111.4174 Y170.9332 E1.82414 F1800 ; Draw perimeter (up)
G1 X210.5826 Y170.9332 E4.26364 F1800 ; Draw perimeter (right)
G1 X210.5826 Y128.5068 E1.82414 F1800 ; Draw perimeter (down)
G1 X111.4174 Y128.5068 E4.26364 F1800 ; Draw perimeter (left)
G0 X111.9345 Y129.0239 F12000 ; Step inwards to print next perimeter
G1 X111.9345 Y170.4161 E1.77967 F1800 ; Draw perimeter (up)
G1 X210.0655 Y170.4161 E4.21917 F1800 ; Draw perimeter (right)
G1 X210.0655 Y129.0239 E1.77967 F1800 ; Draw perimeter (down)
G1 X111.9345 Y129.0239 E4.21917 F1800 ; Draw perimeter (left)
G0 X112.4516 Y129.541 F12000 ; Step inwards to print next perimeter
G1 X112.4516 Y169.899 E1.73521 F1800 ; Draw perimeter (up)
G1 X209.5484 Y169.899 E4.17471 F1800 ; Draw perimeter (right)
G1 X209.5484 Y129.541 E1.73521 F1800 ; Draw perimeter (down)
G1 X112.4516 Y129.541 E4.17471 F1800 ; Draw perimeter (left)
G0 X112.9687 Y130.058 F12000 ; Step inwards to print next perimeter
G1 X112.9687 Y169.382 E1.69075 F1800 ; Draw perimeter (up)
G1 X209.0313 Y169.382 E4.13025 F1800 ; Draw perimeter (right)
G1 X209.0313 Y130.058 E1.69075 F1800 ; Draw perimeter (down)
G1 X112.9687 Y130.058 E4.13025 F1800 ; Draw perimeter (left)
G1 E-0.5 F2400 ; Retract
G0 X111.4174 Y171.4503 F12000 ; Move to box start
G1 E0.5 F1800 ; Un-retract
G1 X111.4174 Y185.9674 E0.62417 F1800 ; Draw perimeter (up)
G1 X190.0775 Y185.9674 E3.38202 F1800 ; Draw perimeter (right)
G1 X190.0775 Y171.4503 E0.62417 F1800 ; Draw perimeter (down)
G1 X111.4174 Y171.4503 E3.38202 F1800 ; Draw perimeter (left)
G0 X111.9345 Y171.9674 F12000 ; Step inwards to print next perimeter
G1 X111.9345 Y185.4503 E0.5797 F1800 ; Draw perimeter (up)
G1 X189.5604 Y185.4503 E3.33755 F1800 ; Draw perimeter (right)
G1 X189.5604 Y171.9674 E0.5797 F1800 ; Draw perimeter (down)
G1 X111.9345 Y171.9674 E3.33755 F1800 ; Draw perimeter (left)
G0 X112.4516 Y172.4844 F12000 ; Step inwards to print next perimeter
G1 X112.4516 Y184.9332 E0.53524 F1800 ; Draw perimeter (up)
G1 X189.0433 Y184.9332 E3.29309 F1800 ; Draw perimeter (right)
G1 X189.0433 Y172.4844 E0.53524 F1800 ; Draw perimeter (down)
G1 X112.4516 Y172.4844 E3.29309 F1800 ; Draw perimeter (left)
G0 X112.9687 Y173.0015 F12000 ; Step inwards to print next perimeter
G1 X112.9687 Y184.4161 E0.49077 F1800 ; Draw perimeter (up)
G1 X188.5263 Y184.4161 E3.24862 F1800 ; Draw perimeter (right)
G1 X188.5263 Y173.0015 E0.49077 F1800 ; Draw perimeter (down)
G1 X112.9687 Y173.0015 E3.24862 F1800 ; Draw perimeter (left)
G0 X113.342 Y173.3749 F12000 ; Move to fill start
G0 X114.0733 Y173.3749 F12000 ; Move
G1 X113.342 Y174.1061 E0.04446 F1800 ; Fill
G0 X113.342 Y174.8374 F12000 ; Move
G1 X114.8045 Y173.3749 E0.08893 F1800 ; Fill
G0 X115.5358 Y173.3749 F12000 ; Move
G1 X113.342 Y175.5686 E0.13339 F1800 ; Fill
G0 X113.342 Y176.2999 F12000 ; Move
G1 X116.2671 Y173.3749 E0.17786 F1800 ; Fill
G0 X116.9983 Y173.3749 F12000 ; Move
G1 X113.342 Y177.0312 E0.22232 F1800 ; Fill
G0 X113.342 Y177.7624 F12000 ; Move
G1 X117.7296 Y173.3749 E0.26678 F1800 ; Fill
G0 X118.4608 Y173.3749 F12000 ; Move
G1 X113.342 Y178.4937 E0.31125 F1800 ; Fill
G0 X113.342 Y179.2249 F12000 ; Move
G1 X119.1921 Y173.3749 E0.35571 F1800 ; Fill
G0 X119.9234 Y173.3749 F12000 ; Move
G1 X113.342 Y179.9562 E0.40018 F1800 ; Fill
G0 X113.342 Y180.6875 F12000 ; Move
G1 X120.6546 Y173.3749 E0.44464 F1800 ; Fill
G0 X121.3859 Y173.3749 F12000 ; Move
G1 X113.342 Y181.4187 E0.4891 F1800 ; Fill
G0 X113.342 Y182.15 F12000 ; Move
G1 X122.1171 Y173.3749 E0.53357 F1800 ; Fill
G0 X122.8484 Y173.3749 F12000 ; Move
G1 X113.342 Y182.8813 E0.57803 F1800 ; Fill
G0 X113.342 Y183.6125 F12000 ; Move
G1 X123.5797 Y173.3749 E0.6225 F1800 ; Fill
G0 X124.3109 Y173.3749 F12000 ; Move
G1 X113.643 Y184.0428 E0.64866 F1800 ; Fill
G0 X114.3743 Y184.0428 F12000 ; Move
G1 X125.0422 Y173.3749 E0.64866 F1800 ; Fill
G0 X125.7734 Y173.3749 F12000 ; Move
G1 X115.1055 Y184.0428 E0.64866 F1800 ; Fill
G0 X115.8368 Y184.0428 F12000 ; Move
G1 X126.5047 Y173.3749 E0.64866 F1800 ; Fill
G0 X127.236 Y173.3749 F12000 ; Move
G1 X116.568 Y184.0428 E0.64866 F1800 ; Fill
G0 X117.2993 Y184.0428 F12000 ; Move
G1 X127.9672 Y173.3749 E0.64866 F1800 ; Fill
G0 X128.6985 Y173.3749 F12000 ; Move
G1 X118.0306 Y184.0428 E0.64866 F1800 ; Fill
G0 X118.7618 Y184.0428 F12000 ; Move
G1 X129.4298 Y173.3749 E0.64866 F1800 ; Fill
G0 X130.161 Y173.3749 F12000 ; Move
G1 X119.4931 Y184.0428 E0.64866 F1800 ; Fill
G0 X120.2243 Y184.0428 F12000 ; Move
G1 X130.8923 Y173.3749 E0.64866 F1800 ; Fill
G0 X131.6235 Y173.3749 F12000 ; Move
G1 X120.9556 Y184.0428 E0.64866 F1800 ; Fill
G0 X121.6869 Y184.0428 F12000 ; Move
G1 X132.3548 Y173.3749 E0.64866 F1800 ; Fill
G0 X133.0861 Y173.3749 F12000 ; Move
G1 X122.4181 Y184.0428 E0.64866 F1800 ; Fill
G0 X123.1494 Y184.0428 F12000 ; Move
G1 X133.8173 Y173.3749 E0.64866 F1800 ; Fill
G0 X134.5486 Y173.3749 F12000 ; Move
G1 X123.8806 Y184.0428 E0.64866 F1800 ; Fill
G0 X124.6119 Y184.0428 F12000 ; Move
G1 X135.2798 Y173.3749 E0.64866 F1800 ; Fill
G0 X136.0111 Y173.3749 F12000 ; Move
G1 X125.3432 Y184.0428 E0.64866 F1800 ; Fill
G0 X126.0744 Y184.0428 F12000 ; Move
G1 X136.7424 Y173.3749 E0.64866 F1800 ; Fill
G0 X137.4736 Y173.3749 F12000 ; Move
G1 X126.8057 Y184.0428 E0.64866 F1800 ; Fill
G0 X127.537 Y184.0428 F12000 ; Move
G1 X138.2049 Y173.3749 E0.64866 F1800 ; Fill
G0 X138.9361 Y173.3749 F12000 ; Move
G1 X128.2682 Y184.0428 E0.64866 F1800 ; Fill
G0 X128.9995 Y184.0428 F12000 ; Move
G1 X139.6674 Y173.3749 E0.64866 F1800 ; Fill
G0 X140.3987 Y173.3749 F12000 ; Move
G1 X129.7307 Y184.0428 E0.64866 F1800 ; Fill
G0 X130.462 Y184.0428 F12000 ; Move
G1 X141.1299 Y173.3749 E0.64866 F1800 ; Fill
G0 X141.8612 Y173.3749 F12000 ; Move
G1 X131.1933 Y184.0428 E0.64866 F1800 ; Fill
G0 X131.9245 Y184.0428 F12000 ; Move
G1 X142.5925 Y173.3749 E0.64866 F1800 ; Fill
G0 X143.3237 Y173.3749 F12000 ; Move
G1 X132.6558 Y184.0428 E0.64866 F1800 ; Fill
G0 X133.387 Y184.0428 F12000 ; Move
G1 X144.055 Y173.3749 E0.64866 F1800 ; Fill
G0 X144.7862 Y173.3749 F12000 ; Move
G1 X134.1183 Y184.0428 E0.64866 F1800 ; Fill
G0 X134.8496 Y184.0428 F12000 ; Move
G1 X145.5175 Y173.3749 E0.64866 F1800 ; Fill
G0 X146.2488 Y173.3749 F12000 ; Move
G1 X135.5808 Y184.0428 E0.64866 F1800 ; Fill
G0 X136.3121 Y184.0428 F12000 ; Move
G1 X146.98 Y173.3749 E0.64866 F1800 ; Fill
G0 X147.7113 Y173.3749 F12000 ; Move
G1 X137.0433 Y184.0428 E0.64866 F1800 ; Fill
G0 X137.7746 Y184.0428 F12000 ; Move
G1 X148.4425 Y173.3749 E0.64866 F1800 ; Fill
G0 X149.1738 Y173.3749 F12000 ; Move
G1 X138.5059 Y184.0428 E0.64866 F1800 ; Fill
G0 X139.2371 Y184.0428 F12000 ; Move
G1 X149.9051 Y173.3749 E0.64866 F1800 ; Fill
G0 X150.6363 Y173.3749 F12000 ; Move
G1 X139.9684 Y184.0428 E0.64866 F1800 ; Fill
G0 X140.6997 Y184.0428 F12000 ; Move
G1 X151.3676 Y173.3749 E0.64866 F1800 ; Fill
G0 X152.0988 Y173.3749 F12000 ; Move
G1 X141.4309 Y184.0428 E0.64866 F1800 ; Fill
G0 X142.1622 Y184.0428 F12000 ; Move
G1 X152.8301 Y173.3749 E0.64866 F1800 ; Fill
G0 X153.5614 Y173.3749 F12000 ; Move
G1 X142.8934 Y184.0428 E0.64866 F1800 ; Fill
G0 X143.6247 Y184.0428 F12000 ; Move
G1 X154.2926 Y173.3749 E0.64866 F1800 ; Fill
G0 X155.0239 Y173.3749 F12000 ; Move
G1 X144.356 Y184.0428 E0.64866 F1800 ; Fill
G0 X145.0872 Y184.0428 F12000 ; Move
G1 X155.7552 Y173.3749 E0.64866 F1800 ; Fill
G0 X156.4864 Y173.3749 F12000 ; Move
G1 X145.8185 Y184.0428 E0.64866 F1800 ; Fill
G0 X146.5497 Y184.0428 F12000 ; Move
G1 X157.2177 Y173.3749 E0.64866 F1800 ; Fill
G0 X157.9489 Y173.3749 F12000 ; Move
G1 X147.281 Y184.0428 E0.64866 F1800 ; Fill
G0 X148.0123 Y184.0428 F12000 ; Move
G1 X158.6802 Y173.3749 E0.64866 F1800 ; Fill
G0 X159.4115 Y173.3749 F12000 ; Move
G1 X148.7435 Y184.0428 E0.64866 F1800 ; Fill
G0 X149.4748 Y184.0428 F12000 ; Move
G1 X160.1427 Y173.3749 E0.64866 F1800 ; Fill
G0 X160.874 Y173.3749 F12000 ; Move
G1 X150.206 Y184.0428 E0.64866 F1800 ; Fill
G0 X150.9373 Y184.0428 F12000 ; Move
G1 X161.6052 Y173.3749 E0.64866 F1800 ; Fill
G0 X162.3365 Y173.3749 F12000 ; Move
G1 X151.6686 Y184.0428 E0.64866 F1800 ; Fill
G0 X152.3998 Y184.0428 F12000 ; Move
G1 X163.0678 Y173.3749 E0.64866 F1800 ; Fill
G0 X163.799 Y173.3749 F12000 ; Move
G1 X153.1311 Y184.0428 E0.64866 F1800 ; Fill
G0 X153.8623 Y184.0428 F12000 ; Move
G1 X164.5303 Y173.3749 E0.64866 F1800 ; Fill
G0 X165.2615 Y173.3749 F12000 ; Move
G1 X154.5936 Y184.0428 E0.64866 F1800 ; Fill
G0 X155.3249 Y184.0428 F12000 ; Move
G1 X165.9928 Y173.3749 E0.64866 F1800 ; Fill
G0 X166.7241 Y173.3749 F12000 ; Move
G1 X156.0561 Y184.0428 E0.64866 F1800 ; Fill
G0 X156.7874 Y184.0428 F12000 ; Move
G1 X167.4553 Y173.3749 E0.64866 F1800 ; Fill
G0 X168.1866 Y173.3749 F12000 ; Move
G1 X157.5187 Y184.0428 E0.64866 F1800 ; Fill
G0 X158.2499 Y184.0428 F12000 ; Move
G1 X168.9178 Y173.3749 E0.64866 F1800 ; Fill
G0 X169.6491 Y173.3749 F12000 ; Move
G1 X158.9812 Y184.0428 E0.64866 F1800 ; Fill
G0 X159.7124 Y184.0428 F12000 ; Move
G1 X170.3804 Y173.3749 E0.64866 F1800 ; Fill
G0 X171.1116 Y173.3749 F12000 ; Move
G1 X160.4437 Y184.0428 E0.64866 F1800 ; Fill
G0 X161.175 Y184.0428 F12000 ; Move
G1 X171.8429 Y173.3749 E0.64866 F1800 ; Fill
G0 X172.5742 Y173.3749 F12000 ; Move
G1 X161.9062 Y184.0428 E0.64866 F1800 ; Fill
G0 X162.6375 Y184.0428 F12000 ; Move
G1 X173.3054 Y173.3749 E0.64866 F1800 ; Fill
G0 X174.0367 Y173.3749 F12000 ; Move
G1 X163.3687 Y184.0428 E0.64866 F1800 ; Fill
G0 X164.1 Y184.0428 F12000 ; Move
G1 X174.7679 Y173.3749 E0.64866 F1800 ; Fill
G0 X175.4992 Y173.3749 F12000 ; Move
G1 X164.8313 Y184.0428 E0.64866 F1800 ; Fill
G0 X165.5625 Y184.0428 F12000 ; Move
G1 X176.2305 Y173.3749 E0.64866 F1800 ; Fill
G0 X176.9617 Y173.3749 F12000 ; Move
G1 X166.2938 Y184.0428 E0.64866 F1800 ; Fill
G0 X167.025 Y184.0428 F12000 ; Move
G1 X177.693 Y173.3749 E0.64866 F1800 ; Fill
G0 X178.4242 Y173.3749 F12000 ; Move
G1 X167.7563 Y184.0428 E0.64866 F1800 ; Fill
G0 X168.4876 Y184.0428 F12000 ; Move
G1 X179.1555 Y173.3749 E0.64866 F1800 ; Fill
G0 X179.8868 Y173.3749 F12000 ; Move
G1 X169.2188 Y184.0428 E0.64866 F1800 ; Fill
G0 X169.9501 Y184.0428 F12000 ; Move
G1 X180.618 Y173.3749 E0.64866 F1800 ; Fill
G0 X181.3493 Y173.3749 F12000 ; Move
G1 X170.6814 Y184.0428 E0.64866 F1800 ; Fill
G0 X171.4126 Y184.0428 F12000 ; Move
G1 X182.0805 Y173.3749 E0.64866 F1800 ; Fill
G0 X182.8118 Y173.3749 F12000 ; Move
G1 X172.1439 Y184.0428 E0.64866 F1800 ; Fill
G0 X172.8751 Y184.0428 F12000 ; Move
G1 X183.5431 Y173.3749 E0.64866 F1800 ; Fill
G0 X184.2743 Y173.3749 F12000 ; Move
G1 X173.6064 Y184.0428 E0.64866 F1800 ; Fill
G0 X174.3377 Y184.0428 F12000 ; Move
G1 X185.0056 Y173.3749 E0.64866 F1800 ; Fill
G0 X185.7369 Y173.3749 F12000 ; Move
G1 X175.0689 Y184.0428 E0.64866 F1800 ; Fill
G0 X175.8002 Y184.0428 F12000 ; Move
G1 X186.4681 Y173.3749 E0.64866 F1800 ; Fill
G0 X187.1994 Y173.3749 F12000 ; Move
G1 X176.5314 Y184.0428 E0.64866 F1800 ; Fill
G0 X177.2627 Y184.0428 F12000 ; Move
G1 X187.9306 Y173.3749 E0.64866 F1800 ; Fill
G0 X188.1529 Y173.8838 F12000 ; Move
G1 X177.994 Y184.0428 E0.61771 F1800 ; Fill
G0 X178.7252 Y184.0428 F12000 ; Move
G1 X188.1529 Y174.6151 E0.57325 F1800 ; Fill
G0 X188.1529 Y175.3464 F12000 ; Move
G1 X179.4565 Y184.0428 E0.52878 F1800 ; Fill
G0 X180.1877 Y184.0428 F12000 ; Move
G1 X188.1529 Y176.0776 E0.48432 F1800 ; Fill
G0 X188.1529 Y176.8089 F12000 ; Move
G1 X180.919 Y184.0428 E0.43986 F1800 ; Fill
G0 X181.6503 Y184.0428 F12000 ; Move
G1 X188.1529 Y177.5401 E0.39539 F1800 ; Fill
G0 X188.1529 Y178.2714 F12000 ; Move
G1 X182.3815 Y184.0428 E0.35093 F1800 ; Fill
G0 X183.1128 Y184.0428 F12000 ; Move
G1 X188.1529 Y179.0027 E0.30646 F1800 ; Fill
G0 X188.1529 Y179.7339 F12000 ; Move
G1 X183.8441 Y184.0428 E0.262 F1800 ; Fill
G0 X184.5753 Y184.0428 F12000 ; Move
G1 X188.1529 Y180.4652 E0.21754 F1800 ; Fill
G0 X188.1529 Y181.1964 F12000 ; Move
G1 X185.3066 Y184.0428 E0.17307 F1800 ; Fill
G0 X186.0378 Y184.0428 F12000 ; Move
G1 X188.1529 Y181.9277 E0.12861 F1800 ; Fill
G0 X188.1529 Y182.659 F12000 ; Move
G1 X186.7691 Y184.0428 E0.08414 F1800 ; Fill
G0 X187.5004 Y184.0428 F12000 ; Move
G1 X188.1529 Y183.3902 E0.03968 F1800 ; Fill
G0 Z0.2 F12000 ; Move to layer height
G1 E-0.5 F2400 ; Retract
G0 X116.0463 Y130.4314 F12000 ; Move to pattern start

G1 E0.5 F1800 ; Un-retract
SET_PRESSURE_ADVANCE ADVANCE=0.01 ; Set pressure advance
M117 PA 0.01
G1 X135.3349 Y149.72 E0.92334 F1800 ; Print pattern wall
G1 X116.0463 Y169.0086 E0.92334 F1800 ; Print pattern wall
G1 E-0.5 F2400 ; Retract
G0 X116.622 Y130.4314 F12000 ; Move to start next pattern wall
G1 E0.5 F1800 ; Un-retract
G1 X135.9106 Y149.72 E0.92334 F1800 ; Print pattern wall
G1 X116.622 Y169.0086 E0.92334 F1800 ; Print pattern wall
G1 E-0.5 F2400 ; Retract
G0 X117.1977 Y130.4314 F12000 ; Move to start next pattern wall
G1 E0.5 F1800 ; Un-retract
G1 X136.4863 Y149.72 E0.92334 F1800 ; Print pattern wall
G1 X117.1977 Y169.0086 E0.92334 F1800 ; Print pattern wall
G1 E-0.5 F2400 ; Retract
G0 X119.6477 Y130.4314 F12000 ; Move to next pattern
G1 E0.5 F1800 ; Un-retract
SET_PRESSURE_ADVANCE ADVANCE=0.011 ; Set pressure advance
M117 PA 0.011
G1 X138.9363 Y149.72 E0.92334 F1800 ; Print pattern wall
G1 X119.6477 Y169.0086 E0.92334 F1800 ; Print pattern wall
G1 E-0.5 F2400 ; Retract
G0 X120.2234 Y130.4314 F12000 ; Move to start next pattern wall
G1 E0.5 F1800 ; Un-retract
G1 X139.512 Y149.72 E0.92334 F1800 ; Print pattern wall
G1 X120.2234 Y169.0086 E0.92334 F1800 ; Print pattern wall
G1 E-0.5 F2400 ; Retract
G0 X120.7991 Y130.4314 F12000 ; Move to start next pattern wall
G1 E0.5 F1800 ; Un-retract
G1 X140.0877 Y149.72 E0.92334 F1800 ; Print pattern wall
G1 X120.7991 Y169.0086 E0.92334 F1800 ; Print pattern wall
G1 E-0.5 F2400 ; Retract
G0 X123.2491 Y130.4314 F12000 ; Move to next pattern
G1 E0.5 F1800 ; Un-retract
SET_PRESSURE_ADVANCE ADVANCE=0.012 ; Set pressure advance
M117 PA 0.012
G1 X142.5377 Y149.72 E0.92334 F1800 ; Print pattern wall
G1 X123.2491 Y169.0086 E0.92334 F1800 ; Print pattern wall
G1 E-0.5 F2400 ; Retract
G0 X123.8248 Y130.4314 F12000 ; Move to start next pattern wall
G1 E0.5 F1800 ; Un-retract
G1 X143.1134 Y149.72 E0.92334 F1800 ; Print pattern wall
G1 X123.8248 Y169.0086 E0.92334 F1800 ; Print pattern wall
G1 E-0.5 F2400 ; Retract
G0 X124.4005 Y130.4314 F12000 ; Move to start next pattern wall
G1 E0.5 F1800 ; Un-retract
G1 X143.6891 Y149.72 E0.92334 F1800 ; Print pattern wall
G1 X124.4005 Y169.0086 E0.92334 F1800 ; Print pattern wall
G1 E-0.5 F2400 ; Retract
G0 X126.8505 Y130.4314 F12000 ; Move to next pattern
G1 E0.5 F1800 ; Un-retract
SET_PRESSURE_ADVANCE ADVANCE=0.013 ; Set pressure advance
M117 PA 0.013
G1 X146.1391 Y149.72 E0.92334 F1800 ; Print pattern wall
G1 X126.8505 Y169.0086 E0.92334 F1800 ; Print pattern wall
G1 E-0.5 F2400 ; Retract
G0 X127.4262 Y130.4314 F12000 ; Move to start next pattern wall
G1 E0.5 F1800 ; Un-retract
G1 X146.7148 Y149.72 E0.92334 F1800 ; Print pattern wall
G1 X127.4262 Y169.0086 E0.92334 F1800 ; Print pattern wall
G1 E-0.5 F2400 ; Retract
G0 X128.0019 Y130.4314 F12000 ; Move to start next pattern wall
G1 E0.5 F1800 ; Un-retract
G1 X147.2905 Y149.72 E0.92334 F1800 ; Print pattern wall
G1 X128.0019 Y169.0086 E0.92334 F1800 ; Print pattern wall
G1 E-0.5 F2400 ; Retract
G0 X130.4519 Y130.4314 F12000 ; Move to next pattern
G1 E0.5 F1800 ; Un-retract
SET_PRESSURE_ADVANCE ADVANCE=0.014 ; Set pressure advance
M117 PA 0.014
G1 X149.7405 Y149.72 E0.92334 F1800 ; Print pattern wall
G1 X130.4519 Y169.0086 E0.92334 F1800 ; Print pattern wall
G1 E-0.5 F2400 ; Retract
G0 X131.0276 Y130.4314 F12000 ; Move to start next pattern wall
G1 E0.5 F1800 ; Un-retract
G1 X150.3162 Y149.72 E0.92334 F1800 ; Print pattern wall
G1 X131.0276 Y169.0086 E0.92334 F1800 ; Print pattern wall
G1 E-0.5 F2400 ; Retract
G0 X131.6033 Y130.4314 F12000 ; Move to start next pattern wall
G1 E0.5 F1800 ; Un-retract
G1 X150.8919 Y149.72 E0.92334 F1800 ; Print pattern wall
G1 X131.6033 Y169.0086 E0.92334 F1800 ; Print pattern wall
G1 E-0.5 F2400 ; Retract
G0 X134.0533 Y130.4314 F12000 ; Move to next pattern
G1 E0.5 F1800 ; Un-retract
SET_PRESSURE_ADVANCE ADVANCE=0.015 ; Set pressure advance
M117 PA 0.015
G1 X153.3419 Y149.72 E0.92334 F1800 ; Print pattern wall
G1 X134.0533 Y169.0086 E0.92334 F1800 ; Print pattern wall
G1 E-0.5 F2400 ; Retract
G0 X134.629 Y130.4314 F12000 ; Move to start next pattern wall
G1 E0.5 F1800 ; Un-retract
G1 X153.9176 Y149.72 E0.92334 F1800 ; Print pattern wall
G1 X134.629 Y169.0086 E0.92334 F1800 ; Print pattern wall
G1 E-0.5 F2400 ; Retract
G0 X135.2047 Y130.4314 F12000 ; Move to start next pattern wall
G1 E0.5 F1800 ; Un-retract
G1 X154.4933 Y149.72 E0.92334 F1800 ; Print pattern wall
G1 X135.2047 Y169.0086 E0.92334 F1800 ; Print pattern wall
G1 E-0.5 F2400 ; Retract
G0 X137.6547 Y130.4314 F12000 ; Move to next pattern
G1 E0.5 F1800 ; Un-retract
SET_PRESSURE_ADVANCE ADVANCE=0.016 ; Set pressure advance
M117 PA 0.016
G1 X156.9433 Y149.72 E0.92334 F1800 ; Print pattern wall
G1 X137.6547 Y169.0086 E0.92334 F1800 ; Print pattern wall
G1 E-0.5 F2400 ; Retract
G0 X138.2304 Y130.4314 F12000 ; Move to start next pattern wall
G1 E0.5 F1800 ; Un-retract
G1 X157.519 Y149.72 E0.92334 F1800 ; Print pattern wall
G1 X138.2304 Y169.0086 E0.92334 F1800 ; Print pattern wall
G1 E-0.5 F2400 ; Retract
G0 X138.8061 Y130.4314 F12000 ; Move to start next pattern wall
G1 E0.5 F1800 ; Un-retract
G1 X158.0947 Y149.72 E0.92334 F1800 ; Print pattern wall
G1 X138.8061 Y169.0086 E0.92334 F1800 ; Print pattern wall
G1 E-0.5 F2400 ; Retract
G0 X141.2561 Y130.4314 F12000 ; Move to next pattern
G1 E0.5 F1800 ; Un-retract
SET_PRESSURE_ADVANCE ADVANCE=0.017 ; Set pressure advance
M117 PA 0.017
G1 X160.5447 Y149.72 E0.92334 F1800 ; Print pattern wall
G1 X141.2561 Y169.0086 E0.92334 F1800 ; Print pattern wall
G1 E-0.5 F2400 ; Retract
G0 X141.8318 Y130.4314 F12000 ; Move to start next pattern wall
G1 E0.5 F1800 ; Un-retract
G1 X161.1204 Y149.72 E0.92334 F1800 ; Print pattern wall
G1 X141.8318 Y169.0086 E0.92334 F1800 ; Print pattern wall
G1 E-0.5 F2400 ; Retract
G0 X142.4075 Y130.4314 F12000 ; Move to start next pattern wall
G1 E0.5 F1800 ; Un-retract
G1 X161.6961 Y149.72 E0.92334 F1800 ; Print pattern wall
G1 X142.4075 Y169.0086 E0.92334 F1800 ; Print pattern wall
G1 E-0.5 F2400 ; Retract
G0 X144.8575 Y130.4314 F12000 ; Move to next pattern
G1 E0.5 F1800 ; Un-retract
SET_PRESSURE_ADVANCE ADVANCE=0.018 ; Set pressure advance
M117 PA 0.018
G1 X164.1461 Y149.72 E0.92334 F1800 ; Print pattern wall
G1 X144.8575 Y169.0086 E0.92334 F1800 ; Print pattern wall
G1 E-0.5 F2400 ; Retract
G0 X145.4332 Y130.4314 F12000 ; Move to start next pattern wall
G1 E0.5 F1800 ; Un-retract
G1 X164.7218 Y149.72 E0.92334 F1800 ; Print pattern wall
G1 X145.4332 Y169.0086 E0.92334 F1800 ; Print pattern wall
G1 E-0.5 F2400 ; Retract
G0 X146.0089 Y130.4314 F12000 ; Move to start next pattern wall
G1 E0.5 F1800 ; Un-retract
G1 X165.2975 Y149.72 E0.92334 F1800 ; Print pattern wall
G1 X146.0089 Y169.0086 E0.92334 F1800 ; Print pattern wall
G1 E-0.5 F2400 ; Retract
G0 X148.4589 Y130.4314 F12000 ; Move to next pattern
G1 E0.5 F1800 ; Un-retract
SET_PRESSURE_ADVANCE ADVANCE=0.019 ; Set pressure advance
M117 PA 0.019
G1 X167.7475 Y149.72 E0.92334 F1800 ; Print pattern wall
G1 X148.4589 Y169.0086 E0.92334 F1800 ; Print pattern wall
G1 E-0.5 F2400 ; Retract
G0 X149.0346 Y130.4314 F12000 ; Move to start next pattern wall
G1 E0.5 F1800 ; Un-retract
G1 X168.3232 Y149.72 E0.92334 F1800 ; Print pattern wall
G1 X149.0346 Y169.0086 E0.92334 F1800 ; Print pattern wall
G1 E-0.5 F2400 ; Retract
G0 X149.6103 Y130.4314 F12000 ; Move to start next pattern wall
G1 E0.5 F1800 ; Un-retract
G1 X168.8989 Y149.72 E0.92334 F1800 ; Print pattern wall
G1 X149.6103 Y169.0086 E0.92334 F1800 ; Print pattern wall
G1 E-0.5 F2400 ; Retract
G0 X152.0603 Y130.4314 F12000 ; Move to next pattern
G1 E0.5 F1800 ; Un-retract
SET_PRESSURE_ADVANCE ADVANCE=0.02 ; Set pressure advance
M117 PA 0.02
G1 X171.3489 Y149.72 E0.92334 F1800 ; Print pattern wall
G1 X152.0603 Y169.0086 E0.92334 F1800 ; Print pattern wall
G1 E-0.5 F2400 ; Retract
G0 X152.636 Y130.4314 F12000 ; Move to start next pattern wall
G1 E0.5 F1800 ; Un-retract
G1 X171.9246 Y149.72 E0.92334 F1800 ; Print pattern wall
G1 X152.636 Y169.0086 E0.92334 F1800 ; Print pattern wall
G1 E-0.5 F2400 ; Retract
G0 X153.2117 Y130.4314 F12000 ; Move to start next pattern wall
G1 E0.5 F1800 ; Un-retract
G1 X172.5003 Y149.72 E0.92334 F1800 ; Print pattern wall
G1 X153.2117 Y169.0086 E0.92334 F1800 ; Print pattern wall
G1 E-0.5 F2400 ; Retract
G0 X155.6617 Y130.4314 F12000 ; Move to next pattern
G1 E0.5 F1800 ; Un-retract
SET_PRESSURE_ADVANCE ADVANCE=0.021 ; Set pressure advance
M117 PA 0.021
G1 X174.9503 Y149.72 E0.92334 F1800 ; Print pattern wall
G1 X155.6617 Y169.0086 E0.92334 F1800 ; Print pattern wall
G1 E-0.5 F2400 ; Retract
G0 X156.2374 Y130.4314 F12000 ; Move to start next pattern wall
G1 E0.5 F1800 ; Un-retract
G1 X175.526 Y149.72 E0.92334 F1800 ; Print pattern wall
G1 X156.2374 Y169.0086 E0.92334 F1800 ; Print pattern wall
G1 E-0.5 F2400 ; Retract
G0 X156.8131 Y130.4314 F12000 ; Move to start next pattern wall
G1 E0.5 F1800 ; Un-retract
G1 X176.1017 Y149.72 E0.92334 F1800 ; Print pattern wall
G1 X156.8131 Y169.0086 E0.92334 F1800 ; Print pattern wall
G1 E-0.5 F2400 ; Retract
G0 X159.2631 Y130.4314 F12000 ; Move to next pattern
G1 E0.5 F1800 ; Un-retract
SET_PRESSURE_ADVANCE ADVANCE=0.022 ; Set pressure advance
M117 PA 0.022
G1 X178.5517 Y149.72 E0.92334 F1800 ; Print pattern wall
G1 X159.2631 Y169.0086 E0.92334 F1800 ; Print pattern wall
G1 E-0.5 F2400 ; Retract
G0 X159.8388 Y130.4314 F12000 ; Move to start next pattern wall
G1 E0.5 F1800 ; Un-retract
G1 X179.1274 Y149.72 E0.92334 F1800 ; Print pattern wall
G1 X159.8388 Y169.0086 E0.92334 F1800 ; Print pattern wall
G1 E-0.5 F2400 ; Retract
G0 X160.4145 Y130.4314 F12000 ; Move to start next pattern wall
G1 E0.5 F1800 ; Un-retract
G1 X179.7031 Y149.72 E0.92334 F1800 ; Print pattern wall
G1 X160.4145 Y169.0086 E0.92334 F1800 ; Print pattern wall
G1 E-0.5 F2400 ; Retract
G0 X162.8645 Y130.4314 F12000 ; Move to next pattern
G1 E0.5 F1800 ; Un-retract
SET_PRESSURE_ADVANCE ADVANCE=0.023 ; Set pressure advance
M117 PA 0.023
G1 X182.1531 Y149.72 E0.92334 F1800 ; Print pattern wall
G1 X162.8645 Y169.0086 E0.92334 F1800 ; Print pattern wall
G1 E-0.5 F2400 ; Retract
G0 X163.4401 Y130.4314 F12000 ; Move to start next pattern wall
G1 E0.5 F1800 ; Un-retract
G1 X182.7288 Y149.72 E0.92334 F1800 ; Print pattern wall
G1 X163.4401 Y169.0086 E0.92334 F1800 ; Print pattern wall
G1 E-0.5 F2400 ; Retract
G0 X164.0158 Y130.4314 F12000 ; Move to start next pattern wall
G1 E0.5 F1800 ; Un-retract
G1 X183.3045 Y149.72 E0.92334 F1800 ; Print pattern wall
G1 X164.0158 Y169.0086 E0.92334 F1800 ; Print pattern wall
G1 E-0.5 F2400 ; Retract
G0 X166.4658 Y130.4314 F12000 ; Move to next pattern
G1 E0.5 F1800 ; Un-retract
SET_PRESSURE_ADVANCE ADVANCE=0.024 ; Set pressure advance
M117 PA 0.024
G1 X185.7545 Y149.72 E0.92334 F1800 ; Print pattern wall
G1 X166.4658 Y169.0086 E0.92334 F1800 ; Print pattern wall
G1 E-0.5 F2400 ; Retract
G0 X167.0415 Y130.4314 F12000 ; Move to start next pattern wall
G1 E0.5 F1800 ; Un-retract
G1 X186.3302 Y149.72 E0.92334 F1800 ; Print pattern wall
G1 X167.0415 Y169.0086 E0.92334 F1800 ; Print pattern wall
G1 E-0.5 F2400 ; Retract
G0 X167.6172 Y130.4314 F12000 ; Move to start next pattern wall
G1 E0.5 F1800 ; Un-retract
G1 X186.9059 Y149.72 E0.92334 F1800 ; Print pattern wall
G1 X167.6172 Y169.0086 E0.92334 F1800 ; Print pattern wall
G1 E-0.5 F2400 ; Retract
G0 X170.0672 Y130.4314 F12000 ; Move to next pattern
G1 E0.5 F1800 ; Un-retract
SET_PRESSURE_ADVANCE ADVANCE=0.025 ; Set pressure advance
M117 PA 0.025
G1 X189.3559 Y149.72 E0.92334 F1800 ; Print pattern wall
G1 X170.0672 Y169.0086 E0.92334 F1800 ; Print pattern wall
G1 E-0.5 F2400 ; Retract
G0 X170.6429 Y130.4314 F12000 ; Move to start next pattern wall
G1 E0.5 F1800 ; Un-retract
G1 X189.9316 Y149.72 E0.92334 F1800 ; Print pattern wall
G1 X170.6429 Y169.0086 E0.92334 F1800 ; Print pattern wall
G1 E-0.5 F2400 ; Retract
G0 X171.2186 Y130.4314 F12000 ; Move to start next pattern wall
G1 E0.5 F1800 ; Un-retract
G1 X190.5073 Y149.72 E0.92334 F1800 ; Print pattern wall
G1 X171.2186 Y169.0086 E0.92334 F1800 ; Print pattern wall
G1 E-0.5 F2400 ; Retract
G0 X173.6686 Y130.4314 F12000 ; Move to next pattern
G1 E0.5 F1800 ; Un-retract
SET_PRESSURE_ADVANCE ADVANCE=0.026 ; Set pressure advance
M117 PA 0.026
G1 X192.9573 Y149.72 E0.92334 F1800 ; Print pattern wall
G1 X173.6686 Y169.0086 E0.92334 F1800 ; Print pattern wall
G1 E-0.5 F2400 ; Retract
G0 X174.2443 Y130.4314 F12000 ; Move to start next pattern wall
G1 E0.5 F1800 ; Un-retract
G1 X193.533 Y149.72 E0.92334 F1800 ; Print pattern wall
G1 X174.2443 Y169.0086 E0.92334 F1800 ; Print pattern wall
G1 E-0.5 F2400 ; Retract
G0 X174.82 Y130.4314 F12000 ; Move to start next pattern wall
G1 E0.5 F1800 ; Un-retract
G1 X194.1087 Y149.72 E0.92334 F1800 ; Print pattern wall
G1 X174.82 Y169.0086 E0.92334 F1800 ; Print pattern wall
G1 E-0.5 F2400 ; Retract
G0 X177.27 Y130.4314 F12000 ; Move to next pattern
G1 E0.5 F1800 ; Un-retract
SET_PRESSURE_ADVANCE ADVANCE=0.027 ; Set pressure advance
M117 PA 0.027
G1 X196.5587 Y149.72 E0.92334 F1800 ; Print pattern wall
G1 X177.27 Y169.0086 E0.92334 F1800 ; Print pattern wall
G1 E-0.5 F2400 ; Retract
G0 X177.8457 Y130.4314 F12000 ; Move to start next pattern wall
G1 E0.5 F1800 ; Un-retract
G1 X197.1344 Y149.72 E0.92334 F1800 ; Print pattern wall
G1 X177.8457 Y169.0086 E0.92334 F1800 ; Print pattern wall
G1 E-0.5 F2400 ; Retract
G0 X178.4214 Y130.4314 F12000 ; Move to start next pattern wall
G1 E0.5 F1800 ; Un-retract
G1 X197.7101 Y149.72 E0.92334 F1800 ; Print pattern wall
G1 X178.4214 Y169.0086 E0.92334 F1800 ; Print pattern wall
G1 E-0.5 F2400 ; Retract
G0 X180.8714 Y130.4314 F12000 ; Move to next pattern
G1 E0.5 F1800 ; Un-retract
SET_PRESSURE_ADVANCE ADVANCE=0.028 ; Set pressure advance
M117 PA 0.028
G1 X200.1601 Y149.72 E0.92334 F1800 ; Print pattern wall
G1 X180.8714 Y169.0086 E0.92334 F1800 ; Print pattern wall
G1 E-0.5 F2400 ; Retract
G0 X181.4471 Y130.4314 F12000 ; Move to start next pattern wall
G1 E0.5 F1800 ; Un-retract
G1 X200.7358 Y149.72 E0.92334 F1800 ; Print pattern wall
G1 X181.4471 Y169.0086 E0.92334 F1800 ; Print pattern wall
G1 E-0.5 F2400 ; Retract
G0 X182.0228 Y130.4314 F12000 ; Move to start next pattern wall
G1 E0.5 F1800 ; Un-retract
G1 X201.3115 Y149.72 E0.92334 F1800 ; Print pattern wall
G1 X182.0228 Y169.0086 E0.92334 F1800 ; Print pattern wall
G1 E-0.5 F2400 ; Retract
G0 X184.4728 Y130.4314 F12000 ; Move to next pattern
G1 E0.5 F1800 ; Un-retract
SET_PRESSURE_ADVANCE ADVANCE=0.029 ; Set pressure advance
M117 PA 0.029
G1 X203.7615 Y149.72 E0.92334 F1800 ; Print pattern wall
G1 X184.4728 Y169.0086 E0.92334 F1800 ; Print pattern wall
G1 E-0.5 F2400 ; Retract
G0 X185.0485 Y130.4314 F12000 ; Move to start next pattern wall
G1 E0.5 F1800 ; Un-retract
G1 X204.3371 Y149.72 E0.92334 F1800 ; Print pattern wall
G1 X185.0485 Y169.0086 E0.92334 F1800 ; Print pattern wall
G1 E-0.5 F2400 ; Retract
G0 X185.6242 Y130.4314 F12000 ; Move to start next pattern wall
G1 E0.5 F1800 ; Un-retract
G1 X204.9128 Y149.72 E0.92334 F1800 ; Print pattern wall
G1 X185.6242 Y169.0086 E0.92334 F1800 ; Print pattern wall
G1 E-0.5 F2400 ; Retract
G0 X188.0742 Y130.4314 F12000 ; Move to next pattern
G1 E0.5 F1800 ; Un-retract
SET_PRESSURE_ADVANCE ADVANCE=0.03 ; Set pressure advance
M117 PA 0.03
G1 X207.3628 Y149.72 E0.92334 F1800 ; Print pattern wall
G1 X188.0742 Y169.0086 E0.92334 F1800 ; Print pattern wall
G1 E-0.5 F2400 ; Retract
G0 X188.6499 Y130.4314 F12000 ; Move to start next pattern wall
G1 E0.5 F1800 ; Un-retract
G1 X207.9385 Y149.72 E0.92334 F1800 ; Print pattern wall
G1 X188.6499 Y169.0086 E0.92334 F1800 ; Print pattern wall
G1 E-0.5 F2400 ; Retract
G0 X189.2256 Y130.4314 F12000 ; Move to start next pattern wall
G1 E0.5 F1800 ; Un-retract
G1 X208.5142 Y149.72 E0.92334 F1800 ; Print pattern wall
G1 X189.2256 Y169.0086 E0.92334 F1800 ; Print pattern wall
G1 E-0.5 F2400 ; Retract
G0 X116.0463 Y130.4314 F12000 ; Move back to start position
G1 E0.5 F1800 ; Un-retract
M106 S255 ; Set fan speed
G0 Z0.4 F12000 ; Move to layer height
SET_PRESSURE_ADVANCE ADVANCE=0.01 ; Set pressure advance to start value for numbering
M117 PA 0.01
G1 E-0.5 F2400 ; Retract
G0 X112.6974 Y172.3832 F12000 ; Move
G1 E0.5 F1800 ; Un-retract
G1 X114.6974 Y172.3832 E0.0677 F1800 ; Glyph: 0
G1 X116.6974 Y172.3832 E0.0677 F1800 ; Glyph: 0
G1 X116.6974 Y174.3832 E0.0677 F1800 ; Glyph: 0
G1 X114.6974 Y174.3832 E0.0677 F1800 ; Glyph: 0
G1 X112.6974 Y174.3832 E0.0677 F1800 ; Glyph: 0
G1 X112.6974 Y172.3832 E0.0677 F1800 ; Glyph: 0
G1 E-0.5 F2400 ; Retract
G0 X116.6974 Y175.3832 F12000 ; Move
G1 E0.5 F1800 ; Un-retract
G1 X115.9474 Y175.3832 E0.02539 F1800 ; Glyph: .
G1 E-0.5 F2400 ; Retract
G0 X112.6974 Y176.3832 F12000 ; Move
G1 E0.5 F1800 ; Un-retract
G1 X114.6974 Y176.3832 E0.0677 F1800 ; Glyph: 0
G1 X116.6974 Y176.3832 E0.0677 F1800 ; Glyph: 0
G1 X116.6974 Y178.3832 E0.0677 F1800 ; Glyph: 0
G1 X114.6974 Y178.3832 E0.0677 F1800 ; Glyph: 0
G1 X112.6974 Y178.3832 E0.0677 F1800 ; Glyph: 0
G1 X112.6974 Y176.3832 E0.0677 F1800 ; Glyph: 0
G1 E-0.5 F2400 ; Retract
G0 X112.6974 Y179.3832 F12000 ; Move
G1 E0.5 F1800 ; Un-retract
G1 X114.6974 Y179.3832 E0.0677 F1800 ; Glyph: 1
G1 X116.6974 Y179.3832 E0.0677 F1800 ; Glyph: 1
G1 E-0.5 F2400 ; Retract
G0 X119.9002 Y172.3832 F12000 ; Move
G1 E0.5 F1800 ; Un-retract
G1 X121.9002 Y172.3832 E0.0677 F1800 ; Glyph: 0
G1 X123.9002 Y172.3832 E0.0677 F1800 ; Glyph: 0
G1 X123.9002 Y174.3832 E0.0677 F1800 ; Glyph: 0
G1 X121.9002 Y174.3832 E0.0677 F1800 ; Glyph: 0
G1 X119.9002 Y174.3832 E0.0677 F1800 ; Glyph: 0
G1 X119.9002 Y172.3832 E0.0677 F1800 ; Glyph: 0
G1 E-0.5 F2400 ; Retract
G0 X123.9002 Y175.3832 F12000 ; Move
G1 E0.5 F1800 ; Un-retract
G1 X123.1502 Y175.3832 E0.02539 F1800 ; Glyph: .
G1 E-0.5 F2400 ; Retract
G0 X119.9002 Y176.3832 F12000 ; Move
G1 E0.5 F1800 ; Un-retract
G1 X121.9002 Y176.3832 E0.0677 F1800 ; Glyph: 0
G1 X123.9002 Y176.3832 E0.0677 F1800 ; Glyph: 0
G1 X123.9002 Y178.3832 E0.0677 F1800 ; Glyph: 0
G1 X121.9002 Y178.3832 E0.0677 F1800 ; Glyph: 0
G1 X119.9002 Y178.3832 E0.0677 F1800 ; Glyph: 0
G1 X119.9002 Y176.3832 E0.0677 F1800 ; Glyph: 0
G1 E-0.5 F2400 ; Retract
G0 X119.9002 Y179.3832 F12000 ; Move
G1 E0.5 F1800 ; Un-retract
G1 X121.9002 Y179.3832 E0.0677 F1800 ; Glyph: 1
G1 X123.9002 Y179.3832 E0.0677 F1800 ; Glyph: 1
G1 E-0.5 F2400 ; Retract
G0 X119.9002 Y180.3832 F12000 ; Move
G1 E0.5 F1800 ; Un-retract
G1 X119.9002 Y182.3832 E0.0677 F1800 ; Glyph: 2
G1 X121.9002 Y182.3832 E0.0677 F1800 ; Glyph: 2
G1 X121.9002 Y180.3832 E0.0677 F1800 ; Glyph: 2
G1 X123.9002 Y180.3832 E0.0677 F1800 ; Glyph: 2
G1 X123.9002 Y182.3832 E0.0677 F1800 ; Glyph: 2
G1 E-0.5 F2400 ; Retract
G0 X127.103 Y172.3832 F12000 ; Move
G1 E0.5 F1800 ; Un-retract
G1 X129.103 Y172.3832 E0.0677 F1800 ; Glyph: 0
G1 X131.103 Y172.3832 E0.0677 F1800 ; Glyph: 0
G1 X131.103 Y174.3832 E0.0677 F1800 ; Glyph: 0
G1 X129.103 Y174.3832 E0.0677 F1800 ; Glyph: 0
G1 X127.103 Y174.3832 E0.0677 F1800 ; Glyph: 0
G1 X127.103 Y172.3832 E0.0677 F1800 ; Glyph: 0
G1 E-0.5 F2400 ; Retract
G0 X131.103 Y175.3832 F12000 ; Move
G1 E0.5 F1800 ; Un-retract
G1 X130.353 Y175.3832 E0.02539 F1800 ; Glyph: .
G1 E-0.5 F2400 ; Retract
G0 X127.103 Y176.3832 F12000 ; Move
G1 E0.5 F1800 ; Un-retract
G1 X129.103 Y176.3832 E0.0677 F1800 ; Glyph: 0
G1 X131.103 Y176.3832 E0.0677 F1800 ; Glyph: 0
G1 X131.103 Y178.3832 E0.0677 F1800 ; Glyph: 0
G1 X129.103 Y178.3832 E0.0677 F1800 ; Glyph: 0
G1 X127.103 Y178.3832 E0.0677 F1800 ; Glyph: 0
G1 X127.103 Y176.3832 E0.0677 F1800 ; Glyph: 0
G1 E-0.5 F2400 ; Retract
G0 X127.103 Y179.3832 F12000 ; Move
G1 E0.5 F1800 ; Un-retract
G1 X129.103 Y179.3832 E0.0677 F1800 ; Glyph: 1
G1 X131.103 Y179.3832 E0.0677 F1800 ; Glyph: 1
G1 E-0.5 F2400 ; Retract
G0 X127.103 Y182.3832 F12000 ; Move
G1 E0.5 F1800 ; Un-retract
G1 X129.103 Y182.3832 E0.0677 F1800 ; Glyph: 4
G1 X131.103 Y182.3832 E0.0677 F1800 ; Glyph: 4
G0 X129.103 Y182.3832 F12000 ; Move
G1 X129.103 Y180.3832 E0.0677 F1800 ; Glyph: 4
G1 X127.103 Y180.3832 E0.0677 F1800 ; Glyph: 4
G1 E-0.5 F2400 ; Retract
G0 X134.3058 Y172.3832 F12000 ; Move
G1 E0.5 F1800 ; Un-retract
G1 X136.3058 Y172.3832 E0.0677 F1800 ; Glyph: 0
G1 X138.3058 Y172.3832 E0.0677 F1800 ; Glyph: 0
G1 X138.3058 Y174.3832 E0.0677 F1800 ; Glyph: 0
G1 X136.3058 Y174.3832 E0.0677 F1800 ; Glyph: 0
G1 X134.3058 Y174.3832 E0.0677 F1800 ; Glyph: 0
G1 X134.3058 Y172.3832 E0.0677 F1800 ; Glyph: 0
G1 E-0.5 F2400 ; Retract
G0 X138.3058 Y175.3832 F12000 ; Move
G1 E0.5 F1800 ; Un-retract
G1 X137.5558 Y175.3832 E0.02539 F1800 ; Glyph: .
G1 E-0.5 F2400 ; Retract
G0 X134.3058 Y176.3832 F12000 ; Move
G1 E0.5 F1800 ; Un-retract
G1 X136.3058 Y176.3832 E0.0677 F1800 ; Glyph: 0
G1 X138.3058 Y176.3832 E0.0677 F1800 ; Glyph: 0
G1 X138.3058 Y178.3832 E0.0677 F1800 ; Glyph: 0
G1 X136.3058 Y178.3832 E0.0677 F1800 ; Glyph: 0
G1 X134.3058 Y178.3832 E0.0677 F1800 ; Glyph: 0
G1 X134.3058 Y176.3832 E0.0677 F1800 ; Glyph: 0
G1 E-0.5 F2400 ; Retract
G0 X134.3058 Y179.3832 F12000 ; Move
G1 E0.5 F1800 ; Un-retract
G1 X136.3058 Y179.3832 E0.0677 F1800 ; Glyph: 1
G1 X138.3058 Y179.3832 E0.0677 F1800 ; Glyph: 1
G1 E-0.5 F2400 ; Retract
G0 X134.3058 Y182.3832 F12000 ; Move
G1 E0.5 F1800 ; Un-retract
G1 X134.3058 Y180.3832 E0.0677 F1800 ; Glyph: 6
G1 X136.3058 Y180.3832 E0.0677 F1800 ; Glyph: 6
G1 X138.3058 Y180.3832 E0.0677 F1800 ; Glyph: 6
G1 X138.3058 Y182.3832 E0.0677 F1800 ; Glyph: 6
G1 X136.3058 Y182.3832 E0.0677 F1800 ; Glyph: 6
G1 X136.3058 Y180.3832 E0.0677 F1800 ; Glyph: 6
G1 E-0.5 F2400 ; Retract
G0 X141.5086 Y172.3832 F12000 ; Move
G1 E0.5 F1800 ; Un-retract
G1 X143.5086 Y172.3832 E0.0677 F1800 ; Glyph: 0
G1 X145.5086 Y172.3832 E0.0677 F1800 ; Glyph: 0
G1 X145.5086 Y174.3832 E0.0677 F1800 ; Glyph: 0
G1 X143.5086 Y174.3832 E0.0677 F1800 ; Glyph: 0
G1 X141.5086 Y174.3832 E0.0677 F1800 ; Glyph: 0
G1 X141.5086 Y172.3832 E0.0677 F1800 ; Glyph: 0
G1 E-0.5 F2400 ; Retract
G0 X145.5086 Y175.3832 F12000 ; Move
G1 E0.5 F1800 ; Un-retract
G1 X144.7586 Y175.3832 E0.02539 F1800 ; Glyph: .
G1 E-0.5 F2400 ; Retract
G0 X141.5086 Y176.3832 F12000 ; Move
G1 E0.5 F1800 ; Un-retract
G1 X143.5086 Y176.3832 E0.0677 F1800 ; Glyph: 0
G1 X145.5086 Y176.3832 E0.0677 F1800 ; Glyph: 0
G1 X145.5086 Y178.3832 E0.0677 F1800 ; Glyph: 0
G1 X143.5086 Y178.3832 E0.0677 F1800 ; Glyph: 0
G1 X141.5086 Y178.3832 E0.0677 F1800 ; Glyph: 0
G1 X141.5086 Y176.3832 E0.0677 F1800 ; Glyph: 0
G1 E-0.5 F2400 ; Retract
G0 X141.5086 Y179.3832 F12000 ; Move
G1 E0.5 F1800 ; Un-retract
G1 X143.5086 Y179.3832 E0.0677 F1800 ; Glyph: 1
G1 X145.5086 Y179.3832 E0.0677 F1800 ; Glyph: 1
G1 E-0.5 F2400 ; Retract
G0 X141.5086 Y180.3832 F12000 ; Move
G1 E0.5 F1800 ; Un-retract
G1 X143.5086 Y180.3832 E0.0677 F1800 ; Glyph: 8
G1 X145.5086 Y180.3832 E0.0677 F1800 ; Glyph: 8
G1 X145.5086 Y182.3832 E0.0677 F1800 ; Glyph: 8
G1 X143.5086 Y182.3832 E0.0677 F1800 ; Glyph: 8
G1 X141.5086 Y182.3832 E0.0677 F1800 ; Glyph: 8
G1 X141.5086 Y180.3832 E0.0677 F1800 ; Glyph: 8
G0 X143.5086 Y180.3832 F12000 ; Move
G1 X143.5086 Y182.3832 E0.0677 F1800 ; Glyph: 8
G1 E-0.5 F2400 ; Retract
G0 X148.7114 Y172.3832 F12000 ; Move
G1 E0.5 F1800 ; Un-retract
G1 X150.7114 Y172.3832 E0.0677 F1800 ; Glyph: 0
G1 X152.7114 Y172.3832 E0.0677 F1800 ; Glyph: 0
G1 X152.7114 Y174.3832 E0.0677 F1800 ; Glyph: 0
G1 X150.7114 Y174.3832 E0.0677 F1800 ; Glyph: 0
G1 X148.7114 Y174.3832 E0.0677 F1800 ; Glyph: 0
G1 X148.7114 Y172.3832 E0.0677 F1800 ; Glyph: 0
G1 E-0.5 F2400 ; Retract
G0 X152.7114 Y175.3832 F12000 ; Move
G1 E0.5 F1800 ; Un-retract
G1 X151.9614 Y175.3832 E0.02539 F1800 ; Glyph: .
G1 E-0.5 F2400 ; Retract
G0 X148.7114 Y176.3832 F12000 ; Move
G1 E0.5 F1800 ; Un-retract
G1 X150.7114 Y176.3832 E0.0677 F1800 ; Glyph: 0
G1 X152.7114 Y176.3832 E0.0677 F1800 ; Glyph: 0
G1 X152.7114 Y178.3832 E0.0677 F1800 ; Glyph: 0
G1 X150.7114 Y178.3832 E0.0677 F1800 ; Glyph: 0
G1 X148.7114 Y178.3832 E0.0677 F1800 ; Glyph: 0
G1 X148.7114 Y176.3832 E0.0677 F1800 ; Glyph: 0
G1 E-0.5 F2400 ; Retract
G0 X148.7114 Y179.3832 F12000 ; Move
G1 E0.5 F1800 ; Un-retract
G1 X148.7114 Y181.3832 E0.0677 F1800 ; Glyph: 2
G1 X150.7114 Y181.3832 E0.0677 F1800 ; Glyph: 2
G1 X150.7114 Y179.3832 E0.0677 F1800 ; Glyph: 2
G1 X152.7114 Y179.3832 E0.0677 F1800 ; Glyph: 2
G1 X152.7114 Y181.3832 E0.0677 F1800 ; Glyph: 2
G1 E-0.5 F2400 ; Retract
G0 X155.9142 Y172.3832 F12000 ; Move
G1 E0.5 F1800 ; Un-retract
G1 X157.9142 Y172.3832 E0.0677 F1800 ; Glyph: 0
G1 X159.9142 Y172.3832 E0.0677 F1800 ; Glyph: 0
G1 X159.9142 Y174.3832 E0.0677 F1800 ; Glyph: 0
G1 X157.9142 Y174.3832 E0.0677 F1800 ; Glyph: 0
G1 X155.9142 Y174.3832 E0.0677 F1800 ; Glyph: 0
G1 X155.9142 Y172.3832 E0.0677 F1800 ; Glyph: 0
G1 E-0.5 F2400 ; Retract
G0 X159.9142 Y175.3832 F12000 ; Move
G1 E0.5 F1800 ; Un-retract
G1 X159.1642 Y175.3832 E0.02539 F1800 ; Glyph: .
G1 E-0.5 F2400 ; Retract
G0 X155.9142 Y176.3832 F12000 ; Move
G1 E0.5 F1800 ; Un-retract
G1 X157.9142 Y176.3832 E0.0677 F1800 ; Glyph: 0
G1 X159.9142 Y176.3832 E0.0677 F1800 ; Glyph: 0
G1 X159.9142 Y178.3832 E0.0677 F1800 ; Glyph: 0
G1 X157.9142 Y178.3832 E0.0677 F1800 ; Glyph: 0
G1 X155.9142 Y178.3832 E0.0677 F1800 ; Glyph: 0
G1 X155.9142 Y176.3832 E0.0677 F1800 ; Glyph: 0
G1 E-0.5 F2400 ; Retract
G0 X155.9142 Y179.3832 F12000 ; Move
G1 E0.5 F1800 ; Un-retract
G1 X155.9142 Y181.3832 E0.0677 F1800 ; Glyph: 2
G1 X157.9142 Y181.3832 E0.0677 F1800 ; Glyph: 2
G1 X157.9142 Y179.3832 E0.0677 F1800 ; Glyph: 2
G1 X159.9142 Y179.3832 E0.0677 F1800 ; Glyph: 2
G1 X159.9142 Y181.3832 E0.0677 F1800 ; Glyph: 2
G1 E-0.5 F2400 ; Retract
G0 X155.9142 Y182.3832 F12000 ; Move
G1 E0.5 F1800 ; Un-retract
G1 X155.9142 Y184.3832 E0.0677 F1800 ; Glyph: 2
G1 X157.9142 Y184.3832 E0.0677 F1800 ; Glyph: 2
G1 X157.9142 Y182.3832 E0.0677 F1800 ; Glyph: 2
G1 X159.9142 Y182.3832 E0.0677 F1800 ; Glyph: 2
G1 X159.9142 Y184.3832 E0.0677 F1800 ; Glyph: 2
G1 E-0.5 F2400 ; Retract
G0 X163.117 Y172.3832 F12000 ; Move
G1 E0.5 F1800 ; Un-retract
G1 X165.117 Y172.3832 E0.0677 F1800 ; Glyph: 0
G1 X167.117 Y172.3832 E0.0677 F1800 ; Glyph: 0
G1 X167.117 Y174.3832 E0.0677 F1800 ; Glyph: 0
G1 X165.117 Y174.3832 E0.0677 F1800 ; Glyph: 0
G1 X163.117 Y174.3832 E0.0677 F1800 ; Glyph: 0
G1 X163.117 Y172.3832 E0.0677 F1800 ; Glyph: 0
G1 E-0.5 F2400 ; Retract
G0 X167.117 Y175.3832 F12000 ; Move
G1 E0.5 F1800 ; Un-retract
G1 X166.367 Y175.3832 E0.02539 F1800 ; Glyph: .
G1 E-0.5 F2400 ; Retract
G0 X163.117 Y176.3832 F12000 ; Move
G1 E0.5 F1800 ; Un-retract
G1 X165.117 Y176.3832 E0.0677 F1800 ; Glyph: 0
G1 X167.117 Y176.3832 E0.0677 F1800 ; Glyph: 0
G1 X167.117 Y178.3832 E0.0677 F1800 ; Glyph: 0
G1 X165.117 Y178.3832 E0.0677 F1800 ; Glyph: 0
G1 X163.117 Y178.3832 E0.0677 F1800 ; Glyph: 0
G1 X163.117 Y176.3832 E0.0677 F1800 ; Glyph: 0
G1 E-0.5 F2400 ; Retract
G0 X163.117 Y179.3832 F12000 ; Move
G1 E0.5 F1800 ; Un-retract
G1 X163.117 Y181.3832 E0.0677 F1800 ; Glyph: 2
G1 X165.117 Y181.3832 E0.0677 F1800 ; Glyph: 2
G1 X165.117 Y179.3832 E0.0677 F1800 ; Glyph: 2
G1 X167.117 Y179.3832 E0.0677 F1800 ; Glyph: 2
G1 X167.117 Y181.3832 E0.0677 F1800 ; Glyph: 2
G1 E-0.5 F2400 ; Retract
G0 X163.117 Y184.3832 F12000 ; Move
G1 E0.5 F1800 ; Un-retract
G1 X165.117 Y184.3832 E0.0677 F1800 ; Glyph: 4
G1 X167.117 Y184.3832 E0.0677 F1800 ; Glyph: 4
G0 X165.117 Y184.3832 F12000 ; Move
G1 X165.117 Y182.3832 E0.0677 F1800 ; Glyph: 4
G1 X163.117 Y182.3832 E0.0677 F1800 ; Glyph: 4
G1 E-0.5 F2400 ; Retract
G0 X170.3198 Y172.3832 F12000 ; Move
G1 E0.5 F1800 ; Un-retract
G1 X172.3198 Y172.3832 E0.0677 F1800 ; Glyph: 0
G1 X174.3198 Y172.3832 E0.0677 F1800 ; Glyph: 0
G1 X174.3198 Y174.3832 E0.0677 F1800 ; Glyph: 0
G1 X172.3198 Y174.3832 E0.0677 F1800 ; Glyph: 0
G1 X170.3198 Y174.3832 E0.0677 F1800 ; Glyph: 0
G1 X170.3198 Y172.3832 E0.0677 F1800 ; Glyph: 0
G1 E-0.5 F2400 ; Retract
G0 X174.3198 Y175.3832 F12000 ; Move
G1 E0.5 F1800 ; Un-retract
G1 X173.5698 Y175.3832 E0.02539 F1800 ; Glyph: .
G1 E-0.5 F2400 ; Retract
G0 X170.3198 Y176.3832 F12000 ; Move
G1 E0.5 F1800 ; Un-retract
G1 X172.3198 Y176.3832 E0.0677 F1800 ; Glyph: 0
G1 X174.3198 Y176.3832 E0.0677 F1800 ; Glyph: 0
G1 X174.3198 Y178.3832 E0.0677 F1800 ; Glyph: 0
G1 X172.3198 Y178.3832 E0.0677 F1800 ; Glyph: 0
G1 X170.3198 Y178.3832 E0.0677 F1800 ; Glyph: 0
G1 X170.3198 Y176.3832 E0.0677 F1800 ; Glyph: 0
G1 E-0.5 F2400 ; Retract
G0 X170.3198 Y179.3832 F12000 ; Move
G1 E0.5 F1800 ; Un-retract
G1 X170.3198 Y181.3832 E0.0677 F1800 ; Glyph: 2
G1 X172.3198 Y181.3832 E0.0677 F1800 ; Glyph: 2
G1 X172.3198 Y179.3832 E0.0677 F1800 ; Glyph: 2
G1 X174.3198 Y179.3832 E0.0677 F1800 ; Glyph: 2
G1 X174.3198 Y181.3832 E0.0677 F1800 ; Glyph: 2
G1 E-0.5 F2400 ; Retract
G0 X170.3198 Y184.3832 F12000 ; Move
G1 E0.5 F1800 ; Un-retract
G1 X170.3198 Y182.3832 E0.0677 F1800 ; Glyph: 6
G1 X172.3198 Y182.3832 E0.0677 F1800 ; Glyph: 6
G1 X174.3198 Y182.3832 E0.0677 F1800 ; Glyph: 6
G1 X174.3198 Y184.3832 E0.0677 F1800 ; Glyph: 6
G1 X172.3198 Y184.3832 E0.0677 F1800 ; Glyph: 6
G1 X172.3198 Y182.3832 E0.0677 F1800 ; Glyph: 6
G1 E-0.5 F2400 ; Retract
G0 X177.5226 Y172.3832 F12000 ; Move
G1 E0.5 F1800 ; Un-retract
G1 X179.5226 Y172.3832 E0.0677 F1800 ; Glyph: 0
G1 X181.5226 Y172.3832 E0.0677 F1800 ; Glyph: 0
G1 X181.5226 Y174.3832 E0.0677 F1800 ; Glyph: 0
G1 X179.5226 Y174.3832 E0.0677 F1800 ; Glyph: 0
G1 X177.5226 Y174.3832 E0.0677 F1800 ; Glyph: 0
G1 X177.5226 Y172.3832 E0.0677 F1800 ; Glyph: 0
G1 E-0.5 F2400 ; Retract
G0 X181.5226 Y175.3832 F12000 ; Move
G1 E0.5 F1800 ; Un-retract
G1 X180.7726 Y175.3832 E0.02539 F1800 ; Glyph: .
G1 E-0.5 F2400 ; Retract
G0 X177.5226 Y176.3832 F12000 ; Move
G1 E0.5 F1800 ; Un-retract
G1 X179.5226 Y176.3832 E0.0677 F1800 ; Glyph: 0
G1 X181.5226 Y176.3832 E0.0677 F1800 ; Glyph: 0
G1 X181.5226 Y178.3832 E0.0677 F1800 ; Glyph: 0
G1 X179.5226 Y178.3832 E0.0677 F1800 ; Glyph: 0
G1 X177.5226 Y178.3832 E0.0677 F1800 ; Glyph: 0
G1 X177.5226 Y176.3832 E0.0677 F1800 ; Glyph: 0
G1 E-0.5 F2400 ; Retract
G0 X177.5226 Y179.3832 F12000 ; Move
G1 E0.5 F1800 ; Un-retract
G1 X177.5226 Y181.3832 E0.0677 F1800 ; Glyph: 2
G1 X179.5226 Y181.3832 E0.0677 F1800 ; Glyph: 2
G1 X179.5226 Y179.3832 E0.0677 F1800 ; Glyph: 2
G1 X181.5226 Y179.3832 E0.0677 F1800 ; Glyph: 2
G1 X181.5226 Y181.3832 E0.0677 F1800 ; Glyph: 2
G1 E-0.5 F2400 ; Retract
G0 X177.5226 Y182.3832 F12000 ; Move
G1 E0.5 F1800 ; Un-retract
G1 X179.5226 Y182.3832 E0.0677 F1800 ; Glyph: 8
G1 X181.5226 Y182.3832 E0.0677 F1800 ; Glyph: 8
G1 X181.5226 Y184.3832 E0.0677 F1800 ; Glyph: 8
G1 X179.5226 Y184.3832 E0.0677 F1800 ; Glyph: 8
G1 X177.5226 Y184.3832 E0.0677 F1800 ; Glyph: 8
G1 X177.5226 Y182.3832 E0.0677 F1800 ; Glyph: 8
G0 X179.5226 Y182.3832 F12000 ; Move
G1 X179.5226 Y184.3832 E0.0677 F1800 ; Glyph: 8
G1 E-0.5 F2400 ; Retract
G0 X184.7253 Y172.3832 F12000 ; Move
G1 E0.5 F1800 ; Un-retract
G1 X186.7253 Y172.3832 E0.0677 F1800 ; Glyph: 0
G1 X188.7253 Y172.3832 E0.0677 F1800 ; Glyph: 0
G1 X188.7253 Y174.3832 E0.0677 F1800 ; Glyph: 0
G1 X186.7253 Y174.3832 E0.0677 F1800 ; Glyph: 0
G1 X184.7253 Y174.3832 E0.0677 F1800 ; Glyph: 0
G1 X184.7253 Y172.3832 E0.0677 F1800 ; Glyph: 0
G1 E-0.5 F2400 ; Retract
G0 X188.7253 Y175.3832 F12000 ; Move
G1 E0.5 F1800 ; Un-retract
G1 X187.9753 Y175.3832 E0.02539 F1800 ; Glyph: .
G1 E-0.5 F2400 ; Retract
G0 X184.7253 Y176.3832 F12000 ; Move
G1 E0.5 F1800 ; Un-retract
G1 X186.7253 Y176.3832 E0.0677 F1800 ; Glyph: 0
G1 X188.7253 Y176.3832 E0.0677 F1800 ; Glyph: 0
G1 X188.7253 Y178.3832 E0.0677 F1800 ; Glyph: 0
G1 X186.7253 Y178.3832 E0.0677 F1800 ; Glyph: 0
G1 X184.7253 Y178.3832 E0.0677 F1800 ; Glyph: 0
G1 X184.7253 Y176.3832 E0.0677 F1800 ; Glyph: 0
G1 E-0.5 F2400 ; Retract
G0 X184.7253 Y179.3832 F12000 ; Move
G1 E0.5 F1800 ; Un-retract
G1 X184.7253 Y181.3832 E0.0677 F1800 ; Glyph: 3
G1 X186.7253 Y181.3832 E0.0677 F1800 ; Glyph: 3
G1 X186.7253 Y179.3832 E0.0677 F1800 ; Glyph: 3
G0 X186.7253 Y181.3832 F12000 ; Move
G1 X188.7253 Y181.3832 E0.0677 F1800 ; Glyph: 3
G1 X188.7253 Y179.3832 E0.0677 F1800 ; Glyph: 3
G1 E-0.5 F2400 ; Retract
G0 X114.1217 Y128.5068 F12000 ; Move to pattern start

G1 E0.5 F1800 ; Un-retract
SET_PRESSURE_ADVANCE ADVANCE=0.01 ; Set pressure advance
M117 PA 0.01
G1 X135.3349 Y149.72 E1.01546 F12000 ; Print pattern wall
G1 X114.1217 Y170.9332 E1.01546 F12000 ; Print pattern wall
G1 E-0.5 F2400 ; Retract
G0 X114.6974 Y128.5068 F12000 ; Move to start next pattern wall
G1 E0.5 F1800 ; Un-retract
G1 X135.9106 Y149.72 E1.01546 F12000 ; Print pattern wall
G1 X114.6974 Y170.9332 E1.01546 F12000 ; Print pattern wall
G1 E-0.5 F2400 ; Retract
G0 X115.2731 Y128.5068 F12000 ; Move to start next pattern wall
G1 E0.5 F1800 ; Un-retract
G1 X136.4863 Y149.72 E1.01546 F12000 ; Print pattern wall
G1 X115.2731 Y170.9332 E1.01546 F12000 ; Print pattern wall
G1 E-0.5 F2400 ; Retract
G0 X117.7231 Y128.5068 F12000 ; Move to next pattern
G1 E0.5 F1800 ; Un-retract
SET_PRESSURE_ADVANCE ADVANCE=0.011 ; Set pressure advance
M117 PA 0.011
G1 X138.9363 Y149.72 E1.01546 F12000 ; Print pattern wall
G1 X117.7231 Y170.9332 E1.01546 F12000 ; Print pattern wall
G1 E-0.5 F2400 ; Retract
G0 X118.2988 Y128.5068 F12000 ; Move to start next pattern wall
G1 E0.5 F1800 ; Un-retract
G1 X139.512 Y149.72 E1.01546 F12000 ; Print pattern wall
G1 X118.2988 Y170.9332 E1.01546 F12000 ; Print pattern wall
G1 E-0.5 F2400 ; Retract
G0 X118.8745 Y128.5068 F12000 ; Move to start next pattern wall
G1 E0.5 F1800 ; Un-retract
G1 X140.0877 Y149.72 E1.01546 F12000 ; Print pattern wall
G1 X118.8745 Y170.9332 E1.01546 F12000 ; Print pattern wall
G1 E-0.5 F2400 ; Retract
G0 X121.3245 Y128.5068 F12000 ; Move to next pattern
G1 E0.5 F1800 ; Un-retract
SET_PRESSURE_ADVANCE ADVANCE=0.012 ; Set pressure advance
M117 PA 0.012
G1 X142.5377 Y149.72 E1.01546 F12000 ; Print pattern wall
G1 X121.3245 Y170.9332 E1.01546 F12000 ; Print pattern wall
G1 E-0.5 F2400 ; Retract
G0 X121.9002 Y128.5068 F12000 ; Move to start next pattern wall
G1 E0.5 F1800 ; Un-retract
G1 X143.1134 Y149.72 E1.01546 F12000 ; Print pattern wall
G1 X121.9002 Y170.9332 E1.01546 F12000 ; Print pattern wall
G1 E-0.5 F2400 ; Retract
G0 X122.4759 Y128.5068 F12000 ; Move to start next pattern wall
G1 E0.5 F1800 ; Un-retract
G1 X143.6891 Y149.72 E1.01546 F12000 ; Print pattern wall
G1 X122.4759 Y170.9332 E1.01546 F12000 ; Print pattern wall
G1 E-0.5 F2400 ; Retract
G0 X124.9259 Y128.5068 F12000 ; Move to next pattern
G1 E0.5 F1800 ; Un-retract
SET_PRESSURE_ADVANCE ADVANCE=0.013 ; Set pressure advance
M117 PA 0.013
G1 X146.1391 Y149.72 E1.01546 F12000 ; Print pattern wall
G1 X124.9259 Y170.9332 E1.01546 F12000 ; Print pattern wall
G1 E-0.5 F2400 ; Retract
G0 X125.5016 Y128.5068 F12000 ; Move to start next pattern wall
G1 E0.5 F1800 ; Un-retract
G1 X146.7148 Y149.72 E1.01546 F12000 ; Print pattern wall
G1 X125.5016 Y170.9332 E1.01546 F12000 ; Print pattern wall
G1 E-0.5 F2400 ; Retract
G0 X126.0773 Y128.5068 F12000 ; Move to start next pattern wall
G1 E0.5 F1800 ; Un-retract
G1 X147.2905 Y149.72 E1.01546 F12000 ; Print pattern wall
G1 X126.0773 Y170.9332 E1.01546 F12000 ; Print pattern wall
G1 E-0.5 F2400 ; Retract
G0 X128.5273 Y128.5068 F12000 ; Move to next pattern
G1 E0.5 F1800 ; Un-retract
SET_PRESSURE_ADVANCE ADVANCE=0.014 ; Set pressure advance
M117 PA 0.014
G1 X149.7405 Y149.72 E1.01546 F12000 ; Print pattern wall
G1 X128.5273 Y170.9332 E1.01546 F12000 ; Print pattern wall
G1 E-0.5 F2400 ; Retract
G0 X129.103 Y128.5068 F12000 ; Move to start next pattern wall
G1 E0.5 F1800 ; Un-retract
G1 X150.3162 Y149.72 E1.01546 F12000 ; Print pattern wall
G1 X129.103 Y170.9332 E1.01546 F12000 ; Print pattern wall
G1 E-0.5 F2400 ; Retract
G0 X129.6787 Y128.5068 F12000 ; Move to start next pattern wall
G1 E0.5 F1800 ; Un-retract
G1 X150.8919 Y149.72 E1.01546 F12000 ; Print pattern wall
G1 X129.6787 Y170.9332 E1.01546 F12000 ; Print pattern wall
G1 E-0.5 F2400 ; Retract
G0 X132.1287 Y128.5068 F12000 ; Move to next pattern
G1 E0.5 F1800 ; Un-retract
SET_PRESSURE_ADVANCE ADVANCE=0.015 ; Set pressure advance
M117 PA 0.015
G1 X153.3419 Y149.72 E1.01546 F12000 ; Print pattern wall
G1 X132.1287 Y170.9332 E1.01546 F12000 ; Print pattern wall
G1 E-0.5 F2400 ; Retract
G0 X132.7044 Y128.5068 F12000 ; Move to start next pattern wall
G1 E0.5 F1800 ; Un-retract
G1 X153.9176 Y149.72 E1.01546 F12000 ; Print pattern wall
G1 X132.7044 Y170.9332 E1.01546 F12000 ; Print pattern wall
G1 E-0.5 F2400 ; Retract
G0 X133.2801 Y128.5068 F12000 ; Move to start next pattern wall
G1 E0.5 F1800 ; Un-retract
G1 X154.4933 Y149.72 E1.01546 F12000 ; Print pattern wall
G1 X133.2801 Y170.9332 E1.01546 F12000 ; Print pattern wall
G1 E-0.5 F2400 ; Retract
G0 X135.7301 Y128.5068 F12000 ; Move to next pattern
G1 E0.5 F1800 ; Un-retract
SET_PRESSURE_ADVANCE ADVANCE=0.016 ; Set pressure advance
M117 PA 0.016
G1 X156.9433 Y149.72 E1.01546 F12000 ; Print pattern wall
G1 X135.7301 Y170.9332 E1.01546 F12000 ; Print pattern wall
G1 E-0.5 F2400 ; Retract
G0 X136.3058 Y128.5068 F12000 ; Move to start next pattern wall
G1 E0.5 F1800 ; Un-retract
G1 X157.519 Y149.72 E1.01546 F12000 ; Print pattern wall
G1 X136.3058 Y170.9332 E1.01546 F12000 ; Print pattern wall
G1 E-0.5 F2400 ; Retract
G0 X136.8815 Y128.5068 F12000 ; Move to start next pattern wall
G1 E0.5 F1800 ; Un-retract
G1 X158.0947 Y149.72 E1.01546 F12000 ; Print pattern wall
G1 X136.8815 Y170.9332 E1.01546 F12000 ; Print pattern wall
G1 E-0.5 F2400 ; Retract
G0 X139.3315 Y128.5068 F12000 ; Move to next pattern
G1 E0.5 F1800 ; Un-retract
SET_PRESSURE_ADVANCE ADVANCE=0.017 ; Set pressure advance
M117 PA 0.017
G1 X160.5447 Y149.72 E1.01546 F12000 ; Print pattern wall
G1 X139.3315 Y170.9332 E1.01546 F12000 ; Print pattern wall
G1 E-0.5 F2400 ; Retract
G0 X139.9072 Y128.5068 F12000 ; Move to start next pattern wall
G1 E0.5 F1800 ; Un-retract
G1 X161.1204 Y149.72 E1.01546 F12000 ; Print pattern wall
G1 X139.9072 Y170.9332 E1.01546 F12000 ; Print pattern wall
G1 E-0.5 F2400 ; Retract
G0 X140.4829 Y128.5068 F12000 ; Move to start next pattern wall
G1 E0.5 F1800 ; Un-retract
G1 X161.6961 Y149.72 E1.01546 F12000 ; Print pattern wall
G1 X140.4829 Y170.9332 E1.01546 F12000 ; Print pattern wall
G1 E-0.5 F2400 ; Retract
G0 X142.9329 Y128.5068 F12000 ; Move to next pattern
G1 E0.5 F1800 ; Un-retract
SET_PRESSURE_ADVANCE ADVANCE=0.018 ; Set pressure advance
M117 PA 0.018
G1 X164.1461 Y149.72 E1.01546 F12000 ; Print pattern wall
G1 X142.9329 Y170.9332 E1.01546 F12000 ; Print pattern wall
G1 E-0.5 F2400 ; Retract
G0 X143.5086 Y128.5068 F12000 ; Move to start next pattern wall
G1 E0.5 F1800 ; Un-retract
G1 X164.7218 Y149.72 E1.01546 F12000 ; Print pattern wall
G1 X143.5086 Y170.9332 E1.01546 F12000 ; Print pattern wall
G1 E-0.5 F2400 ; Retract
G0 X144.0843 Y128.5068 F12000 ; Move to start next pattern wall
G1 E0.5 F1800 ; Un-retract
G1 X165.2975 Y149.72 E1.01546 F12000 ; Print pattern wall
G1 X144.0843 Y170.9332 E1.01546 F12000 ; Print pattern wall
G1 E-0.5 F2400 ; Retract
G0 X146.5343 Y128.5068 F12000 ; Move to next pattern
G1 E0.5 F1800 ; Un-retract
SET_PRESSURE_ADVANCE ADVANCE=0.019 ; Set pressure advance
M117 PA 0.019
G1 X167.7475 Y149.72 E1.01546 F12000 ; Print pattern wall
G1 X146.5343 Y170.9332 E1.01546 F12000 ; Print pattern wall
G1 E-0.5 F2400 ; Retract
G0 X147.11 Y128.5068 F12000 ; Move to start next pattern wall
G1 E0.5 F1800 ; Un-retract
G1 X168.3232 Y149.72 E1.01546 F12000 ; Print pattern wall
G1 X147.11 Y170.9332 E1.01546 F12000 ; Print pattern wall
G1 E-0.5 F2400 ; Retract
G0 X147.6857 Y128.5068 F12000 ; Move to start next pattern wall
G1 E0.5 F1800 ; Un-retract
G1 X168.8989 Y149.72 E1.01546 F12000 ; Print pattern wall
G1 X147.6857 Y170.9332 E1.01546 F12000 ; Print pattern wall
G1 E-0.5 F2400 ; Retract
G0 X150.1357 Y128.5068 F12000 ; Move to next pattern
G1 E0.5 F1800 ; Un-retract
SET_PRESSURE_ADVANCE ADVANCE=0.02 ; Set pressure advance
M117 PA 0.02
G1 X171.3489 Y149.72 E1.01546 F12000 ; Print pattern wall
G1 X150.1357 Y170.9332 E1.01546 F12000 ; Print pattern wall
G1 E-0.5 F2400 ; Retract
G0 X150.7114 Y128.5068 F12000 ; Move to start next pattern wall
G1 E0.5 F1800 ; Un-retract
G1 X171.9246 Y149.72 E1.01546 F12000 ; Print pattern wall
G1 X150.7114 Y170.9332 E1.01546 F12000 ; Print pattern wall
G1 E-0.5 F2400 ; Retract
G0 X151.2871 Y128.5068 F12000 ; Move to start next pattern wall
G1 E0.5 F1800 ; Un-retract
G1 X172.5003 Y149.72 E1.01546 F12000 ; Print pattern wall
G1 X151.2871 Y170.9332 E1.01546 F12000 ; Print pattern wall
G1 E-0.5 F2400 ; Retract
G0 X153.7371 Y128.5068 F12000 ; Move to next pattern
G1 E0.5 F1800 ; Un-retract
SET_PRESSURE_ADVANCE ADVANCE=0.021 ; Set pressure advance
M117 PA 0.021
G1 X174.9503 Y149.72 E1.01546 F12000 ; Print pattern wall
G1 X153.7371 Y170.9332 E1.01546 F12000 ; Print pattern wall
G1 E-0.5 F2400 ; Retract
G0 X154.3128 Y128.5068 F12000 ; Move to start next pattern wall
G1 E0.5 F1800 ; Un-retract
G1 X175.526 Y149.72 E1.01546 F12000 ; Print pattern wall
G1 X154.3128 Y170.9332 E1.01546 F12000 ; Print pattern wall
G1 E-0.5 F2400 ; Retract
G0 X154.8885 Y128.5068 F12000 ; Move to start next pattern wall
G1 E0.5 F1800 ; Un-retract
G1 X176.1017 Y149.72 E1.01546 F12000 ; Print pattern wall
G1 X154.8885 Y170.9332 E1.01546 F12000 ; Print pattern wall
G1 E-0.5 F2400 ; Retract
G0 X157.3385 Y128.5068 F12000 ; Move to next pattern
G1 E0.5 F1800 ; Un-retract
SET_PRESSURE_ADVANCE ADVANCE=0.022 ; Set pressure advance
M117 PA 0.022
G1 X178.5517 Y149.72 E1.01546 F12000 ; Print pattern wall
G1 X157.3385 Y170.9332 E1.01546 F12000 ; Print pattern wall
G1 E-0.5 F2400 ; Retract
G0 X157.9142 Y128.5068 F12000 ; Move to start next pattern wall
G1 E0.5 F1800 ; Un-retract
G1 X179.1274 Y149.72 E1.01546 F12000 ; Print pattern wall
G1 X157.9142 Y170.9332 E1.01546 F12000 ; Print pattern wall
G1 E-0.5 F2400 ; Retract
G0 X158.4899 Y128.5068 F12000 ; Move to start next pattern wall
G1 E0.5 F1800 ; Un-retract
G1 X179.7031 Y149.72 E1.01546 F12000 ; Print pattern wall
G1 X158.4899 Y170.9332 E1.01546 F12000 ; Print pattern wall
G1 E-0.5 F2400 ; Retract
G0 X160.9399 Y128.5068 F12000 ; Move to next pattern
G1 E0.5 F1800 ; Un-retract
SET_PRESSURE_ADVANCE ADVANCE=0.023 ; Set pressure advance
M117 PA 0.023
G1 X182.1531 Y149.72 E1.01546 F12000 ; Print pattern wall
G1 X160.9399 Y170.9332 E1.01546 F12000 ; Print pattern wall
G1 E-0.5 F2400 ; Retract
G0 X161.5156 Y128.5068 F12000 ; Move to start next pattern wall
G1 E0.5 F1800 ; Un-retract
G1 X182.7288 Y149.72 E1.01546 F12000 ; Print pattern wall
G1 X161.5156 Y170.9332 E1.01546 F12000 ; Print pattern wall
G1 E-0.5 F2400 ; Retract
G0 X162.0913 Y128.5068 F12000 ; Move to start next pattern wall
G1 E0.5 F1800 ; Un-retract
G1 X183.3045 Y149.72 E1.01546 F12000 ; Print pattern wall
G1 X162.0913 Y170.9332 E1.01546 F12000 ; Print pattern wall
G1 E-0.5 F2400 ; Retract
G0 X164.5413 Y128.5068 F12000 ; Move to next pattern
G1 E0.5 F1800 ; Un-retract
SET_PRESSURE_ADVANCE ADVANCE=0.024 ; Set pressure advance
M117 PA 0.024
G1 X185.7545 Y149.72 E1.01546 F12000 ; Print pattern wall
G1 X164.5413 Y170.9332 E1.01546 F12000 ; Print pattern wall
G1 E-0.5 F2400 ; Retract
G0 X165.117 Y128.5068 F12000 ; Move to start next pattern wall
G1 E0.5 F1800 ; Un-retract
G1 X186.3302 Y149.72 E1.01546 F12000 ; Print pattern wall
G1 X165.117 Y170.9332 E1.01546 F12000 ; Print pattern wall
G1 E-0.5 F2400 ; Retract
G0 X165.6927 Y128.5068 F12000 ; Move to start next pattern wall
G1 E0.5 F1800 ; Un-retract
G1 X186.9059 Y149.72 E1.01546 F12000 ; Print pattern wall
G1 X165.6927 Y170.9332 E1.01546 F12000 ; Print pattern wall
G1 E-0.5 F2400 ; Retract
G0 X168.1427 Y128.5068 F12000 ; Move to next pattern
G1 E0.5 F1800 ; Un-retract
SET_PRESSURE_ADVANCE ADVANCE=0.025 ; Set pressure advance
M117 PA 0.025
G1 X189.3559 Y149.72 E1.01546 F12000 ; Print pattern wall
G1 X168.1427 Y170.9332 E1.01546 F12000 ; Print pattern wall
G1 E-0.5 F2400 ; Retract
G0 X168.7184 Y128.5068 F12000 ; Move to start next pattern wall
G1 E0.5 F1800 ; Un-retract
G1 X189.9316 Y149.72 E1.01546 F12000 ; Print pattern wall
G1 X168.7184 Y170.9332 E1.01546 F12000 ; Print pattern wall
G1 E-0.5 F2400 ; Retract
G0 X169.2941 Y128.5068 F12000 ; Move to start next pattern wall
G1 E0.5 F1800 ; Un-retract
G1 X190.5073 Y149.72 E1.01546 F12000 ; Print pattern wall
G1 X169.2941 Y170.9332 E1.01546 F12000 ; Print pattern wall
G1 E-0.5 F2400 ; Retract
G0 X171.7441 Y128.5068 F12000 ; Move to next pattern
G1 E0.5 F1800 ; Un-retract
SET_PRESSURE_ADVANCE ADVANCE=0.026 ; Set pressure advance
M117 PA 0.026
G1 X192.9573 Y149.72 E1.01546 F12000 ; Print pattern wall
G1 X171.7441 Y170.9332 E1.01546 F12000 ; Print pattern wall
G1 E-0.5 F2400 ; Retract
G0 X172.3198 Y128.5068 F12000 ; Move to start next pattern wall
G1 E0.5 F1800 ; Un-retract
G1 X193.533 Y149.72 E1.01546 F12000 ; Print pattern wall
G1 X172.3198 Y170.9332 E1.01546 F12000 ; Print pattern wall
G1 E-0.5 F2400 ; Retract
G0 X172.8955 Y128.5068 F12000 ; Move to start next pattern wall
G1 E0.5 F1800 ; Un-retract
G1 X194.1087 Y149.72 E1.01546 F12000 ; Print pattern wall
G1 X172.8955 Y170.9332 E1.01546 F12000 ; Print pattern wall
G1 E-0.5 F2400 ; Retract
G0 X175.3455 Y128.5068 F12000 ; Move to next pattern
G1 E0.5 F1800 ; Un-retract
SET_PRESSURE_ADVANCE ADVANCE=0.027 ; Set pressure advance
M117 PA 0.027
G1 X196.5587 Y149.72 E1.01546 F12000 ; Print pattern wall
G1 X175.3455 Y170.9332 E1.01546 F12000 ; Print pattern wall
G1 E-0.5 F2400 ; Retract
G0 X175.9212 Y128.5068 F12000 ; Move to start next pattern wall
G1 E0.5 F1800 ; Un-retract
G1 X197.1344 Y149.72 E1.01546 F12000 ; Print pattern wall
G1 X175.9212 Y170.9332 E1.01546 F12000 ; Print pattern wall
G1 E-0.5 F2400 ; Retract
G0 X176.4969 Y128.5068 F12000 ; Move to start next pattern wall
G1 E0.5 F1800 ; Un-retract
G1 X197.7101 Y149.72 E1.01546 F12000 ; Print pattern wall
G1 X176.4969 Y170.9332 E1.01546 F12000 ; Print pattern wall
G1 E-0.5 F2400 ; Retract
G0 X178.9469 Y128.5068 F12000 ; Move to next pattern
G1 E0.5 F1800 ; Un-retract
SET_PRESSURE_ADVANCE ADVANCE=0.028 ; Set pressure advance
M117 PA 0.028
G1 X200.1601 Y149.72 E1.01546 F12000 ; Print pattern wall
G1 X178.9469 Y170.9332 E1.01546 F12000 ; Print pattern wall
G1 E-0.5 F2400 ; Retract
G0 X179.5226 Y128.5068 F12000 ; Move to start next pattern wall
G1 E0.5 F1800 ; Un-retract
G1 X200.7358 Y149.72 E1.01546 F12000 ; Print pattern wall
G1 X179.5226 Y170.9332 E1.01546 F12000 ; Print pattern wall
G1 E-0.5 F2400 ; Retract
G0 X180.0982 Y128.5068 F12000 ; Move to start next pattern wall
G1 E0.5 F1800 ; Un-retract
G1 X201.3115 Y149.72 E1.01546 F12000 ; Print pattern wall
G1 X180.0982 Y170.9332 E1.01546 F12000 ; Print pattern wall
G1 E-0.5 F2400 ; Retract
G0 X182.5482 Y128.5068 F12000 ; Move to next pattern
G1 E0.5 F1800 ; Un-retract
SET_PRESSURE_ADVANCE ADVANCE=0.029 ; Set pressure advance
M117 PA 0.029
G1 X203.7615 Y149.72 E1.01546 F12000 ; Print pattern wall
G1 X182.5482 Y170.9332 E1.01546 F12000 ; Print pattern wall
G1 E-0.5 F2400 ; Retract
G0 X183.1239 Y128.5068 F12000 ; Move to start next pattern wall
G1 E0.5 F1800 ; Un-retract
G1 X204.3371 Y149.72 E1.01546 F12000 ; Print pattern wall
G1 X183.1239 Y170.9332 E1.01546 F12000 ; Print pattern wall
G1 E-0.5 F2400 ; Retract
G0 X183.6996 Y128.5068 F12000 ; Move to start next pattern wall
G1 E0.5 F1800 ; Un-retract
G1 X204.9128 Y149.72 E1.01546 F12000 ; Print pattern wall
G1 X183.6996 Y170.9332 E1.01546 F12000 ; Print pattern wall
G1 E-0.5 F2400 ; Retract
G0 X186.1496 Y128.5068 F12000 ; Move to next pattern
G1 E0.5 F1800 ; Un-retract
SET_PRESSURE_ADVANCE ADVANCE=0.03 ; Set pressure advance
M117 PA 0.03
G1 X207.3628 Y149.72 E1.01546 F12000 ; Print pattern wall
G1 X186.1496 Y170.9332 E1.01546 F12000 ; Print pattern wall
G1 E-0.5 F2400 ; Retract
G0 X186.7253 Y128.5068 F12000 ; Move to start next pattern wall
G1 E0.5 F1800 ; Un-retract
G1 X207.9385 Y149.72 E1.01546 F12000 ; Print pattern wall
G1 X186.7253 Y170.9332 E1.01546 F12000 ; Print pattern wall
G1 E-0.5 F2400 ; Retract
G0 X187.301 Y128.5068 F12000 ; Move to start next pattern wall
G1 E0.5 F1800 ; Un-retract
G1 X208.5142 Y149.72 E1.01546 F12000 ; Print pattern wall
G1 X187.301 Y170.9332 E1.01546 F12000 ; Print pattern wall
G1 E-0.5 F2400 ; Retract
G0 X114.1217 Y128.5068 F12000 ; Move back to start position
G1 E0.5 F1800 ; Un-retract
G0 Z0.6 F12000 ; Move to layer height
SET_PRESSURE_ADVANCE ADVANCE=0.01 ; Set pressure advance
M117 PA 0.01
G1 X135.3349 Y149.72 E1.01546 F12000 ; Print pattern wall
G1 X114.1217 Y170.9332 E1.01546 F12000 ; Print pattern wall
G1 E-0.5 F2400 ; Retract
G0 X114.6974 Y128.5068 F12000 ; Move to start next pattern wall
G1 E0.5 F1800 ; Un-retract
G1 X135.9106 Y149.72 E1.01546 F12000 ; Print pattern wall
G1 X114.6974 Y170.9332 E1.01546 F12000 ; Print pattern wall
G1 E-0.5 F2400 ; Retract
G0 X115.2731 Y128.5068 F12000 ; Move to start next pattern wall
G1 E0.5 F1800 ; Un-retract
G1 X136.4863 Y149.72 E1.01546 F12000 ; Print pattern wall
G1 X115.2731 Y170.9332 E1.01546 F12000 ; Print pattern wall
G1 E-0.5 F2400 ; Retract
G0 X117.7231 Y128.5068 F12000 ; Move to next pattern
G1 E0.5 F1800 ; Un-retract
SET_PRESSURE_ADVANCE ADVANCE=0.011 ; Set pressure advance
M117 PA 0.011
G1 X138.9363 Y149.72 E1.01546 F12000 ; Print pattern wall
G1 X117.7231 Y170.9332 E1.01546 F12000 ; Print pattern wall
G1 E-0.5 F2400 ; Retract
G0 X118.2988 Y128.5068 F12000 ; Move to start next pattern wall
G1 E0.5 F1800 ; Un-retract
G1 X139.512 Y149.72 E1.01546 F12000 ; Print pattern wall
G1 X118.2988 Y170.9332 E1.01546 F12000 ; Print pattern wall
G1 E-0.5 F2400 ; Retract
G0 X118.8745 Y128.5068 F12000 ; Move to start next pattern wall
G1 E0.5 F1800 ; Un-retract
G1 X140.0877 Y149.72 E1.01546 F12000 ; Print pattern wall
G1 X118.8745 Y170.9332 E1.01546 F12000 ; Print pattern wall
G1 E-0.5 F2400 ; Retract
G0 X121.3245 Y128.5068 F12000 ; Move to next pattern
G1 E0.5 F1800 ; Un-retract
SET_PRESSURE_ADVANCE ADVANCE=0.012 ; Set pressure advance
M117 PA 0.012
G1 X142.5377 Y149.72 E1.01546 F12000 ; Print pattern wall
G1 X121.3245 Y170.9332 E1.01546 F12000 ; Print pattern wall
G1 E-0.5 F2400 ; Retract
G0 X121.9002 Y128.5068 F12000 ; Move to start next pattern wall
G1 E0.5 F1800 ; Un-retract
G1 X143.1134 Y149.72 E1.01546 F12000 ; Print pattern wall
G1 X121.9002 Y170.9332 E1.01546 F12000 ; Print pattern wall
G1 E-0.5 F2400 ; Retract
G0 X122.4759 Y128.5068 F12000 ; Move to start next pattern wall
G1 E0.5 F1800 ; Un-retract
G1 X143.6891 Y149.72 E1.01546 F12000 ; Print pattern wall
G1 X122.4759 Y170.9332 E1.01546 F12000 ; Print pattern wall
G1 E-0.5 F2400 ; Retract
G0 X124.9259 Y128.5068 F12000 ; Move to next pattern
G1 E0.5 F1800 ; Un-retract
SET_PRESSURE_ADVANCE ADVANCE=0.013 ; Set pressure advance
M117 PA 0.013
G1 X146.1391 Y149.72 E1.01546 F12000 ; Print pattern wall
G1 X124.9259 Y170.9332 E1.01546 F12000 ; Print pattern wall
G1 E-0.5 F2400 ; Retract
G0 X125.5016 Y128.5068 F12000 ; Move to start next pattern wall
G1 E0.5 F1800 ; Un-retract
G1 X146.7148 Y149.72 E1.01546 F12000 ; Print pattern wall
G1 X125.5016 Y170.9332 E1.01546 F12000 ; Print pattern wall
G1 E-0.5 F2400 ; Retract
G0 X126.0773 Y128.5068 F12000 ; Move to start next pattern wall
G1 E0.5 F1800 ; Un-retract
G1 X147.2905 Y149.72 E1.01546 F12000 ; Print pattern wall
G1 X126.0773 Y170.9332 E1.01546 F12000 ; Print pattern wall
G1 E-0.5 F2400 ; Retract
G0 X128.5273 Y128.5068 F12000 ; Move to next pattern
G1 E0.5 F1800 ; Un-retract
SET_PRESSURE_ADVANCE ADVANCE=0.014 ; Set pressure advance
M117 PA 0.014
G1 X149.7405 Y149.72 E1.01546 F12000 ; Print pattern wall
G1 X128.5273 Y170.9332 E1.01546 F12000 ; Print pattern wall
G1 E-0.5 F2400 ; Retract
G0 X129.103 Y128.5068 F12000 ; Move to start next pattern wall
G1 E0.5 F1800 ; Un-retract
G1 X150.3162 Y149.72 E1.01546 F12000 ; Print pattern wall
G1 X129.103 Y170.9332 E1.01546 F12000 ; Print pattern wall
G1 E-0.5 F2400 ; Retract
G0 X129.6787 Y128.5068 F12000 ; Move to start next pattern wall
G1 E0.5 F1800 ; Un-retract
G1 X150.8919 Y149.72 E1.01546 F12000 ; Print pattern wall
G1 X129.6787 Y170.9332 E1.01546 F12000 ; Print pattern wall
G1 E-0.5 F2400 ; Retract
G0 X132.1287 Y128.5068 F12000 ; Move to next pattern
G1 E0.5 F1800 ; Un-retract
SET_PRESSURE_ADVANCE ADVANCE=0.015 ; Set pressure advance
M117 PA 0.015
G1 X153.3419 Y149.72 E1.01546 F12000 ; Print pattern wall
G1 X132.1287 Y170.9332 E1.01546 F12000 ; Print pattern wall
G1 E-0.5 F2400 ; Retract
G0 X132.7044 Y128.5068 F12000 ; Move to start next pattern wall
G1 E0.5 F1800 ; Un-retract
G1 X153.9176 Y149.72 E1.01546 F12000 ; Print pattern wall
G1 X132.7044 Y170.9332 E1.01546 F12000 ; Print pattern wall
G1 E-0.5 F2400 ; Retract
G0 X133.2801 Y128.5068 F12000 ; Move to start next pattern wall
G1 E0.5 F1800 ; Un-retract
G1 X154.4933 Y149.72 E1.01546 F12000 ; Print pattern wall
G1 X133.2801 Y170.9332 E1.01546 F12000 ; Print pattern wall
G1 E-0.5 F2400 ; Retract
G0 X135.7301 Y128.5068 F12000 ; Move to next pattern
G1 E0.5 F1800 ; Un-retract
SET_PRESSURE_ADVANCE ADVANCE=0.016 ; Set pressure advance
M117 PA 0.016
G1 X156.9433 Y149.72 E1.01546 F12000 ; Print pattern wall
G1 X135.7301 Y170.9332 E1.01546 F12000 ; Print pattern wall
G1 E-0.5 F2400 ; Retract
G0 X136.3058 Y128.5068 F12000 ; Move to start next pattern wall
G1 E0.5 F1800 ; Un-retract
G1 X157.519 Y149.72 E1.01546 F12000 ; Print pattern wall
G1 X136.3058 Y170.9332 E1.01546 F12000 ; Print pattern wall
G1 E-0.5 F2400 ; Retract
G0 X136.8815 Y128.5068 F12000 ; Move to start next pattern wall
G1 E0.5 F1800 ; Un-retract
G1 X158.0947 Y149.72 E1.01546 F12000 ; Print pattern wall
G1 X136.8815 Y170.9332 E1.01546 F12000 ; Print pattern wall
G1 E-0.5 F2400 ; Retract
G0 X139.3315 Y128.5068 F12000 ; Move to next pattern
G1 E0.5 F1800 ; Un-retract
SET_PRESSURE_ADVANCE ADVANCE=0.017 ; Set pressure advance
M117 PA 0.017
G1 X160.5447 Y149.72 E1.01546 F12000 ; Print pattern wall
G1 X139.3315 Y170.9332 E1.01546 F12000 ; Print pattern wall
G1 E-0.5 F2400 ; Retract
G0 X139.9072 Y128.5068 F12000 ; Move to start next pattern wall
G1 E0.5 F1800 ; Un-retract
G1 X161.1204 Y149.72 E1.01546 F12000 ; Print pattern wall
G1 X139.9072 Y170.9332 E1.01546 F12000 ; Print pattern wall
G1 E-0.5 F2400 ; Retract
G0 X140.4829 Y128.5068 F12000 ; Move to start next pattern wall
G1 E0.5 F1800 ; Un-retract
G1 X161.6961 Y149.72 E1.01546 F12000 ; Print pattern wall
G1 X140.4829 Y170.9332 E1.01546 F12000 ; Print pattern wall
G1 E-0.5 F2400 ; Retract
G0 X142.9329 Y128.5068 F12000 ; Move to next pattern
G1 E0.5 F1800 ; Un-retract
SET_PRESSURE_ADVANCE ADVANCE=0.018 ; Set pressure advance
M117 PA 0.018
G1 X164.1461 Y149.72 E1.01546 F12000 ; Print pattern wall
G1 X142.9329 Y170.9332 E1.01546 F12000 ; Print pattern wall
G1 E-0.5 F2400 ; Retract
G0 X143.5086 Y128.5068 F12000 ; Move to start next pattern wall
G1 E0.5 F1800 ; Un-retract
G1 X164.7218 Y149.72 E1.01546 F12000 ; Print pattern wall
G1 X143.5086 Y170.9332 E1.01546 F12000 ; Print pattern wall
G1 E-0.5 F2400 ; Retract
G0 X144.0843 Y128.5068 F12000 ; Move to start next pattern wall
G1 E0.5 F1800 ; Un-retract
G1 X165.2975 Y149.72 E1.01546 F12000 ; Print pattern wall
G1 X144.0843 Y170.9332 E1.01546 F12000 ; Print pattern wall
G1 E-0.5 F2400 ; Retract
G0 X146.5343 Y128.5068 F12000 ; Move to next pattern
G1 E0.5 F1800 ; Un-retract
SET_PRESSURE_ADVANCE ADVANCE=0.019 ; Set pressure advance
M117 PA 0.019
G1 X167.7475 Y149.72 E1.01546 F12000 ; Print pattern wall
G1 X146.5343 Y170.9332 E1.01546 F12000 ; Print pattern wall
G1 E-0.5 F2400 ; Retract
G0 X147.11 Y128.5068 F12000 ; Move to start next pattern wall
G1 E0.5 F1800 ; Un-retract
G1 X168.3232 Y149.72 E1.01546 F12000 ; Print pattern wall
G1 X147.11 Y170.9332 E1.01546 F12000 ; Print pattern wall
G1 E-0.5 F2400 ; Retract
G0 X147.6857 Y128.5068 F12000 ; Move to start next pattern wall
G1 E0.5 F1800 ; Un-retract
G1 X168.8989 Y149.72 E1.01546 F12000 ; Print pattern wall
G1 X147.6857 Y170.9332 E1.01546 F12000 ; Print pattern wall
G1 E-0.5 F2400 ; Retract
G0 X150.1357 Y128.5068 F12000 ; Move to next pattern
G1 E0.5 F1800 ; Un-retract
SET_PRESSURE_ADVANCE ADVANCE=0.02 ; Set pressure advance
M117 PA 0.02
G1 X171.3489 Y149.72 E1.01546 F12000 ; Print pattern wall
G1 X150.1357 Y170.9332 E1.01546 F12000 ; Print pattern wall
G1 E-0.5 F2400 ; Retract
G0 X150.7114 Y128.5068 F12000 ; Move to start next pattern wall
G1 E0.5 F1800 ; Un-retract
G1 X171.9246 Y149.72 E1.01546 F12000 ; Print pattern wall
G1 X150.7114 Y170.9332 E1.01546 F12000 ; Print pattern wall
G1 E-0.5 F2400 ; Retract
G0 X151.2871 Y128.5068 F12000 ; Move to start next pattern wall
G1 E0.5 F1800 ; Un-retract
G1 X172.5003 Y149.72 E1.01546 F12000 ; Print pattern wall
G1 X151.2871 Y170.9332 E1.01546 F12000 ; Print pattern wall
G1 E-0.5 F2400 ; Retract
G0 X153.7371 Y128.5068 F12000 ; Move to next pattern
G1 E0.5 F1800 ; Un-retract
SET_PRESSURE_ADVANCE ADVANCE=0.021 ; Set pressure advance
M117 PA 0.021
G1 X174.9503 Y149.72 E1.01546 F12000 ; Print pattern wall
G1 X153.7371 Y170.9332 E1.01546 F12000 ; Print pattern wall
G1 E-0.5 F2400 ; Retract
G0 X154.3128 Y128.5068 F12000 ; Move to start next pattern wall
G1 E0.5 F1800 ; Un-retract
G1 X175.526 Y149.72 E1.01546 F12000 ; Print pattern wall
G1 X154.3128 Y170.9332 E1.01546 F12000 ; Print pattern wall
G1 E-0.5 F2400 ; Retract
G0 X154.8885 Y128.5068 F12000 ; Move to start next pattern wall
G1 E0.5 F1800 ; Un-retract
G1 X176.1017 Y149.72 E1.01546 F12000 ; Print pattern wall
G1 X154.8885 Y170.9332 E1.01546 F12000 ; Print pattern wall
G1 E-0.5 F2400 ; Retract
G0 X157.3385 Y128.5068 F12000 ; Move to next pattern
G1 E0.5 F1800 ; Un-retract
SET_PRESSURE_ADVANCE ADVANCE=0.022 ; Set pressure advance
M117 PA 0.022
G1 X178.5517 Y149.72 E1.01546 F12000 ; Print pattern wall
G1 X157.3385 Y170.9332 E1.01546 F12000 ; Print pattern wall
G1 E-0.5 F2400 ; Retract
G0 X157.9142 Y128.5068 F12000 ; Move to start next pattern wall
G1 E0.5 F1800 ; Un-retract
G1 X179.1274 Y149.72 E1.01546 F12000 ; Print pattern wall
G1 X157.9142 Y170.9332 E1.01546 F12000 ; Print pattern wall
G1 E-0.5 F2400 ; Retract
G0 X158.4899 Y128.5068 F12000 ; Move to start next pattern wall
G1 E0.5 F1800 ; Un-retract
G1 X179.7031 Y149.72 E1.01546 F12000 ; Print pattern wall
G1 X158.4899 Y170.9332 E1.01546 F12000 ; Print pattern wall
G1 E-0.5 F2400 ; Retract
G0 X160.9399 Y128.5068 F12000 ; Move to next pattern
G1 E0.5 F1800 ; Un-retract
SET_PRESSURE_ADVANCE ADVANCE=0.023 ; Set pressure advance
M117 PA 0.023
G1 X182.1531 Y149.72 E1.01546 F12000 ; Print pattern wall
G1 X160.9399 Y170.9332 E1.01546 F12000 ; Print pattern wall
G1 E-0.5 F2400 ; Retract
G0 X161.5156 Y128.5068 F12000 ; Move to start next pattern wall
G1 E0.5 F1800 ; Un-retract
G1 X182.7288 Y149.72 E1.01546 F12000 ; Print pattern wall
G1 X161.5156 Y170.9332 E1.01546 F12000 ; Print pattern wall
G1 E-0.5 F2400 ; Retract
G0 X162.0913 Y128.5068 F12000 ; Move to start next pattern wall
G1 E0.5 F1800 ; Un-retract
G1 X183.3045 Y149.72 E1.01546 F12000 ; Print pattern wall
G1 X162.0913 Y170.9332 E1.01546 F12000 ; Print pattern wall
G1 E-0.5 F2400 ; Retract
G0 X164.5413 Y128.5068 F12000 ; Move to next pattern
G1 E0.5 F1800 ; Un-retract
SET_PRESSURE_ADVANCE ADVANCE=0.024 ; Set pressure advance
M117 PA 0.024
G1 X185.7545 Y149.72 E1.01546 F12000 ; Print pattern wall
G1 X164.5413 Y170.9332 E1.01546 F12000 ; Print pattern wall
G1 E-0.5 F2400 ; Retract
G0 X165.117 Y128.5068 F12000 ; Move to start next pattern wall
G1 E0.5 F1800 ; Un-retract
G1 X186.3302 Y149.72 E1.01546 F12000 ; Print pattern wall
G1 X165.117 Y170.9332 E1.01546 F12000 ; Print pattern wall
G1 E-0.5 F2400 ; Retract
G0 X165.6927 Y128.5068 F12000 ; Move to start next pattern wall
G1 E0.5 F1800 ; Un-retract
G1 X186.9059 Y149.72 E1.01546 F12000 ; Print pattern wall
G1 X165.6927 Y170.9332 E1.01546 F12000 ; Print pattern wall
G1 E-0.5 F2400 ; Retract
G0 X168.1427 Y128.5068 F12000 ; Move to next pattern
G1 E0.5 F1800 ; Un-retract
SET_PRESSURE_ADVANCE ADVANCE=0.025 ; Set pressure advance
M117 PA 0.025
G1 X189.3559 Y149.72 E1.01546 F12000 ; Print pattern wall
G1 X168.1427 Y170.9332 E1.01546 F12000 ; Print pattern wall
G1 E-0.5 F2400 ; Retract
G0 X168.7184 Y128.5068 F12000 ; Move to start next pattern wall
G1 E0.5 F1800 ; Un-retract
G1 X189.9316 Y149.72 E1.01546 F12000 ; Print pattern wall
G1 X168.7184 Y170.9332 E1.01546 F12000 ; Print pattern wall
G1 E-0.5 F2400 ; Retract
G0 X169.2941 Y128.5068 F12000 ; Move to start next pattern wall
G1 E0.5 F1800 ; Un-retract
G1 X190.5073 Y149.72 E1.01546 F12000 ; Print pattern wall
G1 X169.2941 Y170.9332 E1.01546 F12000 ; Print pattern wall
G1 E-0.5 F2400 ; Retract
G0 X171.7441 Y128.5068 F12000 ; Move to next pattern
G1 E0.5 F1800 ; Un-retract
SET_PRESSURE_ADVANCE ADVANCE=0.026 ; Set pressure advance
M117 PA 0.026
G1 X192.9573 Y149.72 E1.01546 F12000 ; Print pattern wall
G1 X171.7441 Y170.9332 E1.01546 F12000 ; Print pattern wall
G1 E-0.5 F2400 ; Retract
G0 X172.3198 Y128.5068 F12000 ; Move to start next pattern wall
G1 E0.5 F1800 ; Un-retract
G1 X193.533 Y149.72 E1.01546 F12000 ; Print pattern wall
G1 X172.3198 Y170.9332 E1.01546 F12000 ; Print pattern wall
G1 E-0.5 F2400 ; Retract
G0 X172.8955 Y128.5068 F12000 ; Move to start next pattern wall
G1 E0.5 F1800 ; Un-retract
G1 X194.1087 Y149.72 E1.01546 F12000 ; Print pattern wall
G1 X172.8955 Y170.9332 E1.01546 F12000 ; Print pattern wall
G1 E-0.5 F2400 ; Retract
G0 X175.3455 Y128.5068 F12000 ; Move to next pattern
G1 E0.5 F1800 ; Un-retract
SET_PRESSURE_ADVANCE ADVANCE=0.027 ; Set pressure advance
M117 PA 0.027
G1 X196.5587 Y149.72 E1.01546 F12000 ; Print pattern wall
G1 X175.3455 Y170.9332 E1.01546 F12000 ; Print pattern wall
G1 E-0.5 F2400 ; Retract
G0 X175.9212 Y128.5068 F12000 ; Move to start next pattern wall
G1 E0.5 F1800 ; Un-retract
G1 X197.1344 Y149.72 E1.01546 F12000 ; Print pattern wall
G1 X175.9212 Y170.9332 E1.01546 F12000 ; Print pattern wall
G1 E-0.5 F2400 ; Retract
G0 X176.4969 Y128.5068 F12000 ; Move to start next pattern wall
G1 E0.5 F1800 ; Un-retract
G1 X197.7101 Y149.72 E1.01546 F12000 ; Print pattern wall
G1 X176.4969 Y170.9332 E1.01546 F12000 ; Print pattern wall
G1 E-0.5 F2400 ; Retract
G0 X178.9469 Y128.5068 F12000 ; Move to next pattern
G1 E0.5 F1800 ; Un-retract
SET_PRESSURE_ADVANCE ADVANCE=0.028 ; Set pressure advance
M117 PA 0.028
G1 X200.1601 Y149.72 E1.01546 F12000 ; Print pattern wall
G1 X178.9469 Y170.9332 E1.01546 F12000 ; Print pattern wall
G1 E-0.5 F2400 ; Retract
G0 X179.5226 Y128.5068 F12000 ; Move to start next pattern wall
G1 E0.5 F1800 ; Un-retract
G1 X200.7358 Y149.72 E1.01546 F12000 ; Print pattern wall
G1 X179.5226 Y170.9332 E1.01546 F12000 ; Print pattern wall
G1 E-0.5 F2400 ; Retract
G0 X180.0982 Y128.5068 F12000 ; Move to start next pattern wall
G1 E0.5 F1800 ; Un-retract
G1 X201.3115 Y149.72 E1.01546 F12000 ; Print pattern wall
G1 X180.0982 Y170.9332 E1.01546 F12000 ; Print pattern wall
G1 E-0.5 F2400 ; Retract
G0 X182.5482 Y128.5068 F12000 ; Move to next pattern
G1 E0.5 F1800 ; Un-retract
SET_PRESSURE_ADVANCE ADVANCE=0.029 ; Set pressure advance
M117 PA 0.029
G1 X203.7615 Y149.72 E1.01546 F12000 ; Print pattern wall
G1 X182.5482 Y170.9332 E1.01546 F12000 ; Print pattern wall
G1 E-0.5 F2400 ; Retract
G0 X183.1239 Y128.5068 F12000 ; Move to start next pattern wall
G1 E0.5 F1800 ; Un-retract
G1 X204.3371 Y149.72 E1.01546 F12000 ; Print pattern wall
G1 X183.1239 Y170.9332 E1.01546 F12000 ; Print pattern wall
G1 E-0.5 F2400 ; Retract
G0 X183.6996 Y128.5068 F12000 ; Move to start next pattern wall
G1 E0.5 F1800 ; Un-retract
G1 X204.9128 Y149.72 E1.01546 F12000 ; Print pattern wall
G1 X183.6996 Y170.9332 E1.01546 F12000 ; Print pattern wall
G1 E-0.5 F2400 ; Retract
G0 X186.1496 Y128.5068 F12000 ; Move to next pattern
G1 E0.5 F1800 ; Un-retract
SET_PRESSURE_ADVANCE ADVANCE=0.03 ; Set pressure advance
M117 PA 0.03
G1 X207.3628 Y149.72 E1.01546 F12000 ; Print pattern wall
G1 X186.1496 Y170.9332 E1.01546 F12000 ; Print pattern wall
G1 E-0.5 F2400 ; Retract
G0 X186.7253 Y128.5068 F12000 ; Move to start next pattern wall
G1 E0.5 F1800 ; Un-retract
G1 X207.9385 Y149.72 E1.01546 F12000 ; Print pattern wall
G1 X186.7253 Y170.9332 E1.01546 F12000 ; Print pattern wall
G1 E-0.5 F2400 ; Retract
G0 X187.301 Y128.5068 F12000 ; Move to start next pattern wall
G1 E0.5 F1800 ; Un-retract
G1 X208.5142 Y149.72 E1.01546 F12000 ; Print pattern wall
G1 X187.301 Y170.9332 E1.01546 F12000 ; Print pattern wall
G1 E-0.5 F2400 ; Retract
G0 X114.1217 Y128.5068 F12000 ; Move back to start position
G1 E0.5 F1800 ; Un-retract
G0 Z0.8 F12000 ; Move to layer height
SET_PRESSURE_ADVANCE ADVANCE=0.01 ; Set pressure advance
M117 PA 0.01
G1 X135.3349 Y149.72 E1.01546 F12000 ; Print pattern wall
G1 X114.1217 Y170.9332 E1.01546 F12000 ; Print pattern wall
G1 E-0.5 F2400 ; Retract
G0 X114.6974 Y128.5068 F12000 ; Move to start next pattern wall
G1 E0.5 F1800 ; Un-retract
G1 X135.9106 Y149.72 E1.01546 F12000 ; Print pattern wall
G1 X114.6974 Y170.9332 E1.01546 F12000 ; Print pattern wall
G1 E-0.5 F2400 ; Retract
G0 X115.2731 Y128.5068 F12000 ; Move to start next pattern wall
G1 E0.5 F1800 ; Un-retract
G1 X136.4863 Y149.72 E1.01546 F12000 ; Print pattern wall
G1 X115.2731 Y170.9332 E1.01546 F12000 ; Print pattern wall
G1 E-0.5 F2400 ; Retract
G0 X117.7231 Y128.5068 F12000 ; Move to next pattern
G1 E0.5 F1800 ; Un-retract
SET_PRESSURE_ADVANCE ADVANCE=0.011 ; Set pressure advance
M117 PA 0.011
G1 X138.9363 Y149.72 E1.01546 F12000 ; Print pattern wall
G1 X117.7231 Y170.9332 E1.01546 F12000 ; Print pattern wall
G1 E-0.5 F2400 ; Retract
G0 X118.2988 Y128.5068 F12000 ; Move to start next pattern wall
G1 E0.5 F1800 ; Un-retract
G1 X139.512 Y149.72 E1.01546 F12000 ; Print pattern wall
G1 X118.2988 Y170.9332 E1.01546 F12000 ; Print pattern wall
G1 E-0.5 F2400 ; Retract
G0 X118.8745 Y128.5068 F12000 ; Move to start next pattern wall
G1 E0.5 F1800 ; Un-retract
G1 X140.0877 Y149.72 E1.01546 F12000 ; Print pattern wall
G1 X118.8745 Y170.9332 E1.01546 F12000 ; Print pattern wall
G1 E-0.5 F2400 ; Retract
G0 X121.3245 Y128.5068 F12000 ; Move to next pattern
G1 E0.5 F1800 ; Un-retract
SET_PRESSURE_ADVANCE ADVANCE=0.012 ; Set pressure advance
M117 PA 0.012
G1 X142.5377 Y149.72 E1.01546 F12000 ; Print pattern wall
G1 X121.3245 Y170.9332 E1.01546 F12000 ; Print pattern wall
G1 E-0.5 F2400 ; Retract
G0 X121.9002 Y128.5068 F12000 ; Move to start next pattern wall
G1 E0.5 F1800 ; Un-retract
G1 X143.1134 Y149.72 E1.01546 F12000 ; Print pattern wall
G1 X121.9002 Y170.9332 E1.01546 F12000 ; Print pattern wall
G1 E-0.5 F2400 ; Retract
G0 X122.4759 Y128.5068 F12000 ; Move to start next pattern wall
G1 E0.5 F1800 ; Un-retract
G1 X143.6891 Y149.72 E1.01546 F12000 ; Print pattern wall
G1 X122.4759 Y170.9332 E1.01546 F12000 ; Print pattern wall
G1 E-0.5 F2400 ; Retract
G0 X124.9259 Y128.5068 F12000 ; Move to next pattern
G1 E0.5 F1800 ; Un-retract
SET_PRESSURE_ADVANCE ADVANCE=0.013 ; Set pressure advance
M117 PA 0.013
G1 X146.1391 Y149.72 E1.01546 F12000 ; Print pattern wall
G1 X124.9259 Y170.9332 E1.01546 F12000 ; Print pattern wall
G1 E-0.5 F2400 ; Retract
G0 X125.5016 Y128.5068 F12000 ; Move to start next pattern wall
G1 E0.5 F1800 ; Un-retract
G1 X146.7148 Y149.72 E1.01546 F12000 ; Print pattern wall
G1 X125.5016 Y170.9332 E1.01546 F12000 ; Print pattern wall
G1 E-0.5 F2400 ; Retract
G0 X126.0773 Y128.5068 F12000 ; Move to start next pattern wall
G1 E0.5 F1800 ; Un-retract
G1 X147.2905 Y149.72 E1.01546 F12000 ; Print pattern wall
G1 X126.0773 Y170.9332 E1.01546 F12000 ; Print pattern wall
G1 E-0.5 F2400 ; Retract
G0 X128.5273 Y128.5068 F12000 ; Move to next pattern
G1 E0.5 F1800 ; Un-retract
SET_PRESSURE_ADVANCE ADVANCE=0.014 ; Set pressure advance
M117 PA 0.014
G1 X149.7405 Y149.72 E1.01546 F12000 ; Print pattern wall
G1 X128.5273 Y170.9332 E1.01546 F12000 ; Print pattern wall
G1 E-0.5 F2400 ; Retract
G0 X129.103 Y128.5068 F12000 ; Move to start next pattern wall
G1 E0.5 F1800 ; Un-retract
G1 X150.3162 Y149.72 E1.01546 F12000 ; Print pattern wall
G1 X129.103 Y170.9332 E1.01546 F12000 ; Print pattern wall
G1 E-0.5 F2400 ; Retract
G0 X129.6787 Y128.5068 F12000 ; Move to start next pattern wall
G1 E0.5 F1800 ; Un-retract
G1 X150.8919 Y149.72 E1.01546 F12000 ; Print pattern wall
G1 X129.6787 Y170.9332 E1.01546 F12000 ; Print pattern wall
G1 E-0.5 F2400 ; Retract
G0 X132.1287 Y128.5068 F12000 ; Move to next pattern
G1 E0.5 F1800 ; Un-retract
SET_PRESSURE_ADVANCE ADVANCE=0.015 ; Set pressure advance
M117 PA 0.015
G1 X153.3419 Y149.72 E1.01546 F12000 ; Print pattern wall
G1 X132.1287 Y170.9332 E1.01546 F12000 ; Print pattern wall
G1 E-0.5 F2400 ; Retract
G0 X132.7044 Y128.5068 F12000 ; Move to start next pattern wall
G1 E0.5 F1800 ; Un-retract
G1 X153.9176 Y149.72 E1.01546 F12000 ; Print pattern wall
G1 X132.7044 Y170.9332 E1.01546 F12000 ; Print pattern wall
G1 E-0.5 F2400 ; Retract
G0 X133.2801 Y128.5068 F12000 ; Move to start next pattern wall
G1 E0.5 F1800 ; Un-retract
G1 X154.4933 Y149.72 E1.01546 F12000 ; Print pattern wall
G1 X133.2801 Y170.9332 E1.01546 F12000 ; Print pattern wall
G1 E-0.5 F2400 ; Retract
G0 X135.7301 Y128.5068 F12000 ; Move to next pattern
G1 E0.5 F1800 ; Un-retract
SET_PRESSURE_ADVANCE ADVANCE=0.016 ; Set pressure advance
M117 PA 0.016
G1 X156.9433 Y149.72 E1.01546 F12000 ; Print pattern wall
G1 X135.7301 Y170.9332 E1.01546 F12000 ; Print pattern wall
G1 E-0.5 F2400 ; Retract
G0 X136.3058 Y128.5068 F12000 ; Move to start next pattern wall
G1 E0.5 F1800 ; Un-retract
G1 X157.519 Y149.72 E1.01546 F12000 ; Print pattern wall
G1 X136.3058 Y170.9332 E1.01546 F12000 ; Print pattern wall
G1 E-0.5 F2400 ; Retract
G0 X136.8815 Y128.5068 F12000 ; Move to start next pattern wall
G1 E0.5 F1800 ; Un-retract
G1 X158.0947 Y149.72 E1.01546 F12000 ; Print pattern wall
G1 X136.8815 Y170.9332 E1.01546 F12000 ; Print pattern wall
G1 E-0.5 F2400 ; Retract
G0 X139.3315 Y128.5068 F12000 ; Move to next pattern
G1 E0.5 F1800 ; Un-retract
SET_PRESSURE_ADVANCE ADVANCE=0.017 ; Set pressure advance
M117 PA 0.017
G1 X160.5447 Y149.72 E1.01546 F12000 ; Print pattern wall
G1 X139.3315 Y170.9332 E1.01546 F12000 ; Print pattern wall
G1 E-0.5 F2400 ; Retract
G0 X139.9072 Y128.5068 F12000 ; Move to start next pattern wall
G1 E0.5 F1800 ; Un-retract
G1 X161.1204 Y149.72 E1.01546 F12000 ; Print pattern wall
G1 X139.9072 Y170.9332 E1.01546 F12000 ; Print pattern wall
G1 E-0.5 F2400 ; Retract
G0 X140.4829 Y128.5068 F12000 ; Move to start next pattern wall
G1 E0.5 F1800 ; Un-retract
G1 X161.6961 Y149.72 E1.01546 F12000 ; Print pattern wall
G1 X140.4829 Y170.9332 E1.01546 F12000 ; Print pattern wall
G1 E-0.5 F2400 ; Retract
G0 X142.9329 Y128.5068 F12000 ; Move to next pattern
G1 E0.5 F1800 ; Un-retract
SET_PRESSURE_ADVANCE ADVANCE=0.018 ; Set pressure advance
M117 PA 0.018
G1 X164.1461 Y149.72 E1.01546 F12000 ; Print pattern wall
G1 X142.9329 Y170.9332 E1.01546 F12000 ; Print pattern wall
G1 E-0.5 F2400 ; Retract
G0 X143.5086 Y128.5068 F12000 ; Move to start next pattern wall
G1 E0.5 F1800 ; Un-retract
G1 X164.7218 Y149.72 E1.01546 F12000 ; Print pattern wall
G1 X143.5086 Y170.9332 E1.01546 F12000 ; Print pattern wall
G1 E-0.5 F2400 ; Retract
G0 X144.0843 Y128.5068 F12000 ; Move to start next pattern wall
G1 E0.5 F1800 ; Un-retract
G1 X165.2975 Y149.72 E1.01546 F12000 ; Print pattern wall
G1 X144.0843 Y170.9332 E1.01546 F12000 ; Print pattern wall
G1 E-0.5 F2400 ; Retract
G0 X146.5343 Y128.5068 F12000 ; Move to next pattern
G1 E0.5 F1800 ; Un-retract
SET_PRESSURE_ADVANCE ADVANCE=0.019 ; Set pressure advance
M117 PA 0.019
G1 X167.7475 Y149.72 E1.01546 F12000 ; Print pattern wall
G1 X146.5343 Y170.9332 E1.01546 F12000 ; Print pattern wall
G1 E-0.5 F2400 ; Retract
G0 X147.11 Y128.5068 F12000 ; Move to start next pattern wall
G1 E0.5 F1800 ; Un-retract
G1 X168.3232 Y149.72 E1.01546 F12000 ; Print pattern wall
G1 X147.11 Y170.9332 E1.01546 F12000 ; Print pattern wall
G1 E-0.5 F2400 ; Retract
G0 X147.6857 Y128.5068 F12000 ; Move to start next pattern wall
G1 E0.5 F1800 ; Un-retract
G1 X168.8989 Y149.72 E1.01546 F12000 ; Print pattern wall
G1 X147.6857 Y170.9332 E1.01546 F12000 ; Print pattern wall
G1 E-0.5 F2400 ; Retract
G0 X150.1357 Y128.5068 F12000 ; Move to next pattern
G1 E0.5 F1800 ; Un-retract
SET_PRESSURE_ADVANCE ADVANCE=0.02 ; Set pressure advance
M117 PA 0.02
G1 X171.3489 Y149.72 E1.01546 F12000 ; Print pattern wall
G1 X150.1357 Y170.9332 E1.01546 F12000 ; Print pattern wall
G1 E-0.5 F2400 ; Retract
G0 X150.7114 Y128.5068 F12000 ; Move to start next pattern wall
G1 E0.5 F1800 ; Un-retract
G1 X171.9246 Y149.72 E1.01546 F12000 ; Print pattern wall
G1 X150.7114 Y170.9332 E1.01546 F12000 ; Print pattern wall
G1 E-0.5 F2400 ; Retract
G0 X151.2871 Y128.5068 F12000 ; Move to start next pattern wall
G1 E0.5 F1800 ; Un-retract
G1 X172.5003 Y149.72 E1.01546 F12000 ; Print pattern wall
G1 X151.2871 Y170.9332 E1.01546 F12000 ; Print pattern wall
G1 E-0.5 F2400 ; Retract
G0 X153.7371 Y128.5068 F12000 ; Move to next pattern
G1 E0.5 F1800 ; Un-retract
SET_PRESSURE_ADVANCE ADVANCE=0.021 ; Set pressure advance
M117 PA 0.021
G1 X174.9503 Y149.72 E1.01546 F12000 ; Print pattern wall
G1 X153.7371 Y170.9332 E1.01546 F12000 ; Print pattern wall
G1 E-0.5 F2400 ; Retract
G0 X154.3128 Y128.5068 F12000 ; Move to start next pattern wall
G1 E0.5 F1800 ; Un-retract
G1 X175.526 Y149.72 E1.01546 F12000 ; Print pattern wall
G1 X154.3128 Y170.9332 E1.01546 F12000 ; Print pattern wall
G1 E-0.5 F2400 ; Retract
G0 X154.8885 Y128.5068 F12000 ; Move to start next pattern wall
G1 E0.5 F1800 ; Un-retract
G1 X176.1017 Y149.72 E1.01546 F12000 ; Print pattern wall
G1 X154.8885 Y170.9332 E1.01546 F12000 ; Print pattern wall
G1 E-0.5 F2400 ; Retract
G0 X157.3385 Y128.5068 F12000 ; Move to next pattern
G1 E0.5 F1800 ; Un-retract
SET_PRESSURE_ADVANCE ADVANCE=0.022 ; Set pressure advance
M117 PA 0.022
G1 X178.5517 Y149.72 E1.01546 F12000 ; Print pattern wall
G1 X157.3385 Y170.9332 E1.01546 F12000 ; Print pattern wall
G1 E-0.5 F2400 ; Retract
G0 X157.9142 Y128.5068 F12000 ; Move to start next pattern wall
G1 E0.5 F1800 ; Un-retract
G1 X179.1274 Y149.72 E1.01546 F12000 ; Print pattern wall
G1 X157.9142 Y170.9332 E1.01546 F12000 ; Print pattern wall
G1 E-0.5 F2400 ; Retract
G0 X158.4899 Y128.5068 F12000 ; Move to start next pattern wall
G1 E0.5 F1800 ; Un-retract
G1 X179.7031 Y149.72 E1.01546 F12000 ; Print pattern wall
G1 X158.4899 Y170.9332 E1.01546 F12000 ; Print pattern wall
G1 E-0.5 F2400 ; Retract
G0 X160.9399 Y128.5068 F12000 ; Move to next pattern
G1 E0.5 F1800 ; Un-retract
SET_PRESSURE_ADVANCE ADVANCE=0.023 ; Set pressure advance
M117 PA 0.023
G1 X182.1531 Y149.72 E1.01546 F12000 ; Print pattern wall
G1 X160.9399 Y170.9332 E1.01546 F12000 ; Print pattern wall
G1 E-0.5 F2400 ; Retract
G0 X161.5156 Y128.5068 F12000 ; Move to start next pattern wall
G1 E0.5 F1800 ; Un-retract
G1 X182.7288 Y149.72 E1.01546 F12000 ; Print pattern wall
G1 X161.5156 Y170.9332 E1.01546 F12000 ; Print pattern wall
G1 E-0.5 F2400 ; Retract
G0 X162.0913 Y128.5068 F12000 ; Move to start next pattern wall
G1 E0.5 F1800 ; Un-retract
G1 X183.3045 Y149.72 E1.01546 F12000 ; Print pattern wall
G1 X162.0913 Y170.9332 E1.01546 F12000 ; Print pattern wall
G1 E-0.5 F2400 ; Retract
G0 X164.5413 Y128.5068 F12000 ; Move to next pattern
G1 E0.5 F1800 ; Un-retract
SET_PRESSURE_ADVANCE ADVANCE=0.024 ; Set pressure advance
M117 PA 0.024
G1 X185.7545 Y149.72 E1.01546 F12000 ; Print pattern wall
G1 X164.5413 Y170.9332 E1.01546 F12000 ; Print pattern wall
G1 E-0.5 F2400 ; Retract
G0 X165.117 Y128.5068 F12000 ; Move to start next pattern wall
G1 E0.5 F1800 ; Un-retract
G1 X186.3302 Y149.72 E1.01546 F12000 ; Print pattern wall
G1 X165.117 Y170.9332 E1.01546 F12000 ; Print pattern wall
G1 E-0.5 F2400 ; Retract
G0 X165.6927 Y128.5068 F12000 ; Move to start next pattern wall
G1 E0.5 F1800 ; Un-retract
G1 X186.9059 Y149.72 E1.01546 F12000 ; Print pattern wall
G1 X165.6927 Y170.9332 E1.01546 F12000 ; Print pattern wall
G1 E-0.5 F2400 ; Retract
G0 X168.1427 Y128.5068 F12000 ; Move to next pattern
G1 E0.5 F1800 ; Un-retract
SET_PRESSURE_ADVANCE ADVANCE=0.025 ; Set pressure advance
M117 PA 0.025
G1 X189.3559 Y149.72 E1.01546 F12000 ; Print pattern wall
G1 X168.1427 Y170.9332 E1.01546 F12000 ; Print pattern wall
G1 E-0.5 F2400 ; Retract
G0 X168.7184 Y128.5068 F12000 ; Move to start next pattern wall
G1 E0.5 F1800 ; Un-retract
G1 X189.9316 Y149.72 E1.01546 F12000 ; Print pattern wall
G1 X168.7184 Y170.9332 E1.01546 F12000 ; Print pattern wall
G1 E-0.5 F2400 ; Retract
G0 X169.2941 Y128.5068 F12000 ; Move to start next pattern wall
G1 E0.5 F1800 ; Un-retract
G1 X190.5073 Y149.72 E1.01546 F12000 ; Print pattern wall
G1 X169.2941 Y170.9332 E1.01546 F12000 ; Print pattern wall
G1 E-0.5 F2400 ; Retract
G0 X171.7441 Y128.5068 F12000 ; Move to next pattern
G1 E0.5 F1800 ; Un-retract
SET_PRESSURE_ADVANCE ADVANCE=0.026 ; Set pressure advance
M117 PA 0.026
G1 X192.9573 Y149.72 E1.01546 F12000 ; Print pattern wall
G1 X171.7441 Y170.9332 E1.01546 F12000 ; Print pattern wall
G1 E-0.5 F2400 ; Retract
G0 X172.3198 Y128.5068 F12000 ; Move to start next pattern wall
G1 E0.5 F1800 ; Un-retract
G1 X193.533 Y149.72 E1.01546 F12000 ; Print pattern wall
G1 X172.3198 Y170.9332 E1.01546 F12000 ; Print pattern wall
G1 E-0.5 F2400 ; Retract
G0 X172.8955 Y128.5068 F12000 ; Move to start next pattern wall
G1 E0.5 F1800 ; Un-retract
G1 X194.1087 Y149.72 E1.01546 F12000 ; Print pattern wall
G1 X172.8955 Y170.9332 E1.01546 F12000 ; Print pattern wall
G1 E-0.5 F2400 ; Retract
G0 X175.3455 Y128.5068 F12000 ; Move to next pattern
G1 E0.5 F1800 ; Un-retract
SET_PRESSURE_ADVANCE ADVANCE=0.027 ; Set pressure advance
M117 PA 0.027
G1 X196.5587 Y149.72 E1.01546 F12000 ; Print pattern wall
G1 X175.3455 Y170.9332 E1.01546 F12000 ; Print pattern wall
G1 E-0.5 F2400 ; Retract
G0 X175.9212 Y128.5068 F12000 ; Move to start next pattern wall
G1 E0.5 F1800 ; Un-retract
G1 X197.1344 Y149.72 E1.01546 F12000 ; Print pattern wall
G1 X175.9212 Y170.9332 E1.01546 F12000 ; Print pattern wall
G1 E-0.5 F2400 ; Retract
G0 X176.4969 Y128.5068 F12000 ; Move to start next pattern wall
G1 E0.5 F1800 ; Un-retract
G1 X197.7101 Y149.72 E1.01546 F12000 ; Print pattern wall
G1 X176.4969 Y170.9332 E1.01546 F12000 ; Print pattern wall
G1 E-0.5 F2400 ; Retract
G0 X178.9469 Y128.5068 F12000 ; Move to next pattern
G1 E0.5 F1800 ; Un-retract
SET_PRESSURE_ADVANCE ADVANCE=0.028 ; Set pressure advance
M117 PA 0.028
G1 X200.1601 Y149.72 E1.01546 F12000 ; Print pattern wall
G1 X178.9469 Y170.9332 E1.01546 F12000 ; Print pattern wall
G1 E-0.5 F2400 ; Retract
G0 X179.5226 Y128.5068 F12000 ; Move to start next pattern wall
G1 E0.5 F1800 ; Un-retract
G1 X200.7358 Y149.72 E1.01546 F12000 ; Print pattern wall
G1 X179.5226 Y170.9332 E1.01546 F12000 ; Print pattern wall
G1 E-0.5 F2400 ; Retract
G0 X180.0982 Y128.5068 F12000 ; Move to start next pattern wall
G1 E0.5 F1800 ; Un-retract
G1 X201.3115 Y149.72 E1.01546 F12000 ; Print pattern wall
G1 X180.0982 Y170.9332 E1.01546 F12000 ; Print pattern wall
G1 E-0.5 F2400 ; Retract
G0 X182.5482 Y128.5068 F12000 ; Move to next pattern
G1 E0.5 F1800 ; Un-retract
SET_PRESSURE_ADVANCE ADVANCE=0.029 ; Set pressure advance
M117 PA 0.029
G1 X203.7615 Y149.72 E1.01546 F12000 ; Print pattern wall
G1 X182.5482 Y170.9332 E1.01546 F12000 ; Print pattern wall
G1 E-0.5 F2400 ; Retract
G0 X183.1239 Y128.5068 F12000 ; Move to start next pattern wall
G1 E0.5 F1800 ; Un-retract
G1 X204.3371 Y149.72 E1.01546 F12000 ; Print pattern wall
G1 X183.1239 Y170.9332 E1.01546 F12000 ; Print pattern wall
G1 E-0.5 F2400 ; Retract
G0 X183.6996 Y128.5068 F12000 ; Move to start next pattern wall
G1 E0.5 F1800 ; Un-retract
G1 X204.9128 Y149.72 E1.01546 F12000 ; Print pattern wall
G1 X183.6996 Y170.9332 E1.01546 F12000 ; Print pattern wall
G1 E-0.5 F2400 ; Retract
G0 X186.1496 Y128.5068 F12000 ; Move to next pattern
G1 E0.5 F1800 ; Un-retract
SET_PRESSURE_ADVANCE ADVANCE=0.03 ; Set pressure advance
M117 PA 0.03
G1 X207.3628 Y149.72 E1.01546 F12000 ; Print pattern wall
G1 X186.1496 Y170.9332 E1.01546 F12000 ; Print pattern wall
G1 E-0.5 F2400 ; Retract
G0 X186.7253 Y128.5068 F12000 ; Move to start next pattern wall
G1 E0.5 F1800 ; Un-retract
G1 X207.9385 Y149.72 E1.01546 F12000 ; Print pattern wall
G1 X186.7253 Y170.9332 E1.01546 F12000 ; Print pattern wall
G1 E-0.5 F2400 ; Retract
G0 X187.301 Y128.5068 F12000 ; Move to start next pattern wall
G1 E0.5 F1800 ; Un-retract
G1 X208.5142 Y149.72 E1.01546 F12000 ; Print pattern wall
G1 X187.301 Y170.9332 E1.01546 F12000 ; Print pattern wall
SET_PRESSURE_ADVANCE ADVANCE=0.01 ; Set pressure advance back to start value
M117 PA 0.01
G1 E-0.5 F2400 ; Retract
G0 Z5.8 F12000 ; Z raise
M104 S0 ; Turn off hotend
M140 S0 ; Turn off bed
M107    ; Turn off fan
;
; End G-code
;
END_PRINT
;
; FINISH
;
