; HEADER_BLOCK_START
; generated by OrcaSlicer 1.7.0-beta on 2023-09-27 at 19:05:26
; total layer number: 175
; HEADER_BLOCK_END

; THUMBNAIL_BLOCK_START
; THUMBNAIL_BLOCK_END

; external perimeters extrusion width = 0.40mm
; perimeters extrusion width = 0.46mm
; infill extrusion width = 0.64mm
; solid infill extrusion width = 0.56mm
; top infill extrusion width = 0.40mm
; first layer extrusion width = 0.50mm

; EXECUTABLE_BLOCK_START
EXCLUDE_OBJECT_DEFINE NAME=VzCube.stl_id_0_copy_0 CENTER=161,157 POLYGON=[[143.5,143.5],[147.5,139.5],[149.693,138.5],[172.047,138.5],[174.5,139.5],[178.5,143.5],[178.5,170.5],[174.5,174.5],[172.047,175.5],[149.693,175.5],[147.5,174.5],[143.5,170.5],[143.5,143.5]]
M73 P0 R44
;TYPE:Custom
START_PRINT T_BED=110 T_EXTRUDER=260
G90
G21
M83 ; use relative distances for extrusion
; Filament gcode

    PRESSURE_ADVANCE_SELECT FILAMENT=ABS
M106 S0
;LAYER_CHANGE
;Z:0.2
;HEIGHT:0.2
;BEFORE_LAYER_CHANGE
;0.2
G92 E0

;_SET_FAN_SPEED_CHANGING_LAYER
SET_VELOCITY_LIMIT ACCEL=5000 ACCEL_TO_DECEL=2500
G1 E-.5 F2400
G1 X145.339 Y141.439 F12000
G1 Z.2
G1 E.5 F1800
;TYPE:Skirt
;WIDTH:0.5
G1 F3000
G1 X145.439 Y141.339 E.00498
G1 X147.5 Y140.486 E.0785
G1 X174.5 Y140.486 E.95023
G1 X176.561 Y141.339 E.0785
G1 X176.661 Y141.439 E.00498
G1 X177.514 Y143.5 E.0785
G1 X177.514 Y170.5 E.95023
G1 X176.661 Y172.561 E.0785
G1 X176.561 Y172.661 E.00498
G1 X174.5 Y173.514 E.0785
G1 X147.5 Y173.514 E.95023
G1 X145.439 Y172.661 E.0785
G1 X145.339 Y172.561 E.00498
G1 X144.486 Y170.5 E.0785
G1 X144.486 Y143.5 E.95023
G1 X145.324 Y141.476 E.07709
G1 X145.663 Y141.763 F12000
G1 F3000
G1 X145.763 Y141.663 E.00498
G1 X147.5 Y140.943 E.06618
G1 X174.5 Y140.943 E.95023
G1 X176.237 Y141.663 E.06618
G1 X176.337 Y141.763 E.00498
G1 X177.057 Y143.5 E.06618
G1 X177.057 Y170.5 E.95023
G1 X176.337 Y172.237 E.06618
G1 X176.237 Y172.337 E.00498
G1 X174.5 Y173.057 E.06618
G1 X147.5 Y173.057 E.95023
G1 X145.763 Y172.337 E.06618
G1 X145.663 Y172.237 E.00498
G1 X144.943 Y170.5 E.06618
G1 X144.943 Y143.5 E.95023
G1 X145.647 Y141.8 E.06478
; printing object VzCube.stl id:0 copy 0
G1 E-.5 F2400
EXCLUDE_OBJECT_START NAME=VzCube.stl_id_0_copy_0
G1 X174.25 Y170.25 F12000
G1 E.5 F1800
;TYPE:Outer wall
G1 F3000
G1 X147.75 Y170.25 E.93264
G1 X147.75 Y143.75 E.93264
G1 X174.25 Y143.75 E.93264
G1 X174.25 Y170.21 E.93123
G1 X173.793 Y169.793 F12000
;TYPE:Inner wall
G1 F3000
G1 X148.207 Y169.793 E.90046
G1 X148.207 Y144.207 E.90046
G1 X173.793 Y144.207 E.90046
G1 X173.793 Y169.753 E.89906
G1 E-.5 F2400
G1 X159.07 Y169.083 F12000
G1 E.5 F1800
G1 F3000
G1 X159.05 Y169.336 E.00893
G1 X148.664 Y169.336 E.36553
G1 X148.664 Y158.96 E.36517
G1 X148.913 Y158.936 E.00878
G1 X149.036 Y159.581 E.02309
G2 X159.031 Y169.076 I11.959 J-2.58 E.51543
G1 E-.5 F2400
G1 X155.981 Y168.664 F12000
G1 E.5 F1800
G1 F3000
G1 X155.933 Y168.879 E.00775
G1 X149.121 Y168.879 E.23973
G1 X149.121 Y162.063 E.23987
G1 X149.337 Y162.016 E.00779
G1 X149.566 Y162.519 E.01942
G2 X155.944 Y168.648 I11.481 J-5.565 E.31792
G1 E-.5 F2400
G1 X163.992 Y168.868 F12000
G1 E.5 F1800
G1 F3000
G1 X164.011 Y168.862 E.00071
G2 X173.084 Y158.923 I-3.017 J-11.866 E.50143
G1 X173.336 Y158.944 E.00888
G1 X173.336 Y169.336 E.36572
G1 X162.948 Y169.336 E.36558
G1 X162.926 Y169.086 E.00883
G2 X163.445 Y168.991 I-1.932 J-12.09 E.01857
G1 X163.953 Y168.877 E.01832
G1 E-.5 F2400
G1 X166.015 Y168.661 F12000
G1 E.5 F1800
G1 F3000
G2 X172.659 Y162.016 I-5.015 J-11.66 E.33876
G1 X172.879 Y162.061 E.00788
G1 X172.879 Y168.879 E.23994
G1 X166.061 Y168.879 E.23996
G1 X166.023 Y168.7 E.00643
G1 E-.5 F2400
G1 X169.493 Y164.991 F12000
G1 X169.846 Y164.597
G1 X170.197 Y164.169
G1 X170.54 Y163.705
G1 X170.835 Y163.265
G1 X171.132 Y162.771
G1 X171.384 Y162.306
G1 X171.613 Y161.829
G1 X171.83 Y161.321
G1 X172.031 Y160.779
G1 X172.198 Y160.252
G1 X172.334 Y159.74
G1 X172.451 Y159.2
G1 X172.54 Y158.654
G1 X173.084 Y155.077
G1 E.5 F1800
G1 F3000
G2 X162.922 Y144.914 I-12.088 J1.926 E.54056
G1 X162.944 Y144.664 E.00884
G1 X173.336 Y144.664 E.36573
G1 X173.336 Y155.056 E.36572
G1 X173.124 Y155.073 E.00747
G1 E-.5 F2400
G1 X172.659 Y151.984 F12000
G1 E.5 F1800
G1 F3000
G2 X166.015 Y145.339 I-11.66 J5.016 E.33876
G1 X166.061 Y145.121 E.00784
G1 X172.879 Y145.121 E.23996
G1 X172.879 Y151.939 E.23994
G1 X172.699 Y151.976 E.00647
G1 E-.5 F2400
G1 X169.104 Y148.616 F12000
G1 X168.697 Y148.241
G1 X168.273 Y147.885
G1 X167.833 Y147.551
G1 X167.377 Y147.237
G1 X166.907 Y146.946
G1 X166.423 Y146.677
G1 X165.927 Y146.431
G1 X165.421 Y146.21
G1 X164.927 Y146.02
G1 X164.402 Y145.846
G1 X163.868 Y145.697
G1 X163.305 Y145.57
G1 X162.761 Y145.473
G1 X162.234 Y145.433
G1 X161.706 Y145.409
G1 X161.132 Y145.398
G1 X160.605 Y145.402
G1 X160.031 Y145.419
G1 X159.503 Y145.449
G1 X158.955 Y145.52
G1 X158.412 Y145.63
G1 X157.876 Y145.765
G1 X157.346 Y145.926
G1 X156.825 Y146.112
G1 X156.313 Y146.322
G1 X155.812 Y146.557
G1 X155.323 Y146.815
G1 X154.846 Y147.095
G1 X154.383 Y147.398
G1 X153.955 Y147.708
G1 X153.522 Y148.052
G1 X153.106 Y148.418
G1 X152.691 Y148.819
G1 X152.328 Y149.204
G1 X151.984 Y149.605
G1 X151.644 Y150.041
G1 X151.311 Y150.512
G1 X151.026 Y150.959
G1 X150.739 Y151.46
G1 X150.499 Y151.931
G1 X148.913 Y155.064
G1 E.5 F1800
G1 F3000
G1 X148.664 Y155.04 E.00878
G1 X148.664 Y144.664 E.36517
G1 X159.047 Y144.664 E.36542
G1 X159.067 Y144.918 E.00894
G2 X148.919 Y155.024 I1.942 J12.098 E.53833
G1 E-.5 F2400
G1 X149.337 Y151.984 F12000
G1 E.5 F1800
G1 F3000
G1 X149.121 Y151.937 E.00779
G1 X149.121 Y145.121 E.23987
G1 X155.93 Y145.121 E.23964
G1 X155.978 Y145.336 E.00774
G2 X149.353 Y151.947 I5.054 J11.69 E.33728
G1 E-.5 F2400
G1 X149.4 Y157.263 F12000
G1 X149.413 Y157.813
G1 X149.44 Y158.365
G1 X149.497 Y158.915
G1 X149.601 Y159.459
G1 X149.731 Y159.997
G1 X149.886 Y160.528
G1 X150.065 Y161.051
G1 X150.27 Y161.565
G1 X150.499 Y162.069
G1 X150.739 Y162.54
G1 X151.013 Y163.02
G1 X151.31 Y163.487
G1 X151.629 Y163.939
G1 X151.968 Y164.376
G1 X152.328 Y164.796
G1 X152.708 Y165.199
G1 X153.106 Y165.583
G1 X153.522 Y165.948
G1 X153.955 Y166.292
G1 X154.404 Y166.616
G1 X154.846 Y166.905
G1 X155.323 Y167.185
G1 X155.813 Y167.444
G1 X156.336 Y167.687
G1 X156.825 Y167.888
G1 X157.323 Y168.066
G1 X157.852 Y168.228
G1 X158.411 Y168.37
G1 X158.93 Y168.476
G1 X159.478 Y168.549
G1 X160.03 Y168.581
G1 X160.581 Y168.598
G1 X161.131 Y168.602
G1 X161.682 Y168.592
G1 X162.233 Y168.567
G1 X162.785 Y168.523
G1 X163.33 Y168.426
G1 X163.869 Y168.302
G1 X163.981 Y168.271
G1 X163.891 Y167.948
G1 E.5 F1800
;TYPE:Outer wall
G1 F3000
G1 X163.786 Y167.976 E.00383
G3 X160.615 Y145.682 I-2.781 J-10.977 E1.33715
G1 X161.129 Y145.676 E.01809
G3 X164.304 Y167.832 I-.123 J11.323 E1.1299
G1 X163.93 Y167.937 E.01368
G1 X163.908 Y168.418 F12000
;TYPE:Inner wall
G1 F3000
G1 X163.899 Y168.419 E.00034
G3 X160.599 Y145.225 I-2.893 J-11.42 E1.39111
G1 X161.135 Y145.218 E.01886
G3 X164.437 Y168.269 I-.129 J11.78 E1.1755
G1 X163.947 Y168.407 E.01793
G1 X164.176 Y169.081 F12000
;TYPE:Gap infill
;WIDTH:0.144613
G1 F3000
G1 X164.338 Y169.059 E.00128
;WIDTH:0.186305
G1 X164.5 Y169.037 E.00181
;WIDTH:0.227996
G1 X164.662 Y169.015 E.00233
;WIDTH:0.275572
G1 X164.815 Y168.99 E.00276
;WIDTH:0.324589
G1 X164.962 Y168.966 E.00324
;WIDTH:0.372228
G1 X165.11 Y168.943 E.00379
;WIDTH:0.419866
G1 X165.257 Y168.919 E.00434
;WIDTH:0.458848
G1 X165.449 Y168.884 E.00623
;WIDTH:0.498236
G1 X165.631 Y168.85 E.00651
;WIDTH:0.535904
G1 X165.814 Y168.816 E.00705
G1 X166.692 Y168.632 F12000
;WIDTH:0.264682
G1 F3000
G1 X167.665 Y168.391 E.01712
G1 E-.5 F2400
G1 X162.709 Y169.227 F12000
G1 E.5 F1800
;WIDTH:0.676575
G1 F3000
G1 X162.299 Y169.253 E.02004
;WIDTH:0.664039
G1 X161.716 Y169.277 E.02793
;WIDTH:0.606601
G1 X160.563 Y169.284 E.05004
G1 X159.965 Y169.266 E.02594
;WIDTH:0.64014
G1 X159.288 Y169.229 E.03118
G1 X157.827 Y169.081 F12000
;WIDTH:0.103453
G1 F3000
G1 X157.619 Y169.055 E.00098
;WIDTH:0.14774
G1 X157.471 Y169.033 E.0012
;WIDTH:0.191953
G1 X157.323 Y169.011 E.00171
;WIDTH:0.236165
G1 X157.176 Y168.989 E.00222
;WIDTH:0.282215
G1 X157.022 Y168.965 E.00287
;WIDTH:0.326652
G1 X156.88 Y168.941 E.00314
;WIDTH:0.375604
G1 X156.739 Y168.916 E.00368
;WIDTH:0.424556
G1 X156.597 Y168.892 E.00422
;WIDTH:0.473508
G1 X156.456 Y168.868 E.00476
;WIDTH:0.5265
G1 X156.181 Y168.814 E.01041
G1 X155.301 Y168.637 F12000
;WIDTH:0.425318
G1 F3000
G1 X154.33 Y168.384 E.02953
G1 E-.5 F2400
G1 X149.612 Y163.665 F12000
G1 E.5 F1800
;WIDTH:0.339472
G1 F3000
G1 X149.367 Y162.696 E.02284
G1 X149.186 Y161.815 F12000
;WIDTH:0.53603
G1 F3000
G1 X149.147 Y161.613 E.00781
;WIDTH:0.50356
G1 X149.106 Y161.401 E.00766
;WIDTH:0.470404
G1 X149.082 Y161.253 E.00494
;WIDTH:0.420976
G1 X149.057 Y161.105 E.00437
;WIDTH:0.371548
G1 X149.032 Y160.958 E.00379
;WIDTH:0.322119
G1 X149.008 Y160.81 E.00322
;WIDTH:0.272692
G1 X149.007 Y160.804 E.0001
;WIDTH:0.271008
G1 X148.985 Y160.65 E.00274
;WIDTH:0.228986
G1 X148.963 Y160.495 E.00224
;WIDTH:0.186964
G1 X148.941 Y160.34 E.00173
;WIDTH:0.144942
G1 X148.918 Y160.186 E.00123
G1 X149.105 Y158.688 F12000
;WIDTH:0.606823
G1 F3000
G1 X148.791 Y158.435 E.01751
;WIDTH:0.656243
G1 X148.753 Y158.403 E.00236
G1 X148.74 Y158.136 E.01264
;WIDTH:0.627221
G1 X148.728 Y157.869 E.01204
;WIDTH:0.608867
G1 X148.714 Y156.728 E.04973
G1 X148.728 Y156.131 E.02598
;WIDTH:0.675814
G1 X148.753 Y155.597 E.02608
G1 X148.772 Y155.581 E.00122
;WIDTH:0.606823
G1 X148.791 Y155.565 E.00108
;WIDTH:0.581261
G1 X149.105 Y155.312 E.01672
G1 X148.918 Y153.814 F12000
;WIDTH:0.144942
G1 F3000
G1 X148.941 Y153.66 E.00123
;WIDTH:0.186964
G1 X148.963 Y153.505 E.00173
;WIDTH:0.228985
G1 X148.985 Y153.35 E.00224
;WIDTH:0.271007
G1 X149.007 Y153.196 E.00274
;WIDTH:0.272691
G1 X149.008 Y153.19 E.0001
;WIDTH:0.322121
G1 X149.032 Y153.042 E.00322
;WIDTH:0.371549
G1 X149.057 Y152.895 E.00379
;WIDTH:0.420977
G1 X149.082 Y152.747 E.00437
;WIDTH:0.470405
G1 X149.106 Y152.599 E.00494
;WIDTH:0.50356
G1 X149.147 Y152.387 E.00766
;WIDTH:0.53603
G1 X149.186 Y152.185 E.00781
G1 X149.367 Y151.304 F12000
;WIDTH:0.340281
G1 F3000
G1 X149.612 Y150.334 E.02292
G1 E-.5 F2400
G1 X154.09 Y146.189 F12000
G1 E.5 F1800
;TYPE:Bottom surface
;WIDTH:0.503148
G1 F6300
G1 X153.365 Y145.464 E.03631
G1 X152.715 Y145.464 E.02306
G1 X153.55 Y146.3 E.04188
G1 X153.173 Y146.573 E.01652
G1 X152.064 Y145.464 E.05557
G1 X151.413 Y145.464 E.02306
G1 X152.808 Y146.859 E.06992
G2 X152.454 Y147.156 I2.946 J3.875 E.01638
G1 X150.762 Y145.464 E.08479
G1 X150.111 Y145.464 E.02306
G1 X152.11 Y147.463 E.10018
G1 X151.779 Y147.783 E.01631
G1 X149.464 Y145.468 E.11604
G1 X149.464 Y146.119 E.02306
G1 X151.46 Y148.115 E.10005
G2 X151.152 Y148.458 I3.47 J3.428 E.01634
G1 X149.464 Y146.77 E.08461
G1 X149.464 Y147.42 E.02306
G1 X150.855 Y148.812 E.06972
G1 X150.57 Y149.177 E.01643
G1 X149.464 Y148.071 E.05541
G1 X149.464 Y148.722 E.02306
G1 X150.298 Y149.556 E.04181
G2 X150.037 Y149.946 I3.885 J2.887 E.01663
G1 X149.258 Y149.167 E.03903
G1 E-.5 F2400
G1 X154.33 Y145.616 F12000
G1 E.5 F1800
;TYPE:Gap infill
;WIDTH:0.425351
G1 F3000
G1 X155.301 Y145.363 E.02954
G1 X156.179 Y145.187 F12000
;WIDTH:0.526681
G1 F3000
G1 X156.444 Y145.135 E.01007
;WIDTH:0.485146
G1 X156.574 Y145.112 E.00448
;WIDTH:0.44062
G1 X156.692 Y145.092 E.00368
;WIDTH:0.399706
G1 X156.811 Y145.071 E.0033
;WIDTH:0.358792
G1 X156.929 Y145.051 E.00292
;WIDTH:0.317878
G1 X157.047 Y145.03 E.00254
;WIDTH:0.273695
G1 X157.202 Y145.007 E.00277
;WIDTH:0.227896
G1 X157.35 Y144.985 E.00213
;WIDTH:0.183951
G1 X157.498 Y144.963 E.00162
;WIDTH:0.140006
G1 X157.645 Y144.941 E.00112
;WIDTH:0.103389
G1 X157.824 Y144.919 E.00084
G1 X159.285 Y144.77 F12000
;WIDTH:0.63998
G1 F3000
G1 X159.967 Y144.734 E.03142
;WIDTH:0.607265
G3 X160.574 Y144.716 I1.053 J25.357 E.02641
G1 X161.741 Y144.724 E.05068
;WIDTH:0.664088
G1 X162.299 Y144.747 E.02674
;WIDTH:0.676111
G1 X162.705 Y144.773 E.01983
G1 X164.176 Y144.919 F12000
;WIDTH:0.144613
G1 F3000
G1 X164.338 Y144.941 E.00128
;WIDTH:0.186305
G1 X164.5 Y144.963 E.00181
;WIDTH:0.227997
G1 X164.662 Y144.985 E.00233
;WIDTH:0.275572
G1 X164.815 Y145.01 E.00276
;WIDTH:0.32459
G1 X164.962 Y145.034 E.00324
;WIDTH:0.372229
G1 X165.11 Y145.057 E.00379
;WIDTH:0.419868
G1 X165.257 Y145.081 E.00434
;WIDTH:0.458846
G1 X165.449 Y145.116 E.00623
;WIDTH:0.498235
G1 X165.631 Y145.15 E.00651
;WIDTH:0.535903
G1 X165.814 Y145.184 E.00705
G1 X166.692 Y145.368 F12000
;WIDTH:0.264683
G1 F3000
G1 X167.665 Y145.609 E.01712
G1 E-.5 F2400
G1 X172.742 Y146.201 F12000
G1 E.5 F1800
;TYPE:Bottom surface
;WIDTH:0.509037
G1 F6300
G1 X172.004 Y145.464 E.03743
G1 X171.345 Y145.464 E.02366
G1 X172.536 Y146.655 E.06045
G1 X172.536 Y147.314 E.02366
G1 X170.686 Y145.464 E.09391
G1 X170.027 Y145.464 E.02366
G1 X172.536 Y147.973 E.12736
G1 X172.536 Y148.633 E.02366
G1 X169.367 Y145.464 E.16082
G1 X168.708 Y145.464 E.02366
G1 X172.536 Y149.292 E.19428
G1 X172.532 Y149.947 E.0235
G1 X167.883 Y145.298 E.23592
G1 E-.5 F2400
G1 X172.395 Y150.332 F12000
G1 E.5 F1800
;TYPE:Gap infill
;WIDTH:0.19059
G1 F3000
G1 X172.63 Y151.308 E.01141
G1 X172.817 Y152.185 F12000
;WIDTH:0.493341
G1 F3000
G1 X172.849 Y152.364 E.00632
;WIDTH:0.450691
G1 X172.882 Y152.544 E.00572
;WIDTH:0.408041
G1 X172.914 Y152.723 E.00513
;WIDTH:0.365392
G1 X172.946 Y152.902 E.00453
;WIDTH:0.319387
G1 X172.97 Y153.058 E.00336
;WIDTH:0.271384
G1 X172.993 Y153.206 E.00263
;WIDTH:0.225699
G1 X173.016 Y153.354 E.00211
;WIDTH:0.180013
G1 X173.039 Y153.502 E.00158
;WIDTH:0.141753
G1 X173.06 Y153.666 E.00126
;WIDTH:0.10292
G1 X173.081 Y153.827 E.00075
G1 X173.228 Y155.294 F12000
;WIDTH:0.652595
G1 F3000
G1 X173.26 Y155.826 E.025
;WIDTH:0.611626
G1 X173.281 Y156.41 E.02561
;WIDTH:0.603218
G1 X173.281 Y157.577 E.05032
;WIDTH:0.650285
G1 X173.26 Y158.16 E.0273
;WIDTH:0.677399
G1 X173.228 Y158.706 E.02672
G1 X173.081 Y160.173 F12000
;WIDTH:0.141015
G1 F3000
G1 X173.06 Y160.334 E.00122
;WIDTH:0.179109
G1 X173.039 Y160.494 E.0017
;WIDTH:0.224742
G1 X173.016 Y160.646 E.00214
;WIDTH:0.271384
G1 X172.993 Y160.794 E.00263
;WIDTH:0.31707
G1 X172.97 Y160.942 E.00316
;WIDTH:0.362756
G1 X172.947 Y161.09 E.00369
;WIDTH:0.406247
G1 X172.914 Y161.277 E.00532
;WIDTH:0.450691
G1 X172.882 Y161.456 E.00572
;WIDTH:0.493341
G1 X172.849 Y161.636 E.00632
;WIDTH:0.535991
G1 X172.817 Y161.815 E.00692
G1 X172.63 Y162.692 F12000
;WIDTH:0.192288
G1 F3000
G1 X172.395 Y163.668 E.01154
G1 X171.817 Y163.905 F12000
;TYPE:Bottom surface
;WIDTH:0.50391
G1 F6300
G1 X172.536 Y164.624 E.03607
G1 X172.536 Y165.276 E.02314
G1 X171.704 Y164.444 E.04176
G3 X171.429 Y164.821 I-4.195 J-2.772 E.01657
G1 X172.536 Y165.928 E.05557
G1 X172.536 Y166.58 E.02314
G1 X171.144 Y165.188 E.06987
G3 X170.848 Y165.544 I-3.996 J-3.015 E.01644
G1 X172.536 Y167.232 E.08471
G1 X172.536 Y167.884 E.02314
G1 X170.54 Y165.887 E.1002
G3 X170.218 Y166.218 I-3.724 J-3.304 E.01637
G1 X172.536 Y168.536 E.11636
G1 X171.884 Y168.536 E.02313
G1 X169.886 Y166.538 E.1003
G3 X169.544 Y166.848 I-3.432 J-3.444 E.01639
G1 X171.233 Y168.536 E.08474
G1 X170.581 Y168.536 E.02314
G1 X169.19 Y167.145 E.06982
G3 X168.822 Y167.429 I-3.171 J-3.729 E.0165
G1 X169.929 Y168.536 E.05557
G1 X169.277 Y168.536 E.02314
G1 X168.443 Y167.702 E.04184
G3 X168.054 Y167.965 I-2.957 J-3.965 E.01668
G1 X168.83 Y168.742 E.03899
G1 E-.5 F2400
G1 X160.581 Y168.598 F12000
G1 X160.03 Y168.581
G1 X159.478 Y168.549
G1 X158.93 Y168.476
G1 X158.411 Y168.37
G1 X157.852 Y168.228
G1 X157.323 Y168.066
G1 X156.825 Y167.888
G1 X156.336 Y167.687
G1 X155.813 Y167.444
G1 X155.323 Y167.185
G1 X149.294 Y163.887
G1 E.5 F1800
;WIDTH:0.508313
G1 F6300
G1 X153.938 Y168.531 E.23532
G1 X153.285 Y168.536 E.0234
G1 X149.464 Y164.715 E.19363
G1 X149.464 Y165.373 E.02358
G1 X152.627 Y168.536 E.16028
G1 X151.969 Y168.536 E.02358
G1 X149.464 Y166.031 E.12693
G1 X149.464 Y166.69 E.02358
G1 X151.31 Y168.536 E.09357
G1 X150.652 Y168.536 E.02358
G1 X149.464 Y167.348 E.06022
G1 X149.464 Y168.006 E.02358
G1 X150.2 Y168.742 E.03729
; stop printing object VzCube.stl id:0 copy 0
;LAYER_CHANGE
;Z:0.4
;HEIGHT:0.2
;BEFORE_LAYER_CHANGE
;0.4
G92 E0

EXCLUDE_OBJECT_END NAME=VzCube.stl_id_0_copy_0
;_SET_FAN_SPEED_CHANGING_LAYER
