; generated by SuperSlicer 2.5.59 on 2023-03-03 at 04:15:43 UTC


;
;

;
;
; 

; external perimeters extrusion width = 0.40mm
; perimeters extrusion width = 0.46mm
; infill extrusion width = 0.64mm
; solid infill extrusion width = 0.56mm
; top infill extrusion width = 0.40mm
; support material extrusion width = 0.46mm
; first layer extrusion width = 0.50mm

; object:{"name":"wallet-5","id":"wallet-5.stl id:0 copy 0","object_center":[165.000001,165.000001,0.000000],"boundingbox_center":[165.000001,165.000001,3.300000],"boundingbox_size":[57.000000,88.900002,6.600000]}
; plater:{"center":[165.000001,165.000001,0.000000],"boundingbox_center":[165.000001,165.000001,3.300000],"boundingbox_size":[57.000000,88.900002,6.600000]}

M73 P0 R15


; Pre-Processed for Cancel-Object support by preprocess_cancellation v0.2.0
; 1 known objects
EXCLUDE_OBJECT_DEFINE NAME=wallet_5_stl_id_0_copy_0 CENTER=166.311,152.159 POLYGON=[[136.7,120.75],[136.7,209.25],[193.3,209.25],[193.3,120.75]]
;TYPE:Custom
; custom gcode: start_gcode
START_PRINT T_BED=70 T_EXTRUDER=235
; custom gcode end: start_gcode
M107
G21 ; set units to millimeters
G90 ; use absolute coordinates
M82 ; use absolute distances for extrusion
G92 E0
; custom gcode: start_filament_gcode
; Filament gcode
PRESSURE_ADVANCE_SELECT FILAMENT=PETG
; custom gcode end: start_filament_gcode
;_TOOLCHANGE 0
M104 S235 ; set temperature
M109 S235 ; set temperature and wait for it to be reached
M190 S70 ; set bed temperature and wait for it to be reached
;LAYER_CHANGE
;Z:0.2
;HEIGHT:0.2
G1 Z0.2 F9000
M73 P0 R15
G1 E-1 F3000
M204 S1000
G1 X134.953 Y120.433 F9000
G1 E0 F1800
;TYPE:Skirt
;WIDTH:0.52
G1 X134.234 Y121.52 E0.05069
G1 X133.512 Y123.261 E0.12394
G1 X133.253 Y124.539 E0.17463
G1 X133.184 Y125.554 E0.21418
G1 X133.184 Y204.146 E3.26952
G1 X133.253 Y205.162 E3.30909
G1 X133.513 Y206.44 E3.35981
G1 X134.235 Y208.182 E3.43311
G1 X134.955 Y209.269 E3.48382
G1 X135.837 Y210.231 E3.53454
G1 X136.859 Y211.042 E3.58526
G1 X137.475 Y211.419 E3.61334
G1 X139.215 Y212.139 E3.68652
G1 X140.496 Y212.398 E3.73735
G1 X151.395 Y212.764 E4.16128
G1 X178.494 Y212.766 E5.2148
G1 X188.778 Y212.455 E5.6148
G1 X189.504 Y212.398 E5.64309
G1 X190.783 Y212.139 E5.6938
G1 X192.524 Y211.419 E5.76707
G1 X193.143 Y211.041 E5.79526
G1 X194.163 Y210.231 E5.8459
G1 X195.045 Y209.269 E5.89661
G1 X195.765 Y208.182 E5.94733
G1 X196.487 Y206.44 E6.02063
G1 X196.747 Y205.162 E6.07135
G1 X196.816 Y204.146 E6.11092
G1 X196.804 Y125.262 E9.17759
M73 P1 R15
G1 X196.656 Y123.963 E9.22844
G1 X196.488 Y123.261 E9.25649
G1 X196.031 Y122.04 E9.30718
G1 X195.047 Y120.433 E9.38044
G1 X194.166 Y119.472 E9.43112
G1 X193.145 Y118.661 E9.48181
G1 X192.53 Y118.284 E9.50987
G1 X191.343 Y117.743 E9.56056
G1 X190.087 Y117.394 E9.61124
G1 X188.788 Y117.246 E9.66209
G1 X141.212 Y117.246 E11.51162
G1 X140.489 Y117.303 E11.53983
G1 X139.211 Y117.562 E11.59052
G1 X137.47 Y118.284 E11.66377
G1 X136.855 Y118.661 E11.69183
G1 X135.834 Y119.472 E11.74252
G1 X134.953 Y120.433 E11.79321
G1 X135.316 Y120.743 F9000
G1 F1800
G1 X134.64 Y121.77 E11.84099
G1 X133.976 Y123.373 E11.90844
G1 X133.728 Y124.576 E11.95622
G1 X133.661 Y125.554 E11.99431
G1 X133.661 Y204.146 E15.04965
G1 X133.728 Y205.124 E15.08777
G1 X133.977 Y206.329 E15.13558
G1 X134.641 Y207.932 E15.20307
G1 X135.318 Y208.959 E15.25087
G1 X136.147 Y209.868 E15.29868
G1 X137.108 Y210.635 E15.34649
G1 X137.724 Y211.012 E15.37457
G1 X139.326 Y211.675 E15.44196
G1 X140.533 Y211.922 E15.48987
G1 X151.409 Y212.287 E15.91291
G1 X178.494 Y212.289 E16.96587
G1 X188.587 Y211.987 E17.35844
G1 X189.467 Y211.922 E17.39272
G1 X190.672 Y211.675 E17.44053
G1 X192.275 Y211.012 E17.508
G1 X192.894 Y210.634 E17.53617
G1 X193.853 Y209.868 E17.58391
G1 X194.682 Y208.959 E17.63172
G1 X195.359 Y207.932 E17.67953
G1 X196.023 Y206.329 E17.74702
G1 X196.272 Y205.124 E17.79483
G1 X196.339 Y204.146 E17.83294
G1 X196.329 Y125.3 E20.89816
M73 P2 R15
G1 X196.192 Y124.074 E20.9461
G1 X195.867 Y122.889 E20.99388
G1 X195.59 Y122.222 E21.02194
G1 X194.684 Y120.743 E21.08939
G1 X193.856 Y119.835 E21.13717
G1 X192.896 Y119.067 E21.18495
G1 X191.828 Y118.46 E21.23273
G1 X191.161 Y118.183 E21.26079
G1 X189.976 Y117.858 E21.30857
G1 X188.75 Y117.721 E21.3565
G1 X141.25 Y117.721 E23.20312
G1 X140.526 Y117.778 E23.23133
G1 X139.323 Y118.026 E23.27911
G1 X137.72 Y118.69 E23.34656
G1 X137.104 Y119.067 E23.37462
G1 X136.144 Y119.835 E23.4224
G1 X135.316 Y120.743 E23.47018
G92 E0
G1 E-1 F3000
; printing object wallet-5.stl id:0 copy 0
EXCLUDE_OBJECT_START NAME=wallet_5_stl_id_0_copy_0
; acceleration to travel
M204 S3000
G1 X138.156 Y122.866 F9000
; decel to extrusion
M204 S1000
G1 X139.103 Y123.573
; end travel
G1 E0 F1800
;TYPE:Internal perimeter
;WIDTH:0.5
G1 X139.067 Y123.61 E0.00192
G1 X138.696 Y124.2 E0.02788
G1 X138.466 Y124.857 E0.05383
G1 X138.393 Y125.505 E0.07809
G1 X138.393 Y204.195 E3.00902
G1 X138.466 Y204.843 E3.03328
G1 X138.696 Y205.5 E3.05923
G1 X139.067 Y206.09 E3.08519
G1 X139.56 Y206.583 E3.11115
G1 X140.15 Y206.954 E3.13711
G1 X140.807 Y207.184 E3.16306
G1 X141.455 Y207.257 E3.18732
G1 X188.545 Y207.257 E4.94127
G1 X189.193 Y207.184 E4.96553
M73 P3 R15
G1 X189.85 Y206.954 E4.99148
G1 X190.44 Y206.583 E5.01744
G1 X190.933 Y206.09 E5.0434
G1 X191.304 Y205.5 E5.06936
G1 X191.534 Y204.843 E5.09531
G1 X191.607 Y204.195 E5.11957
G1 X191.607 Y125.505 E8.0505
G1 X191.534 Y124.857 E8.07476
G1 X191.304 Y124.2 E8.10071
G1 X190.933 Y123.61 E8.12667
G1 X190.44 Y123.117 E8.15263
G1 X189.85 Y122.746 E8.17859
G1 X189.193 Y122.516 E8.20454
G1 X188.545 Y122.443 E8.2288
G1 X141.455 Y122.443 E9.98275
G1 X140.807 Y122.516 E10.00701
G1 X140.15 Y122.746 E10.03296
G1 X139.56 Y123.117 E10.05892
G1 X139.103 Y123.573 E10.08296
G1 X139.426 Y123.896 F9000
;TYPE:External perimeter
G1 F1800
G1 X139.11 Y124.399 E10.10508
G1 X138.914 Y124.96 E10.1272
G1 X138.85 Y125.53 E10.14859
G1 X138.85 Y204.17 E13.0776
G1 X138.914 Y204.74 E13.09899
G1 X139.11 Y205.301 E13.12111
G1 X139.426 Y205.804 E13.14323
G1 X139.846 Y206.224 E13.16535
G1 X140.349 Y206.54 E13.18747
G1 X140.91 Y206.736 E13.20959
G1 X141.48 Y206.8 E13.23097
G1 X188.52 Y206.8 E14.98301
G1 X189.09 Y206.736 E15.00439
G1 X189.651 Y206.54 E15.02651
G1 X190.154 Y206.224 E15.04864
G1 X190.574 Y205.804 E15.07076
G1 X190.89 Y205.301 E15.09288
G1 X191.086 Y204.74 E15.115
G1 X191.15 Y204.17 E15.13638
G1 X191.15 Y125.53 E18.0654
M73 P4 R15
G1 X191.086 Y124.96 E18.08678
G1 X190.89 Y124.399 E18.1089
G1 X190.574 Y123.896 E18.13102
G1 X190.154 Y123.476 E18.15314
G1 X189.651 Y123.16 E18.17526
G1 X189.09 Y122.964 E18.19739
G1 X188.52 Y122.9 E18.21877
G1 X141.48 Y122.9 E19.97081
G1 X140.91 Y122.964 E19.99219
G1 X140.349 Y123.16 E20.01431
G1 X139.846 Y123.476 E20.03643
G1 X139.426 Y123.896 E20.05855
;WIPE_START
M204 S4000
G1 X139.029 Y123.852 F9000
;WIPE_END
M204 S1000
G1 X138.493 Y123.099
;TYPE:Internal perimeter
G1 F1800
G1 X138.749 Y122.799 E20.07325
G1 X139.213 Y122.403 E20.09598
G1 X139.734 Y122.084 E20.11872
G1 X140.298 Y121.85 E20.14146
G1 X140.891 Y121.707 E20.1642
G1 X141.532 Y121.657 E20.18812
G1 X188.468 Y121.657 E21.93633
G1 X188.804 Y121.684 E21.94888
G1 X189.109 Y121.707 E21.96025
G1 X189.702 Y121.85 E21.98299
G1 X190.266 Y122.084 E22.00573
G1 X190.787 Y122.403 E22.02847
G1 X191.251 Y122.799 E22.0512
G1 X191.647 Y123.263 E22.07394
G1 X191.966 Y123.784 E22.09668
G1 X192.2 Y124.348 E22.11942
G1 X192.343 Y124.941 E22.14216
G1 X192.393 Y125.582 E22.16608
G1 X192.393 Y204.118 E25.09127
G1 X192.342 Y204.759 E25.1152
G1 X192.2 Y205.353 E25.13796
G1 X191.966 Y205.917 E25.16071
G1 X191.647 Y206.438 E25.18346
G1 X191.25 Y206.902 E25.20621
G1 X190.785 Y207.299 E25.22896
G1 X190.264 Y207.618 E25.25171
G1 X189.699 Y207.851 E25.27446
G1 X189.105 Y207.993 E25.29722
G1 X188.452 Y208.044 E25.32162
G1 X178.483 Y208.343 E25.69308
M73 P5 R15
G1 X151.517 Y208.343 E26.6975
G1 X141.548 Y208.044 E27.06896
G1 X140.895 Y207.993 E27.09336
G1 X140.301 Y207.851 E27.11611
G1 X139.736 Y207.618 E27.13887
G1 X139.215 Y207.299 E27.16162
G1 X138.75 Y206.902 E27.18437
G1 X138.353 Y206.438 E27.20712
G1 X138.034 Y205.917 E27.22987
G1 X137.8 Y205.353 E27.25262
G1 X137.658 Y204.759 E27.27538
G1 X137.607 Y204.118 E27.29931
G1 X137.607 Y125.582 E30.2245
G1 X137.657 Y124.941 E30.24842
G1 X137.8 Y124.348 E30.27116
G1 X138.034 Y123.784 E30.2939
G1 X138.353 Y123.263 E30.31664
G1 X138.493 Y123.099 E30.32468
G1 X138.145 Y122.802 F9000
;TYPE:External perimeter
G1 F1800
G1 X138.425 Y122.475 E30.34072
G1 X138.944 Y122.032 E30.36613
G1 X139.526 Y121.675 E30.39155
G1 X140.156 Y121.414 E30.41697
G1 X140.82 Y121.255 E30.44239
G1 X141.514 Y121.2 E30.46832
G1 X188.486 Y121.2 E32.21787
G1 X188.84 Y121.228 E32.23109
G1 X189.18 Y121.255 E32.2438
G1 X189.844 Y121.414 E32.26921
G1 X190.474 Y121.675 E32.29463
G1 X191.056 Y122.032 E32.32005
G1 X191.575 Y122.475 E32.34547
G1 X192.018 Y122.994 E32.37089
G1 X192.375 Y123.576 E32.3963
G1 X192.636 Y124.206 E32.42172
G1 X192.795 Y124.87 E32.44714
G1 X192.85 Y125.564 E32.47307
G1 X192.85 Y204.136 E35.3996
G1 X192.795 Y204.831 E35.42554
G1 X192.636 Y205.495 E35.45098
G1 X192.374 Y206.125 E35.47641
G1 X192.017 Y206.708 E35.50184
G1 X191.574 Y207.227 E35.52727
G1 X191.054 Y207.67 E35.55271
G1 X190.472 Y208.026 E35.57814
G1 X189.841 Y208.287 E35.60357
G1 X189.177 Y208.446 E35.62901
G1 X188.477 Y208.5 E35.65516
G1 X178.49 Y208.8 E36.02728
M73 P6 R15
G1 X151.51 Y208.8 E37.0322
G1 X141.523 Y208.5 E37.40433
G1 X140.823 Y208.446 E37.43048
G1 X140.159 Y208.287 E37.45591
G1 X139.528 Y208.026 E37.48134
G1 X138.946 Y207.67 E37.50678
G1 X138.426 Y207.227 E37.53221
G1 X137.983 Y206.708 E37.55764
G1 X137.626 Y206.125 E37.58308
G1 X137.364 Y205.495 E37.60851
G1 X137.205 Y204.831 E37.63394
G1 X137.15 Y204.136 E37.65989
G1 X137.15 Y125.564 E40.58641
G1 X137.205 Y124.87 E40.61235
G1 X137.364 Y124.206 E40.63776
G1 X137.625 Y123.576 E40.66318
G1 X137.982 Y122.994 E40.6886
G1 X138.145 Y122.802 E40.69798
;WIPE_START
M204 S4000
G1 X138.539 Y122.875 F9000
;WIPE_END
M204 S1000
G1 X138.907 Y123.216
;TYPE:Gap fill
;WIDTH:0.409078
G1 F1800
G1 X139.032 Y123.082 E40.70344
G1 X139.168 Y122.955 E40.709
G1 X139.305 Y122.829 E40.71456
G1 X139.335 Y122.804 E40.71572
G1 X139.39 Y122.763 E40.71777
G1 X139.446 Y122.723 E40.71982
G1 X139.679 Y122.578 E40.728
G1 X139.912 Y122.433 E40.73619
G1 X140 Y122.39 E40.73911
G1 X140.421 Y122.23 E40.75256
G1 X140.562 Y122.188 E40.75695
G1 X140.703 Y122.147 E40.76134
G1 X140.741 Y122.138 E40.76249
G1 X140.847 Y122.119 E40.76571
G1 X140.954 Y122.1 E40.76893
G1 X141.188 Y122.078 E40.77597
G1 X141.423 Y122.055 E40.783
G1 X141.443 Y122.054 E40.7836
G1 X141.547 Y122.05 E40.78671
G1 X188.453 Y122.05 E42.18625
G1 X188.505 Y122.052 E42.1878
G1 X188.577 Y122.055 E42.18996
G1 X189.046 Y122.1 E42.20402
G1 X189.153 Y122.119 E42.20724
G1 X189.259 Y122.138 E42.21047
G1 X189.297 Y122.147 E42.21162
G1 X189.438 Y122.188 E42.21601
G1 X189.579 Y122.23 E42.2204
G1 X190 Y122.39 E42.23384
G1 X190.088 Y122.433 E42.23677
G1 X190.321 Y122.578 E42.24495
G1 X190.554 Y122.723 E42.25314
G1 X190.665 Y122.804 E42.25724
G1 X190.695 Y122.829 E42.2584
G1 X190.832 Y122.955 E42.26396
G1 X190.968 Y123.082 E42.26951
G1 X191.095 Y123.218 E42.27507
G1 X191.221 Y123.355 E42.28063
G1 X191.246 Y123.385 E42.28179
G1 X191.327 Y123.496 E42.28589
G1 X191.472 Y123.729 E42.29407
G1 X191.617 Y123.962 E42.30226
G1 X191.66 Y124.05 E42.30518
G1 X191.74 Y124.261 E42.31191
G1 X191.82 Y124.471 E42.31863
G1 X191.862 Y124.612 E42.32302
G1 X191.904 Y124.753 E42.32741
G1 X191.912 Y124.791 E42.32856
G1 X191.95 Y125.004 E42.335
G1 X191.995 Y125.473 E42.34907
G1 X191.996 Y125.493 E42.34967
G1 X191.998 Y125.545 E42.35122
G1 X192 Y125.597 E42.35278
;WIDTH:0.407684
G1 X192 Y204.103 E44.68625
G1 X191.998 Y204.155 E44.68781
G1 X191.995 Y204.227 E44.68995
G1 X191.972 Y204.462 E44.69696
G1 X191.95 Y204.697 E44.70397
G1 X191.931 Y204.803 E44.70718
G1 X191.912 Y204.909 E44.71038
G1 X191.903 Y204.947 E44.71153
G1 X191.862 Y205.088 E44.71591
G1 X191.82 Y205.23 E44.72029
G1 X191.74 Y205.44 E44.72698
G1 X191.66 Y205.65 E44.73367
G1 X191.616 Y205.739 E44.73661
G1 X191.471 Y205.972 E44.74477
G1 X191.327 Y206.205 E44.75293
G1 X191.246 Y206.315 E44.75698
G1 X191.221 Y206.345 E44.75813
G1 X190.967 Y206.62 E44.76925
G1 X190.695 Y206.871 E44.78028
G1 X190.665 Y206.896 E44.78143
G1 X190.609 Y206.937 E44.7835
G1 X190.553 Y206.979 E44.78557
G1 X190.319 Y207.123 E44.79373
G1 X190.086 Y207.268 E44.80189
G1 X190 Y207.31 E44.80474
G1 X189.788 Y207.391 E44.81147
G1 X189.576 Y207.471 E44.81821
G1 X189.437 Y207.512 E44.82255
G1 X189.297 Y207.553 E44.82688
G1 X189.259 Y207.562 E44.82803
G1 X189.151 Y207.581 E44.83128
G1 X189.043 Y207.6 E44.83453
G1 X188.81 Y207.622 E44.84149
G1 X188.577 Y207.644 E44.84846
G1 X188.557 Y207.646 E44.84905
G1 X188.494 Y207.648 E44.85093
G1 X188.431 Y207.651 E44.8528
G1 X187.009 Y207.672 E44.89508
;WIDTH:0.458846
G1 X185.586 Y207.693 E44.94329
;WIDTH:0.508614
G1 X184.164 Y207.715 E44.99727
;WIDTH:0.558382
G1 X182.742 Y207.736 E45.05702
;WIDTH:0.60815
G1 X181.32 Y207.757 E45.12253
;WIDTH:0.657918
G1 X179.897 Y207.779 E45.19382
;WIDTH:0.707686
M73 P7 R14
G1 X178.475 Y207.8 E45.27087
G1 X151.525 Y207.8 E46.73077
G1 X150.103 Y207.779 E46.80783
;WIDTH:0.657918
G1 X148.68 Y207.757 E46.87911
;WIDTH:0.60815
G1 X147.258 Y207.736 E46.94462
;WIDTH:0.558382
G1 X145.836 Y207.715 E47.00437
;WIDTH:0.508614
G1 X144.414 Y207.693 E47.05835
;WIDTH:0.458846
G1 X142.991 Y207.672 E47.10656
;WIDTH:0.409078
G1 X141.569 Y207.651 E47.149
G1 X141.506 Y207.648 E47.15088
G1 X141.423 Y207.644 E47.15336
G1 X141.19 Y207.622 E47.16035
G1 X140.957 Y207.6 E47.16734
G1 X140.849 Y207.581 E47.1706
G1 X140.741 Y207.562 E47.17387
G1 X140.703 Y207.553 E47.17502
G1 X140.563 Y207.512 E47.17937
G1 X140.424 Y207.471 E47.18372
G1 X140.212 Y207.391 E47.19048
G1 X140 Y207.31 E47.19725
G1 X139.914 Y207.268 E47.2001
G1 X139.681 Y207.123 E47.2083
G1 X139.447 Y206.979 E47.21649
G1 X139.391 Y206.937 E47.21857
G1 X139.335 Y206.896 E47.22065
G1 X139.305 Y206.871 E47.2218
G1 X139.169 Y206.745 E47.22734
G1 X139.033 Y206.62 E47.23287
G1 X138.906 Y206.482 E47.23845
G1 X138.779 Y206.345 E47.24403
G1 X138.754 Y206.315 E47.24519
G1 X138.714 Y206.26 E47.24722
G1 X138.673 Y206.205 E47.24925
G1 X138.529 Y205.972 E47.25744
G1 X138.384 Y205.739 E47.26563
G1 X138.34 Y205.65 E47.26859
G1 X138.26 Y205.44 E47.2753
G1 X138.18 Y205.23 E47.28201
G1 X138.097 Y204.947 E47.29081
G1 X138.088 Y204.909 E47.29197
G1 X138.069 Y204.803 E47.29518
G1 X138.05 Y204.697 E47.2984
G1 X138.005 Y204.227 E47.31247
G1 X138.004 Y204.207 E47.31307
G1 X138 Y204.103 E47.31618
G1 X138 Y125.597 E49.65858
M73 P7 R14
G1 X138.002 Y125.545 E49.66013
G1 X138.005 Y125.473 E49.66229
G1 X138.028 Y125.238 E49.66932
G1 X138.05 Y125.004 E49.67635
G1 X138.069 Y124.897 E49.67957
G1 X138.088 Y124.791 E49.6828
G1 X138.097 Y124.753 E49.68395
G1 X138.138 Y124.612 E49.68834
G1 X138.18 Y124.471 E49.69273
G1 X138.26 Y124.261 E49.69945
G1 X138.34 Y124.05 E49.70617
G1 X138.383 Y123.962 E49.7091
G1 X138.528 Y123.729 E49.71728
G1 X138.673 Y123.496 E49.72547
G1 X138.713 Y123.44 E49.72752
G1 X138.754 Y123.385 E49.72957
G1 X138.779 Y123.355 E49.73073
G1 X138.907 Y123.216 E49.73638
;LAYER_CHANGE
;Z:0.4
;HEIGHT:0.2
; stop printing object wallet-5.stl id:0 copy 0
EXCLUDE_OBJECT_END NAME=wallet_5_stl_id_0_copy_0
M204 S4000
G1 Z0.4 F9000
; printing object wallet-5.stl id:0 copy 0
EXCLUDE_OBJECT_START NAME=wallet_5_stl_id_0_copy_0
; acceleration to travel
M204 S3000
G1 X139.016 Y123.325
; decel to extrusion
M204 S2500
G1 X139.138 Y123.447
; end travel
;TYPE:Internal perimeter
;WIDTH:0.46
G1 F4800
G1 X139.016 Y123.569 E49.74226
G1 X138.637 Y124.171 E49.76644
G1 X138.402 Y124.843 E49.79063
G1 X138.329 Y125.49 E49.81275
G1 X138.329 Y204.21 E52.4882
G1 X138.402 Y204.857 E52.51032
G1 X138.637 Y205.529 E52.53451
G1 X139.016 Y206.131 E52.55869
G1 X139.519 Y206.634 E52.58287
G1 X140.121 Y207.013 E52.60706
G1 X140.793 Y207.248 E52.63124
G1 X141.44 Y207.321 E52.65337
G1 X188.56 Y207.321 E54.25483
G1 X189.207 Y207.248 E54.27696
G1 X189.879 Y207.013 E54.30114
G1 X190.481 Y206.634 E54.32532
