; generated by SuperSlicer 2.5.59 on 2023-03-03 at 04:07:11 UTC


;
;

;
;
; 

; external perimeters extrusion width = 0.40mm
; perimeters extrusion width = 0.46mm
; infill extrusion width = 0.64mm
; solid infill extrusion width = 0.56mm
; top infill extrusion width = 0.40mm
; support material extrusion width = 0.46mm
; first layer extrusion width = 0.50mm

; object:{"name":"Wallet_Minimalist_6_5mm","id":"Wallet_Minimalist_6_5mm.stl id:0 copy 0","object_center":[157.000000,165.000000,0.000000],"boundingbox_center":[157.000000,165.000000,4.450000],"boundingbox_size":[89.800003,57.580002,8.900000]}
; plater:{"center":[157.000000,165.000000,0.000000],"boundingbox_center":[157.000000,165.000000,4.450000],"boundingbox_size":[89.800003,57.580002,8.900000]}

M73 P0 R23


; Pre-Processed for Cancel-Object support by preprocess_cancellation v0.2.0
; 1 known objects
EXCLUDE_OBJECT_DEFINE NAME=Wallet_Minimalist_6_5mm_stl_id_0_copy_0 CENTER=157.054,167.158 POLYGON=[[112.3,136.41],[112.3,193.59],[201.7,193.59],[201.7,136.41]]
;TYPE:Custom
; custom gcode: start_gcode
START_PRINT T_BED=70 T_EXTRUDER=235
; custom gcode end: start_gcode
M107
G21 ; set units to millimeters
G90 ; use absolute coordinates
M82 ; use absolute distances for extrusion
G92 E0
; custom gcode: start_filament_gcode
; Filament gcode
PRESSURE_ADVANCE_SELECT FILAMENT=PETG
; custom gcode end: start_filament_gcode
;_TOOLCHANGE 0
M104 S235 ; set temperature
M109 S235 ; set temperature and wait for it to be reached
M190 S70 ; set bed temperature and wait for it to be reached
;LAYER_CHANGE
;Z:0.2
;HEIGHT:0.2
G1 Z0.2 F9000
M73 P0 R23
G1 E-1 F3000
M204 S1000
G1 X111.85 Y134.507 F9000
G1 E0 F1800
;TYPE:Skirt
;WIDTH:0.52
G1 X110.622 Y135.68 E0.06599
G1 X110.053 Y136.451 E0.10325
G1 X109.6 Y137.24 E0.13863
G1 X108.996 Y138.92 E0.20802
G1 X108.784 Y140.705 E0.27792
G1 X108.706 Y189.459 E2.17329
G1 X108.806 Y190.586 E2.21728
G1 X109.106 Y191.73 E2.26324
G1 X109.607 Y192.91 E2.31306
G1 X110.368 Y194.115 E2.36848
G1 X111.034 Y194.821 E2.4062
G1 X112.208 Y195.538 E2.45969
G1 X116.014 Y196.89 E2.61671
G1 X117.491 Y197.106 E2.67475
G1 X196.509 Y197.106 E5.74664
G1 X197.685 Y196.968 E5.79269
G1 X198.301 Y196.793 E5.81756
G1 X201.792 Y195.538 E5.9618
M73 P1 R22
G1 X202.966 Y194.821 E6.01529
G1 X203.854 Y193.812 E6.06752
G1 X204.56 Y192.564 E6.12328
G1 X205.117 Y190.964 E6.18911
G1 X205.286 Y189.709 E6.23836
G1 X205.216 Y140.705 E8.14343
G1 X205.1 Y139.386 E8.19493
G1 X204.834 Y138.304 E8.23821
G1 X204.567 Y137.598 E8.26756
G1 X204.233 Y136.921 E8.29691
G1 X203.603 Y135.96 E8.3416
G1 X202.431 Y134.733 E8.40757
G1 X201.83 Y134.275 E8.43691
G1 X200.871 Y133.71 E8.4802
G1 X199.461 Y133.174 E8.53883
G1 X197.978 Y132.918 E8.59735
G1 X192.011 Y132.899 E8.82933
G1 X116.604 Y132.894 E11.76085
G1 X115.268 Y133.011 E11.81299
G1 X114.14 Y133.296 E11.8582
G1 X113.107 Y133.721 E11.90161
G1 X111.85 Y134.507 E11.95927
G1 X112.13 Y134.893 F9000
G1 F1800
G1 X110.979 Y135.996 E12.02125
G1 X110.033 Y137.441 E12.0884
G1 X109.459 Y139.036 E12.15428
G1 X109.261 Y140.706 E12.21967
G1 X109.183 Y189.459 E14.11501
G1 X109.274 Y190.491 E14.15528
G1 X109.56 Y191.584 E14.19918
G1 X110.036 Y192.702 E14.24644
G1 X110.753 Y193.834 E14.29852
G1 X111.352 Y194.466 E14.33237
G1 X112.398 Y195.101 E14.37994
G1 X116.134 Y196.428 E14.53406
G1 X117.491 Y196.629 E14.5874
G1 X196.509 Y196.629 E17.65929
G1 X197.565 Y196.506 E17.70064
G1 X198.14 Y196.344 E17.72387
G1 X201.602 Y195.101 E17.86685
G1 X202.648 Y194.466 E17.91442
G1 X203.468 Y193.53 E17.96279
G1 X204.131 Y192.356 E18.01521
G1 X204.649 Y190.87 E18.07641
G1 X204.81 Y189.677 E18.1232
G1 X204.739 Y140.706 E20.02699
G1 X204.628 Y139.455 E20.07583
G1 X204.134 Y137.799 E20.14298
G1 X203.822 Y137.163 E20.17053
G1 X203.217 Y136.24 E20.21343
G1 X202.114 Y135.09 E20.27538
G1 X200.67 Y134.143 E20.34253
G1 X199.347 Y133.637 E20.39757
G1 X197.954 Y133.395 E20.45253
G1 X192.011 Y133.376 E20.6836
G1 X116.604 Y133.371 E23.61512
M73 P2 R22
G1 X115.338 Y133.483 E23.66453
G1 X114.306 Y133.744 E23.70591
G1 X113.311 Y134.152 E23.7477
G1 X112.13 Y134.893 E23.8019
G92 E0
G1 E-1 F3000
; printing object Wallet_Minimalist_6_5mm.stl id:0 copy 0
EXCLUDE_OBJECT_START NAME=Wallet_Minimalist_6_5mm_stl_id_0_copy_0
; acceleration to travel
M204 S3000
G1 X176.367 Y168.769 F9000
; decel to extrusion
M204 S1000
G1 X197.78 Y180.061
; end travel
G1 E0 F1800
;TYPE:Internal perimeter
;WIDTH:0.5
G1 X197.779 Y188.595 E0.31786
G1 X197.454 Y188.883 E0.334
G1 X197.116 Y189.288 E0.35368
G1 X196.841 Y189.74 E0.37336
G1 X196.637 Y190.227 E0.39304
G1 X196.509 Y190.74 E0.41272
G1 X196.458 Y191.266 E0.4324
G1 X196.485 Y191.769 E0.45117
G1 X117.521 Y191.769 E3.3923
G1 X117.541 Y191.263 E3.41117
G1 X117.491 Y190.74 E3.43073
G1 X117.363 Y190.227 E3.45041
G1 X117.159 Y189.74 E3.47009
G1 X116.884 Y189.288 E3.48977
G1 X116.546 Y188.883 E3.50945
G1 X116.221 Y188.595 E3.5256
G1 X116.22 Y178.648 E3.89611
G1 X114.113 Y178.712 E3.97463
G1 X114.114 Y171.362 E4.2484
G1 X114.411 Y171.305 E4.25963
G1 X114.649 Y171.896 E4.28339
G1 X114.908 Y172.38 E4.30383
G1 X115.191 Y172.794 E4.32251
G1 X123.725 Y183.887 E4.8438
G1 X124.037 Y184.252 E4.86169
G1 X124.414 Y184.609 E4.88101
G1 X124.75 Y184.87 E4.89688
G1 X125.272 Y185.2 E4.91989
G1 X125.746 Y185.425 E4.93942
G1 X126.135 Y185.57 E4.95488
G1 X126.633 Y185.704 E4.9741
G1 X127.152 Y185.786 E4.99367
G1 X127.632 Y185.811 E5.01156
G1 X186.368 Y185.811 E7.19925
G1 X186.848 Y185.786 E7.21714
G1 X187.367 Y185.704 E7.23672
G1 X187.874 Y185.568 E7.25629
G1 X188.353 Y185.384 E7.2754
G1 X188.726 Y185.2 E7.29087
G1 X189.177 Y184.925 E7.31056
G1 X189.659 Y184.542 E7.33347
G1 X189.965 Y184.249 E7.34927
G1 X190.275 Y183.887 E7.36701
G1 X198.809 Y172.794 E7.8883
G1 X199.092 Y172.38 E7.90699
G1 X199.351 Y171.896 E7.92743
G1 X199.589 Y171.305 E7.95118
G1 X199.886 Y171.362 E7.96242
G1 X199.887 Y178.712 E8.23618
G1 X197.78 Y178.648 E8.31471
G1 X197.78 Y180.061 E8.36736
G92 E0
G1 E-1 F3000
; acceleration to travel
M204 S3000
G1 X136.032 Y149.168 F9000
; decel to extrusion
M204 S1000
G1 X115.449 Y138.871
; end travel
G1 E0 F1800
G1 X115.204 Y139.116 E0.01292
G1 X114.959 Y139.465 E0.02882
G1 X114.779 Y139.852 E0.04472
G1 X114.668 Y140.265 E0.06062
G1 X114.636 Y140.635 E0.07446
G1 X114.636 Y169.804 E1.16091
G1 X114.661 Y170.268 E1.17819
G1 X114.743 Y170.76 E1.19677
G1 X114.877 Y171.24 E1.21535
G1 X115.063 Y171.703 E1.23392
G1 X115.299 Y172.142 E1.2525
G1 X115.561 Y172.525 E1.26978
G1 X124.08 Y183.599 E1.79016
G1 X124.369 Y183.937 E1.80672
G1 X124.712 Y184.261 E1.82432
G1 X125.013 Y184.496 E1.83853
G1 X125.493 Y184.799 E1.85969
G1 X125.924 Y185.004 E1.87744
G1 X126.274 Y185.134 E1.89136
G1 X126.729 Y185.256 E1.90889
G1 X127.2 Y185.331 E1.92668
G1 X127.644 Y185.354 E1.94323
G1 X186.356 Y185.354 E4.13002
M73 P3 R22
G1 X186.8 Y185.331 E4.14657
G1 X187.271 Y185.256 E4.16436
G1 X187.733 Y185.132 E4.18215
G1 X188.17 Y184.964 E4.19959
G1 X188.505 Y184.799 E4.21352
G1 X188.915 Y184.549 E4.23139
G1 X189.358 Y184.197 E4.25248
G1 X189.633 Y183.934 E4.26664
G1 X189.92 Y183.599 E4.28308
G1 X198.439 Y172.525 E4.80346
G1 X198.701 Y172.142 E4.82075
G1 X198.937 Y171.703 E4.83933
G1 X199.123 Y171.24 E4.8579
G1 X199.257 Y170.76 E4.87648
G1 X199.339 Y170.268 E4.89505
G1 X199.364 Y169.804 E4.91234
G1 X199.364 Y140.635 E5.99879
G1 X199.332 Y140.265 E6.01263
G1 X199.221 Y139.852 E6.02853
G1 X199.041 Y139.465 E6.04443
G1 X198.796 Y139.116 E6.06033
G1 X198.494 Y138.814 E6.07623
G1 X198.144 Y138.569 E6.09213
G1 X197.758 Y138.389 E6.10803
G1 X197.345 Y138.278 E6.12392
G1 X196.975 Y138.246 E6.13776
G1 X117.025 Y138.246 E9.11561
G1 X116.655 Y138.278 E9.12945
G1 X116.242 Y138.389 E9.14535
G1 X115.856 Y138.569 E9.16125
G1 X115.506 Y138.814 E9.17715
G1 X115.449 Y138.871 E9.18012
G1 X115.772 Y139.194 F9000
G1 F1800
G1 X115.555 Y139.411 E9.19156
G1 X115.356 Y139.695 E9.20448
G1 X115.21 Y140.009 E9.2174
G1 X115.12 Y140.344 E9.23032
G1 X115.093 Y140.655 E9.24192
G1 X115.093 Y169.792 E10.32716
G1 X115.116 Y170.218 E10.34305
G1 X115.189 Y170.66 E10.35977
G1 X115.311 Y171.093 E10.37648
G1 X115.478 Y171.509 E10.3932
G1 X115.69 Y171.904 E10.40991
G1 X115.931 Y172.256 E10.4258
G1 X124.435 Y183.311 E10.94527
G1 X124.7 Y183.621 E10.96048
G1 X125.01 Y183.914 E10.97636
G1 X125.276 Y184.121 E10.98893
G1 X125.714 Y184.398 E11.00823
G1 X126.102 Y184.582 E11.02421
G1 X126.413 Y184.698 E11.03659
G1 X126.824 Y184.808 E11.05242
G1 X127.248 Y184.876 E11.06842
G1 X127.656 Y184.897 E11.08363
G1 X186.344 Y184.897 E13.26953
G1 X186.752 Y184.876 E13.28474
G1 X187.176 Y184.808 E13.30075
G1 X187.591 Y184.697 E13.31674
G1 X187.987 Y184.545 E13.33253
G1 X188.285 Y184.398 E13.34491
G1 X188.653 Y184.174 E13.36096
G1 X189.058 Y183.852 E13.38022
G1 X189.301 Y183.62 E13.39275
G1 X189.565 Y183.311 E13.40789
G1 X198.069 Y172.256 E13.92736
G1 X198.31 Y171.904 E13.94325
G1 X198.522 Y171.509 E13.95997
G1 X198.689 Y171.093 E13.97668
G1 X198.811 Y170.66 E13.9934
G1 X198.884 Y170.218 E14.01011
G1 X198.907 Y169.792 E14.026
G1 X198.907 Y140.655 E15.11124
G1 X198.88 Y140.344 E15.12284
G1 X198.79 Y140.009 E15.13577
G1 X198.644 Y139.695 E15.14869
G1 X198.445 Y139.411 E15.16161
G1 X198.199 Y139.165 E15.17453
G1 X197.915 Y138.966 E15.18745
G1 X197.601 Y138.82 E15.20037
G1 X197.266 Y138.73 E15.21329
G1 X196.955 Y138.703 E15.22489
G1 X117.045 Y138.703 E18.20126
M73 P4 R22
G1 X116.734 Y138.73 E18.21286
G1 X116.399 Y138.82 E18.22578
G1 X116.085 Y138.966 E18.2387
G1 X115.801 Y139.165 E18.25162
G1 X115.772 Y139.194 E18.25311
G1 X116.096 Y139.517 F9000
;TYPE:External perimeter
G1 F1800
G1 X115.907 Y139.706 E18.26305
G1 X115.754 Y139.924 E18.273
G1 X115.641 Y140.166 E18.28294
G1 X115.572 Y140.424 E18.29288
G1 X115.55 Y140.675 E18.30225
G1 X115.55 Y169.779 E19.38628
G1 X115.571 Y170.168 E19.40078
G1 X115.636 Y170.561 E19.41563
G1 X115.744 Y170.945 E19.43048
G1 X115.893 Y171.315 E19.44533
G1 X116.081 Y171.667 E19.46018
G1 X116.301 Y171.988 E19.47468
G1 X124.79 Y183.023 E19.99323
G1 X125.032 Y183.306 E20.00711
G1 X125.308 Y183.567 E20.02127
G1 X125.539 Y183.747 E20.03218
G1 X125.935 Y183.997 E20.04963
G1 X126.28 Y184.161 E20.06384
G1 X126.552 Y184.262 E20.07467
G1 X126.919 Y184.361 E20.08881
G1 X127.296 Y184.42 E20.10303
G1 X127.668 Y184.44 E20.1169
G1 X186.332 Y184.44 E22.30191
G1 X186.704 Y184.42 E22.31578
G1 X187.081 Y184.361 E22.32999
G1 X187.449 Y184.262 E22.34421
G1 X187.803 Y184.126 E22.35833
G1 X188.064 Y183.997 E22.36916
G1 X188.39 Y183.798 E22.3834
G1 X188.757 Y183.507 E22.40083
G1 X188.969 Y183.305 E22.41173
G1 X189.21 Y183.023 E22.42557
G1 X197.699 Y171.988 E22.94413
G1 X197.919 Y171.667 E22.95862
G1 X198.107 Y171.315 E22.97347
G1 X198.256 Y170.945 E22.98832
G1 X198.364 Y170.561 E23.00318
G1 X198.429 Y170.168 E23.01803
G1 X198.45 Y169.779 E23.03252
G1 X198.45 Y140.675 E24.11655
G1 X198.428 Y140.424 E24.12592
G1 X198.359 Y140.166 E24.13587
G1 X198.246 Y139.924 E24.14581
G1 X198.093 Y139.706 E24.15575
G1 X197.904 Y139.517 E24.16569
G1 X197.686 Y139.364 E24.17564
G1 X197.444 Y139.251 E24.18558
G1 X197.186 Y139.182 E24.19552
G1 X196.935 Y139.16 E24.20489
G1 X117.065 Y139.16 E27.17976
G1 X116.814 Y139.182 E27.18914
G1 X116.556 Y139.251 E27.19908
G1 X116.314 Y139.364 E27.20902
G1 X116.096 Y139.517 E27.21896
;WIPE_START
M204 S4000
G1 X115.716 Y139.391 F9000
;WIPE_END
G92 E0
G1 E-1 F3000
; acceleration to travel
M204 S3000
G1 X177.607 Y169.187 F9000
; decel to extrusion
M204 S1000
G1 X198.237 Y179.119
; end travel
G1 E0 F1800
;TYPE:Internal perimeter
G1 X198.236 Y188.824 E0.36149
G1 X198.113 Y188.91 E0.36707
G1 X197.783 Y189.202 E0.38348
G1 X197.488 Y189.555 E0.4006
G1 X197.25 Y189.948 E0.41772
G1 X197.072 Y190.372 E0.43485
G1 X196.961 Y190.818 E0.45197
G1 X196.916 Y191.275 E0.46908
G1 X196.945 Y191.799 E0.48863
G1 X196.94 Y191.847 E0.49043
G1 X196.916 Y191.933 E0.49375
G1 X196.86 Y192.036 E0.49812
G1 X196.755 Y192.141 E0.50363
G1 X196.647 Y192.196 E0.50816
G1 X196.56 Y192.219 E0.51152
G1 X196.465 Y192.226 E0.51506
G1 X117.535 Y192.226 E3.4549
M73 P4 R22
G1 X117.44 Y192.219 E3.45844
G1 X117.353 Y192.196 E3.4618
G1 X117.245 Y192.141 E3.46633
G1 X117.14 Y192.036 E3.47184
G1 X117.084 Y191.933 E3.47621
G1 X117.06 Y191.847 E3.47953
G1 X117.055 Y191.799 E3.48133
G1 X117.084 Y191.275 E3.50087
G1 X117.039 Y190.818 E3.51799
G1 X116.928 Y190.372 E3.53511
G1 X116.75 Y189.948 E3.55224
G1 X116.512 Y189.555 E3.56936
G1 X116.217 Y189.202 E3.58648
G1 X115.887 Y188.91 E3.60288
G1 X115.764 Y188.824 E3.60847
G1 X115.763 Y179.119 E3.96996
G1 X113.656 Y179.183 E4.04849
G1 X113.664 Y178.524 E4.07306
G1 X113.664 Y140.741 E5.48034
G1 X113.679 Y140.438 E5.49162
G1 X113.741 Y140.059 E5.50595
G1 X113.787 Y139.874 E5.51304
G1 X113.882 Y139.604 E5.52368
G1 X113.998 Y139.355 E5.5339
G1 X114.196 Y139.03 E5.54809
G1 X114.308 Y138.879 E5.55511
G1 X114.495 Y138.667 E5.56561
G1 X114.77 Y138.417 E5.57947
G1 X114.986 Y138.26 E5.58942
G1 X115.424 Y138.024 E5.60793
G1 X115.771 Y137.896 E5.62173
G1 X116.026 Y137.833 E5.63151
G1 X116.648 Y137.774 E5.65479
G1 X117.599 Y137.774 E5.69019
G1 X197.473 Y137.779 E8.66519
G1 X197.683 Y137.789 E8.67301
G1 X197.963 Y137.83 E8.68358
G1 X198.238 Y137.898 E8.69414
G1 X198.506 Y137.992 E8.70469
G1 X198.763 Y138.112 E8.71524
G1 X199.007 Y138.255 E8.72579
G1 X199.236 Y138.422 E8.73635
G1 X199.443 Y138.605 E8.74663
G1 X199.693 Y138.88 E8.76048
G1 X199.855 Y139.103 E8.77075
G1 X199.998 Y139.347 E8.7813
G1 X200.118 Y139.604 E8.79185
G1 X200.212 Y139.872 E8.8024
G1 X200.28 Y140.147 E8.81296
G1 X200.321 Y140.427 E8.82351
G1 X200.336 Y140.741 E8.8352
G1 X200.336 Y178.524 E10.24249
G1 X200.344 Y179.183 E10.26705
G1 X198.237 Y179.119 E10.34559
G1 X198.694 Y179.59 F9000
G1 F1800
G1 X198.693 Y188.87 E10.69123
G1 X198.672 Y189.078 E10.69899
G1 X198.396 Y189.27 E10.71154
G1 X198.112 Y189.521 E10.72567
G1 X197.861 Y189.822 E10.74023
G1 X197.658 Y190.156 E10.75479
G1 X197.507 Y190.516 E10.76936
G1 X197.412 Y190.896 E10.78392
G1 X197.375 Y191.285 E10.79848
G1 X197.403 Y191.809 E10.81804
G1 X197.391 Y191.932 E10.82264
G1 X197.342 Y192.106 E10.82935
G1 X197.231 Y192.313 E10.83811
G1 X197.115 Y192.444 E10.84465
G1 X197.027 Y192.515 E10.84885
G1 X196.81 Y192.626 E10.85792
G1 X196.635 Y192.671 E10.86466
G1 X196.482 Y192.683 E10.87037
G1 X117.518 Y192.683 E13.81149
G1 X117.365 Y192.671 E13.8172
G1 X117.19 Y192.626 E13.82394
G1 X116.973 Y192.515 E13.833
G1 X116.885 Y192.444 E13.8372
G1 X116.769 Y192.313 E13.84374
G1 X116.658 Y192.106 E13.8525
G1 X116.609 Y191.932 E13.85921
G1 X116.597 Y191.809 E13.86381
G1 X116.625 Y191.285 E13.88337
G1 X116.588 Y190.896 E13.89793
G1 X116.493 Y190.516 E13.9125
G1 X116.342 Y190.156 E13.92706
G1 X116.139 Y189.822 E13.94162
G1 X115.888 Y189.521 E13.95619
G1 X115.604 Y189.27 E13.97031
G1 X115.328 Y189.078 E13.98286
G1 X115.307 Y188.87 E13.99063
G1 X115.306 Y179.59 E14.33627
G1 X113.709 Y179.639 E14.39579
G1 X113.192 Y179.708 E14.41522
G1 X113.207 Y178.521 E14.45946
G1 X113.207 Y140.729 E15.86704
G1 X113.224 Y140.39 E15.87971
G1 X113.293 Y139.966 E15.89571
G1 X113.349 Y139.742 E15.90431
G1 X113.458 Y139.432 E15.91656
G1 X113.594 Y139.14 E15.92855
G1 X113.816 Y138.774 E15.94447
G1 X113.953 Y138.59 E15.95301
G1 X114.169 Y138.346 E15.96518
G1 X114.481 Y138.062 E15.98089
G1 X114.742 Y137.873 E15.9929
G1 X115.027 Y137.705 E16.0052
G1 X115.235 Y137.607 E16.01377
G1 X115.637 Y137.458 E16.02973
G1 X115.95 Y137.381 E16.04173
G1 X116.178 Y137.347 E16.05034
G1 X116.627 Y137.317 E16.06709
G1 X117.599 Y137.317 E16.10328
G1 X197.484 Y137.322 E19.07871
M73 P6 R21
G1 X197.727 Y137.334 E19.08776
G1 X198.051 Y137.381 E19.09998
G1 X198.369 Y137.46 E19.11218
G1 X198.678 Y137.568 E19.12438
G1 X198.975 Y137.706 E19.13658
G1 X199.258 Y137.873 E19.14878
G1 X199.523 Y138.065 E19.16098
G1 X199.764 Y138.279 E19.173
G1 X200.048 Y138.591 E19.18871
G1 X200.237 Y138.852 E19.20072
G1 X200.404 Y139.135 E19.21292
G1 X200.542 Y139.432 E19.22512
G1 X200.65 Y139.741 E19.23732
G1 X200.729 Y140.059 E19.24952
G1 X200.776 Y140.383 E19.26172
G1 X200.793 Y140.729 E19.27465
G1 X200.793 Y178.521 E20.68223
G1 X200.808 Y179.708 E20.72647
G1 X200.291 Y179.639 E20.7459
G1 X198.694 Y179.59 E20.80543
