; HEADER_BLOCK_START
; generated by OrcaSlicer 1.6.3 on 2023-07-13 at 09:39:50
; total layer number: 69
; HEADER_BLOCK_END

; THUMBNAIL_BLOCK_START
; THUMBNAIL_BLOCK_END

; external perimeters extrusion width = 0.40mm
; perimeters extrusion width = 0.45mm
; infill extrusion width = 0.45mm
; solid infill extrusion width = 0.40mm
; top infill extrusion width = 0.40mm
; support material extrusion width = 0.40mm
; first layer extrusion width = 0.50mm

; EXECUTABLE_BLOCK_START
EXCLUDE_OBJECT_DEFINE NAME=Wallet_Minimalist_6_5mm(1).stl_id_0_copy_0 CENTER=165,165 POLYGON=[[120.1,140.71],[120.112,140.384],[120.119,140.295],[120.164,139.952],[120.177,139.883],[120.258,139.528],[120.272,139.479],[120.392,139.114],[120.404,139.084],[120.566,138.716],[120.572,138.704],[120.774,138.341],[120.777,138.336],[121.009,137.998],[121.024,137.978],[121.274,137.678],[121.305,137.645],[121.568,137.384],[121.616,137.342],[121.888,137.119],[121.955,137.069],[122.231,136.884],[122.319,136.831],[122.594,136.682],[122.704,136.629],[122.974,136.514],[123.106,136.465],[123.369,136.382],[123.523,136.341],[123.773,136.287],[123.95,136.257],[124.185,136.229],[124.383,136.215],[124.6,136.21],[205.4,136.21],[205.726,136.222],[205.815,136.229],[206.158,136.274],[206.227,136.287],[206.582,136.368],[206.631,136.382],[206.996,136.502],[207.026,136.514],[207.394,136.676],[207.406,136.682],[207.769,136.884],[207.774,136.887],[208.112,137.119],[208.132,137.134],[208.432,137.384],[208.465,137.415],[208.726,137.678],[208.768,137.726],[208.991,137.998],[209.041,138.065],[209.226,138.341],[209.279,138.429],[209.428,138.704],[209.481,138.814],[209.596,139.084],[209.645,139.216],[209.728,139.479],[209.769,139.633],[209.823,139.883],[209.853,140.06],[209.881,140.295],[209.895,140.493],[209.9,140.71],[209.9,189.46],[209.88,189.879],[209.879,189.884],[209.819,190.295],[209.817,190.305],[209.718,190.702],[209.714,190.717],[209.578,191.098],[209.57,191.117],[209.401,191.479],[209.389,191.501],[209.187,191.84],[209.17,191.866],[208.939,192.18],[208.933,192.187],[208.829,192.296],[208.811,192.311],[208.702,192.393],[208.67,192.413],[208.56,192.468],[208.512,192.488],[205.072,193.71],[204.795,193.77],[204.513,193.79],[125.487,193.79],[125.205,193.77],[124.928,193.71],[121.488,192.488],[121.44,192.468],[121.33,192.413],[121.298,192.393],[121.189,192.311],[121.171,192.296],[121.067,192.187],[121.061,192.18],[120.83,191.866],[120.813,191.84],[120.611,191.501],[120.599,191.479],[120.43,191.117],[120.422,191.098],[120.286,190.717],[120.282,190.702],[120.183,190.305],[120.181,190.295],[120.121,189.884],[120.12,189.879],[120.1,189.46],[120.1,140.71]]
M73 P0 R15
;TYPE:Custom
START_PRINT T_BED=110 T_EXTRUDER=260
G90
G21
M83 ; use relative distances for extrusion
; Filament gcode

    PRESSURE_ADVANCE_SELECT FILAMENT=ABS
M106 S0
;LAYER_CHANGE
;Z:0.2
;HEIGHT:0.2
;BEFORE_LAYER_CHANGE
;0.2
G92 E0

M204 S1000
G1 E-.5 F2400
G1 X119.934 Y135.342 F9000
G1 Z.2
G1 E.5 F1800
;TYPE:Skirt
;WIDTH:0.5
G1 F3000
G1 X120.567 Y134.851 E.02818
G1 X121.403 Y134.357 E.0342
G1 X122.432 Y133.937 E.03912
G1 X123.366 Y133.706 E.03385
G1 X124.6 Y133.596 E.04361
G1 X205.535 Y133.599 E2.8484
G1 X206.904 Y133.759 E.04853
G1 X208.212 Y134.177 E.04831
G1 X209.348 Y134.793 E.04546
G1 X210.289 Y135.545 E.04242
G1 X211.195 Y136.588 E.04861
G1 X211.762 Y137.531 E.03871
G1 X212.254 Y138.812 E.04831
G1 X212.491 Y140.164 E.04831
G1 X212.511 Y189.601 E1.73989
G1 X212.353 Y190.937 E.04733
G1 X211.941 Y192.217 E.04733
G1 X211.29 Y193.394 E.04733
G1 X210.82 Y193.997 E.02693
G1 X210.306 Y194.458 E.0243
G1 X209.419 Y194.938 E.03549
G1 X205.996 Y196.158 E.1279
G1 X205.422 Y196.31 E.02088
G1 X204.513 Y196.404 E.03218
G1 X125.487 Y196.404 E2.7812
G1 X124.578 Y196.31 E.03218
G1 X124.004 Y196.158 E.02088
G1 X120.186 Y194.764 E.14307
G1 X119.257 Y194.079 E.04061
G1 X118.71 Y193.394 E.03086
G1 X118.224 Y192.571 E.03362
G1 X117.822 Y191.587 E.03742
G1 X117.592 Y190.66 E.03362
G1 X117.486 Y189.46 E.04238
G1 X117.489 Y140.569 E1.72066
G1 X117.595 Y139.482 E.03844
G1 X117.749 Y138.801 E.02456
G1 X118.369 Y137.281 E.05779
G1 X119.232 Y136.044 E.05308
G1 X119.892 Y135.385 E.03282
G1 X120.209 Y135.761 F9000
G1 F3000
G1 X120.911 Y135.17 E.0323
G1 X121.598 Y134.77 E.02799
G1 X122.584 Y134.368 E.03745
G1 X123.433 Y134.158 E.03078
G1 X124.6 Y134.053 E.04124
G1 X205.513 Y134.056 E2.84766
M73 P1 R15
G1 X206.795 Y134.203 E.04539
G1 X208.019 Y134.592 E.04521
G1 X209.089 Y135.17 E.04281
G1 X209.982 Y135.884 E.04024
G1 X210.648 Y136.618 E.03488
G1 X211.347 Y137.723 E.04603
G1 X211.81 Y138.921 E.0452
G1 X212.035 Y140.186 E.04521
G1 X212.054 Y189.579 E1.73833
G1 X211.91 Y190.827 E.04421
G1 X211.527 Y192.024 E.04421
G1 X210.921 Y193.124 E.04421
G1 X210.488 Y193.683 E.02486
G1 X210.029 Y194.095 E.02173
G1 X209.265 Y194.508 E.03054
G1 X205.842 Y195.728 E.1279
G1 X205.32 Y195.865 E.01902
G1 X204.513 Y195.947 E.02855
G1 X125.487 Y195.947 E2.7812
M73 P1 R14
G1 X124.68 Y195.865 E.02855
G1 X124.158 Y195.728 E.01902
G1 X120.735 Y194.508 E.1279
G1 X119.882 Y194.027 E.03445
G1 X119.079 Y193.124 E.04252
G1 X118.638 Y192.378 E.0305
G1 X118.253 Y191.435 E.03586
G1 X118.044 Y190.593 E.0305
G1 X117.943 Y189.46 E.04004
G1 X117.946 Y140.591 E1.71988
G1 X118.047 Y139.548 E.03688
G1 X118.192 Y138.912 E.02295
G1 X118.763 Y137.513 E.0532
G1 X119.172 Y136.86 E.02711
G1 X119.774 Y136.128 E.03336
G1 X120.163 Y135.8 E.01791
; printing object Wallet_Minimalist_6_5mm(1).stl id:0 copy 0
EXCLUDE_OBJECT_START NAME=Wallet_Minimalist_6_5mm(1).stl_id_0_copy_0
G1 E-.5 F2400
G1 X205.02 Y140.121 F9000
G1 E.5 F1800
;TYPE:Support
G1 F3000
G1 X205.209 Y140.19 E.00706
G1 X205.363 Y140.319 E.00706
G1 X205.463 Y140.492 E.00706
G1 X205.5 Y140.716 E.00798
G1 X205.5 Y169.753 E1.02193
G1 X205.483 Y170.064 E.01095
G1 X205.435 Y170.355 E.01038
G1 X205.355 Y170.639 E.01038
G1 X205.245 Y170.912 E.01038
G1 X205.106 Y171.172 E.01038
G1 X204.93 Y171.429 E.01095
G1 X203.494 Y173.296 E.08292
G1 X203.071 Y173.152 E.01572
G1 X203.071 Y144.072 E1.02346
G1 X126.929 Y144.072 E2.67971
G1 X126.929 Y173.152 E1.02346
G1 X126.506 Y173.296 E.01572
G1 X125.07 Y171.429 E.08292
G1 X124.894 Y171.172 E.01095
G1 X124.755 Y170.912 E.01038
G1 X124.645 Y170.639 E.01038
G1 X124.565 Y170.355 E.01038
G1 X124.517 Y170.064 E.01038
G1 X124.5 Y169.753 E.01095
G1 X124.5 Y140.716 E1.02193
M73 P2 R14
G1 X124.511 Y140.59 E.00447
G1 X124.58 Y140.401 E.00706
G1 X124.709 Y140.247 E.00706
G1 X124.882 Y140.147 E.00706
G1 X125.106 Y140.11 E.00798
G1 X204.952 Y140.115 E2.81008
G1 E-.5 F2400
G1 X126.518 Y172.637 F9000
G1 E.5 F1800
G1 F3000
G1 X125.403 Y171.187 E.06437
G1 X125.246 Y170.958 E.00977
G1 X125.128 Y170.738 E.00879
G1 X125.035 Y170.506 E.00879
G1 X124.967 Y170.266 E.00879
G1 X124.927 Y170.019 E.00879
G1 X124.911 Y169.742 E.00977
G1 X124.911 Y140.734 E1.0209
G1 X124.937 Y140.608 E.00455
G1 X125.024 Y140.535 E.00397
G1 X125.124 Y140.521 E.00357
G1 X204.876 Y140.521 E2.80677
G1 X205.002 Y140.547 E.00455
G1 X205.075 Y140.634 E.00397
G1 X205.089 Y140.734 E.00357
G1 X205.089 Y169.742 E1.0209
G1 X205.073 Y170.019 E.00977
G1 X205.033 Y170.266 E.00879
G1 X204.965 Y170.506 E.00879
G1 X204.872 Y170.738 E.00879
G1 X204.754 Y170.958 E.00879
G1 X204.597 Y171.187 E.00977
G1 X203.482 Y172.637 E.06437
G1 X203.482 Y143.66 E1.01978
G1 X126.518 Y143.66 E2.70866
G1 X126.518 Y172.637 E1.01978
G1 X126.01 Y170.578 F9000
G1 F3000
G1 X125.64 Y170.65 E.01327
G1 X125.516 Y170.342 E.01166
G1 X125.464 Y170.155 E.00684
G1 X125.419 Y169.728 E.01511
G1 X125.419 Y141.029 E1.01002
M73 P3 R14
G1 X204.581 Y141.029 E2.786
G1 X204.581 Y169.728 E1.01002
G1 X204.536 Y170.155 E.01511
G1 X204.484 Y170.342 E.00684
G1 X204.36 Y170.65 E.01166
G1 X203.99 Y170.578 E.01327
G1 X203.99 Y143.153 E.96521
G1 X126.01 Y143.153 E2.74441
G1 X126.01 Y170.578 E.96521
G1 X125.927 Y142.645 F9000
G1 F3000
G1 X125.927 Y141.537 E.03898
G1 X204.073 Y141.537 E2.75025
G1 X204.073 Y142.645 E.03898
G1 X125.927 Y142.645 E2.75025
G1 E-.5 F2400
G1 X201.78 Y177.493 F9000
M73 P4 R14
G1 X207.413 Y179.986
G1 X207.386 Y180.069
G1 E.5 F1800
;TYPE:Outer wall
;WIDTH:0.500004
G1 F3000
G1 X207.225 Y180.129 E.00606
G1 X207.151 Y180.297 E.00648
G1 X207.15 Y188.873 E.30183
G1 X207.101 Y189.285 E.01458
G1 X206.924 Y189.478 E.00924
G1 X206.419 Y189.868 E.02242
G1 X206.054 Y190.396 E.02259
G1 X205.873 Y190.941 E.02021
G1 X205.835 Y191.277 E.01193
G1 X205.861 Y191.811 E.01878
G1 X205.789 Y192.219 E.01458
G1 X205.605 Y192.576 E.01416
G1 X205.274 Y192.901 E.01631
G1 X204.968 Y193.056 E.01208
G1 X204.488 Y193.14 E.01714
G1 X125.642 Y193.14 E2.77493
G1 X125.032 Y193.056 E.02166
G1 X124.726 Y192.901 E.01208
G1 X124.395 Y192.576 E.01631
G1 X124.211 Y192.219 E.01416
G1 X124.139 Y191.811 E.01458
G1 X124.163 Y191.26 E.01938
G1 X124.044 Y190.63 E.02259
G1 X123.743 Y190.062 E.02259
G1 X123.343 Y189.65 E.02021
G1 X123.032 Y189.429 E.01344
G1 X122.901 Y189.293 E.00663
G1 X122.85 Y188.9 E.01396
G1 X122.849 Y180.297 E.30278
G1 X122.775 Y180.129 E.00648
G1 X122.614 Y180.069 E.00606
G1 X121.758 Y180.095 E.03013
G1 X121.327 Y180.152 E.01531
G1 X121.132 Y180.363 E.01013
G1 X121.129 Y180.522 E.00558
;WIDTH:0.500338
G1 X121.129 Y189.443 E.31422
G1 X121.243 Y190.126 E.02438
;WIDTH:0.543485
G1 X121.474 Y190.572 E.01938
G1 X121.873 Y190.882 E.01947
;WIDTH:0.499999
G1 X122.113 Y191.001 E.00942
G1 X122.309 Y191.157 E.00882
G1 X122.356 Y191.295 E.00511
G1 X122.31 Y191.519 E.00808
G1 X122.014 Y191.845 E.01548
G1 X121.854 Y191.896 E.00589
G1 X121.652 Y191.843 E.00738
G1 X121.465 Y191.616 E.01034
;WIDTH:0.504129
G1 X121.19 Y191.195 E.01786
;WIDTH:0.541787
G1 X120.828 Y190.316 E.03652
;WIDTH:0.51211
G1 X120.707 Y189.828 E.01818
G1 X120.672 Y189.451 E.01366
;WIDTH:0.500294
G1 X120.671 Y180.522 E.31446
;WIDTH:0.500003
G1 X120.737 Y179.515 E.03551
G1 X120.75 Y178.519 E.03504
G1 X120.75 Y140.752 E1.32917
G1 X120.768 Y140.344 E.01437
G1 X120.912 Y139.61 E.02633
G1 X121.192 Y138.922 E.02614
G1 X121.599 Y138.302 E.02612
G1 X122.013 Y137.888 E.0206
G1 X122.346 Y137.608 E.01533
G1 X122.813 Y137.302 E.01963
G1 X123.501 Y137.022 E.02616
G1 X124.06 Y136.907 E.02007
G1 X124.611 Y136.86 E.01946
G1 X205.487 Y136.865 E2.84635
G1 X206.138 Y136.933 E.02306
G1 X206.851 Y137.145 E.02616
G1 X207.509 Y137.491 E.02618
G1 X208.087 Y137.955 E.02608
G1 X208.619 Y138.602 E.02948
G1 X208.965 Y139.259 E.02613
G1 X209.177 Y139.971 E.02613
G1 X209.25 Y140.724 E.02663
G1 X209.25 Y178.519 E1.33017
G1 X209.268 Y179.596 E.0379
G1 X209.329 Y180.522 E.03265
;WIDTH:0.500346
G1 X209.328 Y189.443 E.31422
G1 X209.204 Y190.202 E.02707
;WIDTH:0.517363
G1 X209.036 Y190.679 E.01848
G1 X208.828 Y191.172 E.01956
;WIDTH:0.499999
G1 X208.438 Y191.762 E.02488
G1 X208.256 Y191.883 E.00772
G1 X208.035 Y191.869 E.00777
G1 X207.743 Y191.578 E.01452
G1 X207.639 Y191.35 E.0088
G1 X207.695 Y191.173 E.00655
G1 X207.829 Y191.025 E.00704
G1 X208.272 Y190.783 E.01773
;WIDTH:0.517363
G1 X208.623 Y190.416 E.01858
G1 X208.762 Y190.106 E.01239
;WIDTH:0.500293
G1 X208.871 Y189.443 E.02367
G1 X208.871 Y180.522 E.31418
;WIDTH:0.500004
G1 X208.869 Y180.378 E.00506
G1 X208.673 Y180.152 E.01054
G1 X208.242 Y180.095 E.01531
G1 X207.446 Y180.07 E.02801
G1 X207.363 Y180.043
G1 X207.306 Y179.63 F9000
;TYPE:Inner wall
;WIDTH:0.499999
G1 F3000
G1 X207.102 Y179.67 E.00732
G1 X206.967 Y179.75 E.00551
G1 X206.772 Y179.979 E.0106
G1 X206.694 Y180.297 E.01152
G1 X206.683 Y189.053 E.30814
G1 X206.527 Y189.204 E.00764
G1 X206.047 Y189.602 E.02193
G1 X205.62 Y190.251 E.02737
G1 X205.439 Y190.796 E.02021
G1 X205.38 Y191.234 E.01553
G1 X205.396 Y191.676 E.01558
G1 X205.351 Y192.071 E.014
G1 X205.233 Y192.302 E.00911
G1 X204.912 Y192.572 E.01477
G1 X204.448 Y192.683 E.01677
G1 X125.552 Y192.683 E2.77667
M73 P5 R14
G1 X125.088 Y192.572 E.01677
G1 X124.767 Y192.302 E.01477
G1 X124.649 Y192.071 E.00911
G1 X124.598 Y191.783 E.0103
G1 X124.613 Y191.183 E.02114
G1 X124.451 Y190.422 E.02737
G1 X124.071 Y189.744 E.02736
G1 X123.671 Y189.332 E.02021
G1 X123.319 Y189.072 E.01542
G1 X123.306 Y180.297 E.30881
G1 X123.29 Y180.147 E.0053
G1 X123.164 Y179.879 E.01042
G1 X122.898 Y179.67 E.0119
G1 X122.6 Y179.612 E.01071
G1 X121.744 Y179.638 E.03013
G1 X121.266 Y179.699 E.01697
G1 X121.177 Y179.793 E.00457
G1 X121.207 Y178.516 E.04496
G1 X121.207 Y140.752 E1.32906
G1 X121.223 Y140.4 E.01243
G1 X121.352 Y139.742 E.0236
G1 X121.599 Y139.136 E.02301
G1 X121.892 Y138.688 E.01883
G1 X122.134 Y138.413 E.0129
G1 X122.597 Y137.99 E.02207
G1 X123.026 Y137.708 E.01807
G1 X123.566 Y137.488 E.02053
G1 X123.959 Y137.395 E.01419
G1 X124.626 Y137.317 E.02364
G1 X205.463 Y137.322 E2.84496
G1 X206.048 Y137.383 E.02073
G1 X206.677 Y137.571 E.0231
G1 X207.257 Y137.875 E.02306
G1 X207.764 Y138.282 E.02286
G1 X208.237 Y138.856 E.02617
G1 X208.539 Y139.433 E.02291
G1 X208.726 Y140.059 E.02301
G1 X208.793 Y140.746 E.02429
G1 X208.793 Y178.525 E1.32959
G1 X208.823 Y179.793 E.04465
G1 X208.734 Y179.699 E.00457
G1 X208.256 Y179.638 E.01697
G1 X207.4 Y179.612 E.03013
G1 X207.365 Y179.619 E.00127
G1 X207.226 Y179.192 F9000
G1 F3000
G1 X206.917 Y179.252 E.01108
G1 X206.608 Y179.454 E.01299
G1 X206.367 Y179.767 E.0139
G1 X206.264 Y180.047 E.01049
G1 X206.237 Y180.297 E.00884
G1 X206.236 Y188.851 E.30104
G1 X205.922 Y189.084 E.01375
G1 X205.676 Y189.336 E.0124
G1 X205.342 Y189.803 E.02021
G1 X205.187 Y190.107 E.01202
G1 X205.005 Y190.652 E.02021
G1 X204.925 Y191.19 E.01913
G1 X204.935 Y191.617 E.01505
G1 X204.913 Y191.924 E.01083
G1 X204.735 Y192.149 E.01008
G1 X204.409 Y192.226 E.01182
G1 X125.642 Y192.226 E2.7721
G1 X125.265 Y192.149 E.01354
G1 X125.087 Y191.924 E.01008
G1 X125.065 Y191.617 E.01083
G1 X125.064 Y191.105 E.01803
G1 X124.966 Y190.539 E.02021
G1 X124.858 Y190.215 E.01202
G1 X124.598 Y189.703 E.02021
G1 X124.399 Y189.425 E.01202
G1 X123.999 Y189.013 E.02021
G1 X123.764 Y188.825 E.01061
G1 X123.763 Y180.297 E.30012
G1 X123.736 Y180.047 E.00884
G1 X123.649 Y179.798 E.00929
G1 X123.392 Y179.454 E.01509
G1 X123.083 Y179.252 E.01299
G1 X122.586 Y179.155 E.01785
G1 X121.655 Y179.187 E.03275
G1 X121.664 Y140.752 E1.35267
G1 X121.678 Y140.455 E.01048
G1 X121.792 Y139.873 E.02087
G1 X122.005 Y139.349 E.01989
G1 X122.287 Y138.919 E.01812
G1 X122.659 Y138.534 E.01882
;WIDTH:0.534993
G1 X122.763 Y138.468 E.00466
;WIDTH:0.569987
G1 X122.866 Y138.401 E.00499
;WIDTH:0.598471
G1 X123.125 Y138.263 E.01255
;WIDTH:0.626954
G1 X123.384 Y138.125 E.0132
G1 X123.848 Y137.931 E.02263
;WIDTH:0.591895
G1 X124.37 Y137.816 E.02257
;WIDTH:0.548498
G1 X125.075 Y137.778 E.02747
;WIDTH:0.507288
G1 X204.925 Y137.781 E2.85506
;WIDTH:0.528712
M73 P6 R14
G1 X205.426 Y137.793 E.01871
;WIDTH:0.554406
G1 X205.676 Y137.832 E.00997
;WIDTH:0.580099
G1 X205.926 Y137.87 E.01047
;WIDTH:0.595178
G1 X206.306 Y137.986 E.0169
;WIDTH:0.627732
G1 X206.904 Y138.271 E.02983
;WIDTH:0.579394
G1 X207.138 Y138.386 E.01077
;WIDTH:0.531055
G1 X207.441 Y138.609 E.01413
;WIDTH:0.499999
G1 X207.854 Y139.111 E.02286
G1 X208.114 Y139.606 E.01969
G1 X208.276 Y140.147 E.01989
G1 X208.336 Y140.768 E.02195
G1 X208.345 Y179.187 E1.35211
G1 X207.414 Y179.155 E.03275
G1 X207.285 Y179.18 E.00466
G1 E-.5 F2400
G1 X195.913 Y184.351 F9000
G1 X195.806 Y184.396
G1 X195.524 Y184.501
G1 X195.133 Y184.606
G1 X194.73 Y184.67
G1 X194.339 Y184.69
G1 X135.661 Y184.69
G1 X135.27 Y184.67
G1 X134.867 Y184.606
G1 X134.476 Y184.501
G1 X134.194 Y184.396
G1 X134.087 Y184.351
G1 X133.824 Y184.221
G1 X133.723 Y184.164
G1 X133.474 Y184.008
G1 X133.38 Y183.94
G1 X133.145 Y183.757
G1 X132.851 Y183.478
G1 X132.595 Y183.18
G1 X124.099 Y172.135
G1 X123.867 Y171.797
G1 X123.666 Y171.421
G1 X123.507 Y171.026
G1 X123.392 Y170.615
G1 X123.322 Y170.195
G1 X123.3 Y169.786
G1 X123.3 Y140.664
G1 X123.325 Y140.381
G1 X123.359 Y140.254
G1 X123.608 Y140.321
G1 E.5 F1800
;TYPE:Outer wall
G1 F3000
G1 X123.761 Y139.914 E.0153
G1 X124.087 Y139.526 E.01781
G1 X124.52 Y139.269 E.01775
G1 X125.075 Y139.16 E.01988
G1 X204.925 Y139.16 E2.81025
G1 X205.224 Y139.193 E.01059
G1 X205.695 Y139.37 E.01769
G1 X206.089 Y139.702 E.01815
G1 X206.346 Y140.138 E.01781
G1 X206.446 Y140.645 E.01817
G1 X206.45 Y140.792 E.00517
G1 X206.45 Y169.773 E1.01996
