; generated by SuperSlicer 2.5.59 on 2023-06-16 at 23:24:41 UTC


;
;

;
;
; 

; external perimeters extrusion width = 0.40mm
; perimeters extrusion width = 0.46mm
; infill extrusion width = 0.64mm
; solid infill extrusion width = 0.56mm
; top infill extrusion width = 0.40mm
; first layer extrusion width = 0.50mm

; object:{"name":"xyzCalibration_cube","id":"xyzCalibration_cube.stl id:0 copy 0","object_center":[165.000000,165.000000,0.000000],"boundingbox_center":[165.000000,165.000000,10.000000],"boundingbox_size":[20.000000,20.000000,20.000000]}
EXCLUDE_OBJECT_DEFINE NAME=xyzCalibration_cube_stl_id_0_copy_0 CENTER=165.000000,165.000000 POLYGON=[[155.000000,155.000000],[175.000000,155.000000],[175.000000,175.000000],[155.000000,175.000000],[155.000000,155.000000]]
; plater:{"center":[165.000000,165.000000,0.000000],"boundingbox_center":[165.000000,165.000000,10.000000],"boundingbox_size":[20.000000,20.000000,20.000000]}

M73 P0 R20
M204 P4000 T4000 ; sets acceleration (P, T), mm/sec^2
;TYPE:Custom
; custom gcode: start_gcode
START_PRINT T_BED=60 T_EXTRUDER=200
; custom gcode end: start_gcode
M107
G21 ; set units to millimeters
G90 ; use absolute coordinates
M82 ; use absolute distances for extrusion
G92 E0
; custom gcode: start_filament_gcode
; Filament gcode

    PRESSURE_ADVANCE_SELECT FILAMENT=PLA
; custom gcode end: start_filament_gcode
;_TOOLCHANGE 0
M109 S200 ; set temperature and wait for it to be reached
M190 S60 ; set bed temperature and wait for it to be reached
;LAYER_CHANGE
;Z:0.2
;HEIGHT:0.2
G1 Z0.2 F12000
M73 P0 R20
G1 E-0.8 F3000
M204 S1000
G1 X151.477 Y151.445 F12000
G1 E0 F1800
;TYPE:Skirt
;WIDTH:0.52
G1 X150.349 Y153.12 E0.0801
G1 X149.953 Y155.1 E0.16021
G1 X149.953 Y174.9 E0.94566
G1 X150.332 Y176.838 E1.024
G1 X151.445 Y178.523 E1.10411
G1 X153.12 Y179.651 E1.18421
G1 X155.1 Y180.047 E1.26432
G1 X174.9 Y180.047 E2.04977
G1 X176.838 Y179.668 E2.12811
G1 X178.523 Y178.555 E2.20822
G1 X179.651 Y176.88 E2.28832
G1 X180.047 Y174.9 E2.36842
G1 X180.047 Y155.1 E3.15388
M73 P0 R20
G1 X179.668 Y153.162 E3.23222
G1 X178.555 Y151.477 E3.31232
G1 X176.88 Y150.349 E3.39243
G1 X174.9 Y149.953 E3.47253
G1 X155.1 Y149.953 E4.25798
G1 X153.162 Y150.332 E4.33633
G1 X151.477 Y151.445 E4.41643
G1 X151.887 Y151.739 F12000
G1 F1800
G1 X150.826 Y153.219 E4.48867
G1 X150.43 Y155.1 E4.56493
G1 X150.43 Y174.9 E5.35038
G1 X150.677 Y176.399 E5.41066
G1 X151.656 Y178.054 E5.48693
G1 X153.219 Y179.174 E5.56319
G1 X155.1 Y179.57 E5.63945
G1 X174.9 Y179.57 E6.4249
G1 X176.399 Y179.323 E6.48519
G1 X178.054 Y178.344 E6.56145
G1 X179.174 Y176.781 E6.63771
G1 X179.57 Y174.9 E6.71397
G1 X179.57 Y155.1 E7.49943
G1 X179.323 Y153.601 E7.55971
G1 X178.344 Y151.946 E7.63597
G1 X176.781 Y150.826 E7.71223
G1 X174.9 Y150.43 E7.78849
G1 X155.1 Y150.43 E8.57395
G1 X153.601 Y150.677 E8.63423
G1 X151.946 Y151.656 E8.71049
G1 X151.887 Y151.739 E8.71452
G1 X152.286 Y152.046 F12000
G1 F1800
G1 X151.303 Y153.323 E8.77845
G1 X150.907 Y155.1 E8.85066
G1 X150.907 Y174.9 E9.63612
G1 X151.046 Y175.969 E9.67886
G1 X151.881 Y177.586 E9.75108
G1 X153.323 Y178.697 E9.8233
G1 X155.1 Y179.093 E9.89552
G1 X174.9 Y179.093 E10.68097
G1 X175.969 Y178.954 E10.72372
G1 X177.586 Y178.119 E10.79593
G1 X178.697 Y176.677 E10.86815
G1 X179.093 Y174.9 E10.94037
G1 X179.093 Y155.1 E11.72582
G1 X178.954 Y154.031 E11.76857
G1 X178.119 Y152.414 E11.84078
G1 X176.677 Y151.303 E11.913
G1 X174.9 Y150.907 E11.98522
G1 X155.1 Y150.907 E12.77067
G1 X154.031 Y151.046 E12.81342
G1 X152.414 Y151.881 E12.88564
G1 X152.286 Y152.046 E12.89393
G1 X152.671 Y152.369 F12000
G1 F1800
G1 X151.779 Y153.434 E12.94902
G1 X151.384 Y155.1 E13.01696
G1 X151.384 Y174.9 E13.80241
G1 X152.121 Y177.121 E13.89524
G1 X153.434 Y178.221 E13.96317
G1 X155.1 Y178.616 E14.0311
G1 X174.9 Y178.616 E14.81655
G1 X177.121 Y177.879 E14.90938
G1 X178.221 Y176.566 E14.97731
G1 X178.616 Y174.9 E15.04524
G1 X178.616 Y155.1 E15.8307
G1 X177.879 Y152.879 E15.92352
G1 X176.566 Y151.779 E15.99145
G1 X174.9 Y151.384 E16.05939
G1 X155.1 Y151.384 E16.84484
M73 P1 R20
G1 X152.879 Y152.121 E16.93766
G1 X152.671 Y152.369 E16.9505
G1 X153.037 Y152.708 F12000
G1 F1800
G1 X152.255 Y153.552 E16.99613
G1 X151.861 Y155.1 E17.05949
G1 X151.861 Y174.9 E17.84494
G1 X152.381 Y176.659 E17.9177
G1 X153.552 Y177.745 E17.98106
G1 X155.1 Y178.139 E18.04441
G1 X174.9 Y178.139 E18.82987
G1 X176.659 Y177.619 E18.90262
G1 X177.745 Y176.448 E18.96598
G1 X178.139 Y174.9 E19.02934
G1 X178.139 Y155.1 E19.81479
G1 X177.619 Y153.341 E19.88755
G1 X176.448 Y152.255 E19.95091
G1 X174.9 Y151.861 E20.01426
G1 X155.1 Y151.861 E20.79972
G1 X153.341 Y152.381 E20.87247
G1 X153.037 Y152.708 E20.8902
G92 E0
G1 E-0.8 F3000
; printing object xyzCalibration_cube.stl id:0 copy 0
EXCLUDE_OBJECT_START NAME=xyzCalibration_cube_stl_id_0_copy_0
; acceleration to travel
M204 S3000
G1 X155.457 Y155.375 F12000
; decel to extrusion
M204 S1000
G1 X156.264 Y156.264
; end travel
G1 E0 F1800
;TYPE:Internal perimeter
;WIDTH:0.5
G1 X173.736 Y156.264 E0.66403
G1 X173.736 Y173.736 E1.32807
G1 X156.264 Y173.736 E1.9921
G1 X156.264 Y156.264 E2.65614
G1 X155.807 Y155.807 F12000
G1 F1800
G1 X174.193 Y155.807 E3.35492
G1 X174.193 Y174.193 E4.0537
G1 X155.807 Y174.193 E4.75247
M73 P2 R20
G1 X155.807 Y155.807 E5.45125
G1 X155.35 Y155.35 F12000
;TYPE:External perimeter
G1 F1800
G1 X174.65 Y155.35 E6.18477
G1 X174.65 Y174.65 E6.9183
G1 X155.35 Y174.65 E7.65182
G1 X155.35 Y155.35 E8.38534
;WIPE_START
M204 S4000
G1 X155.696 Y155.55 F12000
;WIPE_END
G92 E0
G1 E-0.8 F3000
; acceleration to travel
M204 S3000
G1 X168.198 Y156.177 F12000
; decel to extrusion
M204 S1000
G1 X172.675 Y156.401
; end travel
G1 E0 F1800
;TYPE:Solid infill
;WIDTH:0.502028
G1 F3600
G1 X173.599 Y157.325 E0.04986
G1 X173.599 Y157.972 F12000
G1 F3600
G1 X172.028 Y156.401 E0.13461
M73 P2 R20
G1 X171.382 Y156.401 F12000
G1 F3600
G1 X173.599 Y158.618 E0.25425
G1 X173.599 Y159.264 F12000
G1 F3600
G1 X170.736 Y156.401 E0.40876
G1 X170.089 Y156.401 F12000
G1 F3600
G1 X173.599 Y159.911 E0.59817
G1 X173.599 Y160.557 F12000
G1 F3600
G1 X169.443 Y156.401 E0.82245
G1 X168.796 Y156.401 F12000
G1 F3600
G1 X173.599 Y161.204 E1.08163
G1 X173.599 Y161.85 F12000
G1 F3600
G1 X168.15 Y156.401 E1.37568
G1 X167.504 Y156.401 F12000
G1 F3600
G1 X173.599 Y162.496 E1.70463
G1 X173.599 Y163.143 F12000
G1 F3600
G1 X166.857 Y156.401 E2.06845
G1 X166.211 Y156.401 F12000
G1 F3600
G1 X173.599 Y163.789 E2.46716
G1 X173.599 Y164.436 F12000
G1 F3600
G1 X165.564 Y156.401 E2.90076
G1 X164.918 Y156.401 F12000
G1 F3600
G1 X173.599 Y165.082 E3.36924
G1 X173.599 Y165.729 F12000
G1 F3600
G1 X164.271 Y156.401 E3.8726
G1 X163.625 Y156.401 F12000
G1 F3600
G1 X173.599 Y166.375 E4.41085
G1 X173.599 Y167.021 F12000
G1 F3600
G1 X162.979 Y156.401 E4.98399
G1 X162.332 Y156.401 F12000
G1 F3600
G1 X173.599 Y167.668 E5.59201
G1 X173.599 Y168.314 F12000
G1 F3600
G1 X161.686 Y156.401 E6.23491
G1 X161.039 Y156.401 F12000
G1 F3600
G1 X173.599 Y168.961 E6.9127
G1 X173.599 Y169.607 F12000
G1 F3600
G1 X160.393 Y156.401 E7.62537
G1 X159.747 Y156.401 F12000
G1 F3600
G1 X173.599 Y170.253 E8.37293
G1 X173.599 Y170.9 F12000
G1 F3600
G1 X159.1 Y156.401 E9.15537
G1 X158.454 Y156.401 F12000
G1 F3600
G1 X173.599 Y171.546 E9.9727
G1 X173.599 Y172.193 F12000
G1 F3600
G1 X157.807 Y156.401 E10.82491
G1 X157.161 Y156.401 F12000
G1 F3600
G1 X173.599 Y172.839 E11.71201
G1 X173.599 Y173.485 F12000
G1 F3600
G1 X156.515 Y156.401 E12.63399
G1 X156.401 Y156.934 F12000
G1 F3600
G1 X173.066 Y173.599 E13.53332
G1 X172.419 Y173.599 F12000
G1 F3600
G1 X156.401 Y157.581 E14.39776
G1 X156.401 Y158.227 F12000
G1 F3600
G1 X171.773 Y173.599 E15.22732
G1 X171.126 Y173.599 F12000
G1 F3600
G1 X156.401 Y158.874 E16.02199
G1 X156.401 Y159.52 F12000
G1 F3600
G1 X170.48 Y173.599 E16.78178
G1 X169.834 Y173.599 F12000
G1 F3600
G1 X156.401 Y160.166 E17.50668
G1 X156.401 Y160.813 F12000
G1 F3600
G1 X169.187 Y173.599 E18.1967
G1 X168.541 Y173.599 F12000
G1 F3600
G1 X156.401 Y161.459 E18.85184
G1 X156.401 Y162.106 F12000
G1 F3600
G1 X167.894 Y173.599 E19.47209
G1 X167.248 Y173.599 F12000
G1 F3600
G1 X156.401 Y162.752 E20.05746
G1 X156.401 Y163.398 F12000
G1 F3600
G1 X166.602 Y173.599 E20.60794
G1 X165.955 Y173.599 F12000
G1 F3600
G1 X156.401 Y164.045 E21.12353
M73 P3 R19
G1 X156.401 Y164.691 F12000
G1 F3600
G1 X165.309 Y173.599 E21.60424
G1 X164.662 Y173.599 F12000
G1 F3600
G1 X156.401 Y165.338 E22.05007
G1 X156.401 Y165.984 F12000
G1 F3600
G1 X164.016 Y173.599 E22.46101
G1 X163.37 Y173.599 F12000
G1 F3600
G1 X156.401 Y166.63 E22.83707
G1 X156.401 Y167.277 F12000
G1 F3600
G1 X162.723 Y173.599 E23.17824
G1 X162.077 Y173.599 F12000
G1 F3600
G1 X156.401 Y167.923 E23.48453
G1 X156.401 Y168.57 F12000
G1 F3600
G1 X161.43 Y173.599 E23.75594
G1 X160.784 Y173.599 F12000
G1 F3600
G1 X156.401 Y169.216 E23.99245
G1 X156.401 Y169.862 F12000
G1 F3600
G1 X160.138 Y173.599 E24.19409
G1 X159.491 Y173.599 F12000
G1 F3600
G1 X156.401 Y170.509 E24.36084
G1 X156.401 Y171.155 F12000
G1 F3600
G1 X158.845 Y173.599 E24.4927
G1 X158.198 Y173.599 F12000
G1 F3600
G1 X156.401 Y171.802 E24.58968
G1 X156.401 Y172.448 F12000
G1 F3600
G1 X157.552 Y173.599 E24.65178
G1 X156.905 Y173.599 F12000
G1 F3600
G1 X156.401 Y173.095 E24.67899
;LAYER_CHANGE
;Z:0.4
;HEIGHT:0.2
; stop printing object xyzCalibration_cube.stl id:0 copy 0
EXCLUDE_OBJECT_END NAME=xyzCalibration_cube_stl_id_0_copy_0
M204 S4000
G1 Z0.4 F12000
; printing object xyzCalibration_cube.stl id:0 copy 0
EXCLUDE_OBJECT_START NAME=xyzCalibration_cube_stl_id_0_copy_0
G1 X156.071 Y173.929
;TYPE:Internal perimeter
;WIDTH:0.46
G1 F9000
G1 X156.071 Y156.071 E25.29832
G1 X173.929 Y156.071 E25.91766
G1 X173.929 Y173.929 E26.53699
G1 X156.071 Y173.929 E27.15632
G1 X155.654 Y174.346 F12000
G1 F9000
G1 X155.654 Y155.654 E27.80458
G1 X174.346 Y155.654 E28.45285
G1 X174.346 Y174.346 E29.10111
G1 X155.654 Y174.346 E29.74937
G1 X155.267 Y174.733 F12000
;TYPE:External perimeter
;WIDTH:0.4
G1 F7200
G1 X155.267 Y155.267 E30.32736
G1 X174.733 Y155.267 E30.90535
G1 X174.733 Y174.733 E31.48334
G1 X155.267 Y174.733 E32.06133
;WIPE_START
G1 X155.467 Y174.387 F12000
;WIPE_END
G1 X173.812 Y172.766
;TYPE:Solid infill
;WIDTH:0.562424
G1 F7200
G1 X172.766 Y173.812 E32.12516
G1 X172.035 Y173.812 F12000
G1 F7200
G1 X173.812 Y172.035 E32.23365
G1 X173.812 Y171.304 F12000
G1 F7200
G1 X171.304 Y173.812 E32.3868
G1 X170.573 Y173.812 F12000
G1 F7200
G1 X173.812 Y170.573 E32.5846
G1 X173.812 Y169.841 F12000
G1 F7200
G1 X169.841 Y173.812 E32.82705
G1 X169.11 Y173.812 F12000
G1 F7200
G1 X173.812 Y169.11 E33.11417
G1 X173.812 Y168.379 F12000
G1 F7200
G1 X168.379 Y173.812 E33.44594
G1 X167.647 Y173.812 F12000
G1 F7200
G1 X173.812 Y167.647 E33.82236
G1 X173.812 Y166.916 F12000
G1 F7200
G1 X166.916 Y173.812 E34.24345
G1 X166.185 Y173.812 F12000
G1 F7200
G1 X173.812 Y166.185 E34.70918
G1 X173.812 Y165.454 F12000
G1 F7200
G1 X165.454 Y173.812 E35.21958
G1 X164.722 Y173.812 F12000
G1 F7200
G1 X173.812 Y164.722 E35.77463
G1 X173.812 Y163.991 F12000
G1 F7200
G1 X163.991 Y173.812 E36.37434
G1 X163.26 Y173.812 F12000
G1 F7200
G1 X173.812 Y163.26 E37.01871
G1 X173.812 Y162.529 F12000
G1 F7200
G1 X162.529 Y173.812 E37.70773
G1 X161.797 Y173.812 F12000
G1 F7200
G1 X173.812 Y161.797 E38.4414
G1 X173.812 Y161.066 F12000
G1 F7200
G1 X161.066 Y173.812 E39.21974
G1 X160.335 Y173.812 F12000
G1 F7200
G1 X173.812 Y160.335 E40.04273
G1 X173.812 Y159.604 F12000
G1 F7200
G1 X159.604 Y173.812 E40.91038
G1 X158.872 Y173.812 F12000
G1 F7200
G1 X173.812 Y158.872 E41.82268
G1 X173.812 Y158.141 F12000
G1 F7200
G1 X158.141 Y173.812 E42.77964
G1 X157.41 Y173.812 F12000
G1 F7200
G1 X173.812 Y157.41 E43.78126
G1 X173.812 Y156.679 F12000
G1 F7200
G1 X156.679 Y173.812 E44.82753
G1 X156.188 Y173.57 F12000
G1 F7200
G1 X173.57 Y156.188 E45.88901
G1 X172.839 Y156.188 F12000
G1 F7200
G1 X156.188 Y172.839 E46.90584
G1 X156.188 Y172.108 F12000
G1 F7200
G1 X172.108 Y156.188 E47.87801
G1 X171.377 Y156.188 F12000
G1 F7200
G1 X156.188 Y171.377 E48.80552
G1 X156.188 Y170.645 F12000
G1 F7200
G1 X170.645 Y156.188 E49.68838
G1 X169.914 Y156.188 F12000
G1 F7200
G1 X156.188 Y169.914 E50.52658
G1 X156.188 Y169.183 F12000
G1 F7200
G1 X169.183 Y156.188 E51.32013
G1 X168.452 Y156.188 F12000
G1 F7200
G1 X156.188 Y168.452 E52.06901
G1 X156.188 Y167.72 F12000
G1 F7200
G1 X167.72 Y156.188 E52.77325
G1 X166.989 Y156.188 F12000
G1 F7200
G1 X156.188 Y166.989 E53.43282
G1 X156.188 Y166.258 F12000
G1 F7200
G1 X166.258 Y156.188 E54.04774
G1 X165.527 Y156.188 F12000
G1 F7200
G1 X156.188 Y165.527 E54.618
G1 X156.188 Y164.795 F12000
G1 F7200
G1 X164.795 Y156.188 E55.14361
G1 X164.064 Y156.188 F12000
G1 F7200
G1 X156.188 Y164.064 E55.62456
G1 X156.188 Y163.333 F12000
G1 F7200
G1 X163.333 Y156.188 E56.06085
G1 X162.602 Y156.188 F12000
G1 F7200
G1 X156.188 Y162.602 E56.45249
G1 X156.188 Y161.87 F12000
G1 F7200
G1 X161.87 Y156.188 E56.79947
G1 X161.139 Y156.188 F12000
G1 F7200
G1 X156.188 Y161.139 E57.10179
G1 X156.188 Y160.408 F12000
G1 F7200
G1 X160.408 Y156.188 E57.35946
G1 X159.677 Y156.188 F12000
G1 F7200
G1 X156.188 Y159.677 E57.57247
G1 X156.188 Y158.945 F12000
M73 P4 R19
G1 F7200
G1 X158.945 Y156.188 E57.74083
G1 X158.214 Y156.188 F12000
G1 F7200
G1 X156.188 Y158.214 E57.86453
G1 X156.188 Y157.483 F12000
G1 F7200
G1 X157.483 Y156.188 E57.94357
G1 X156.751 Y156.188 F12000
G1 F7200
G1 X156.188 Y156.751 E57.97795
;LAYER_CHANGE
;Z:0.6
;HEIGHT:0.2
; stop printing object xyzCalibration_cube.stl id:0 copy 0
EXCLUDE_OBJECT_END NAME=xyzCalibration_cube_stl_id_0_copy_0
G1 Z0.6 F12000
; printing object xyzCalibration_cube.stl id:0 copy 0
EXCLUDE_OBJECT_START NAME=xyzCalibration_cube_stl_id_0_copy_0
G1 X156.037 Y156.037
;TYPE:Internal perimeter
;WIDTH:0.46
G1 F5099
G1 X173.963 Y156.037 E58.5996
G1 X173.963 Y173.963 E59.22124
G1 X156.037 Y173.963 E59.84289
G1 X156.037 Y156.037 E60.46454
G1 X155.62 Y155.62 F12000
G1 F5099
G1 X174.38 Y155.62 E61.11511
G1 X174.38 Y174.38 E61.76568
G1 X155.62 Y174.38 E62.41626
G1 X155.62 Y155.62 E63.06683
G1 X155.233 Y155.233 F12000
;TYPE:External perimeter
;WIDTH:0.4
G1 F5099
G1 X174.767 Y155.233 E63.6468
G1 X174.767 Y174.767 E64.22677
G1 X155.233 Y174.767 E64.80674
G1 X155.233 Y155.233 E65.38671
;WIPE_START
G1 X155.58 Y155.433 F12000
;WIPE_END
G1 X172.8 Y156.155
;TYPE:Solid infill
;WIDTH:0.562439
G1 F5099
G1 X173.845 Y157.2 E65.45055
G1 X173.845 Y157.932 F12000
G1 F5099
G1 X172.068 Y156.155 E65.55904
G1 X171.337 Y156.155 F12000
G1 F5099
G1 X173.845 Y158.663 E65.71218
G1 X173.845 Y159.394 F12000
G1 F5099
G1 X170.606 Y156.155 E65.90999
G1 X169.875 Y156.155 F12000
G1 F5099
G1 X173.845 Y160.125 E66.15245
G1 X173.845 Y160.857 F12000
G1 F5099
G1 X169.143 Y156.155 E66.43957
G1 X168.412 Y156.155 F12000
G1 F5099
G1 X173.845 Y161.588 E66.77135
G1 X173.845 Y162.319 F12000
G1 F5099
G1 X167.681 Y156.155 E67.14779
G1 X166.95 Y156.155 F12000
G1 F5099
G1 X173.845 Y163.05 E67.56888
G1 X173.845 Y163.782 F12000
G1 F5099
G1 X166.218 Y156.155 E68.03464
G1 X165.487 Y156.155 F12000
G1 F5099
G1 X173.845 Y164.513 E68.54504
G1 X173.845 Y165.244 F12000
G1 F5099
G1 X164.756 Y156.155 E69.10011
G1 X164.025 Y156.155 F12000
G1 F5099
G1 X173.845 Y165.975 E69.69984
G1 X173.845 Y166.707 F12000
G1 F5099
G1 X163.293 Y156.155 E70.34422
G1 X162.562 Y156.155 F12000
G1 F5099
G1 X173.845 Y167.438 E71.03326
G1 X173.845 Y168.169 F12000
G1 F5099
G1 X161.831 Y156.155 E71.76696
G1 X161.099 Y156.155 F12000
G1 F5099
G1 X173.845 Y168.901 E72.54531
G1 X173.845 Y169.632 F12000
G1 F5099
G1 X160.368 Y156.155 E73.36832
G1 X159.637 Y156.155 F12000
G1 F5099
G1 X173.845 Y170.363 E74.23599
G1 X173.845 Y171.094 F12000
G1 F5099
G1 X158.906 Y156.155 E75.14832
G1 X158.174 Y156.155 F12000
G1 F5099
G1 X173.845 Y171.826 E76.10531
G1 X173.845 Y172.557 F12000
G1 F5099
G1 X157.443 Y156.155 E77.10695
G1 X156.712 Y156.155 F12000
G1 F5099
G1 X173.845 Y173.288 E78.15325
G1 X173.67 Y173.845 F12000
G1 F5099
G1 X156.155 Y156.33 E79.2229
G1 X156.155 Y157.061 F12000
G1 F5099
G1 X172.939 Y173.845 E80.2479
G1 X172.208 Y173.845 F12000
G1 F5099
G1 X156.155 Y157.792 E81.22824
G1 X156.155 Y158.523 F12000
G1 F5099
G1 X171.477 Y173.845 E82.16392
