; HEADER_BLOCK_START
; generated by OrcaSlicer 1.7.0-beta on 2023-10-03 at 12:25:01
; total layer number: 100
; HEADER_BLOCK_END

; THUMBNAIL_BLOCK_START
; THUMBNAIL_BLOCK_END

; external perimeters extrusion width = 0.40mm
; perimeters extrusion width = 0.46mm
; infill extrusion width = 0.64mm
; solid infill extrusion width = 0.56mm
; top infill extrusion width = 0.40mm
; first layer extrusion width = 0.50mm

; EXECUTABLE_BLOCK_START
EXCLUDE_OBJECT_DEFINE NAME=xyzCalibration_cube.stl_id_0_copy_0 CENTER=160,153 POLYGON=[[150,143],[170,143],[170,163],[150,163],[150,143]]
M73 P0 R15
;TYPE:Custom
START_PRINT T_BED=60 T_EXTRUDER=220
G90
G21
M83 ; use relative distances for extrusion
; filament start gcode

    PRESSURE_ADVANCE_SELECT FILAMENT=PLA
M106 S0
;LAYER_CHANGE
;Z:0.2
;HEIGHT:0.2
;BEFORE_LAYER_CHANGE
;0.2
G92 E0

G1 E-.8 F1800
;_SET_FAN_SPEED_CHANGING_LAYER
SET_VELOCITY_LIMIT ACCEL=2000 ACCEL_TO_DECEL=1000
G1 X147.479 Y141.538 F36000
G1 Z.2
G1 E.8 F1800
;TYPE:Skirt
;WIDTH:0.5
G1 F3000
G1 X148.552 Y140.471 E.05638
G1 X150 Y140.086 E.0558
G1 X170 Y140.086 E.74492
G1 X171.462 Y140.479 E.05638
G1 X172.529 Y141.552 E.05638
G1 X172.914 Y143 E.0558
G1 X172.914 Y163 E.74492
G1 X172.521 Y164.462 E.05638
G1 X171.448 Y165.529 E.05638
G1 X170 Y165.914 E.0558
G1 X150 Y165.914 E.74492
G1 X148.538 Y165.521 E.05638
G1 X147.471 Y164.448 E.05638
G1 X147.086 Y163 E.0558
G1 X147.086 Y143 E.74492
G1 X147.469 Y141.577 E.05489
G1 X147.923 Y141.71 F36000
G1 F3000
G1 X147.935 Y141.669 E.00162
G1 X148.985 Y140.762 E.05169
G1 X150 Y140.543 E.03866
G1 X170 Y140.543 E.74492
G1 X171.331 Y140.935 E.05169
G1 X172.238 Y141.985 E.05169
G1 X172.457 Y143 E.03866
G1 X172.457 Y163 E.74492
G1 X172.065 Y164.331 E.05169
G1 X171.015 Y165.238 E.05169
G1 X170 Y165.457 E.03866
G1 X150 Y165.457 E.74492
G1 X148.669 Y165.065 E.05169
G1 X147.762 Y164.015 E.05169
G1 X147.543 Y163 E.03866
G1 X147.543 Y143 E.74492
G1 X147.911 Y141.749 E.04858
; printing object xyzCalibration_cube.stl id:0 copy 0
G1 E-.56 F1800
;WIPE_START
G1 F3000
G1 X147.935 Y141.669 E-.02003
G1 X148.629 Y141.07 E-.21997
;WIPE_END
EXCLUDE_OBJECT_START NAME=xyzCalibration_cube.stl_id_0_copy_0
G1 X169.65 Y162.65 F36000
G1 E.8 F1800
;TYPE:Outer wall
G1 F3000
G1 X150.35 Y162.65 E.71885
G1 X150.35 Y143.35 E.71885
G1 X169.65 Y143.35 E.71885
G1 X169.65 Y162.642 E.71855
G1 X169.193 Y162.193 F36000
;TYPE:Inner wall
G1 F3000
G1 X150.807 Y162.193 E.6848
G1 X150.807 Y143.807 E.6848
G1 X169.193 Y143.807 E.6848
G1 X169.193 Y162.185 E.6845
G1 X168.736 Y161.736 F36000
G1 F3000
G1 X151.264 Y161.736 E.65075
M73 P1 R15
G1 X151.264 Y144.264 E.65075
G1 X168.736 Y144.264 E.65075
G1 X168.736 Y161.728 E.65046
G1 X168.279 Y161.279 F36000
G1 F3000
G1 X151.721 Y161.279 E.61671
G1 X151.721 Y144.721 E.61671
G1 X168.279 Y144.721 E.61671
G1 X168.279 Y161.271 E.61641
G1 E-.8 F1800
G1 X167.208 Y144.858 F36000
G1 E.8 F1800
;TYPE:Bottom surface
;WIDTH:0.504774
G1 F6300
G1 X167.936 Y145.587 E.03877
G1 X167.936 Y146.24 E.02458
G1 X166.76 Y145.064 E.06259
G1 X166.107 Y145.064 E.02458
G1 X167.936 Y146.893 E.09735
G1 X167.936 Y147.546 E.02458
G1 X165.454 Y145.064 E.13211
G1 X164.801 Y145.064 E.02458
G1 X167.936 Y148.199 E.16688
G1 X167.936 Y148.853 E.02458
G1 X164.147 Y145.064 E.20164
G1 X163.494 Y145.064 E.02458
G1 X167.936 Y149.506 E.23641
G1 X167.936 Y150.159 E.02458
G1 X162.841 Y145.064 E.27117
G1 X162.188 Y145.064 E.02458
G1 X167.936 Y150.812 E.30593
G1 X167.936 Y151.465 E.02458
G1 X161.535 Y145.064 E.3407
G1 X160.882 Y145.064 E.02458
G1 X167.936 Y152.118 E.37546
G1 X167.936 Y152.772 E.02458
G1 X160.228 Y145.064 E.41023
G1 X159.575 Y145.064 E.02458
G1 X167.936 Y153.425 E.44499
G1 X167.936 Y154.078 E.02458
G1 X158.922 Y145.064 E.47975
G1 X158.269 Y145.064 E.02458
G1 X167.936 Y154.731 E.51452
G1 X167.936 Y155.384 E.02458
G1 X157.616 Y145.064 E.54928
G1 X156.963 Y145.064 E.02458
G1 X167.936 Y156.037 E.58405
G1 X167.936 Y156.69 E.02458
G1 X156.31 Y145.064 E.61881
G1 X155.656 Y145.064 E.02458
G1 X167.936 Y157.344 E.65357
G1 X167.936 Y157.997 E.02458
G1 X155.003 Y145.064 E.68834
G1 X154.35 Y145.064 E.02458
G1 X167.936 Y158.65 E.7231
G1 X167.936 Y159.303 E.02458
G1 X153.697 Y145.064 E.75787
G1 X153.044 Y145.064 E.02458
G1 X167.936 Y159.956 E.79263
G1 X167.936 Y160.609 E.02458
G1 X152.391 Y145.064 E.82739
G1 X152.064 Y145.064 E.01229
G1 X152.064 Y145.391 E.01229
G1 X167.609 Y160.936 E.82739
G1 X166.956 Y160.936 E.02458
G1 X152.064 Y146.044 E.79262
G1 X152.064 Y146.697 E.02458
G1 X166.303 Y160.936 E.75786
G1 X165.65 Y160.936 E.02458
G1 X152.064 Y147.35 E.7231
G1 X152.064 Y148.003 E.02458
G1 X164.997 Y160.936 E.68833
G1 X164.344 Y160.936 E.02458
G1 X152.064 Y148.656 E.65357
G1 X152.064 Y149.31 E.02458
G1 X163.69 Y160.936 E.6188
M73 P2 R15
G1 X163.037 Y160.936 E.02458
G1 X152.064 Y149.963 E.58404
G1 X152.064 Y150.616 E.02458
G1 X162.384 Y160.936 E.54928
G1 X161.731 Y160.936 E.02458
G1 X152.064 Y151.269 E.51451
G1 X152.064 Y151.922 E.02458
G1 X161.078 Y160.936 E.47975
G1 X160.425 Y160.936 E.02458
G1 X152.064 Y152.575 E.44498
G1 X152.064 Y153.229 E.02458
G1 X159.771 Y160.936 E.41022
G1 X159.118 Y160.936 E.02458
G1 X152.064 Y153.882 E.37546
G1 X152.064 Y154.535 E.02458
G1 X158.465 Y160.936 E.34069
G1 X157.812 Y160.936 E.02458
G1 X152.064 Y155.188 E.30593
G1 X152.064 Y155.841 E.02458
G1 X157.159 Y160.936 E.27116
G1 X156.506 Y160.936 E.02458
G1 X152.064 Y156.494 E.2364
G1 X152.064 Y157.148 E.02458
G1 X155.852 Y160.936 E.20164
G1 X155.199 Y160.936 E.02458
G1 X152.064 Y157.801 E.16687
G1 X152.064 Y158.454 E.02458
G1 X154.546 Y160.936 E.13211
G1 X153.893 Y160.936 E.02458
G1 X152.064 Y159.107 E.09734
G1 X152.064 Y159.76 E.02458
G1 X153.24 Y160.936 E.06258
G1 X152.587 Y160.936 E.02458
G1 X151.858 Y160.208 E.03876
; stop printing object xyzCalibration_cube.stl id:0 copy 0
M106 S255
;LAYER_CHANGE
;Z:0.4
;HEIGHT:0.2
;BEFORE_LAYER_CHANGE
;0.4
G92 E0

G1 E-.56 F1800
;WIPE_START
G1 F6300
G1 X152.565 Y160.915 E-.24
;WIPE_END
EXCLUDE_OBJECT_END NAME=xyzCalibration_cube.stl_id_0_copy_0
;_SET_FAN_SPEED_CHANGING_LAYER
SET_VELOCITY_LIMIT ACCEL=20000 ACCEL_TO_DECEL=10000
M140 S60 ; set bed temperature
; printing object xyzCalibration_cube.stl id:0 copy 0
SET_VELOCITY_LIMIT ACCEL=18000 ACCEL_TO_DECEL=9000
EXCLUDE_OBJECT_START NAME=xyzCalibration_cube.stl_id_0_copy_0
G1 X169.8 Y162.8 Z.4 F36000
G1 E.8 F1800
SET_VELOCITY_LIMIT ACCEL=10000 ACCEL_TO_DECEL=5000
;TYPE:Outer wall
;WIDTH:0.4
G1 F6430
G1 X169.4 Y162.8 E.01164
G1 X150.6 Y162.8 E.54703
G1 X150.2 Y162.8 E.01164
G1 X150.2 Y162.4 E.01164
G1 X150.2 Y143.6 E.54703
G1 X150.2 Y143.2 E.01164
G1 X150.6 Y143.2 E.01164
G1 X169.4 Y143.2 E.54703
G1 X169.8 Y143.2 E.01164
G1 X169.8 Y143.6 E.01164
G1 X169.8 Y162.392 E.5468
G1 X169.8 Y162.792 E.01164
SET_VELOCITY_LIMIT ACCEL=18000 ACCEL_TO_DECEL=9000
G1 X169.413 Y162.413 F36000
SET_VELOCITY_LIMIT ACCEL=15000 ACCEL_TO_DECEL=7500
;TYPE:Inner wall
;WIDTH:0.46
G1 F6430
G1 X150.587 Y162.413 E.63983
G1 X150.587 Y143.587 E.63983
G1 X169.413 Y143.587 E.63983
G1 X169.413 Y162.405 E.63956
SET_VELOCITY_LIMIT ACCEL=18000 ACCEL_TO_DECEL=9000
G1 X168.996 Y161.996 F36000
SET_VELOCITY_LIMIT ACCEL=15000 ACCEL_TO_DECEL=7500
G1 F6430
G1 X151.004 Y161.996 E.61149
G1 X151.004 Y144.004 E.61149
G1 X168.996 Y144.004 E.61149
G1 X168.996 Y161.988 E.61122
SET_VELOCITY_LIMIT ACCEL=18000 ACCEL_TO_DECEL=9000
G1 X168.579 Y161.579 F36000
SET_VELOCITY_LIMIT ACCEL=15000 ACCEL_TO_DECEL=7500
G1 F6430
G1 X151.421 Y161.579 E.58314
G1 X151.421 Y144.421 E.58314
G1 X168.579 Y144.421 E.58314
G1 X168.579 Y161.571 E.58287
SET_VELOCITY_LIMIT ACCEL=18000 ACCEL_TO_DECEL=9000
G1 X168.461 Y160.406 F36000
SET_VELOCITY_LIMIT ACCEL=20000 ACCEL_TO_DECEL=10000
;TYPE:Internal solid infill
;WIDTH:0.564764
G1 F6430
G1 X167.638 Y161.228 E.04947
G1 X166.9 Y161.228 E.03138
G1 X168.228 Y159.9 E.07986
G1 X168.228 Y159.162 E.03138
G1 X166.162 Y161.228 E.12424
G1 X165.424 Y161.228 E.03138
G1 X168.228 Y158.424 E.16862
G1 X168.228 Y157.686 E.03138
G1 X164.686 Y161.228 E.21301
G1 X163.948 Y161.228 E.03138
G1 X168.228 Y156.948 E.25739
G1 X168.228 Y156.21 E.03138
G1 X163.21 Y161.228 E.30177
G1 X162.472 Y161.228 E.03138
G1 X168.228 Y155.472 E.34615
G1 X168.228 Y154.734 E.03138
G1 X161.734 Y161.228 E.39053
G1 X160.996 Y161.228 E.03138
G1 X168.228 Y153.996 E.43491
G1 X168.228 Y153.258 E.03138
G1 X160.258 Y161.228 E.4793
G1 X159.52 Y161.228 E.03138
G1 X168.228 Y152.52 E.52368
G1 X168.228 Y151.782 E.03138
G1 X158.782 Y161.228 E.56806
G1 X158.044 Y161.228 E.03138
G1 X168.228 Y151.044 E.61244
G1 X168.228 Y150.306 E.03138
G1 X157.306 Y161.228 E.65682
G1 X156.568 Y161.228 E.03138
G1 X168.228 Y149.568 E.7012
G1 X168.228 Y148.83 E.03138
G1 X155.83 Y161.228 E.74558
G1 X155.092 Y161.228 E.03138
G1 X168.228 Y148.092 E.78997
G1 X168.228 Y147.354 E.03138
G1 X154.354 Y161.228 E.83435
G1 X153.616 Y161.228 E.03138
G1 X168.228 Y146.616 E.87873
G1 X168.228 Y145.878 E.03138
G1 X152.878 Y161.228 E.92311
G1 X152.14 Y161.228 E.03138
G1 X168.228 Y145.14 E.96749
G1 X168.228 Y144.772 E.01569
G1 X167.859 Y144.772 E.01569
G1 X151.772 Y160.859 E.96749
M73 P3 R15
G1 X151.772 Y160.121 E.03138
G1 X167.121 Y144.772 E.9231
G1 X166.383 Y144.772 E.03138
G1 X151.772 Y159.383 E.87872
G1 X151.772 Y158.645 E.03138
G1 X165.645 Y144.772 E.83434
G1 X164.907 Y144.772 E.03138
G1 X151.772 Y157.907 E.78996
G1 X151.772 Y157.169 E.03138
G1 X164.169 Y144.772 E.74558
G1 X163.431 Y144.772 E.03138
G1 X151.772 Y156.431 E.7012
G1 X151.772 Y155.693 E.03138
G1 X162.693 Y144.772 E.65682
G1 X161.955 Y144.772 E.03138
G1 X151.772 Y154.955 E.61243
G1 X151.772 Y154.217 E.03138
G1 X161.217 Y144.772 E.56805
G1 X160.479 Y144.772 E.03138
G1 X151.772 Y153.479 E.52367
G1 X151.772 Y152.741 E.03138
G1 X159.741 Y144.772 E.47929
G1 X159.003 Y144.772 E.03138
G1 X151.772 Y152.003 E.43491
G1 X151.772 Y151.265 E.03138
G1 X158.265 Y144.772 E.39053
G1 X157.527 Y144.772 E.03138
G1 X151.772 Y150.527 E.34614
G1 X151.772 Y149.789 E.03138
G1 X156.789 Y144.772 E.30176
G1 X156.051 Y144.772 E.03138
G1 X151.772 Y149.051 E.25738
G1 X151.772 Y148.313 E.03138
G1 X155.313 Y144.772 E.213
G1 X154.575 Y144.772 E.03138
G1 X151.772 Y147.575 E.16862
G1 X151.772 Y146.837 E.03138
G1 X153.837 Y144.772 E.12424
G1 X153.099 Y144.772 E.03138
G1 X151.772 Y146.099 E.07986
G1 X151.772 Y145.361 E.03138
G1 X152.594 Y144.539 E.04947
; stop printing object xyzCalibration_cube.stl id:0 copy 0
;LAYER_CHANGE
;Z:0.6
;HEIGHT:0.2
;BEFORE_LAYER_CHANGE
;0.6
G92 E0

G1 E-.56 F1800
;WIPE_START
G1 F6898.613
G1 X151.887 Y145.246 E-.24
;WIPE_END
EXCLUDE_OBJECT_END NAME=xyzCalibration_cube.stl_id_0_copy_0
;_SET_FAN_SPEED_CHANGING_LAYER
; printing object xyzCalibration_cube.stl id:0 copy 0
SET_VELOCITY_LIMIT ACCEL=18000 ACCEL_TO_DECEL=9000
EXCLUDE_OBJECT_START NAME=xyzCalibration_cube.stl_id_0_copy_0
G1 X169.8 Y162.8 Z.6 F36000
G1 E.8 F1800
SET_VELOCITY_LIMIT ACCEL=10000 ACCEL_TO_DECEL=5000
;TYPE:Outer wall
;WIDTH:0.4
G1 F6461
G1 X169.4 Y162.8 E.01164
G1 X150.6 Y162.8 E.54703
G1 X150.2 Y162.8 E.01164
G1 X150.2 Y162.4 E.01164
G1 X150.2 Y143.6 E.54703
G1 X150.2 Y143.2 E.01164
G1 X150.6 Y143.2 E.01164
G1 X169.4 Y143.2 E.54703
G1 X169.8 Y143.2 E.01164
G1 X169.8 Y143.6 E.01164
G1 X169.8 Y162.392 E.5468
G1 X169.8 Y162.792 E.01164
SET_VELOCITY_LIMIT ACCEL=18000 ACCEL_TO_DECEL=9000
G1 X169.413 Y162.413 F36000
SET_VELOCITY_LIMIT ACCEL=15000 ACCEL_TO_DECEL=7500
;TYPE:Inner wall
;WIDTH:0.46
G1 F6461
G1 X150.587 Y162.413 E.63983
G1 X150.587 Y143.587 E.63983
G1 X169.413 Y143.587 E.63983
G1 X169.413 Y162.405 E.63956
SET_VELOCITY_LIMIT ACCEL=18000 ACCEL_TO_DECEL=9000
G1 X168.996 Y161.996 F36000
SET_VELOCITY_LIMIT ACCEL=15000 ACCEL_TO_DECEL=7500
G1 F6461
G1 X151.004 Y161.996 E.61149
G1 X151.004 Y144.004 E.61149
G1 X168.996 Y144.004 E.61149
G1 X168.996 Y161.988 E.61122
SET_VELOCITY_LIMIT ACCEL=18000 ACCEL_TO_DECEL=9000
G1 X168.579 Y161.579 F36000
SET_VELOCITY_LIMIT ACCEL=15000 ACCEL_TO_DECEL=7500
G1 F6461
G1 X151.421 Y161.579 E.58314
G1 X151.421 Y144.421 E.58314
G1 X168.579 Y144.421 E.58314
G1 X168.579 Y161.571 E.58287
SET_VELOCITY_LIMIT ACCEL=18000 ACCEL_TO_DECEL=9000
G1 X167.406 Y144.539 F36000
SET_VELOCITY_LIMIT ACCEL=20000 ACCEL_TO_DECEL=10000
;TYPE:Internal solid infill
;WIDTH:0.564764
G1 F6461
G1 X168.228 Y145.362 E.04947
G1 X168.228 Y146.1 E.03138
G1 X166.9 Y144.772 E.07986
G1 X166.162 Y144.772 E.03138
G1 X168.228 Y146.838 E.12424
G1 X168.228 Y147.576 E.03138
G1 X165.424 Y144.772 E.16862
G1 X164.686 Y144.772 E.03138
G1 X168.228 Y148.314 E.21301
G1 X168.228 Y149.052 E.03138
G1 X163.948 Y144.772 E.25739
G1 X163.21 Y144.772 E.03138
G1 X168.228 Y149.79 E.30177
G1 X168.228 Y150.528 E.03138
G1 X162.472 Y144.772 E.34615
G1 X161.734 Y144.772 E.03138
G1 X168.228 Y151.266 E.39053
G1 X168.228 Y152.004 E.03138
G1 X160.996 Y144.772 E.43491
G1 X160.258 Y144.772 E.03138
G1 X168.228 Y152.742 E.4793
G1 X168.228 Y153.48 E.03138
G1 X159.52 Y144.772 E.52368
G1 X158.782 Y144.772 E.03138
G1 X168.228 Y154.218 E.56806
G1 X168.228 Y154.956 E.03138
G1 X158.044 Y144.772 E.61244
G1 X157.306 Y144.772 E.03138
G1 X168.228 Y155.694 E.65682
G1 X168.228 Y156.432 E.03138
G1 X156.568 Y144.772 E.7012
G1 X155.83 Y144.772 E.03138
G1 X168.228 Y157.17 E.74558
G1 X168.228 Y157.908 E.03138
G1 X155.092 Y144.772 E.78997
G1 X154.354 Y144.772 E.03138
G1 X168.228 Y158.646 E.83435
G1 X168.228 Y159.384 E.03138
G1 X153.616 Y144.772 E.87873
G1 X152.878 Y144.772 E.03138
G1 X168.228 Y160.122 E.92311
G1 X168.228 Y160.86 E.03138
G1 X152.14 Y144.772 E.96749
G1 X151.772 Y144.772 E.01569
G1 X151.772 Y145.141 E.01569
G1 X167.859 Y161.228 E.96749
G1 X167.121 Y161.228 E.03138
G1 X151.772 Y145.879 E.9231
M73 P4 R15
G1 X151.772 Y146.617 E.03138
G1 X166.383 Y161.228 E.87872
G1 X165.645 Y161.228 E.03138
G1 X151.772 Y147.355 E.83434
G1 X151.772 Y148.093 E.03138
G1 X164.907 Y161.228 E.78996
G1 X164.169 Y161.228 E.03138
G1 X151.772 Y148.831 E.74558
G1 X151.772 Y149.569 E.03138
G1 X163.431 Y161.228 E.7012
G1 X162.693 Y161.228 E.03138
G1 X151.772 Y150.307 E.65682
G1 X151.772 Y151.045 E.03138
G1 X161.955 Y161.228 E.61243
G1 X161.217 Y161.228 E.03138
G1 X151.772 Y151.783 E.56805
G1 X151.772 Y152.521 E.03138
G1 X160.479 Y161.228 E.52367
G1 X159.741 Y161.228 E.03138
G1 X151.772 Y153.259 E.47929
G1 X151.772 Y153.997 E.03138
G1 X159.003 Y161.228 E.43491
G1 X158.265 Y161.228 E.03138
G1 X151.772 Y154.735 E.39053
G1 X151.772 Y155.473 E.03138
G1 X157.527 Y161.228 E.34614
G1 X156.789 Y161.228 E.03138
G1 X151.772 Y156.211 E.30176
G1 X151.772 Y156.949 E.03138
G1 X156.051 Y161.228 E.25738
G1 X155.313 Y161.228 E.03138
G1 X151.772 Y157.687 E.213
G1 X151.772 Y158.425 E.03138
G1 X154.575 Y161.228 E.16862
G1 X153.837 Y161.228 E.03138
G1 X151.772 Y159.163 E.12424
G1 X151.772 Y159.901 E.03138
G1 X153.099 Y161.228 E.07986
G1 X152.361 Y161.228 E.03138
G1 X151.539 Y160.406 E.04947
; stop printing object xyzCalibration_cube.stl id:0 copy 0
;LAYER_CHANGE
;Z:0.8
;HEIGHT:0.2
;BEFORE_LAYER_CHANGE
;0.8
G92 E0

G1 E-.56 F1800
;WIPE_START
G1 F6898.613
G1 X152.246 Y161.113 E-.24
;WIPE_END
EXCLUDE_OBJECT_END NAME=xyzCalibration_cube.stl_id_0_copy_0
;_SET_FAN_SPEED_CHANGING_LAYER
; printing object xyzCalibration_cube.stl id:0 copy 0
SET_VELOCITY_LIMIT ACCEL=18000 ACCEL_TO_DECEL=9000
EXCLUDE_OBJECT_START NAME=xyzCalibration_cube.stl_id_0_copy_0
G1 X169.8 Y162.8 Z.8 F36000
G1 E.8 F1800
SET_VELOCITY_LIMIT ACCEL=10000 ACCEL_TO_DECEL=5000
;TYPE:Outer wall
;WIDTH:0.4
G1 F6430
G1 X169.4 Y162.8 E.01164
G1 X150.6 Y162.8 E.54703
G1 X150.2 Y162.8 E.01164
G1 X150.2 Y162.4 E.01164
G1 X150.2 Y143.6 E.54703
G1 X150.2 Y143.2 E.01164
G1 X150.6 Y143.2 E.01164
G1 X169.4 Y143.2 E.54703
G1 X169.8 Y143.2 E.01164
G1 X169.8 Y143.6 E.01164
G1 X169.8 Y162.392 E.5468
G1 X169.8 Y162.792 E.01164
SET_VELOCITY_LIMIT ACCEL=18000 ACCEL_TO_DECEL=9000
G1 X169.413 Y162.413 F36000
SET_VELOCITY_LIMIT ACCEL=15000 ACCEL_TO_DECEL=7500
;TYPE:Inner wall
;WIDTH:0.46
G1 F6430
G1 X150.587 Y162.413 E.63983
G1 X150.587 Y143.587 E.63983
G1 X169.413 Y143.587 E.63983
G1 X169.413 Y162.405 E.63956
SET_VELOCITY_LIMIT ACCEL=18000 ACCEL_TO_DECEL=9000
G1 X168.996 Y161.996 F36000
SET_VELOCITY_LIMIT ACCEL=15000 ACCEL_TO_DECEL=7500
G1 F6430
G1 X151.004 Y161.996 E.61149
G1 X151.004 Y144.004 E.61149
