; HEADER_BLOCK_START
; generated by OrcaSlicer 1.7.0-beta on 2023-09-28 at 22:27:26
; total layer number: 100
; HEADER_BLOCK_END

; THUMBNAIL_BLOCK_START
; THUMBNAIL_BLOCK_END

; external perimeters extrusion width = 0.40mm
; perimeters extrusion width = 0.46mm
; infill extrusion width = 0.64mm
; solid infill extrusion width = 0.56mm
; top infill extrusion width = 0.40mm
; support material extrusion width = 0.46mm
; first layer extrusion width = 0.50mm

; EXECUTABLE_BLOCK_START
EXCLUDE_OBJECT_DEFINE NAME=xyzCalibration_cube.stl_id_0_copy_0 CENTER=161,157 POLYGON=[[151,147],[171,147],[171,167],[151,167],[151,147]]
M73 P0 R9
;TYPE:Custom
START_PRINT T_BED=110 T_EXTRUDER=260
G90
G21
M83 ; use relative distances for extrusion
; Filament gcode
PRESSURE_ADVANCE_SELECT FILAMENT=ASA
M106 S0
;LAYER_CHANGE
;Z:0.2
;HEIGHT:0.2
;BEFORE_LAYER_CHANGE
;0.2
G92 E0

;_SET_FAN_SPEED_CHANGING_LAYER
SET_VELOCITY_LIMIT ACCEL=5000 ACCEL_TO_DECEL=2500
G1 E-.5 F2400
G1 X148.479 Y145.538 F12000
G1 Z.2
G1 E.5 F1800
;TYPE:Skirt
;WIDTH:0.5
G1 F3000
G1 X149.552 Y144.471 E.0535
G1 X151 Y144.086 E.05295
G1 X171 Y144.086 E.70692
G1 X172.462 Y144.479 E.0535
G1 X173.529 Y145.552 E.0535
G1 X173.914 Y147 E.05295
G1 X173.914 Y167 E.70692
G1 X173.521 Y168.462 E.0535
G1 X172.448 Y169.529 E.0535
G1 X171 Y169.914 E.05295
G1 X151 Y169.914 E.70692
G1 X149.538 Y169.521 E.0535
G1 X148.471 Y168.448 E.0535
G1 X148.086 Y167 E.05295
G1 X148.086 Y147 E.70692
G1 X148.469 Y145.577 E.05209
G1 X148.923 Y145.71 F12000
G1 F3000
G1 X148.935 Y145.669 E.00154
G1 X149.985 Y144.762 E.04905
G1 X151 Y144.543 E.03669
G1 X171 Y144.543 E.70692
G1 X172.331 Y144.935 E.04905
G1 X173.238 Y145.985 E.04905
G1 X173.457 Y147 E.03669
G1 X173.457 Y167 E.70692
G1 X173.065 Y168.331 E.04905
G1 X172.015 Y169.238 E.04905
G1 X171 Y169.457 E.03669
G1 X151 Y169.457 E.70692
G1 X149.669 Y169.065 E.04905
G1 X148.762 Y168.015 E.04905
G1 X148.543 Y167 E.03669
G1 X148.543 Y147 E.70692
G1 X148.911 Y145.749 E.0461
; printing object xyzCalibration_cube.stl id:0 copy 0
G1 E-.5 F2400
EXCLUDE_OBJECT_START NAME=xyzCalibration_cube.stl_id_0_copy_0
G1 X170.65 Y166.65 F12000
G1 E.5 F1800
;TYPE:Outer wall
G1 F3000
G1 X151.35 Y166.65 E.68218
G1 X151.35 Y147.35 E.68218
M73 P1 R9
G1 X170.65 Y147.35 E.68218
G1 X170.65 Y166.61 E.68076
G1 X170.193 Y166.193 F12000
;TYPE:Inner wall
G1 F3000
G1 X151.807 Y166.193 E.64986
G1 X151.807 Y147.807 E.64986
G1 X170.193 Y147.807 E.64986
G1 X170.193 Y166.153 E.64845
G1 X169.736 Y165.736 F12000
G1 F3000
G1 X152.264 Y165.736 E.61755
G1 X152.264 Y148.264 E.61755
G1 X169.736 Y148.264 E.61755
G1 X169.736 Y165.696 E.61614
G1 X169.279 Y165.279 F12000
G1 F3000
G1 X152.721 Y165.279 E.58524
G1 X152.721 Y148.721 E.58524
G1 X169.279 Y148.721 E.58524
G1 X169.279 Y165.239 E.58383
G1 E-.5 F2400
G1 X168.208 Y148.858 F12000
G1 E.5 F1800
;TYPE:Bottom surface
;WIDTH:0.504774
G1 F6300
G1 X168.936 Y149.587 E.03679
G1 X168.936 Y150.24 E.02333
G1 X167.76 Y149.064 E.05939
G1 X167.107 Y149.064 E.02333
G1 X168.936 Y150.893 E.09238
G1 X168.936 Y151.546 E.02333
M73 P2 R9
G1 X166.454 Y149.064 E.12537
G1 X165.801 Y149.064 E.02333
G1 X168.936 Y152.199 E.15836
G1 X168.936 Y152.853 E.02333
G1 X165.147 Y149.064 E.19135
G1 X164.494 Y149.064 E.02333
G1 X168.936 Y153.506 E.22434
G1 X168.936 Y154.159 E.02333
G1 X163.841 Y149.064 E.25733
G1 X163.188 Y149.064 E.02333
G1 X168.936 Y154.812 E.29032
G1 X168.936 Y155.465 E.02333
G1 X162.535 Y149.064 E.32332
G1 X161.882 Y149.064 E.02333
G1 X168.936 Y156.118 E.35631
G1 X168.936 Y156.772 E.02333
G1 X161.228 Y149.064 E.3893
G1 X160.575 Y149.064 E.02333
G1 X168.936 Y157.425 E.42229
G1 X168.936 Y158.078 E.02333
G1 X159.922 Y149.064 E.45528
G1 X159.269 Y149.064 E.02333
G1 X168.936 Y158.731 E.48827
G1 X168.936 Y159.384 E.02333
G1 X158.616 Y149.064 E.52126
G1 X157.963 Y149.064 E.02333
G1 X168.936 Y160.037 E.55425
G1 X168.936 Y160.69 E.02333
G1 X157.31 Y149.064 E.58724
G1 X156.656 Y149.064 E.02333
G1 X168.936 Y161.344 E.62023
G1 X168.936 Y161.997 E.02333
G1 X156.003 Y149.064 E.65322
G1 X155.35 Y149.064 E.02333
G1 X168.936 Y162.65 E.68621
G1 X168.936 Y163.303 E.02333
G1 X154.697 Y149.064 E.7192
G1 X154.044 Y149.064 E.02333
G1 X168.936 Y163.956 E.75219
G1 X168.936 Y164.609 E.02333
G1 X153.391 Y149.064 E.78518
G1 X153.064 Y149.064 E.01166
G1 X153.064 Y149.391 E.01167
G1 X168.609 Y164.936 E.78517
G1 X167.956 Y164.936 E.02333
G1 X153.064 Y150.044 E.75218
G1 X153.064 Y150.697 E.02333
G1 X167.303 Y164.936 E.71919
G1 X166.65 Y164.936 E.02333
G1 X153.064 Y151.35 E.6862
G1 X153.064 Y152.003 E.02333
G1 X165.997 Y164.936 E.65321
G1 X165.344 Y164.936 E.02333
G1 X153.064 Y152.656 E.62022
G1 X153.064 Y153.31 E.02333
G1 X164.69 Y164.936 E.58723
G1 X164.037 Y164.936 E.02333
G1 X153.064 Y153.963 E.55424
G1 X153.064 Y154.616 E.02333
G1 X163.384 Y164.936 E.52125
G1 X162.731 Y164.936 E.02333
G1 X153.064 Y155.269 E.48826
G1 X153.064 Y155.922 E.02333
G1 X162.078 Y164.936 E.45527
G1 X161.425 Y164.936 E.02333
G1 X153.064 Y156.575 E.42228
G1 X153.064 Y157.229 E.02333
G1 X160.771 Y164.936 E.38929
G1 X160.118 Y164.936 E.02333
G1 X153.064 Y157.882 E.3563
M73 P3 R9
G1 X153.064 Y158.535 E.02333
G1 X159.465 Y164.936 E.32331
G1 X158.812 Y164.936 E.02333
G1 X153.064 Y159.188 E.29032
G1 X153.064 Y159.841 E.02333
G1 X158.159 Y164.936 E.25733
G1 X157.506 Y164.936 E.02333
G1 X153.064 Y160.494 E.22434
G1 X153.064 Y161.148 E.02333
G1 X156.852 Y164.936 E.19135
G1 X156.199 Y164.936 E.02333
G1 X153.064 Y161.801 E.15836
G1 X153.064 Y162.454 E.02333
G1 X155.546 Y164.936 E.12537
G1 X154.893 Y164.936 E.02333
G1 X153.064 Y163.107 E.09238
G1 X153.064 Y163.76 E.02333
G1 X154.24 Y164.936 E.05939
G1 X153.587 Y164.936 E.02333
G1 X152.858 Y164.208 E.03679
; stop printing object xyzCalibration_cube.stl id:0 copy 0
;LAYER_CHANGE
;Z:0.4
;HEIGHT:0.2
;BEFORE_LAYER_CHANGE
;0.4
G92 E0

EXCLUDE_OBJECT_END NAME=xyzCalibration_cube.stl_id_0_copy_0
;_SET_FAN_SPEED_CHANGING_LAYER
SET_VELOCITY_LIMIT ACCEL=18000 ACCEL_TO_DECEL=9000
M140 S110 ; set bed temperature
; printing object xyzCalibration_cube.stl id:0 copy 0
SET_VELOCITY_LIMIT ACCEL=15000 ACCEL_TO_DECEL=7500
G1 E-.5 F2400
EXCLUDE_OBJECT_START NAME=xyzCalibration_cube.stl_id_0_copy_0
G1 X170.8 Y166.8 Z.4 F12000
G1 E.5 F1800
SET_VELOCITY_LIMIT ACCEL=12000 ACCEL_TO_DECEL=6000
;TYPE:Outer wall
;WIDTH:0.4
G1 F10081.784
G1 X170.4 Y166.8 E.01105
G1 X151.6 Y166.8 E.51912
G1 X151.2 Y166.8 E.01105
G1 X151.2 Y166.4 E.01105
G1 X151.2 Y147.6 E.51912
G1 X151.2 Y147.2 E.01105
G1 X151.6 Y147.2 E.01105
G1 X170.4 Y147.2 E.51912
G1 X170.8 Y147.2 E.01105
G1 X170.8 Y147.6 E.01105
G1 X170.8 Y166.36 E.51802
G1 X170.8 Y166.76 E.01105
SET_VELOCITY_LIMIT ACCEL=15000 ACCEL_TO_DECEL=7500
G1 X170.413 Y166.413 F12000
SET_VELOCITY_LIMIT ACCEL=10000 ACCEL_TO_DECEL=5000
;TYPE:Inner wall
;WIDTH:0.46
G1 F8631.444
G1 X151.587 Y166.413 E.60719
G1 X151.587 Y147.587 E.60719
G1 X170.413 Y147.587 E.60719
G1 X170.413 Y166.373 E.6059
SET_VELOCITY_LIMIT ACCEL=15000 ACCEL_TO_DECEL=7500
G1 X169.996 Y165.996 F12000
SET_VELOCITY_LIMIT ACCEL=10000 ACCEL_TO_DECEL=5000
G1 F8631.444
G1 X152.004 Y165.996 E.58029
G1 X152.004 Y148.004 E.58029
G1 X169.996 Y148.004 E.58029
G1 X169.996 Y165.956 E.579
SET_VELOCITY_LIMIT ACCEL=15000 ACCEL_TO_DECEL=7500
G1 X169.579 Y165.579 F12000
SET_VELOCITY_LIMIT ACCEL=10000 ACCEL_TO_DECEL=5000
G1 F8631.444
G1 X152.421 Y165.579 E.55339
G1 X152.421 Y148.421 E.55339
G1 X169.579 Y148.421 E.55339
G1 X169.579 Y165.539 E.5521
SET_VELOCITY_LIMIT ACCEL=15000 ACCEL_TO_DECEL=7500
G1 X169.461 Y164.406 F12000
SET_VELOCITY_LIMIT ACCEL=18000 ACCEL_TO_DECEL=9000
;TYPE:Internal solid infill
;WIDTH:0.564764
G1 F6898.613
G1 X168.638 Y165.228 E.04695
G1 X167.9 Y165.228 E.02978
G1 X169.228 Y163.9 E.07579
G1 X169.228 Y163.162 E.02978
G1 X167.162 Y165.228 E.1179
G1 X166.424 Y165.228 E.02978
G1 X169.228 Y162.424 E.16002
G1 X169.228 Y161.686 E.02978
G1 X165.686 Y165.228 E.20214
G1 X164.948 Y165.228 E.02978
G1 X169.228 Y160.948 E.24426
G1 X169.228 Y160.21 E.02978
G1 X164.21 Y165.228 E.28637
G1 X163.472 Y165.228 E.02978
G1 X169.228 Y159.472 E.32849
G1 X169.228 Y158.734 E.02978
G1 X162.734 Y165.228 E.37061
G1 X161.996 Y165.228 E.02978
G1 X169.228 Y157.996 E.41272
G1 X169.228 Y157.258 E.02978
G1 X161.258 Y165.228 E.45484
G1 X160.52 Y165.228 E.02978
G1 X169.228 Y156.52 E.49696
G1 X169.228 Y155.782 E.02978
G1 X159.782 Y165.228 E.53908
G1 X159.044 Y165.228 E.02978
G1 X169.228 Y155.044 E.58119
G1 X169.228 Y154.306 E.02978
G1 X158.306 Y165.228 E.62331
G1 X157.568 Y165.228 E.02978
G1 X169.228 Y153.568 E.66543
G1 X169.228 Y152.83 E.02978
G1 X156.83 Y165.228 E.70754
G1 X156.092 Y165.228 E.02978
G1 X169.228 Y152.092 E.74966
G1 X169.228 Y151.354 E.02978
G1 X155.354 Y165.228 E.79178
G1 X154.616 Y165.228 E.02978
G1 X169.228 Y150.616 E.8339
G1 X169.228 Y149.878 E.02978
G1 X153.878 Y165.228 E.87601
G1 X153.14 Y165.228 E.02978
G1 X169.228 Y149.14 E.91813
M73 P4 R9
G1 X169.228 Y148.772 E.01489
G1 X168.859 Y148.772 E.01489
G1 X152.772 Y164.859 E.91812
G1 X152.772 Y164.121 E.02978
G1 X168.121 Y148.772 E.87601
G1 X167.383 Y148.772 E.02978
G1 X152.772 Y163.383 E.83389
G1 X152.772 Y162.645 E.02978
G1 X166.645 Y148.772 E.79177
G1 X165.907 Y148.772 E.02978
G1 X152.772 Y161.907 E.74966
G1 X152.772 Y161.169 E.02978
G1 X165.169 Y148.772 E.70754
G1 X164.431 Y148.772 E.02978
G1 X152.772 Y160.431 E.66542
G1 X152.772 Y159.693 E.02978
G1 X163.693 Y148.772 E.6233
G1 X162.955 Y148.772 E.02978
G1 X152.772 Y158.955 E.58119
G1 X152.772 Y158.217 E.02978
G1 X162.217 Y148.772 E.53907
G1 X161.479 Y148.772 E.02978
G1 X152.772 Y157.479 E.49695
G1 X152.772 Y156.741 E.02978
G1 X160.741 Y148.772 E.45484
G1 X160.003 Y148.772 E.02978
G1 X152.772 Y156.003 E.41272
G1 X152.772 Y155.265 E.02978
G1 X159.265 Y148.772 E.3706
G1 X158.527 Y148.772 E.02978
G1 X152.772 Y154.527 E.32848
G1 X152.772 Y153.789 E.02978
G1 X157.789 Y148.772 E.28637
G1 X157.051 Y148.772 E.02978
G1 X152.772 Y153.051 E.24425
G1 X152.772 Y152.313 E.02978
G1 X156.313 Y148.772 E.20213
G1 X155.575 Y148.772 E.02978
G1 X152.772 Y151.575 E.16002
G1 X152.772 Y150.837 E.02978
G1 X154.837 Y148.772 E.1179
G1 X154.099 Y148.772 E.02978
G1 X152.772 Y150.099 E.07578
G1 X152.772 Y149.361 E.02978
G1 X153.594 Y148.539 E.04694
; stop printing object xyzCalibration_cube.stl id:0 copy 0
;LAYER_CHANGE
;Z:0.6
;HEIGHT:0.2
;BEFORE_LAYER_CHANGE
;0.6
G92 E0

EXCLUDE_OBJECT_END NAME=xyzCalibration_cube.stl_id_0_copy_0
;_SET_FAN_SPEED_CHANGING_LAYER
; printing object xyzCalibration_cube.stl id:0 copy 0
SET_VELOCITY_LIMIT ACCEL=15000 ACCEL_TO_DECEL=7500
G1 E-.5 F2400
EXCLUDE_OBJECT_START NAME=xyzCalibration_cube.stl_id_0_copy_0
G1 X170.8 Y166.8 Z.6 F12000
G1 E.5 F1800
SET_VELOCITY_LIMIT ACCEL=12000 ACCEL_TO_DECEL=6000
;TYPE:Outer wall
;WIDTH:0.4
G1 F10081.784
G1 X170.4 Y166.8 E.01105
G1 X151.6 Y166.8 E.51912
G1 X151.2 Y166.8 E.01105
G1 X151.2 Y166.4 E.01105
G1 X151.2 Y147.6 E.51912
G1 X151.2 Y147.2 E.01105
G1 X151.6 Y147.2 E.01105
G1 X170.4 Y147.2 E.51912
G1 X170.8 Y147.2 E.01105
G1 X170.8 Y147.6 E.01105
G1 X170.8 Y166.36 E.51802
G1 X170.8 Y166.76 E.01105
SET_VELOCITY_LIMIT ACCEL=15000 ACCEL_TO_DECEL=7500
G1 X170.413 Y166.413 F12000
SET_VELOCITY_LIMIT ACCEL=10000 ACCEL_TO_DECEL=5000
;TYPE:Inner wall
;WIDTH:0.46
G1 F8631.444
G1 X151.587 Y166.413 E.60719
G1 X151.587 Y147.587 E.60719
G1 X170.413 Y147.587 E.60719
G1 X170.413 Y166.373 E.6059
SET_VELOCITY_LIMIT ACCEL=15000 ACCEL_TO_DECEL=7500
G1 X169.996 Y165.996 F12000
SET_VELOCITY_LIMIT ACCEL=10000 ACCEL_TO_DECEL=5000
G1 F8631.444
G1 X152.004 Y165.996 E.58029
G1 X152.004 Y148.004 E.58029
G1 X169.996 Y148.004 E.58029
G1 X169.996 Y165.956 E.579
SET_VELOCITY_LIMIT ACCEL=15000 ACCEL_TO_DECEL=7500
G1 X169.579 Y165.579 F12000
SET_VELOCITY_LIMIT ACCEL=10000 ACCEL_TO_DECEL=5000
G1 F8631.444
G1 X152.421 Y165.579 E.55339
G1 X152.421 Y148.421 E.55339
G1 X169.579 Y148.421 E.55339
G1 X169.579 Y165.539 E.5521
SET_VELOCITY_LIMIT ACCEL=15000 ACCEL_TO_DECEL=7500
G1 X168.406 Y148.539 F12000
SET_VELOCITY_LIMIT ACCEL=18000 ACCEL_TO_DECEL=9000
;TYPE:Internal solid infill
;WIDTH:0.564764
G1 F6898.613
G1 X169.228 Y149.362 E.04695
G1 X169.228 Y150.1 E.02978
G1 X167.9 Y148.772 E.07579
G1 X167.162 Y148.772 E.02978
G1 X169.228 Y150.838 E.1179
G1 X169.228 Y151.576 E.02978
G1 X166.424 Y148.772 E.16002
G1 X165.686 Y148.772 E.02978
G1 X169.228 Y152.314 E.20214
G1 X169.228 Y153.052 E.02978
G1 X164.948 Y148.772 E.24426
G1 X164.21 Y148.772 E.02978
G1 X169.228 Y153.79 E.28637
M73 P5 R9
G1 X169.228 Y154.528 E.02978
G1 X163.472 Y148.772 E.32849
G1 X162.734 Y148.772 E.02978
G1 X169.228 Y155.266 E.37061
G1 X169.228 Y156.004 E.02978
G1 X161.996 Y148.772 E.41272
G1 X161.258 Y148.772 E.02978
G1 X169.228 Y156.742 E.45484
G1 X169.228 Y157.48 E.02978
G1 X160.52 Y148.772 E.49696
G1 X159.782 Y148.772 E.02978
G1 X169.228 Y158.218 E.53908
G1 X169.228 Y158.956 E.02978
G1 X159.044 Y148.772 E.58119
G1 X158.306 Y148.772 E.02978
G1 X169.228 Y159.694 E.62331
G1 X169.228 Y160.432 E.02978
G1 X157.568 Y148.772 E.66543
G1 X156.83 Y148.772 E.02978
G1 X169.228 Y161.17 E.70754
G1 X169.228 Y161.908 E.02978
G1 X156.092 Y148.772 E.74966
G1 X155.354 Y148.772 E.02978
G1 X169.228 Y162.646 E.79178
G1 X169.228 Y163.384 E.02978
G1 X154.616 Y148.772 E.8339
G1 X153.878 Y148.772 E.02978
G1 X169.228 Y164.122 E.87601
G1 X169.228 Y164.86 E.02978
G1 X153.14 Y148.772 E.91813
G1 X152.772 Y148.772 E.01489
G1 X152.772 Y149.141 E.01489
G1 X168.859 Y165.228 E.91812
G1 X168.121 Y165.228 E.02978
G1 X152.772 Y149.879 E.87601
G1 X152.772 Y150.617 E.02978
G1 X167.383 Y165.228 E.83389
G1 X166.645 Y165.228 E.02978
G1 X152.772 Y151.355 E.79177
G1 X152.772 Y152.093 E.02978
G1 X165.907 Y165.228 E.74966
G1 X165.169 Y165.228 E.02978
G1 X152.772 Y152.831 E.70754
G1 X152.772 Y153.569 E.02978
G1 X164.431 Y165.228 E.66542
G1 X163.693 Y165.228 E.02978
G1 X152.772 Y154.307 E.6233
G1 X152.772 Y155.045 E.02978
G1 X162.955 Y165.228 E.58119
G1 X162.217 Y165.228 E.02978
G1 X152.772 Y155.783 E.53907
G1 X152.772 Y156.521 E.02978
G1 X161.479 Y165.228 E.49695
G1 X160.741 Y165.228 E.02978
G1 X152.772 Y157.259 E.45484
G1 X152.772 Y157.997 E.02978
G1 X160.003 Y165.228 E.41272
G1 X159.265 Y165.228 E.02978
G1 X152.772 Y158.735 E.3706
G1 X152.772 Y159.473 E.02978
G1 X158.527 Y165.228 E.32848
G1 X157.789 Y165.228 E.02978
G1 X152.772 Y160.211 E.28637
G1 X152.772 Y160.949 E.02978
G1 X157.051 Y165.228 E.24425
G1 X156.313 Y165.228 E.02978
G1 X152.772 Y161.687 E.20213
G1 X152.772 Y162.425 E.02978
G1 X155.575 Y165.228 E.16002
G1 X154.837 Y165.228 E.02978
G1 X152.772 Y163.163 E.1179
G1 X152.772 Y163.901 E.02978
G1 X154.099 Y165.228 E.07578
G1 X153.361 Y165.228 E.02978
G1 X152.539 Y164.406 E.04694
; stop printing object xyzCalibration_cube.stl id:0 copy 0
M106 S181
;LAYER_CHANGE
;Z:0.8
;HEIGHT:0.2
;BEFORE_LAYER_CHANGE
;0.8
G92 E0

EXCLUDE_OBJECT_END NAME=xyzCalibration_cube.stl_id_0_copy_0
;_SET_FAN_SPEED_CHANGING_LAYER
; printing object xyzCalibration_cube.stl id:0 copy 0
SET_VELOCITY_LIMIT ACCEL=15000 ACCEL_TO_DECEL=7500
G1 E-.5 F2400
EXCLUDE_OBJECT_START NAME=xyzCalibration_cube.stl_id_0_copy_0
G1 X170.8 Y166.8 Z.8 F12000
G1 E.5 F1800
SET_VELOCITY_LIMIT ACCEL=12000 ACCEL_TO_DECEL=6000
;TYPE:Outer wall
;WIDTH:0.4
G1 F10081.784
G1 X170.4 Y166.8 E.01105
G1 X151.6 Y166.8 E.51912
G1 X151.2 Y166.8 E.01105
G1 X151.2 Y166.4 E.01105
G1 X151.2 Y147.6 E.51912
G1 X151.2 Y147.2 E.01105
G1 X151.6 Y147.2 E.01105
G1 X170.4 Y147.2 E.51912
G1 X170.8 Y147.2 E.01105
G1 X170.8 Y147.6 E.01105
G1 X170.8 Y166.36 E.51802
G1 X170.8 Y166.76 E.01105
SET_VELOCITY_LIMIT ACCEL=15000 ACCEL_TO_DECEL=7500
G1 X170.413 Y166.413 F12000
SET_VELOCITY_LIMIT ACCEL=10000 ACCEL_TO_DECEL=5000
;TYPE:Inner wall
;WIDTH:0.46
G1 F8631.444
G1 X151.587 Y166.413 E.60719
G1 X151.587 Y147.587 E.60719
M73 P6 R9
G1 X170.413 Y147.587 E.60719
G1 X170.413 Y166.373 E.6059
SET_VELOCITY_LIMIT ACCEL=15000 ACCEL_TO_DECEL=7500
G1 X169.996 Y165.996 F12000
SET_VELOCITY_LIMIT ACCEL=10000 ACCEL_TO_DECEL=5000
G1 F8631.444
G1 X152.004 Y165.996 E.58029
G1 X152.004 Y148.004 E.58029
G1 X169.996 Y148.004 E.58029
G1 X169.996 Y165.956 E.579
SET_VELOCITY_LIMIT ACCEL=15000 ACCEL_TO_DECEL=7500
G1 X169.579 Y165.579 F12000
SET_VELOCITY_LIMIT ACCEL=10000 ACCEL_TO_DECEL=5000
G1 F8631.444
