; HEADER_BLOCK_START
; generated by OrcaSlicer 1.6.3 on 2023-07-21 at 22:14:35
; total layer number: 100
; HEADER_BLOCK_END

; THUMBNAIL_BLOCK_START
; THUMBNAIL_BLOCK_END

; external perimeters extrusion width = 0.40mm
; perimeters extrusion width = 0.45mm
; infill extrusion width = 0.45mm
; solid infill extrusion width = 0.40mm
; top infill extrusion width = 0.40mm
; first layer extrusion width = 0.50mm

; EXECUTABLE_BLOCK_START
EXCLUDE_OBJECT_DEFINE NAME=xyzCalibration_cube.stl_id_0_copy_0 CENTER=160,170 POLYGON=[[150,160],[170,160],[170,180],[150,180],[150,160]]
M73 P0 R10
;TYPE:Custom
START_PRINT T_BED=110 T_EXTRUDER=260
G90
G21
M83 ; use relative distances for extrusion
; Filament gcode

    PRESSURE_ADVANCE_SELECT FILAMENT=ABS
M106 S0
;LAYER_CHANGE
;Z:0.2
;HEIGHT:0.2
;BEFORE_LAYER_CHANGE
;0.2
G92 E0

M204 S1000
G1 E-.5 F2400
G1 X148.552 Y157.471 F9000
G1 Z.2
G1 E.5 F1800
;TYPE:Skirt
;WIDTH:0.5
G1 F3000
G1 X150 Y157.086 E.05272
G1 X170 Y157.086 E.70388
G1 X171.462 Y157.479 E.05327
G1 X172.529 Y158.552 E.05327
G1 X172.914 Y160 E.05272
G1 X172.914 Y180 E.70388
G1 X172.521 Y181.462 E.05327
G1 X171.448 Y182.529 E.05327
G1 X170 Y182.914 E.05272
G1 X150 Y182.914 E.70388
G1 X148.538 Y182.521 E.05327
G1 X147.471 Y181.448 E.05327
G1 X147.086 Y180 E.05272
G1 X147.086 Y160 E.70388
G1 X147.479 Y158.538 E.05327
G1 X148.51 Y157.513 E.05116
G1 X148.836 Y157.891 F9000
G1 F3000
G1 X148.985 Y157.762 E.00695
G1 X150 Y157.543 E.03653
G1 X170 Y157.543 E.70388
G1 X171.331 Y157.935 E.04884
G1 X172.238 Y158.985 E.04884
G1 X172.457 Y160 E.03653
G1 X172.457 Y180 E.70388
G1 X172.065 Y181.331 E.04884
G1 X171.015 Y182.238 E.04884
G1 X170 Y182.457 E.03653
G1 X150 Y182.457 E.70388
G1 X148.669 Y182.065 E.04884
G1 X147.762 Y181.015 E.04884
G1 X147.543 Y180 E.03653
G1 X147.543 Y160 E.70388
G1 X147.935 Y158.669 E.04884
G1 X148.791 Y157.93 E.03978
; printing object xyzCalibration_cube.stl id:0 copy 0
EXCLUDE_OBJECT_START NAME=xyzCalibration_cube.stl_id_0_copy_0
G1 E-.5 F2400
G1 X169.65 Y179.65 F9000
G1 E.5 F1800
;TYPE:Outer wall
;WIDTH:0.499999
G1 F3000
G1 X150.35 Y179.65 E.67924
M73 P1 R10
G1 X150.35 Y160.35 E.67924
G1 X169.65 Y160.35 E.67924
G1 X169.65 Y170 E.33962
G1 X169.65 Y179.59 E.33751
G1 X169.581 Y179.61
G1 X169.193 Y179.193 F9000
;TYPE:Inner wall
G1 F3000
G1 X150.807 Y179.193 E.64707
G1 X150.807 Y160.807 E.64707
G1 X169.193 Y160.807 E.64707
G1 X169.193 Y170 E.32353
G1 X169.193 Y179.133 E.32142
G1 X168.736 Y178.736 F9000
G1 F3000
G1 X151.264 Y178.736 E.6149
G1 X151.264 Y161.264 E.6149
G1 X168.736 Y161.264 E.6149
G1 X168.736 Y170 E.30745
G1 X168.736 Y178.676 E.30534
G1 X168.279 Y178.279 F9000
G1 F3000
G1 X151.721 Y178.279 E.58272
G1 X151.721 Y161.721 E.58272
G1 X168.279 Y161.721 E.58272
G1 X168.279 Y170 E.29136
G1 X168.279 Y178.219 E.28925
G1 E-.5 F2400
G1 X167.208 Y161.858 F9000
M73 P2 R10
G1 E.5 F1800
;TYPE:Bottom surface
;WIDTH:0.504774
G1 F6300
G1 X167.936 Y162.587 E.03663
G1 X167.936 Y163.24 E.02323
G1 X166.76 Y162.064 E.05914
G1 X166.107 Y162.064 E.02323
G1 X167.936 Y163.893 E.09199
G1 X167.936 Y164.546 E.02323
G1 X165.454 Y162.064 E.12483
G1 X164.801 Y162.064 E.02323
G1 X167.936 Y165.199 E.15768
G1 X167.936 Y165.853 E.02323
G1 X164.147 Y162.064 E.19053
G1 X163.494 Y162.064 E.02323
G1 X167.936 Y166.506 E.22338
G1 X167.936 Y167.159 E.02323
G1 X162.841 Y162.064 E.25623
G1 X162.188 Y162.064 E.02323
G1 X167.936 Y167.812 E.28908
G1 X167.936 Y168.465 E.02323
G1 X161.535 Y162.064 E.32192
G1 X160.882 Y162.064 E.02323
G1 X167.936 Y169.118 E.35477
G1 X167.936 Y169.772 E.02323
G1 X160.228 Y162.064 E.38762
G1 X159.575 Y162.064 E.02323
G1 X167.936 Y170.425 E.42047
G1 X167.936 Y171.078 E.02323
G1 X158.922 Y162.064 E.45332
G1 X158.269 Y162.064 E.02323
G1 X167.936 Y171.731 E.48617
G1 X167.936 Y172.384 E.02323
G1 X157.616 Y162.064 E.51902
G1 X156.963 Y162.064 E.02323
G1 X167.936 Y173.037 E.55186
G1 X167.936 Y173.69 E.02323
G1 X156.31 Y162.064 E.58471
G1 X155.656 Y162.064 E.02323
G1 X167.936 Y174.344 E.61756
G1 X167.936 Y174.997 E.02323
G1 X155.003 Y162.064 E.65041
G1 X154.35 Y162.064 E.02323
G1 X167.936 Y175.65 E.68326
G1 X167.936 Y176.303 E.02323
G1 X153.697 Y162.064 E.71611
G1 X153.044 Y162.064 E.02323
G1 X167.936 Y176.956 E.74895
G1 X167.936 Y177.609 E.02323
G1 X152.391 Y162.064 E.7818
G1 X152.064 Y162.064 E.01161
G1 X152.064 Y162.391 E.01162
G1 X167.609 Y177.936 E.7818
G1 X166.956 Y177.936 E.02323
G1 X152.064 Y163.044 E.74895
G1 X152.064 Y163.697 E.02323
G1 X166.303 Y177.936 E.7161
M73 P3 R10
G1 X165.65 Y177.936 E.02323
G1 X152.064 Y164.35 E.68325
G1 X152.064 Y165.003 E.02323
G1 X164.997 Y177.936 E.6504
G1 X164.344 Y177.936 E.02323
G1 X152.064 Y165.656 E.61755
G1 X152.064 Y166.31 E.02323
G1 X163.69 Y177.936 E.58471
G1 X163.037 Y177.936 E.02323
G1 X152.064 Y166.963 E.55186
G1 X152.064 Y167.616 E.02323
G1 X162.384 Y177.936 E.51901
G1 X161.731 Y177.936 E.02323
G1 X152.064 Y168.269 E.48616
G1 X152.064 Y168.922 E.02323
G1 X161.078 Y177.936 E.45331
G1 X160.425 Y177.936 E.02323
G1 X152.064 Y169.575 E.42046
G1 X152.064 Y170.229 E.02323
G1 X159.771 Y177.936 E.38761
G1 X159.118 Y177.936 E.02323
G1 X152.064 Y170.882 E.35477
G1 X152.064 Y171.535 E.02323
G1 X158.465 Y177.936 E.32192
G1 X157.812 Y177.936 E.02323
G1 X152.064 Y172.188 E.28907
G1 X152.064 Y172.841 E.02323
G1 X157.159 Y177.936 E.25622
G1 X156.506 Y177.936 E.02323
G1 X152.064 Y173.494 E.22337
G1 X152.064 Y174.148 E.02323
G1 X155.852 Y177.936 E.19052
G1 X155.199 Y177.936 E.02323
G1 X152.064 Y174.801 E.15768
G1 X152.064 Y175.454 E.02323
G1 X154.546 Y177.936 E.12483
G1 X153.893 Y177.936 E.02323
G1 X152.064 Y176.107 E.09198
G1 X152.064 Y176.76 E.02323
G1 X153.24 Y177.936 E.05913
G1 X152.587 Y177.936 E.02323
G1 X151.858 Y177.208 E.03663
; stop printing object xyzCalibration_cube.stl id:0 copy 0
EXCLUDE_OBJECT_END NAME=xyzCalibration_cube.stl_id_0_copy_0
;LAYER_CHANGE
;Z:0.4
;HEIGHT:0.2
;BEFORE_LAYER_CHANGE
;0.4
G92 E0

M204 S6000
M140 S110 ; set bed temperature
; printing object xyzCalibration_cube.stl id:0 copy 0
EXCLUDE_OBJECT_START NAME=xyzCalibration_cube.stl_id_0_copy_0
G1 E-.5 F2400
G1 X169.8 Y179.8 Z.4 F9000
G1 E.5 F1800
;TYPE:Outer wall
;WIDTH:0.399999
G1 F12000
G1 X150.2 Y179.8 E.53888
G1 X150.2 Y160.2 E.53888
G1 X169.8 Y160.2 E.53888
G1 X169.8 Y170 E.26944
G1 X169.8 Y179.74 E.26779
G1 X169.731 Y179.76
G1 X169.418 Y179.418 F9000
;TYPE:Inner wall
;WIDTH:0.449999
G1 F15000
G1 X150.582 Y179.418 E.59039
G1 X150.582 Y160.582 E.59039
G1 X169.418 Y160.582 E.59039
G1 X169.418 Y170 E.29519
G1 X169.418 Y179.358 E.29331
G1 X169.011 Y179.011 F9000
G1 F15000
G1 X150.989 Y179.011 E.56487
G1 X150.989 Y160.989 E.56487
G1 X169.011 Y160.989 E.56487
G1 X169.011 Y170 E.28244
G1 X169.011 Y178.951 E.28055
G1 X168.604 Y178.604 F9000
G1 F15000
G1 X151.396 Y178.604 E.53935
G1 X151.396 Y161.396 E.53935
M73 P4 R10
G1 X168.604 Y161.396 E.53935
G1 X168.604 Y170 E.26968
G1 X168.604 Y178.544 E.2678
G1 X168.484 Y177.758 F9000
;TYPE:Internal solid infill
;WIDTH:0.401834
G1 F15000
G1 X167.919 Y178.323 E.02208
G1 X167.412 Y178.323 E.01403
G1 X168.323 Y177.412 E.03564
G1 X168.323 Y176.904 E.01403
G1 X166.904 Y178.323 E.05548
G1 X166.396 Y178.323 E.01403
G1 X168.323 Y176.396 E.07532
G1 X168.323 Y175.889 E.01403
G1 X165.889 Y178.323 E.09515
G1 X165.381 Y178.323 E.01403
G1 X168.323 Y175.381 E.11499
G1 X168.323 Y174.874 E.01403
G1 X164.874 Y178.323 E.13483
G1 X164.366 Y178.323 E.01403
G1 X168.323 Y174.366 E.15467
G1 X168.323 Y173.858 E.01403
G1 X163.858 Y178.323 E.1745
G1 X163.351 Y178.323 E.01403
G1 X168.323 Y173.351 E.19434
G1 X168.323 Y172.843 E.01403
G1 X162.843 Y178.323 E.21418
G1 X162.336 Y178.323 E.01403
G1 X168.323 Y172.336 E.23402
G1 X168.323 Y171.828 E.01403
G1 X161.828 Y178.323 E.25385
G1 X161.321 Y178.323 E.01403
G1 X168.323 Y171.321 E.27369
G1 X168.323 Y170.813 E.01403
G1 X160.813 Y178.323 E.29353
G1 X160.305 Y178.323 E.01403
G1 X168.323 Y170.305 E.31337
G1 X168.323 Y169.798 E.01403
G1 X159.798 Y178.323 E.3332
G1 X159.29 Y178.323 E.01403
G1 X168.323 Y169.29 E.35304
G1 X168.323 Y168.783 E.01403
G1 X158.783 Y178.323 E.37288
G1 X158.275 Y178.323 E.01403
G1 X168.323 Y168.275 E.39272
G1 X168.323 Y167.767 E.01403
G1 X157.767 Y178.323 E.41255
G1 X157.26 Y178.323 E.01403
G1 X168.323 Y167.26 E.43239
G1 X168.323 Y166.752 E.01403
G1 X156.752 Y178.323 E.45223
G1 X156.245 Y178.323 E.01403
G1 X168.323 Y166.245 E.47206
G1 X168.323 Y165.737 E.01403
G1 X155.737 Y178.323 E.4919
G1 X155.23 Y178.323 E.01403
G1 X168.323 Y165.23 E.51174
G1 X168.323 Y164.722 E.01403
G1 X154.722 Y178.323 E.53158
G1 X154.214 Y178.323 E.01403
G1 X168.323 Y164.214 E.55141
G1 X168.323 Y163.707 E.01403
G1 X153.707 Y178.323 E.57125
G1 X153.199 Y178.323 E.01403
G1 X168.323 Y163.199 E.59109
G1 X168.323 Y162.692 E.01403
G1 X152.692 Y178.323 E.61093
G1 X152.184 Y178.323 E.01403
G1 X168.323 Y162.184 E.63076
G1 X168.323 Y161.677 E.01403
G1 X151.677 Y178.323 E.6506
G1 X151.677 Y177.816 E.01403
G1 X167.816 Y161.677 E.63076
G1 X167.308 Y161.677 E.01403
G1 X151.677 Y177.308 E.61092
G1 X151.677 Y176.801 E.01403
G1 X166.801 Y161.677 E.59109
G1 X166.293 Y161.677 E.01403
G1 X151.677 Y176.293 E.57125
G1 X151.677 Y175.786 E.01403
G1 X165.786 Y161.677 E.55141
G1 X165.278 Y161.677 E.01403
G1 X151.677 Y175.278 E.53157
G1 X151.677 Y174.77 E.01403
G1 X164.77 Y161.677 E.51174
G1 X164.263 Y161.677 E.01403
G1 X151.677 Y174.263 E.4919
G1 X151.677 Y173.755 E.01403
G1 X163.755 Y161.677 E.47206
G1 X163.248 Y161.677 E.01403
G1 X151.677 Y173.248 E.45222
G1 X151.677 Y172.74 E.01403
G1 X162.74 Y161.677 E.43239
G1 X162.232 Y161.677 E.01403
G1 X151.677 Y172.232 E.41255
G1 X151.677 Y171.725 E.01403
G1 X161.725 Y161.677 E.39271
G1 X161.217 Y161.677 E.01403
G1 X151.677 Y171.217 E.37287
G1 X151.677 Y170.71 E.01403
G1 X160.71 Y161.677 E.35304
G1 X160.202 Y161.677 E.01403
G1 X151.677 Y170.202 E.3332
G1 X151.677 Y169.695 E.01403
G1 X159.695 Y161.677 E.31336
G1 X159.187 Y161.677 E.01403
G1 X151.677 Y169.187 E.29352
G1 X151.677 Y168.679 E.01403
G1 X158.679 Y161.677 E.27369
G1 X158.172 Y161.677 E.01403
G1 X151.677 Y168.172 E.25385
G1 X151.677 Y167.664 E.01403
G1 X157.664 Y161.677 E.23401
G1 X157.157 Y161.677 E.01403
G1 X151.677 Y167.157 E.21417
G1 X151.677 Y166.649 E.01403
G1 X156.649 Y161.677 E.19434
G1 X156.141 Y161.677 E.01403
G1 X151.677 Y166.141 E.1745
G1 X151.677 Y165.634 E.01403
G1 X155.634 Y161.677 E.15466
G1 X155.126 Y161.677 E.01403
G1 X151.677 Y165.126 E.13482
G1 X151.677 Y164.619 E.01403
G1 X154.619 Y161.677 E.11499
M73 P5 R10
G1 X154.111 Y161.677 E.01403
G1 X151.677 Y164.111 E.09515
G1 X151.677 Y163.604 E.01403
G1 X153.604 Y161.677 E.07531
G1 X153.096 Y161.677 E.01403
G1 X151.677 Y163.096 E.05547
G1 X151.677 Y162.588 E.01403
G1 X152.588 Y161.677 E.03564
G1 X152.081 Y161.677 E.01403
G1 X151.516 Y162.242 E.02208
; stop printing object xyzCalibration_cube.stl id:0 copy 0
EXCLUDE_OBJECT_END NAME=xyzCalibration_cube.stl_id_0_copy_0
;LAYER_CHANGE
;Z:0.6
;HEIGHT:0.2
;BEFORE_LAYER_CHANGE
;0.6
G92 E0

; printing object xyzCalibration_cube.stl id:0 copy 0
EXCLUDE_OBJECT_START NAME=xyzCalibration_cube.stl_id_0_copy_0
G1 E-.5 F2400
G1 X169.8 Y179.8 Z.6 F9000
G1 E.5 F1800
;TYPE:Outer wall
;WIDTH:0.399999
G1 F12000
G1 X150.2 Y179.8 E.53888
G1 X150.2 Y160.2 E.53888
G1 X169.8 Y160.2 E.53888
G1 X169.8 Y170 E.26944
G1 X169.8 Y179.74 E.26779
G1 X169.731 Y179.76
G1 X169.418 Y179.418 F9000
;TYPE:Inner wall
;WIDTH:0.449999
G1 F15000
G1 X150.582 Y179.418 E.59039
G1 X150.582 Y160.582 E.59039
G1 X169.418 Y160.582 E.59039
G1 X169.418 Y170 E.29519
G1 X169.418 Y179.358 E.29331
G1 X169.011 Y179.011 F9000
G1 F15000
G1 X150.989 Y179.011 E.56487
G1 X150.989 Y160.989 E.56487
G1 X169.011 Y160.989 E.56487
G1 X169.011 Y170 E.28244
G1 X169.011 Y178.951 E.28055
G1 X168.604 Y178.604 F9000
G1 F15000
G1 X151.396 Y178.604 E.53935
G1 X151.396 Y161.396 E.53935
G1 X168.604 Y161.396 E.53935
G1 X168.604 Y170 E.26968
G1 X168.604 Y178.544 E.2678
G1 X167.758 Y161.516 F9000
;TYPE:Internal solid infill
;WIDTH:0.401834
G1 F15000
G1 X168.323 Y162.081 E.02208
G1 X168.323 Y162.588 E.01403
G1 X167.412 Y161.677 E.03564
G1 X166.904 Y161.677 E.01403
G1 X168.323 Y163.096 E.05548
G1 X168.323 Y163.604 E.01403
G1 X166.396 Y161.677 E.07532
G1 X165.889 Y161.677 E.01403
G1 X168.323 Y164.111 E.09515
G1 X168.323 Y164.619 E.01403
G1 X165.381 Y161.677 E.11499
G1 X164.874 Y161.677 E.01403
G1 X168.323 Y165.126 E.13483
G1 X168.323 Y165.634 E.01403
G1 X164.366 Y161.677 E.15467
G1 X163.858 Y161.677 E.01403
G1 X168.323 Y166.142 E.1745
G1 X168.323 Y166.649 E.01403
G1 X163.351 Y161.677 E.19434
G1 X162.843 Y161.677 E.01403
G1 X168.323 Y167.157 E.21418
G1 X168.323 Y167.664 E.01403
G1 X162.336 Y161.677 E.23402
G1 X161.828 Y161.677 E.01403
G1 X168.323 Y168.172 E.25385
G1 X168.323 Y168.679 E.01403
G1 X161.321 Y161.677 E.27369
G1 X160.813 Y161.677 E.01403
G1 X168.323 Y169.187 E.29353
G1 X168.323 Y169.695 E.01403
G1 X160.305 Y161.677 E.31337
G1 X159.798 Y161.677 E.01403
G1 X168.323 Y170.202 E.3332
G1 X168.323 Y170.71 E.01403
G1 X159.29 Y161.677 E.35304
G1 X158.783 Y161.677 E.01403
G1 X168.323 Y171.217 E.37288
G1 X168.323 Y171.725 E.01403
G1 X158.275 Y161.677 E.39271
G1 X157.767 Y161.677 E.01403
G1 X168.323 Y172.233 E.41255
G1 X168.323 Y172.74 E.01403
G1 X157.26 Y161.677 E.43239
G1 X156.752 Y161.677 E.01403
G1 X168.323 Y173.248 E.45223
G1 X168.323 Y173.755 E.01403
G1 X156.245 Y161.677 E.47206
G1 X155.737 Y161.677 E.01403
G1 X168.323 Y174.263 E.4919
G1 X168.323 Y174.77 E.01403
G1 X155.23 Y161.677 E.51174
G1 X154.722 Y161.677 E.01403
G1 X168.323 Y175.278 E.53158
G1 X168.323 Y175.786 E.01403
G1 X154.214 Y161.677 E.55141
G1 X153.707 Y161.677 E.01403
G1 X168.323 Y176.293 E.57125
G1 X168.323 Y176.801 E.01403
G1 X153.199 Y161.677 E.59109
G1 X152.692 Y161.677 E.01403
G1 X168.323 Y177.308 E.61093
G1 X168.323 Y177.816 E.01403
G1 X152.184 Y161.677 E.63076
G1 X151.677 Y161.677 E.01403
G1 X168.323 Y178.323 E.6506
G1 X167.816 Y178.323 E.01403
G1 X151.677 Y162.184 E.63076
G1 X151.677 Y162.692 E.01403
G1 X167.308 Y178.323 E.61092
G1 X166.801 Y178.323 E.01403
G1 X151.677 Y163.199 E.59109
M73 P6 R10
G1 X151.677 Y163.707 E.01403
G1 X166.293 Y178.323 E.57125
G1 X165.786 Y178.323 E.01403
G1 X151.677 Y164.214 E.55141
G1 X151.677 Y164.722 E.01403
G1 X165.278 Y178.323 E.53157
G1 X164.77 Y178.323 E.01403
G1 X151.677 Y165.23 E.51174
G1 X151.677 Y165.737 E.01403
G1 X164.263 Y178.323 E.4919
G1 X163.755 Y178.323 E.01403
G1 X151.677 Y166.245 E.47206
G1 X151.677 Y166.752 E.01403
G1 X163.248 Y178.323 E.45222
G1 X162.74 Y178.323 E.01403
G1 X151.677 Y167.26 E.43239
G1 X151.677 Y167.768 E.01403
G1 X162.232 Y178.323 E.41255
G1 X161.725 Y178.323 E.01403
G1 X151.677 Y168.275 E.39271
G1 X151.677 Y168.783 E.01403
G1 X161.217 Y178.323 E.37287
G1 X160.71 Y178.323 E.01403
G1 X151.677 Y169.29 E.35304
G1 X151.677 Y169.798 E.01403
G1 X160.202 Y178.323 E.3332
G1 X159.695 Y178.323 E.01403
G1 X151.677 Y170.305 E.31336
G1 X151.677 Y170.813 E.01403
G1 X159.187 Y178.323 E.29352
G1 X158.679 Y178.323 E.01403
G1 X151.677 Y171.321 E.27369
G1 X151.677 Y171.828 E.01403
G1 X158.172 Y178.323 E.25385
G1 X157.664 Y178.323 E.01403
G1 X151.677 Y172.336 E.23401
G1 X151.677 Y172.843 E.01403
G1 X157.157 Y178.323 E.21417
G1 X156.649 Y178.323 E.01403
G1 X151.677 Y173.351 E.19434
G1 X151.677 Y173.859 E.01403
G1 X156.141 Y178.323 E.1745
G1 X155.634 Y178.323 E.01403
G1 X151.677 Y174.366 E.15466
G1 X151.677 Y174.874 E.01403
G1 X155.126 Y178.323 E.13482
G1 X154.619 Y178.323 E.01403
G1 X151.677 Y175.381 E.11499
G1 X151.677 Y175.889 E.01403
G1 X154.111 Y178.323 E.09515
G1 X153.604 Y178.323 E.01403
G1 X151.677 Y176.396 E.07531
G1 X151.677 Y176.904 E.01403
G1 X153.096 Y178.323 E.05547
G1 X152.588 Y178.323 E.01403
G1 X151.677 Y177.412 E.03564
G1 X151.677 Y177.919 E.01403
G1 X152.242 Y178.484 E.02208
; stop printing object xyzCalibration_cube.stl id:0 copy 0
EXCLUDE_OBJECT_END NAME=xyzCalibration_cube.stl_id_0_copy_0
M106 S33
;LAYER_CHANGE
;Z:0.8
;HEIGHT:0.2
;BEFORE_LAYER_CHANGE
;0.8
G92 E0

; printing object xyzCalibration_cube.stl id:0 copy 0
EXCLUDE_OBJECT_START NAME=xyzCalibration_cube.stl_id_0_copy_0
G1 E-.5 F2400
G1 X169.8 Y179.8 Z.8 F9000
M73 P6 R9
G1 E.5 F1800
;TYPE:Outer wall
;WIDTH:0.399999
G1 F12000
G1 X150.2 Y179.8 E.53888
