; HEADER_BLOCK_START
; generated by OrcaSlicer 1.6.2 on 2023-05-15 at 12:47:03
; total layer number: 100
; HEADER_BLOCK_END

; THUMBNAIL_BLOCK_START
; THUMBNAIL_BLOCK_END

; external perimeters extrusion width = 0.40mm
; perimeters extrusion width = 0.45mm
; infill extrusion width = 0.45mm
; solid infill extrusion width = 0.40mm
; top infill extrusion width = 0.40mm
; first layer extrusion width = 0.50mm

; EXECUTABLE_BLOCK_START
EXCLUDE_OBJECT_DEFINE NAME=xyzCalibration_cube.stl_id_0_copy_0 CENTER=165,165 POLYGON=[[155,155],[175,155],[175,175],[155,175],[155,155]]
M73 P0 R16
;TYPE:Custom
START_PRINT T_BED=70 T_EXTRUDER=240
G90
G21
M83 ; use relative distances for extrusion
; filament start gcode
PRESSURE_ADVANCE_SELECT FILAMENT=PETG
M106 S0
;LAYER_CHANGE
;Z:0.2
;HEIGHT:0.2
M204 S500
G1 E-1 F3000
G1 X152.582 Y153.436 Z.2 F9000
G1 E1 F1800
;TYPE:Skirt
;WIDTH:0.5
G1 F3000
G1 X153.552 Y152.471 E.0494
G1 X155 Y152.086 E.05409
G1 X175 Y152.086 E.72212
G1 X176.462 Y152.479 E.05465
G1 X177.529 Y153.552 E.05465
G1 X177.914 Y155 E.05409
G1 X177.914 Y175 E.72212
G1 X177.521 Y176.462 E.05465
G1 X176.448 Y177.529 E.05465
G1 X175 Y177.914 E.05409
G1 X155 Y177.914 E.72212
G1 X153.538 Y177.521 E.05465
G1 X152.471 Y176.448 E.05465
G1 X152.086 Y175 E.05409
G1 X152.086 Y155 E.72212
G1 X152.479 Y153.538 E.05465
G1 X152.54 Y153.478 E.00309
G1 X152.935 Y153.669 F9000
G1 F3000
G1 X153.985 Y152.762 E.0501
G1 X155 Y152.543 E.03748
G1 X175 Y152.543 E.72212
G1 X176.331 Y152.935 E.0501
G1 X177.238 Y153.985 E.0501
G1 X177.457 Y155 E.03748
G1 X177.457 Y175 E.72212
G1 X177.065 Y176.331 E.0501
G1 X176.015 Y177.238 E.0501
G1 X175 Y177.457 E.03748
G1 X155 Y177.457 E.72212
G1 X153.669 Y177.065 E.0501
G1 X152.762 Y176.015 E.0501
G1 X152.543 Y175 E.03748
G1 X152.543 Y155 E.72212
G1 X152.918 Y153.726 E.04794
; printing object xyzCalibration_cube.stl id:0 copy 0
EXCLUDE_OBJECT_START NAME=xyzCalibration_cube.stl_id_0_copy_0
G1 E-1
G1 X174.293 Y174.293 F9000
G1 E1 F1800
;TYPE:Inner wall
G1 F3000
G1 X155.707 Y174.293 E.67106
G1 X155.707 Y155.707 E.67106
G1 X174.293 Y155.707 E.67106
G1 X174.293 Y174.233 E.66889
G1 X174.75 Y174.75 F9000
;TYPE:Outer wall
G1 F3000
G1 X155.25 Y174.75 E.70407
G1 X155.25 Y155.25 E.70407
G1 X174.75 Y155.25 E.70407
M73 P1 R16
G1 X174.75 Y174.69 E.7019
G1 X174.673 Y174.729
G1 E-1
G1 X173.218 Y155.844 F9000
G1 E1 F1800
;TYPE:Bottom surface
;WIDTH:0.506512
G1 F6300
G1 X173.95 Y156.576 E.03792
G1 X173.95 Y157.232 E.02401
G1 X172.768 Y156.05 E.06122
G1 X172.112 Y156.05 E.02401
G1 X173.95 Y157.888 E.09517
G1 X173.95 Y158.543 E.02401
G1 X171.457 Y156.05 E.12912
G1 X170.801 Y156.05 E.02401
G1 X173.95 Y159.199 E.16308
G1 X173.95 Y159.854 E.02401
G1 X170.146 Y156.05 E.19703
G1 X169.49 Y156.05 E.02401
G1 X173.95 Y160.51 E.23099
G1 X173.95 Y161.166 E.02401
G1 X168.834 Y156.05 E.26494
G1 X168.179 Y156.05 E.02401
G1 X173.95 Y161.821 E.29889
G1 X173.95 Y162.477 E.02401
G1 X167.523 Y156.05 E.33285
G1 X166.868 Y156.05 E.02401
G1 X173.95 Y163.132 E.3668
G1 X173.95 Y163.788 E.02401
G1 X166.212 Y156.05 E.40076
G1 X165.556 Y156.05 E.02401
G1 X173.95 Y164.444 E.43471
G1 X173.95 Y165.099 E.02401
G1 X164.901 Y156.05 E.46866
G1 X164.245 Y156.05 E.02401
G1 X173.95 Y165.755 E.50262
G1 X173.95 Y166.411 E.02401
G1 X163.589 Y156.05 E.53657
G1 X162.934 Y156.05 E.02401
G1 X173.95 Y167.066 E.57052
G1 X173.95 Y167.722 E.02401
G1 X162.278 Y156.05 E.60448
G1 X161.623 Y156.05 E.02401
G1 X173.95 Y168.377 E.63843
G1 X173.95 Y169.033 E.02401
G1 X160.967 Y156.05 E.67239
G1 X160.311 Y156.05 E.02401
G1 X173.95 Y169.689 E.70634
G1 X173.95 Y170.344 E.02401
G1 X159.656 Y156.05 E.74029
G1 X159 Y156.05 E.02401
G1 X173.95 Y171 E.77425
G1 X173.95 Y171.656 E.02401
G1 X158.344 Y156.05 E.8082
G1 X157.689 Y156.05 E.02401
G1 X173.95 Y172.311 E.84216
G1 X173.95 Y172.967 E.02401
G1 X157.033 Y156.05 E.87611
G1 X156.378 Y156.05 E.02401
G1 X173.95 Y173.622 E.91006
G1 X173.95 Y173.95 E.012
G1 X173.622 Y173.95 E.01201
G1 X156.05 Y156.378 E.91006
G1 X156.05 Y157.033 E.02401
G1 X172.967 Y173.95 E.8761
M73 P2 R16
G1 X172.311 Y173.95 E.02401
G1 X156.05 Y157.689 E.84215
G1 X156.05 Y158.345 E.02401
G1 X171.655 Y173.95 E.8082
G1 X171 Y173.95 E.02401
G1 X156.05 Y159 E.77424
G1 X156.05 Y159.656 E.02401
G1 X170.344 Y173.95 E.74029
G1 X169.689 Y173.95 E.02401
G1 X156.05 Y160.311 E.70634
G1 X156.05 Y160.967 E.02401
G1 X169.033 Y173.95 E.67238
G1 X168.377 Y173.95 E.02401
G1 X156.05 Y161.623 E.63843
G1 X156.05 Y162.278 E.02401
G1 X167.722 Y173.95 E.60447
G1 X167.066 Y173.95 E.02401
G1 X156.05 Y162.934 E.57052
G1 X156.05 Y163.59 E.02401
G1 X166.41 Y173.95 E.53657
G1 X165.755 Y173.95 E.02401
G1 X156.05 Y164.245 E.50261
G1 X156.05 Y164.901 E.02401
G1 X165.099 Y173.95 E.46866
G1 X164.444 Y173.95 E.02401
G1 X156.05 Y165.556 E.4347
G1 X156.05 Y166.212 E.02401
G1 X163.788 Y173.95 E.40075
G1 X163.132 Y173.95 E.02401
G1 X156.05 Y166.868 E.3668
G1 X156.05 Y167.523 E.02401
G1 X162.477 Y173.95 E.33284
G1 X161.821 Y173.95 E.02401
G1 X156.05 Y168.179 E.29889
G1 X156.05 Y168.834 E.02401
G1 X161.166 Y173.95 E.26493
G1 X160.51 Y173.95 E.02401
G1 X156.05 Y169.49 E.23098
G1 X156.05 Y170.146 E.02401
G1 X159.854 Y173.95 E.19703
G1 X159.199 Y173.95 E.02401
G1 X156.05 Y170.801 E.16307
G1 X156.05 Y171.457 E.02401
G1 X158.543 Y173.95 E.12912
G1 X157.887 Y173.95 E.02401
G1 X156.05 Y172.113 E.09517
G1 X156.05 Y172.768 E.02401
G1 X157.232 Y173.95 E.06121
G1 X156.576 Y173.95 E.02401
G1 X155.844 Y173.218 E.03791
; stop printing object xyzCalibration_cube.stl id:0 copy 0
EXCLUDE_OBJECT_END NAME=xyzCalibration_cube.stl_id_0_copy_0
;LAYER_CHANGE
;Z:0.4
;HEIGHT:0.2
M204 S6000
M140 S70 ; set bed temperature
; printing object xyzCalibration_cube.stl id:0 copy 0
EXCLUDE_OBJECT_START NAME=xyzCalibration_cube.stl_id_0_copy_0
M204 S5000
G1 E-1 F3000
G1 X174.418 Y174.418 Z.4 F9000
G1 E1 F1800
;TYPE:Inner wall
;WIDTH:0.45
G1 F7369.565
G1 X155.582 Y174.418 E.6057
G1 X155.582 Y155.582 E.6057
G1 X174.418 Y155.582 E.6057
G1 X174.418 Y174.358 E.60377
M204 S6000
M204 S5000
G1 X174.8 Y174.8 F9000
M204 S500
;TYPE:Outer wall
;WIDTH:0.4
G1 F7200
G1 X155.2 Y174.8 E.55285
G1 X155.2 Y155.2 E.55285
G1 X174.8 Y155.2 E.55285
G1 X174.8 Y174.74 E.55116
M73 P3 R16
G1 X174.723 Y174.779
M204 S6000
M204 S5000
G1 X174.292 Y173.562 F9000
M204 S6000
;TYPE:Internal solid infill
;WIDTH:0.403637
G1 F8316.768
G1 X173.723 Y174.131 E.02292
G1 X173.213 Y174.131 E.01454
G1 X174.131 Y173.213 E.03701
G1 X174.131 Y172.703 E.01454
G1 X172.703 Y174.131 E.05756
G1 X172.193 Y174.131 E.01454
G1 X174.131 Y172.193 E.07812
G1 X174.131 Y171.683 E.01454
G1 X171.683 Y174.131 E.09867
G1 X171.173 Y174.131 E.01454
G1 X174.131 Y171.173 E.11923
G1 X174.131 Y170.662 E.01454
G1 X170.662 Y174.131 E.13979
G1 X170.152 Y174.131 E.01454
G1 X174.131 Y170.152 E.16034
G1 X174.131 Y169.642 E.01454
G1 X169.642 Y174.131 E.1809
G1 X169.132 Y174.131 E.01454
G1 X174.131 Y169.132 E.20146
G1 X174.131 Y168.622 E.01454
G1 X168.622 Y174.131 E.22201
G1 X168.112 Y174.131 E.01454
G1 X174.131 Y168.112 E.24257
G1 X174.131 Y167.602 E.01454
G1 X167.602 Y174.131 E.26313
G1 X167.091 Y174.131 E.01454
G1 X174.131 Y167.091 E.28368
G1 X174.131 Y166.581 E.01454
G1 X166.581 Y174.131 E.30424
G1 X166.071 Y174.131 E.01454
G1 X174.131 Y166.071 E.3248
G1 X174.131 Y165.561 E.01454
G1 X165.561 Y174.131 E.34535
G1 X165.051 Y174.131 E.01454
G1 X174.131 Y165.051 E.36591
G1 X174.131 Y164.541 E.01454
G1 X164.541 Y174.131 E.38647
G1 X164.031 Y174.131 E.01454
G1 X174.131 Y164.031 E.40702
G1 X174.131 Y163.521 E.01454
G1 X163.521 Y174.131 E.42758
G1 X163.01 Y174.131 E.01454
G1 X174.131 Y163.01 E.44814
G1 X174.131 Y162.5 E.01454
G1 X162.5 Y174.131 E.46869
G1 X161.99 Y174.131 E.01454
G1 X174.131 Y161.99 E.48925
G1 X174.131 Y161.48 E.01454
G1 X161.48 Y174.131 E.50981
G1 X160.97 Y174.131 E.01454
G1 X174.131 Y160.97 E.53036
G1 X174.131 Y160.46 E.01454
G1 X160.46 Y174.131 E.55092
G1 X159.95 Y174.131 E.01454
G1 X174.131 Y159.95 E.57148
G1 X174.131 Y159.44 E.01454
G1 X159.44 Y174.131 E.59203
G1 X158.929 Y174.131 E.01454
G1 X174.131 Y158.929 E.61259
G1 X174.131 Y158.419 E.01454
G1 X158.419 Y174.131 E.63315
G1 X157.909 Y174.131 E.01454
G1 X174.131 Y157.909 E.6537
G1 X174.131 Y157.399 E.01454
G1 X157.399 Y174.131 E.67426
G1 X156.889 Y174.131 E.01454
G1 X174.131 Y156.889 E.69482
G1 X174.131 Y156.379 E.01454
G1 X156.379 Y174.131 E.71537
G1 X155.869 Y174.131 E.01453
G1 X174.131 Y155.869 E.73593
G1 X173.621 Y155.869 E.01454
G1 X155.869 Y173.621 E.71537
G1 X155.869 Y173.111 E.01454
G1 X173.111 Y155.869 E.69481
G1 X172.601 Y155.869 E.01454
G1 X155.869 Y172.601 E.67426
G1 X155.869 Y172.091 E.01454
G1 X172.091 Y155.869 E.6537
G1 X171.581 Y155.869 E.01454
G1 X155.869 Y171.581 E.63314
G1 X155.869 Y171.071 E.01454
G1 X171.071 Y155.869 E.61259
G1 X170.56 Y155.869 E.01454
G1 X155.869 Y170.56 E.59203
G1 X155.869 Y170.05 E.01454
G1 X170.05 Y155.869 E.57147
G1 X169.54 Y155.869 E.01454
G1 X155.869 Y169.54 E.55092
G1 X155.869 Y169.03 E.01454
G1 X169.03 Y155.869 E.53036
G1 X168.52 Y155.869 E.01454
G1 X155.869 Y168.52 E.5098
G1 X155.869 Y168.01 E.01454
G1 X168.01 Y155.869 E.48925
G1 X167.5 Y155.869 E.01454
G1 X155.869 Y167.5 E.46869
G1 X155.869 Y166.989 E.01454
G1 X166.989 Y155.869 E.44813
G1 X166.479 Y155.869 E.01454
G1 X155.869 Y166.479 E.42758
G1 X155.869 Y165.969 E.01454
G1 X165.969 Y155.869 E.40702
G1 X165.459 Y155.869 E.01454
G1 X155.869 Y165.459 E.38646
G1 X155.869 Y164.949 E.01454
G1 X164.949 Y155.869 E.36591
G1 X164.439 Y155.869 E.01454
G1 X155.869 Y164.439 E.34535
G1 X155.869 Y163.929 E.01454
G1 X163.929 Y155.869 E.32479
G1 X163.419 Y155.869 E.01454
G1 X155.869 Y163.419 E.30424
G1 X155.869 Y162.908 E.01454
G1 X162.908 Y155.869 E.28368
G1 X162.398 Y155.869 E.01454
G1 X155.869 Y162.398 E.26312
G1 X155.869 Y161.888 E.01454
G1 X161.888 Y155.869 E.24257
G1 X161.378 Y155.869 E.01454
G1 X155.869 Y161.378 E.22201
G1 X155.869 Y160.868 E.01454
G1 X160.868 Y155.869 E.20145
G1 X160.358 Y155.869 E.01454
G1 X155.869 Y160.358 E.1809
G1 X155.869 Y159.848 E.01454
G1 X159.848 Y155.869 E.16034
G1 X159.338 Y155.869 E.01454
G1 X155.869 Y159.338 E.13979
G1 X155.869 Y158.827 E.01454
G1 X158.827 Y155.869 E.11923
G1 X158.317 Y155.869 E.01454
G1 X155.869 Y158.317 E.09867
G1 X155.869 Y157.807 E.01454
G1 X157.807 Y155.869 E.07812
G1 X157.297 Y155.869 E.01454
G1 X155.869 Y157.297 E.05756
G1 X155.869 Y156.787 E.01454
G1 X156.787 Y155.869 E.037
G1 X156.277 Y155.869 E.01454
G1 X155.708 Y156.437 E.02292
; stop printing object xyzCalibration_cube.stl id:0 copy 0
EXCLUDE_OBJECT_END NAME=xyzCalibration_cube.stl_id_0_copy_0
;LAYER_CHANGE
;Z:0.6
;HEIGHT:0.2
; printing object xyzCalibration_cube.stl id:0 copy 0
EXCLUDE_OBJECT_START NAME=xyzCalibration_cube.stl_id_0_copy_0
M204 S5000
G1 E-1 F3000
G1 X174.418 Y174.418 Z.6 F9000
G1 E1 F1800
;TYPE:Inner wall
;WIDTH:0.45
G1 F7369.565
G1 X155.582 Y174.418 E.6057
G1 X155.582 Y155.582 E.6057
G1 X174.418 Y155.582 E.6057
M73 P4 R16
G1 X174.418 Y174.358 E.60377
M204 S6000
M204 S5000
G1 X174.8 Y174.8 F9000
M204 S500
;TYPE:Outer wall
;WIDTH:0.4
G1 F7200
G1 X155.2 Y174.8 E.55285
G1 X155.2 Y155.2 E.55285
G1 X174.8 Y155.2 E.55285
G1 X174.8 Y174.74 E.55116
G1 X174.723 Y174.779
M204 S6000
M204 S5000
G1 E-1 F3000
G1 X173.562 Y155.708 F9000
G1 E1 F1800
M204 S6000
;TYPE:Internal solid infill
;WIDTH:0.403637
G1 F8316.768
G1 X174.131 Y156.277 E.02292
G1 X174.131 Y156.787 E.01454
G1 X173.213 Y155.869 E.03701
G1 X172.703 Y155.869 E.01454
G1 X174.131 Y157.297 E.05756
G1 X174.131 Y157.807 E.01454
G1 X172.193 Y155.869 E.07812
G1 X171.683 Y155.869 E.01454
G1 X174.131 Y158.317 E.09868
G1 X174.131 Y158.827 E.01454
G1 X171.173 Y155.869 E.11923
G1 X170.662 Y155.869 E.01454
G1 X174.131 Y159.338 E.13979
G1 X174.131 Y159.848 E.01454
G1 X170.152 Y155.869 E.16034
G1 X169.642 Y155.869 E.01454
G1 X174.131 Y160.358 E.1809
G1 X174.131 Y160.868 E.01454
G1 X169.132 Y155.869 E.20146
G1 X168.622 Y155.869 E.01454
G1 X174.131 Y161.378 E.22201
G1 X174.131 Y161.888 E.01454
G1 X168.112 Y155.869 E.24257
G1 X167.602 Y155.869 E.01454
G1 X174.131 Y162.398 E.26313
G1 X174.131 Y162.909 E.01454
G1 X167.091 Y155.869 E.28368
G1 X166.581 Y155.869 E.01454
G1 X174.131 Y163.419 E.30424
G1 X174.131 Y163.929 E.01454
G1 X166.071 Y155.869 E.3248
G1 X165.561 Y155.869 E.01454
G1 X174.131 Y164.439 E.34535
G1 X174.131 Y164.949 E.01454
G1 X165.051 Y155.869 E.36591
G1 X164.541 Y155.869 E.01454
G1 X174.131 Y165.459 E.38647
G1 X174.131 Y165.969 E.01454
G1 X164.031 Y155.869 E.40702
G1 X163.521 Y155.869 E.01454
G1 X174.131 Y166.479 E.42758
G1 X174.131 Y166.99 E.01454
G1 X163.01 Y155.869 E.44814
G1 X162.5 Y155.869 E.01454
G1 X174.131 Y167.5 E.46869
G1 X174.131 Y168.01 E.01454
G1 X161.99 Y155.869 E.48925
G1 X161.48 Y155.869 E.01454
G1 X174.131 Y168.52 E.50981
G1 X174.131 Y169.03 E.01454
G1 X160.97 Y155.869 E.53036
G1 X160.46 Y155.869 E.01454
G1 X174.131 Y169.54 E.55092
G1 X174.131 Y170.05 E.01454
G1 X159.95 Y155.869 E.57148
G1 X159.44 Y155.869 E.01454
G1 X174.131 Y170.56 E.59203
G1 X174.131 Y171.071 E.01454
G1 X158.929 Y155.869 E.61259
G1 X158.419 Y155.869 E.01454
G1 X174.131 Y171.581 E.63315
G1 X174.131 Y172.091 E.01454
G1 X157.909 Y155.869 E.6537
G1 X157.399 Y155.869 E.01454
G1 X174.131 Y172.601 E.67426
G1 X174.131 Y173.111 E.01454
G1 X156.889 Y155.869 E.69482
G1 X156.379 Y155.869 E.01454
G1 X174.131 Y173.621 E.71537
G1 X174.131 Y174.131 E.01453
G1 X155.869 Y155.869 E.73593
G1 X155.869 Y156.379 E.01454
G1 X173.621 Y174.131 E.71537
G1 X173.111 Y174.131 E.01454
G1 X155.869 Y156.889 E.69481
G1 X155.869 Y157.399 E.01454
G1 X172.601 Y174.131 E.67426
G1 X172.091 Y174.131 E.01454
G1 X155.869 Y157.909 E.6537
G1 X155.869 Y158.419 E.01454
G1 X171.581 Y174.131 E.63314
G1 X171.071 Y174.131 E.01454
G1 X155.869 Y158.929 E.61259
G1 X155.869 Y159.44 E.01454
G1 X170.56 Y174.131 E.59203
G1 X170.05 Y174.131 E.01454
G1 X155.869 Y159.95 E.57147
G1 X155.869 Y160.46 E.01454
G1 X169.54 Y174.131 E.55092
G1 X169.03 Y174.131 E.01454
G1 X155.869 Y160.97 E.53036
G1 X155.869 Y161.48 E.01454
G1 X168.52 Y174.131 E.5098
G1 X168.01 Y174.131 E.01454
G1 X155.869 Y161.99 E.48925
G1 X155.869 Y162.5 E.01454
G1 X167.5 Y174.131 E.46869
G1 X166.989 Y174.131 E.01454
G1 X155.869 Y163.011 E.44813
G1 X155.869 Y163.521 E.01454
G1 X166.479 Y174.131 E.42758
G1 X165.969 Y174.131 E.01454
G1 X155.869 Y164.031 E.40702
G1 X155.869 Y164.541 E.01454
G1 X165.459 Y174.131 E.38646
G1 X164.949 Y174.131 E.01454
G1 X155.869 Y165.051 E.36591
G1 X155.869 Y165.561 E.01454
G1 X164.439 Y174.131 E.34535
G1 X163.929 Y174.131 E.01454
G1 X155.869 Y166.071 E.32479
G1 X155.869 Y166.581 E.01454
G1 X163.419 Y174.131 E.30424
M73 P5 R16
G1 X162.908 Y174.131 E.01454
G1 X155.869 Y167.092 E.28368
G1 X155.869 Y167.602 E.01454
G1 X162.398 Y174.131 E.26312
G1 X161.888 Y174.131 E.01454
G1 X155.869 Y168.112 E.24257
G1 X155.869 Y168.622 E.01454
G1 X161.378 Y174.131 E.22201
G1 X160.868 Y174.131 E.01454
G1 X155.869 Y169.132 E.20145
G1 X155.869 Y169.642 E.01454
G1 X160.358 Y174.131 E.1809
G1 X159.848 Y174.131 E.01454
G1 X155.869 Y170.152 E.16034
G1 X155.869 Y170.662 E.01454
G1 X159.338 Y174.131 E.13979
G1 X158.827 Y174.131 E.01454
G1 X155.869 Y171.173 E.11923
G1 X155.869 Y171.683 E.01454
G1 X158.317 Y174.131 E.09867
G1 X157.807 Y174.131 E.01454
G1 X155.869 Y172.193 E.07812
G1 X155.869 Y172.703 E.01454
G1 X157.297 Y174.131 E.05756
G1 X156.787 Y174.131 E.01454
G1 X155.869 Y173.213 E.037
G1 X155.869 Y173.723 E.01454
G1 X156.437 Y174.292 E.02292
; stop printing object xyzCalibration_cube.stl id:0 copy 0
EXCLUDE_OBJECT_END NAME=xyzCalibration_cube.stl_id_0_copy_0
M106 S226.95
;LAYER_CHANGE
;Z:0.8
;HEIGHT:0.2
; printing object xyzCalibration_cube.stl id:0 copy 0
EXCLUDE_OBJECT_START NAME=xyzCalibration_cube.stl_id_0_copy_0
M204 S5000
G1 E-1 F3000
G1 X174.418 Y174.418 Z.8 F9000
G1 E1 F1800
;TYPE:Inner wall
;WIDTH:0.45
G1 F2483
G1 X155.582 Y174.418 E.6057
G1 X155.582 Y155.582 E.6057
G1 X174.418 Y155.582 E.6057
G1 X174.418 Y174.358 E.60377
M204 S6000
M204 S5000
G1 X174.8 Y174.8 F9000
M204 S500
;TYPE:Outer wall
;WIDTH:0.4
G1 F2483
G1 X155.2 Y174.8 E.55285
G1 X155.2 Y155.2 E.55285
G1 X174.8 Y155.2 E.55285
G1 X174.8 Y174.74 E.55116
G1 X174.723 Y174.779
M204 S6000
M204 S5000
G1 E-1 F3000
