; generated by SuperSlicer 2.5.59 on 2023-07-22 at 05:42:49 UTC


;
;

;
;
; 

; external perimeters extrusion width = 0.40mm
; perimeters extrusion width = 0.46mm
; infill extrusion width = 0.64mm
; solid infill extrusion width = 0.56mm
; top infill extrusion width = 0.40mm
; support material extrusion width = 0.46mm
; first layer extrusion width = 0.50mm

; object:{"name":"xyzCalibration_cube","id":"xyzCalibration_cube.stl id:0 copy 0","object_center":[165.000000,165.000000,0.000000],"boundingbox_center":[165.000000,165.000000,10.000000],"boundingbox_size":[20.000000,20.000000,20.000000]}
EXCLUDE_OBJECT_DEFINE NAME=xyzCalibration_cube_stl_id_0_copy_0 CENTER=165.000000,165.000000 POLYGON=[[155.000000,155.000000],[175.000000,155.000000],[175.000000,175.000000],[155.000000,175.000000],[155.000000,155.000000]]
; plater:{"center":[165.000000,165.000000,0.000000],"boundingbox_center":[165.000000,165.000000,10.000000],"boundingbox_size":[20.000000,20.000000,20.000000]}

M73 P0 R14
;TYPE:Custom
; custom gcode: start_gcode
START_PRINT T_BED=110 T_EXTRUDER=260
; custom gcode end: start_gcode
M107
G21 ; set units to millimeters
G90 ; use absolute coordinates
M82 ; use absolute distances for extrusion
G92 E0
; custom gcode: start_filament_gcode
; filament start gcode

    PRESSURE_ADVANCE_SELECT FILAMENT=ABS
; custom gcode end: start_filament_gcode
;_TOOLCHANGE 0
M109 S260 ; set temperature and wait for it to be reached
M190 S110 ; set bed temperature and wait for it to be reached
;LAYER_CHANGE
;Z:0.2
;HEIGHT:0.2
G1 Z0.2 F9000
M73 P0 R14
G1 E-0.5 F2400
M204 S1000
G1 X150.956 Y151.194 F9000
G1 E0 F1800
;TYPE:Skirt
;WIDTH:0.52
G1 X149.822 Y152.976 E0.07757
G1 X149.426 Y155.05 E0.15514
G1 X149.426 Y174.95 E0.88616
G1 X149.956 Y177.334 E0.97585
G1 X151.194 Y179.044 E1.05342
G1 X152.976 Y180.178 E1.13099
G1 X155.05 Y180.574 E1.20856
G1 X174.95 Y180.574 E1.93958
G1 X177.334 Y180.044 E2.02927
G1 X179.044 Y178.806 E2.10684
G1 X180.178 Y177.024 E2.18441
G1 X180.574 Y174.95 E2.26198
G1 X180.574 Y155.05 E2.993
G1 X180.044 Y152.666 E3.08269
G1 X178.806 Y150.956 E3.16026
G1 X177.024 Y149.822 E3.23783
G1 X174.95 Y149.426 E3.3154
G1 X155.05 Y149.426 E4.04642
M73 P1 R14
G1 X152.666 Y149.956 E4.13611
G1 X150.956 Y151.194 E4.21368
G1 X151.373 Y151.474 F9000
G1 F1800
G1 X150.299 Y153.07 E4.28431
G1 X149.903 Y155.05 E4.35849
G1 X149.903 Y174.95 E5.08951
G1 X150.282 Y176.889 E5.16206
G1 X151.394 Y178.574 E5.23624
G1 X153.07 Y179.701 E5.31041
G1 X155.05 Y180.097 E5.38459
G1 X174.95 Y180.097 E6.11561
G1 X176.889 Y179.718 E6.18816
G1 X178.574 Y178.606 E6.26233
G1 X179.701 Y176.93 E6.33651
G1 X180.097 Y174.95 E6.41068
G1 X180.097 Y155.05 E7.1417
G1 X179.718 Y153.111 E7.21425
G1 X178.606 Y151.426 E7.28843
G1 X176.93 Y150.299 E7.3626
G1 X174.95 Y149.903 E7.43678
G1 X155.05 Y149.903 E8.1678
G1 X153.111 Y150.282 E8.24035
G1 X151.426 Y151.394 E8.31452
G1 X151.373 Y151.474 E8.31807
G1 X151.78 Y151.767 F9000
G1 F1800
G1 X150.776 Y153.168 E8.38141
G1 X150.38 Y155.05 E8.45203
G1 X150.38 Y174.95 E9.18305
G1 X150.627 Y176.45 E9.23888
G1 X151.606 Y178.104 E9.30949
G1 X153.168 Y179.224 E9.38011
G1 X155.05 Y179.62 E9.45073
G1 X174.95 Y179.62 E10.18175
G1 X176.45 Y179.373 E10.23757
G1 X178.104 Y178.394 E10.30819
G1 X179.224 Y176.832 E10.37881
G1 X179.62 Y174.95 E10.44943
G1 X179.62 Y155.05 E11.18045
G1 X179.373 Y153.55 E11.23627
G1 X178.394 Y151.896 E11.30689
G1 X176.832 Y150.776 E11.37751
G1 X174.95 Y150.38 E11.44813
G1 X155.05 Y150.38 E12.17915
G1 X153.55 Y150.627 E12.23497
G1 X151.896 Y151.606 E12.30559
G1 X151.78 Y151.767 E12.31286
G1 X152.177 Y152.073 F9000
G1 F1800
G1 X151.252 Y153.273 E12.36852
G1 X150.857 Y155.05 E12.43539
G1 X150.857 Y174.95 E13.16641
M73 P2 R14
G1 X150.996 Y176.019 E13.206
G1 X151.831 Y177.637 E13.27287
G1 X153.273 Y178.748 E13.33974
G1 X155.05 Y179.143 E13.40662
G1 X174.95 Y179.143 E14.13764
G1 X176.019 Y179.004 E14.17722
G1 X177.637 Y178.169 E14.24409
G1 X178.748 Y176.727 E14.31097
G1 X179.143 Y174.95 E14.37784
G1 X179.143 Y155.05 E15.10886
G1 X179.004 Y153.981 E15.14845
G1 X178.169 Y152.363 E15.21532
G1 X176.727 Y151.252 E15.28219
G1 X174.95 Y150.857 E15.34907
G1 X155.05 Y150.857 E16.08009
G1 X153.981 Y150.996 E16.11967
G1 X152.363 Y151.831 E16.18654
G1 X152.177 Y152.073 E16.19776
G1 X152.559 Y152.393 F9000
G1 F1800
G1 X151.729 Y153.383 E16.24524
G1 X151.334 Y155.05 E16.30815
G1 X151.334 Y174.95 E17.03917
G1 X152.071 Y177.171 E17.12513
G1 X153.383 Y178.271 E17.18803
G1 X155.05 Y178.666 E17.25094
G1 X174.95 Y178.666 E17.98196
G1 X177.171 Y177.929 E18.06792
G1 X178.271 Y176.617 E18.13082
G1 X178.666 Y174.95 E18.19373
G1 X178.666 Y155.05 E18.92475
G1 X177.929 Y152.829 E19.0107
G1 X176.617 Y151.729 E19.07361
G1 X174.95 Y151.334 E19.13651
G1 X155.05 Y151.334 E19.86753
G1 X152.829 Y152.071 E19.95349
G1 X152.559 Y152.393 E19.96891
G1 X152.922 Y152.729 F9000
G1 F1800
G1 X152.205 Y153.502 E20.00764
G1 X151.811 Y155.05 E20.06631
G1 X151.811 Y174.95 E20.79733
G1 X152.331 Y176.709 E20.8647
G1 X153.502 Y177.795 E20.92337
G1 X155.05 Y178.189 E20.98204
G1 X174.95 Y178.189 E21.71306
G1 X176.709 Y177.669 E21.78043
G1 X177.795 Y176.498 E21.8391
G1 X178.189 Y174.95 E21.89777
G1 X178.189 Y155.05 E22.62879
M73 P3 R14
G1 X177.669 Y153.291 E22.69617
G1 X176.498 Y152.205 E22.75483
G1 X174.95 Y151.811 E22.8135
G1 X155.05 Y151.811 E23.54452
G1 X153.291 Y152.331 E23.6119
G1 X152.922 Y152.729 E23.63184
G92 E0
G1 E-0.5 F2400
; printing object xyzCalibration_cube.stl id:0 copy 0
EXCLUDE_OBJECT_START NAME=xyzCalibration_cube_stl_id_0_copy_0
; acceleration to travel
M204 S3000
G1 X154.705 Y154.657 F9000
; decel to extrusion
M204 S1000
G1 X155.3 Y155.3
; end travel
G1 E0 F1800
;TYPE:External perimeter
;WIDTH:0.5
G1 X174.7 Y155.3 E0.68278
G1 X174.7 Y174.7 E1.36556
G1 X155.3 Y174.7 E2.04834
G1 X155.3 Y155.3 E2.73111
;WIPE_START
M204 S4000
G1 X155.646 Y155.5 F9000
;WIPE_END
M204 S1000
G1 X155.757 Y155.757
;TYPE:Internal perimeter
G1 F1800
G1 X174.243 Y155.757 E3.38172
G1 X174.243 Y174.243 E4.03233
G1 X155.757 Y174.243 E4.68293
G1 X155.757 Y155.757 E5.33354
G1 X156.214 Y156.214 F9000
G1 F1800
G1 X173.786 Y156.214 E5.95197
G1 X173.786 Y173.786 E6.5704
G1 X156.214 Y173.786 E7.18884
M73 P4 R14
G1 X156.214 Y156.214 E7.80727
G92 E0
G1 E-0.5 F2400
; acceleration to travel
M204 S3000
G1 X168.17 Y156.313 F9000
; decel to extrusion
M204 S1000
G1 X172.725 Y156.351
; end travel
G1 E0 F1800
;TYPE:Solid infill
;WIDTH:0.502164
G1 F3600
G1 X173.649 Y157.275 E0.04619
G1 X173.649 Y157.921 F9000
G1 F3600
G1 X172.079 Y156.351 E0.12469
G1 X171.432 Y156.351 F9000
G1 F3600
G1 X173.649 Y158.568 E0.2355
G1 X173.649 Y159.214 F9000
G1 F3600
G1 X170.786 Y156.351 E0.37862
G1 X170.139 Y156.351 F9000
G1 F3600
G1 X173.649 Y159.861 E0.55405
G1 X173.649 Y160.507 F9000
G1 F3600
G1 X169.493 Y156.351 E0.7618
G1 X168.847 Y156.351 F9000
G1 F3600
G1 X173.649 Y161.153 E1.00186
G1 X173.649 Y161.8 F9000
G1 F3600
G1 X168.2 Y156.351 E1.27423
G1 X167.554 Y156.351 F9000
G1 F3600
G1 X173.649 Y162.446 E1.57891
G1 X173.649 Y163.093 F9000
G1 F3600
G1 X166.907 Y156.351 E1.91591
G1 X166.261 Y156.351 F9000
G1 F3600
G1 X173.649 Y163.739 E2.28521
G1 X173.649 Y164.385 F9000
G1 F3600
G1 X165.615 Y156.351 E2.68683
G1 X164.968 Y156.351 F9000
G1 F3600
G1 X173.649 Y165.032 E3.12076
G1 X173.649 Y165.678 F9000
G1 F3600
G1 X164.322 Y156.351 E3.587
G1 X163.675 Y156.351 F9000
G1 F3600
G1 X173.649 Y166.325 E4.08556
G1 X173.649 Y166.971 F9000
G1 F3600
G1 X163.029 Y156.351 E4.61642
G1 X162.382 Y156.351 F9000
G1 F3600
G1 X173.649 Y167.618 E5.1796
G1 X173.649 Y168.264 F9000
G1 F3600
G1 X161.736 Y156.351 E5.77509
G1 X161.09 Y156.351 F9000
G1 F3600
G1 X173.649 Y168.91 E6.40289
G1 X173.649 Y169.557 F9000
G1 F3600
G1 X160.443 Y156.351 E7.06301
G1 X159.797 Y156.351 F9000
G1 F3600
G1 X173.649 Y170.203 E7.75543
G1 X173.649 Y170.85 F9000
G1 F3600
G1 X159.15 Y156.351 E8.48017
G1 X158.504 Y156.351 F9000
G1 F3600
G1 X173.649 Y171.496 E9.23722
G1 X173.649 Y172.142 F9000
G1 F3600
G1 X157.858 Y156.351 E10.02658
G1 X157.211 Y156.351 F9000
G1 F3600
G1 X173.649 Y172.789 E10.84826
G1 X173.649 Y173.435 F9000
G1 F3600
G1 X156.565 Y156.351 E11.70224
M73 P5 R14
G1 X156.351 Y156.784 F9000
G1 F3600
G1 X173.216 Y173.649 E12.54529
G1 X172.57 Y173.649 F9000
G1 F3600
G1 X156.351 Y157.43 E13.35603
M73 P5 R14
G1 X156.351 Y158.076 F9000
G1 F3600
G1 X171.924 Y173.649 E14.13446
G1 X171.277 Y173.649 F9000
G1 F3600
G1 X156.351 Y158.723 E14.88058
G1 X156.351 Y159.369 F9000
G1 F3600
G1 X170.631 Y173.649 E15.59438
G1 X169.984 Y173.649 F9000
G1 F3600
G1 X156.351 Y160.016 E16.27587
G1 X156.351 Y160.662 F9000
G1 F3600
G1 X169.338 Y173.649 E16.92505
G1 X168.692 Y173.649 F9000
G1 F3600
G1 X156.351 Y161.308 E17.54192
G1 X156.351 Y161.955 F9000
G1 F3600
G1 X168.045 Y173.649 E18.12647
G1 X167.399 Y173.649 F9000
G1 F3600
G1 X156.351 Y162.601 E18.67871
G1 X156.351 Y163.248 F9000
G1 F3600
G1 X166.752 Y173.649 E19.19864
G1 X166.106 Y173.649 F9000
G1 F3600
G1 X156.351 Y163.894 E19.68626
G1 X156.351 Y164.54 F9000
G1 F3600
G1 X165.46 Y173.649 E20.14157
G1 X164.813 Y173.649 F9000
G1 F3600
G1 X156.351 Y165.187 E20.56457
G1 X156.351 Y165.833 F9000
G1 F3600
G1 X164.167 Y173.649 E20.95525
G1 X163.52 Y173.649 F9000
G1 F3600
G1 X156.351 Y166.48 E21.31362
G1 X156.351 Y167.126 F9000
G1 F3600
G1 X162.874 Y173.649 E21.63968
G1 X162.227 Y173.649 F9000
G1 F3600
G1 X156.351 Y167.773 E21.93343
G1 X156.351 Y168.419 F9000
G1 F3600
G1 X161.581 Y173.649 E22.19486
G1 X160.935 Y173.649 F9000
G1 F3600
G1 X156.351 Y169.065 E22.42398
G1 X156.351 Y169.712 F9000
G1 F3600
G1 X160.288 Y173.649 E22.6208
G1 X159.642 Y173.649 F9000
G1 F3600
G1 X156.351 Y170.358 E22.7853
G1 X156.351 Y171.005 F9000
G1 F3600
G1 X158.995 Y173.649 E22.91748
G1 X158.349 Y173.649 F9000
G1 F3600
G1 X156.351 Y171.651 E23.01736
G1 X156.351 Y172.297 F9000
G1 F3600
G1 X157.703 Y173.649 E23.08492
G1 X157.056 Y173.649 F9000
G1 F3600
G1 X156.351 Y172.944 E23.12017
;LAYER_CHANGE
;Z:0.4
;HEIGHT:0.2
; stop printing object xyzCalibration_cube.stl id:0 copy 0
EXCLUDE_OBJECT_END NAME=xyzCalibration_cube_stl_id_0_copy_0
M204 S4000
G1 Z0.4 F9000
; printing object xyzCalibration_cube.stl id:0 copy 0
EXCLUDE_OBJECT_START NAME=xyzCalibration_cube_stl_id_0_copy_0
G1 X155.216 Y174.784
;TYPE:External perimeter
;WIDTH:0.4
G1 X155.216 Y155.216 E23.65816
G1 X174.784 Y155.216 E24.19614
G1 X174.784 Y174.784 E24.73412
G1 X155.216 Y174.784 E25.2721
;WIPE_START
G1 X155.416 Y174.437
;WIPE_END
G1 X155.603 Y174.397
;TYPE:Internal perimeter
;WIDTH:0.46
G1 F8631.4446
G1 X155.603 Y155.603 E25.87562
G1 X174.397 Y155.603 E26.47914
M73 P6 R14
G1 X174.397 Y174.397 E27.08266
G1 X155.603 Y174.397 E27.68618
G1 X156.021 Y173.979 F9000
G1 F8631.4446
G1 X156.021 Y156.021 E28.26291
G1 X173.979 Y156.021 E28.83964
G1 X173.979 Y173.979 E29.41637
G1 X156.021 Y173.979 E29.9931
M204 S3000
G1 X173.862 Y172.817 F9000
;TYPE:Solid infill
;WIDTH:0.562452
G1 F6931.8203
G1 X172.817 Y173.862 E30.05221
G1 X172.085 Y173.862 F9000
G1 F6931.8203
G1 X173.862 Y172.085 E30.15267
G1 X173.862 Y171.354 F9000
G1 F6931.8203
G1 X171.354 Y173.862 E30.29449
G1 X170.623 Y173.862 F9000
G1 F6931.8203
G1 X173.862 Y170.623 E30.47766
G1 X173.862 Y169.892 F9000
G1 F6931.8203
G1 X169.892 Y173.862 E30.70219
G1 X169.16 Y173.862 F9000
G1 F6931.8203
G1 X173.862 Y169.16 E30.96807
G1 X173.862 Y168.429 F9000
G1 F6931.8203
G1 X168.429 Y173.862 E31.27531
G1 X167.698 Y173.862 F9000
G1 F6931.8203
G1 X173.862 Y167.698 E31.62389
G1 X173.862 Y166.966 F9000
G1 F6931.8203
G1 X166.966 Y173.862 E32.01384
G1 X166.235 Y173.862 F9000
G1 F6931.8203
G1 X173.862 Y166.235 E32.44513
G1 X173.862 Y165.504 F9000
G1 F6931.8203
G1 X165.504 Y173.862 E32.91778
G1 X164.773 Y173.862 F9000
G1 F6931.8203
G1 X173.862 Y164.773 E33.43179
G1 X173.862 Y164.041 F9000
G1 F6931.8203
G1 X164.041 Y173.862 E33.98715
G1 X163.31 Y173.862 F9000
G1 F6931.8203
G1 X173.862 Y163.31 E34.58386
G1 X173.862 Y162.579 F9000
G1 F6931.8203
G1 X162.579 Y173.862 E35.22192
G1 X161.848 Y173.862 F9000
G1 F6931.8203
G1 X173.862 Y161.848 E35.90134
G1 X173.862 Y161.116 F9000
G1 F6931.8203
G1 X161.116 Y173.862 E36.62212
G1 X160.385 Y173.862 F9000
G1 F6931.8203
G1 X173.862 Y160.385 E37.38425
G1 X173.862 Y159.654 F9000
G1 F6931.8203
G1 X159.654 Y173.862 E38.18773
G1 X158.923 Y173.862 F9000
G1 F6931.8203
G1 X173.862 Y158.923 E39.03257
G1 X173.862 Y158.191 F9000
G1 F6931.8203
G1 X158.191 Y173.862 E39.91876
G1 X157.46 Y173.862 F9000
G1 F6931.8203
G1 X173.862 Y157.46 E40.8463
G1 X173.862 Y156.729 F9000
G1 F6931.8203
G1 X156.729 Y173.862 E41.8152
G1 X156.138 Y173.721 F9000
G1 F6931.8203
G1 X173.721 Y156.138 E42.80955
G1 X172.99 Y156.138 F9000
G1 F6931.8203
G1 X156.138 Y172.99 E43.76254
G1 X156.138 Y172.259 F9000
G1 F6931.8203
G1 X172.259 Y156.138 E44.67419
G1 X171.527 Y156.138 F9000
G1 F6931.8203
G1 X156.138 Y171.527 E45.54448
G1 X156.138 Y170.796 F9000
G1 F6931.8203
G1 X170.796 Y156.138 E46.37341
G1 X170.065 Y156.138 F9000
G1 F6931.8203
G1 X156.138 Y170.065 E47.16099
G1 X156.138 Y169.334 F9000
G1 F6931.8203
G1 X169.334 Y156.138 E47.90722
G1 X168.602 Y156.138 F9000
G1 F6931.8203
G1 X156.138 Y168.602 E48.61209
G1 X156.138 Y167.871 F9000
G1 F6931.8203
G1 X167.871 Y156.138 E49.27561
G1 X167.14 Y156.138 F9000
G1 F6931.8203
G1 X156.138 Y167.14 E49.89778
G1 X156.138 Y166.409 F9000
G1 F6931.8203
G1 X166.409 Y156.138 E50.47859
G1 X165.677 Y156.138 F9000
G1 F6931.8203
G1 X156.138 Y165.677 E51.01804
G1 X156.138 Y164.946 F9000
G1 F6931.8203
G1 X164.946 Y156.138 E51.51615
G1 X164.215 Y156.138 F9000
G1 F6931.8203
G1 X156.138 Y164.215 E51.9729
G1 X156.138 Y163.484 F9000
G1 F6931.8203
G1 X163.484 Y156.138 E52.38829
G1 X162.752 Y156.138 F9000
G1 F6931.8203
G1 X156.138 Y162.752 E52.76233
G1 X156.138 Y162.021 F9000
G1 F6931.8203
G1 X162.021 Y156.138 E53.09502
G1 X161.29 Y156.138 F9000
M73 P7 R14
G1 F6931.8203
G1 X156.138 Y161.29 E53.38635
G1 X156.138 Y160.559 F9000
G1 F6931.8203
G1 X160.559 Y156.138 E53.63633
G1 X159.827 Y156.138 F9000
G1 F6931.8203
G1 X156.138 Y159.827 E53.84496
G1 X156.138 Y159.096 F9000
G1 F6931.8203
G1 X159.096 Y156.138 E54.01223
G1 X158.365 Y156.138 F9000
G1 F6931.8203
G1 X156.138 Y158.365 E54.13815
G1 X156.138 Y157.634 F9000
G1 F6931.8203
G1 X157.634 Y156.138 E54.22271
G1 X156.902 Y156.138 F9000
G1 F6931.8203
G1 X156.138 Y156.902 E54.26592
M106 S255
;LAYER_CHANGE
;Z:0.6
;HEIGHT:0.2
; stop printing object xyzCalibration_cube.stl id:0 copy 0
EXCLUDE_OBJECT_END NAME=xyzCalibration_cube_stl_id_0_copy_0
M204 S4000
G1 Z0.6 F9000
; printing object xyzCalibration_cube.stl id:0 copy 0
EXCLUDE_OBJECT_START NAME=xyzCalibration_cube_stl_id_0_copy_0
G1 X155.183 Y155.183
;TYPE:External perimeter
;WIDTH:0.4
G1 X174.817 Y155.183 E54.80574
M106 S38.25
G1 X174.817 Y174.817 E55.34555
G1 X155.183 Y174.817 E55.88537
G1 X155.183 Y155.183 E56.42518
;WIPE_START
G1 X155.529 Y155.383
;WIPE_END
G1 X155.57 Y155.57
;TYPE:Internal perimeter
;WIDTH:0.46
G1 F8631.4446
G1 X174.43 Y155.57 E57.03084
G1 X174.43 Y174.43 E57.6365
G1 X155.57 Y174.43 E58.24216
G1 X155.57 Y155.57 E58.84782
G1 X155.987 Y155.987 F9000
G1 F8631.4446
G1 X174.013 Y155.987 E59.42669
G1 X174.013 Y174.013 E60.00556
G1 X155.987 Y174.013 E60.58443
G1 X155.987 Y155.987 E61.1633
M204 S3000
G1 X172.85 Y156.105 F9000
;TYPE:Solid infill
;WIDTH:0.562491
G1 F6931.3479
G1 X173.895 Y157.15 E61.22242
G1 X173.895 Y157.881 F9000
G1 F6931.3479
G1 X172.119 Y156.105 E61.32289
G1 X171.387 Y156.105 F9000
G1 F6931.3479
G1 X173.895 Y158.613 E61.46472
G1 X173.895 Y159.344 F9000
G1 F6931.3479
G1 X170.656 Y156.105 E61.6479
G1 X169.925 Y156.105 F9000
G1 F6931.3479
G1 X173.895 Y160.075 E61.87245
G1 X173.895 Y160.806 F9000
G1 F6931.3479
G1 X169.194 Y156.105 E62.13835
G1 X168.462 Y156.105 F9000
G1 F6931.3479
G1 X173.895 Y161.538 E62.4456
G1 X173.895 Y162.269 F9000
G1 F6931.3479
G1 X167.731 Y156.105 E62.79421
G1 X167 Y156.105 F9000
G1 F6931.3479
G1 X173.895 Y163 E63.18418
G1 X173.895 Y163.731 F9000
G1 F6931.3479
G1 X166.269 Y156.105 E63.61551
G1 X165.537 Y156.105 F9000
G1 F6931.3479
G1 X173.895 Y164.463 E64.08819
G1 X173.895 Y165.194 F9000
G1 F6931.3479
G1 X164.806 Y156.105 E64.60223
G1 X164.075 Y156.105 F9000
G1 F6931.3479
G1 X173.895 Y165.925 E65.15763
