; HEADER_BLOCK_START
; generated by OrcaSlicer 1.6.3 on 2023-06-16 at 15:17:43
; total layer number: 100
; HEADER_BLOCK_END

; THUMBNAIL_BLOCK_START
; THUMBNAIL_BLOCK_END

; external perimeters extrusion width = 0.40mm
; perimeters extrusion width = 0.45mm
; infill extrusion width = 0.45mm
; solid infill extrusion width = 0.40mm
; top infill extrusion width = 0.40mm
; first layer extrusion width = 0.50mm

; EXECUTABLE_BLOCK_START
EXCLUDE_OBJECT_DEFINE NAME=xyzCalibration_cube.stl_id_0_copy_0 CENTER=160,170 POLYGON=[[150,160],[170,160],[170,180],[150,180],[150,160]]
M73 P0 R17
;TYPE:Custom
START_PRINT T_BED=60 T_EXTRUDER=220
G90
G21
M83 ; use relative distances for extrusion
; filament start gcode

    PRESSURE_ADVANCE_SELECT FILAMENT=PLA
M106 S0
;LAYER_CHANGE
;Z:0.2
;HEIGHT:0.2
M204 S500
G1 E-.8 F3000
G1 Z.2 F9000
G1 X148.552 Y157.471
G1 E.8 F1800
;TYPE:Skirt
;WIDTH:0.5
G1 F3000
G1 X150 Y157.086 E.0558
G1 X170 Y157.086 E.74492
G1 X171.462 Y157.479 E.05638
G1 X172.529 Y158.552 E.05638
G1 X172.914 Y160 E.0558
G1 X172.914 Y180 E.74492
G1 X172.521 Y181.462 E.05638
G1 X171.448 Y182.529 E.05638
G1 X170 Y182.914 E.0558
G1 X150 Y182.914 E.74492
G1 X148.538 Y182.521 E.05638
G1 X147.471 Y181.448 E.05638
G1 X147.086 Y180 E.0558
G1 X147.086 Y160 E.74492
G1 X147.479 Y158.538 E.05638
G1 X148.51 Y157.513 E.05415
G1 X148.836 Y157.891 F9000
G1 F3000
G1 X148.985 Y157.762 E.00735
G1 X150 Y157.543 E.03866
G1 X170 Y157.543 E.74492
G1 X171.331 Y157.935 E.05169
G1 X172.238 Y158.985 E.05169
G1 X172.457 Y160 E.03866
G1 X172.457 Y180 E.74492
G1 X172.065 Y181.331 E.05169
G1 X171.015 Y182.238 E.05169
G1 X170 Y182.457 E.03866
G1 X150 Y182.457 E.74492
G1 X148.669 Y182.065 E.05169
G1 X147.762 Y181.015 E.05169
G1 X147.543 Y180 E.03866
G1 X147.543 Y160 E.74492
G1 X147.935 Y158.669 E.05169
G1 X148.791 Y157.93 E.0421
; printing object xyzCalibration_cube.stl id:0 copy 0
EXCLUDE_OBJECT_START NAME=xyzCalibration_cube.stl_id_0_copy_0
G1 E-.8
G1 Z.4 F9000
G1 X169.193 Y179.193
G1 Z.2
G1 E.8 F1800
;TYPE:Inner wall
;WIDTH:0.499999
G1 F3000
G1 X150.807 Y179.193 E.6848
G1 X150.807 Y160.807 E.6848
G1 X169.193 Y160.807 E.6848
G1 X169.193 Y170 E.3424
G1 X169.193 Y179.133 E.34017
G1 X169.65 Y179.65 F9000
;TYPE:Outer wall
G1 F3000
G1 X150.35 Y179.65 E.71885
G1 X150.35 Y160.35 E.71885
M73 P0 R16
G1 X169.65 Y160.35 E.71885
M73 P1 R16
G1 X169.65 Y170 E.35943
G1 X169.65 Y179.59 E.35719
G1 X169.581 Y179.61
G1 E-.8
G1 Z.4 F9000
G1 X168.129 Y160.944
G1 Z.2
G1 E.8 F1800
;TYPE:Bottom surface
;WIDTH:0.501461
G1 F6300
G1 X168.85 Y161.666 E.03812
G1 X168.85 Y162.314 E.02423
G1 X167.686 Y161.15 E.06152
G1 X167.037 Y161.15 E.02423
G1 X168.85 Y162.963 E.09579
G1 X168.85 Y163.611 E.02423
G1 X166.389 Y161.15 E.13005
G1 X165.741 Y161.15 E.02423
G1 X168.85 Y164.259 E.16432
G1 X168.85 Y164.908 E.02423
G1 X165.092 Y161.15 E.19859
G1 X164.444 Y161.15 E.02423
G1 X168.85 Y165.556 E.23285
G1 X168.85 Y166.205 E.02423
G1 X163.795 Y161.15 E.26712
G1 X163.147 Y161.15 E.02423
G1 X168.85 Y166.853 E.30139
G1 X168.85 Y167.502 E.02423
G1 X162.498 Y161.15 E.33565
G1 X161.85 Y161.15 E.02423
G1 X168.85 Y168.15 E.36992
G1 X168.85 Y168.799 E.02423
G1 X161.201 Y161.15 E.40419
G1 X160.553 Y161.15 E.02423
G1 X168.85 Y169.447 E.43846
G1 X168.85 Y170.096 E.02423
G1 X159.904 Y161.15 E.47272
G1 X159.256 Y161.15 E.02423
G1 X168.85 Y170.744 E.50699
G1 X168.85 Y171.393 E.02423
G1 X158.607 Y161.15 E.54126
G1 X157.959 Y161.15 E.02423
G1 X168.85 Y172.041 E.57552
G1 X168.85 Y172.69 E.02423
G1 X157.31 Y161.15 E.60979
G1 X156.662 Y161.15 E.02423
G1 X168.85 Y173.338 E.64406
G1 X168.85 Y173.987 E.02423
G1 X156.013 Y161.15 E.67832
G1 X155.365 Y161.15 E.02423
G1 X168.85 Y174.635 E.71259
G1 X168.85 Y175.284 E.02423
G1 X154.716 Y161.15 E.74686
G1 X154.068 Y161.15 E.02423
G1 X168.85 Y175.932 E.78113
G1 X168.85 Y176.581 E.02423
G1 X153.419 Y161.15 E.81539
G1 X152.771 Y161.15 E.02423
G1 X168.85 Y177.229 E.84966
G1 X168.85 Y177.877 E.02423
G1 X152.123 Y161.15 E.88393
G1 X151.474 Y161.15 E.02423
G1 X168.85 Y178.526 E.91819
G1 X168.85 Y178.85 E.01211
G1 X168.526 Y178.85 E.01212
G1 X151.15 Y161.474 E.91819
G1 X151.15 Y162.123 E.02423
G1 X167.877 Y178.85 E.88392
M73 P2 R16
G1 X167.229 Y178.85 E.02423
G1 X151.15 Y162.771 E.84966
G1 X151.15 Y163.42 E.02423
G1 X166.58 Y178.85 E.81539
G1 X165.932 Y178.85 E.02423
G1 X151.15 Y164.068 E.78112
G1 X151.15 Y164.717 E.02423
G1 X165.283 Y178.85 E.74685
G1 X164.635 Y178.85 E.02423
G1 X151.15 Y165.365 E.71259
G1 X151.15 Y166.013 E.02423
G1 X163.987 Y178.85 E.67832
G1 X163.338 Y178.85 E.02423
G1 X151.15 Y166.662 E.64405
G1 X151.15 Y167.31 E.02423
G1 X162.69 Y178.85 E.60979
G1 X162.041 Y178.85 E.02423
G1 X151.15 Y167.959 E.57552
G1 X151.15 Y168.607 E.02423
G1 X161.393 Y178.85 E.54125
G1 X160.744 Y178.85 E.02423
G1 X151.15 Y169.256 E.50699
G1 X151.15 Y169.904 E.02423
G1 X160.096 Y178.85 E.47272
G1 X159.447 Y178.85 E.02423
G1 X151.15 Y170.553 E.43845
G1 X151.15 Y171.201 E.02423
G1 X158.799 Y178.85 E.40418
G1 X158.15 Y178.85 E.02423
G1 X151.15 Y171.85 E.36992
G1 X151.15 Y172.498 E.02423
G1 X157.502 Y178.85 E.33565
G1 X156.853 Y178.85 E.02423
G1 X151.15 Y173.147 E.30138
G1 X151.15 Y173.795 E.02423
G1 X156.205 Y178.85 E.26712
G1 X155.556 Y178.85 E.02423
G1 X151.15 Y174.444 E.23285
G1 X151.15 Y175.092 E.02423
G1 X154.908 Y178.85 E.19858
G1 X154.259 Y178.85 E.02423
G1 X151.15 Y175.741 E.16431
G1 X151.15 Y176.389 E.02423
G1 X153.611 Y178.85 E.13005
G1 X152.962 Y178.85 E.02423
G1 X151.15 Y177.038 E.09578
G1 X151.15 Y177.686 E.02423
G1 X152.314 Y178.85 E.06151
G1 X151.665 Y178.85 E.02423
G1 X150.944 Y178.129 E.03812
; stop printing object xyzCalibration_cube.stl id:0 copy 0
EXCLUDE_OBJECT_END NAME=xyzCalibration_cube.stl_id_0_copy_0
M106 S255
;LAYER_CHANGE
;Z:0.4
;HEIGHT:0.2
M204 S6000
M140 S60 ; set bed temperature
; printing object xyzCalibration_cube.stl id:0 copy 0
EXCLUDE_OBJECT_START NAME=xyzCalibration_cube.stl_id_0_copy_0
M204 S5000
G1 E-.8 F3000
G1 Z.4 F9000
G1 X169.418 Y179.418
G1 E.8 F1800
;TYPE:Inner wall
;WIDTH:0.449999
G1 F8683
G1 X150.582 Y179.418 E.62482
G1 X150.582 Y160.582 E.62482
G1 X169.418 Y160.582 E.62482
G1 X169.418 Y170 E.31241
G1 X169.418 Y179.358 E.31042
M204 S6000
M204 S5000
G1 X169.8 Y179.8 F9000
M204 S500
;TYPE:Outer wall
;WIDTH:0.399999
G1 F7200
G1 X150.2 Y179.8 E.57031
G1 X150.2 Y160.2 E.57031
G1 X169.8 Y160.2 E.57031
G1 X169.8 Y170 E.28515
G1 X169.8 Y179.74 E.28341
G1 X169.731 Y179.76
M204 S6000
M204 S5000
G1 X169.298 Y178.568 F9000
M204 S6000
;TYPE:Internal solid infill
;WIDTH:0.403879
G1 F8683
G1 X168.729 Y179.138 E.02368
G1 X168.218 Y179.138 E.01501
G1 X169.138 Y178.218 E.03824
G1 X169.138 Y177.708 E.01501
G1 X167.708 Y179.138 E.05947
G1 X167.197 Y179.138 E.01501
G1 X169.138 Y177.197 E.0807
G1 X169.138 Y176.687 E.01501
G1 X166.687 Y179.138 E.10194
G1 X166.177 Y179.138 E.01501
G1 X169.138 Y176.177 E.12317
M73 P3 R16
G1 X169.138 Y175.666 E.01501
G1 X165.666 Y179.138 E.14441
G1 X165.156 Y179.138 E.01501
G1 X169.138 Y175.156 E.16564
G1 X169.138 Y174.645 E.01501
G1 X164.645 Y179.138 E.18687
G1 X164.135 Y179.138 E.01501
G1 X169.138 Y174.135 E.20811
G1 X169.138 Y173.624 E.01501
G1 X163.624 Y179.138 E.22934
G1 X163.114 Y179.138 E.01501
G1 X169.138 Y173.114 E.25058
G1 X169.138 Y172.603 E.01501
G1 X162.603 Y179.138 E.27181
G1 X162.093 Y179.138 E.01501
G1 X169.138 Y172.093 E.29305
G1 X169.138 Y171.582 E.01501
G1 X161.582 Y179.138 E.31428
G1 X161.072 Y179.138 E.01501
G1 X169.138 Y171.072 E.33551
G1 X169.138 Y170.561 E.01501
G1 X160.561 Y179.138 E.35675
G1 X160.051 Y179.138 E.01501
G1 X169.138 Y170.051 E.37798
G1 X169.138 Y169.54 E.01501
G1 X159.54 Y179.138 E.39922
G1 X159.03 Y179.138 E.01501
G1 X169.138 Y169.03 E.42045
G1 X169.138 Y168.519 E.01501
G1 X158.519 Y179.138 E.44168
G1 X158.009 Y179.138 E.01501
G1 X169.138 Y168.009 E.46292
G1 X169.138 Y167.499 E.01501
G1 X157.499 Y179.138 E.48415
G1 X156.988 Y179.138 E.01501
G1 X169.138 Y166.988 E.50539
G1 X169.138 Y166.478 E.01501
G1 X156.478 Y179.138 E.52662
G1 X155.967 Y179.138 E.01501
G1 X169.138 Y165.967 E.54786
G1 X169.138 Y165.457 E.01501
G1 X155.457 Y179.138 E.56909
G1 X154.946 Y179.138 E.01501
G1 X169.138 Y164.946 E.59032
G1 X169.138 Y164.436 E.01501
G1 X154.436 Y179.138 E.61156
G1 X153.925 Y179.138 E.01501
G1 X169.138 Y163.925 E.63279
G1 X169.138 Y163.415 E.01501
G1 X153.415 Y179.138 E.65403
G1 X152.904 Y179.138 E.01501
G1 X169.138 Y162.904 E.67526
G1 X169.138 Y162.394 E.01501
G1 X152.394 Y179.138 E.6965
G1 X151.883 Y179.138 E.01501
G1 X169.138 Y161.883 E.71773
G1 X169.138 Y161.373 E.01501
G1 X151.373 Y179.138 E.73896
G1 X150.862 Y179.138 E.01501
G1 X169.138 Y160.862 E.7602
G1 X168.627 Y160.862 E.01501
G1 X150.862 Y178.627 E.73896
G1 X150.862 Y178.117 E.01501
G1 X168.117 Y160.862 E.71773
G1 X167.606 Y160.862 E.01501
G1 X150.862 Y177.606 E.69649
G1 X150.862 Y177.096 E.01501
G1 X167.096 Y160.862 E.67526
G1 X166.585 Y160.862 E.01501
G1 X150.862 Y176.585 E.65402
G1 X150.862 Y176.075 E.01501
G1 X166.075 Y160.862 E.63279
G1 X165.564 Y160.862 E.01501
G1 X150.862 Y175.564 E.61156
G1 X150.862 Y175.054 E.01501
G1 X165.054 Y160.862 E.59032
G1 X164.543 Y160.862 E.01501
G1 X150.862 Y174.543 E.56909
G1 X150.862 Y174.033 E.01501
G1 X164.033 Y160.862 E.54785
G1 X163.522 Y160.862 E.01501
G1 X150.862 Y173.522 E.52662
G1 X150.862 Y173.012 E.01501
G1 X163.012 Y160.862 E.50538
G1 X162.501 Y160.862 E.01501
G1 X150.862 Y172.501 E.48415
G1 X150.862 Y171.991 E.01501
G1 X161.991 Y160.862 E.46292
G1 X161.48 Y160.862 E.01501
G1 X150.862 Y171.48 E.44168
G1 X150.862 Y170.97 E.01501
G1 X160.97 Y160.862 E.42045
G1 X160.46 Y160.862 E.01501
G1 X150.862 Y170.46 E.39921
G1 X150.862 Y169.949 E.01501
G1 X159.949 Y160.862 E.37798
G1 X159.439 Y160.862 E.01501
G1 X150.862 Y169.439 E.35675
G1 X150.862 Y168.928 E.01501
G1 X158.928 Y160.862 E.33551
G1 X158.418 Y160.862 E.01501
G1 X150.862 Y168.418 E.31428
G1 X150.862 Y167.907 E.01501
G1 X157.907 Y160.862 E.29304
G1 X157.397 Y160.862 E.01501
G1 X150.862 Y167.397 E.27181
G1 X150.862 Y166.886 E.01501
G1 X156.886 Y160.862 E.25057
G1 X156.376 Y160.862 E.01501
G1 X150.862 Y166.376 E.22934
G1 X150.862 Y165.865 E.01501
G1 X155.865 Y160.862 E.20811
G1 X155.355 Y160.862 E.01501
G1 X150.862 Y165.355 E.18687
G1 X150.862 Y164.844 E.01501
G1 X154.844 Y160.862 E.16564
G1 X154.334 Y160.862 E.01501
G1 X150.862 Y164.334 E.1444
G1 X150.862 Y163.823 E.01501
G1 X153.823 Y160.862 E.12317
G1 X153.313 Y160.862 E.01501
G1 X150.862 Y163.313 E.10193
G1 X150.862 Y162.802 E.01501
G1 X152.802 Y160.862 E.0807
G1 X152.292 Y160.862 E.01501
G1 X150.862 Y162.292 E.05947
G1 X150.862 Y161.781 E.01501
G1 X151.781 Y160.862 E.03823
G1 X151.271 Y160.862 E.01501
G1 X150.702 Y161.432 E.02368
; stop printing object xyzCalibration_cube.stl id:0 copy 0
EXCLUDE_OBJECT_END NAME=xyzCalibration_cube.stl_id_0_copy_0
;LAYER_CHANGE
;Z:0.6
;HEIGHT:0.2
; printing object xyzCalibration_cube.stl id:0 copy 0
EXCLUDE_OBJECT_START NAME=xyzCalibration_cube.stl_id_0_copy_0
M204 S5000
G1 E-.8 F3000
G1 Z.6 F9000
G1 X169.418 Y179.418
G1 E.8 F1800
;TYPE:Inner wall
;WIDTH:0.449999
G1 F8843.492
G1 X150.582 Y179.418 E.62482
G1 X150.582 Y160.582 E.62482
G1 X169.418 Y160.582 E.62482
G1 X169.418 Y170 E.31241
G1 X169.418 Y179.358 E.31042
M204 S6000
M204 S5000
G1 X169.8 Y179.8 F9000
M204 S500
;TYPE:Outer wall
;WIDTH:0.399999
G1 F7200
G1 X150.2 Y179.8 E.57031
G1 X150.2 Y160.2 E.57031
M73 P4 R16
G1 X169.8 Y160.2 E.57031
G1 X169.8 Y170 E.28515
G1 X169.8 Y179.74 E.28341
G1 X169.731 Y179.76
M204 S6000
M204 S5000
G1 E-.8 F3000
G1 Z.8 F9000
G1 X168.568 Y160.702
G1 Z.6
G1 E.8 F1800
M204 S6000
;TYPE:Internal solid infill
;WIDTH:0.403879
G1 F8963
G1 X169.138 Y161.271 E.02368
G1 X169.138 Y161.782 E.01501
G1 X168.218 Y160.862 E.03824
G1 X167.708 Y160.862 E.01501
G1 X169.138 Y162.292 E.05947
G1 X169.138 Y162.803 E.01501
G1 X167.197 Y160.862 E.0807
G1 X166.687 Y160.862 E.01501
G1 X169.138 Y163.313 E.10194
G1 X169.138 Y163.823 E.01501
G1 X166.177 Y160.862 E.12317
G1 X165.666 Y160.862 E.01501
G1 X169.138 Y164.334 E.14441
G1 X169.138 Y164.844 E.01501
G1 X165.156 Y160.862 E.16564
G1 X164.645 Y160.862 E.01501
G1 X169.138 Y165.355 E.18687
G1 X169.138 Y165.865 E.01501
G1 X164.135 Y160.862 E.20811
G1 X163.624 Y160.862 E.01501
G1 X169.138 Y166.376 E.22934
G1 X169.138 Y166.886 E.01501
G1 X163.114 Y160.862 E.25058
G1 X162.603 Y160.862 E.01501
G1 X169.138 Y167.397 E.27181
G1 X169.138 Y167.907 E.01501
G1 X162.093 Y160.862 E.29305
G1 X161.582 Y160.862 E.01501
G1 X169.138 Y168.418 E.31428
G1 X169.138 Y168.928 E.01501
G1 X161.072 Y160.862 E.33551
G1 X160.561 Y160.862 E.01501
G1 X169.138 Y169.439 E.35675
G1 X169.138 Y169.949 E.01501
G1 X160.051 Y160.862 E.37798
G1 X159.54 Y160.862 E.01501
G1 X169.138 Y170.46 E.39922
G1 X169.138 Y170.97 E.01501
G1 X159.03 Y160.862 E.42045
G1 X158.519 Y160.862 E.01501
G1 X169.138 Y171.481 E.44168
G1 X169.138 Y171.991 E.01501
G1 X158.009 Y160.862 E.46292
G1 X157.499 Y160.862 E.01501
G1 X169.138 Y172.501 E.48415
G1 X169.138 Y173.012 E.01501
G1 X156.988 Y160.862 E.50539
G1 X156.478 Y160.862 E.01501
G1 X169.138 Y173.522 E.52662
G1 X169.138 Y174.033 E.01501
G1 X155.967 Y160.862 E.54786
G1 X155.457 Y160.862 E.01501
G1 X169.138 Y174.543 E.56909
G1 X169.138 Y175.054 E.01501
G1 X154.946 Y160.862 E.59032
G1 X154.436 Y160.862 E.01501
G1 X169.138 Y175.564 E.61156
G1 X169.138 Y176.075 E.01501
G1 X153.925 Y160.862 E.63279
G1 X153.415 Y160.862 E.01501
G1 X169.138 Y176.585 E.65403
G1 X169.138 Y177.096 E.01501
G1 X152.904 Y160.862 E.67526
G1 X152.394 Y160.862 E.01501
G1 X169.138 Y177.606 E.6965
G1 X169.138 Y178.117 E.01501
G1 X151.883 Y160.862 E.71773
G1 X151.373 Y160.862 E.01501
G1 X169.138 Y178.627 E.73896
G1 X169.138 Y179.138 E.01501
G1 X150.862 Y160.862 E.7602
G1 X150.862 Y161.373 E.01501
G1 X168.627 Y179.138 E.73896
G1 X168.117 Y179.138 E.01501
G1 X150.862 Y161.883 E.71773
G1 X150.862 Y162.394 E.01501
G1 X167.606 Y179.138 E.69649
G1 X167.096 Y179.138 E.01501
G1 X150.862 Y162.904 E.67526
G1 X150.862 Y163.415 E.01501
G1 X166.585 Y179.138 E.65402
G1 X166.075 Y179.138 E.01501
G1 X150.862 Y163.925 E.63279
G1 X150.862 Y164.436 E.01501
G1 X165.564 Y179.138 E.61156
G1 X165.054 Y179.138 E.01501
G1 X150.862 Y164.946 E.59032
G1 X150.862 Y165.457 E.01501
G1 X164.543 Y179.138 E.56909
G1 X164.033 Y179.138 E.01501
G1 X150.862 Y165.967 E.54785
G1 X150.862 Y166.478 E.01501
G1 X163.522 Y179.138 E.52662
G1 X163.012 Y179.138 E.01501
G1 X150.862 Y166.988 E.50538
G1 X150.862 Y167.499 E.01501
G1 X162.501 Y179.138 E.48415
G1 X161.991 Y179.138 E.01501
G1 X150.862 Y168.009 E.46292
G1 X150.862 Y168.52 E.01501
G1 X161.48 Y179.138 E.44168
G1 X160.97 Y179.138 E.01501
G1 X150.862 Y169.03 E.42045
G1 X150.862 Y169.54 E.01501
G1 X160.46 Y179.138 E.39921
G1 X159.949 Y179.138 E.01501
G1 X150.862 Y170.051 E.37798
G1 X150.862 Y170.561 E.01501
G1 X159.439 Y179.138 E.35675
G1 X158.928 Y179.138 E.01501
G1 X150.862 Y171.072 E.33551
G1 X150.862 Y171.582 E.01501
G1 X158.418 Y179.138 E.31428
G1 X157.907 Y179.138 E.01501
G1 X150.862 Y172.093 E.29304
G1 X150.862 Y172.603 E.01501
G1 X157.397 Y179.138 E.27181
G1 X156.886 Y179.138 E.01501
G1 X150.862 Y173.114 E.25057
G1 X150.862 Y173.624 E.01501
G1 X156.376 Y179.138 E.22934
G1 X155.865 Y179.138 E.01501
G1 X150.862 Y174.135 E.20811
G1 X150.862 Y174.645 E.01501
G1 X155.355 Y179.138 E.18687
G1 X154.844 Y179.138 E.01501
G1 X150.862 Y175.156 E.16564
G1 X150.862 Y175.666 E.01501
G1 X154.334 Y179.138 E.1444
G1 X153.823 Y179.138 E.01501
G1 X150.862 Y176.177 E.12317
G1 X150.862 Y176.687 E.01501
G1 X153.313 Y179.138 E.10193
G1 X152.802 Y179.138 E.01501
G1 X150.862 Y177.198 E.0807
G1 X150.862 Y177.708 E.01501
G1 X152.292 Y179.138 E.05947
G1 X151.781 Y179.138 E.01501
G1 X150.862 Y178.219 E.03823
G1 X150.862 Y178.729 E.01501
G1 X151.432 Y179.298 E.02368
; stop printing object xyzCalibration_cube.stl id:0 copy 0
EXCLUDE_OBJECT_END NAME=xyzCalibration_cube.stl_id_0_copy_0
;LAYER_CHANGE
;Z:0.8
;HEIGHT:0.2
; printing object xyzCalibration_cube.stl id:0 copy 0
EXCLUDE_OBJECT_START NAME=xyzCalibration_cube.stl_id_0_copy_0
M204 S5000
G1 E-.8 F3000
G1 Z.8 F9000
M73 P5 R16
G1 X169.418 Y179.418
G1 E.8 F1800
;TYPE:Inner wall
;WIDTH:0.449999
G1 F2474
G1 X150.582 Y179.418 E.62482
