; HEADER_BLOCK_START
; generated by OrcaSlicer 1.6.4-beta2 on 2023-08-08 at 09:45:37
; total layer number: 25
; HEADER_BLOCK_END

; THUMBNAIL_BLOCK_START
; THUMBNAIL_BLOCK_END

; external perimeters extrusion width = 0.40mm
; perimeters extrusion width = 0.42mm
; infill extrusion width = 0.64mm
; solid infill extrusion width = 0.56mm
; top infill extrusion width = 0.42mm
; first layer extrusion width = 0.50mm

; external perimeters extrusion width = 0.40mm
; perimeters extrusion width = 0.42mm
; infill extrusion width = 0.64mm
; solid infill extrusion width = 0.56mm
; top infill extrusion width = 0.42mm
; first layer extrusion width = 0.50mm

; EXECUTABLE_BLOCK_START
EXCLUDE_OBJECT_DEFINE NAME=Z_chain_Mount-Edited.stl_id_0_copy_0 CENTER=201.715,165 POLYGON=[[190.315,183.1],[195.022,130.9],[210.047,130.901],[213.115,180.892],[213.115,198.86],[210.115,199.1],[194.315,199.1],[194.108,198.893],[190.315,195.1],[190.315,183.1]]
EXCLUDE_OBJECT_DEFINE NAME=Z_chain_Mount-Editeed.stl_id_1_copy_0 CENTER=151.799,160.501 POLYGON=[[116.885,166.5],[116.885,166.352],[116.885,166.207],[116.885,154.793],[116.885,154.5],[116.99,154.396],[117.092,154.293],[120.678,150.707],[120.781,150.605],[120.885,150.5],[121.033,150.5],[121.178,150.5],[186.714,150.502],[186.714,150.504],[186.714,151.504],[186.713,165.504],[186.713,166.504],[136.685,170.502],[121.178,170.502],[121.033,170.502],[120.885,170.502],[120.78,170.397],[120.678,170.295],[117.092,166.709],[116.99,166.606],[116.885,166.502],[116.885,166.5]]
M73 P0 R22
;TYPE:Custom
START_PRINT T_BED=110 T_EXTRUDER=260
G90
G21
M83 ; use relative distances for extrusion
; Filament gcode
M106 S0
;LAYER_CHANGE
;Z:0.2
;HEIGHT:0.2
;BEFORE_LAYER_CHANGE
;0.2
G92 E0

SET_VELOCITY_LIMIT ACCEL=1000 ACCEL_TO_DECEL=500
G1 E-.5 F3000
G1 X118.995 Y149.554 F12000
M73 P0 R21
G1 Z.2
G1 E.5 F1800
;TYPE:Skirt
;WIDTH:0.5
G1 F3000
G1 X119.904 Y148.895 E.0397
G1 X120.633 Y148.615 E.02759
G1 X194.24 Y128.093 E2.70093
G1 X195.022 Y127.986 E.02793
G1 X209.747 Y127.987 E.52044
G1 X210.047 Y127.987 E.01062
G1 X211.509 Y128.38 E.0535
G1 X212.576 Y129.454 E.0535
G1 X212.956 Y130.737 E.04729
G1 X216.029 Y185.1 E1.92457
G1 X216.029 Y197.956 E.45443
G1 X215.636 Y199.418 E.0535
G1 X214.563 Y200.485 E.0535
G1 X213.346 Y200.861 E.04501
G1 X210.051 Y201.114 E.11682
G1 X194.981 Y201.114 E.53267
G1 X193.871 Y200.938 E.03972
G1 X120.222 Y172.263 E2.79355
G1 X119.777 Y172.048 E.01744
G1 X118.989 Y171.452 E.03492
G1 X115.932 Y168.393 E.15286
G1 X115.272 Y167.483 E.03973
G1 X115.009 Y166.81 E.02556
G1 X114.873 Y165.832 E.03491
G1 X114.878 Y155.167 E.37696
G1 X115.015 Y154.189 E.03491
G1 X115.345 Y153.395 E.03037
G1 X115.94 Y152.607 E.0349
G1 X118.967 Y149.583 E.15124
G1 X119.296 Y149.914 F12000
G1 F3000
G1 X119.49 Y149.721 E.00966
G1 X119.999 Y149.362 E.02203
G1 X120.577 Y149.108 E.0223
G1 X194.362 Y128.533 E2.70751
G1 X195.022 Y128.443 E.02355
G1 X209.747 Y128.444 E.52044
G1 X210.047 Y128.444 E.01062
G1 X211.378 Y128.836 E.04905
G1 X212.285 Y129.887 E.04905
G1 X212.5 Y130.762 E.03187
G1 X215.572 Y185.1 E1.92366
G1 X215.572 Y197.956 E.45443
G1 X215.18 Y199.287 E.04905
G1 X214.13 Y200.194 E.04905
G1 X213.31 Y200.406 E.02992
G1 X210.051 Y200.657 E.11554
G1 X194.981 Y200.657 E.53267
G1 X194.003 Y200.5 E.03502
G1 X120.388 Y171.837 E2.79227
G1 X119.994 Y171.646 E.01547
G1 X119.312 Y171.129 E.03022
G1 X116.256 Y168.07 E.15286
G1 X115.74 Y167.388 E.03022
G1 X115.486 Y166.81 E.02231
G1 X115.33 Y165.832 E.03501
G1 X115.335 Y155.167 E.37696
G1 X115.453 Y154.32 E.03021
G1 X115.747 Y153.612 E.02712
G1 X116.263 Y152.93 E.03021
G1 X119.268 Y149.942 E.14979
; printing object Z chain Mount-Edited.stl id:0 copy 0
EXCLUDE_OBJECT_START NAME=Z_chain_Mount-Edited.stl_id_0_copy_0
M73 P1 R21
G1 E-.5
G1 X209.613 Y185.45 F12000
G1 E.5 F1800
;TYPE:Outer wall
G1 F3000
G1 X212.765 Y185.45 E.11142
G1 X212.765 Y197.633 E.43064
G1 X210.037 Y197.85 E.09673
G1 X194.997 Y197.85 E.53159
G3 X194.716 Y197.734 I.024 J-.454 E.01095
G1 X191.681 Y194.699 E.15172
G3 X191.565 Y194.418 I.346 J-.308 E.01095
G1 X191.565 Y183.782 E.37592
G3 X191.681 Y183.501 I.454 J.024 E.01095
G1 X194.716 Y180.466 E.15172
G3 X194.909 Y180.358 I.285 J.283 E.00789
G1 X195.372 Y180.314 E.01645
G1 X195.372 Y131.25 E1.73422
G1 X195.513 Y131.25 E.00498
G1 X209.697 Y131.251 E.50135
G1 X209.697 Y176.301 E1.59232
G1 X209.657 Y176.301 E.00143
G1 X209.657 Y184.65 E.29511
G1 X209.616 Y184.65 E.00142
G1 X209.613 Y185.41 E.02684
G1 E-.5
G1 X209.277 Y185.408 F12000
G1 X204.164 Y135.03
G1 X204.113 Y134.568
G1 X203.995 Y134.117
G1 X203.813 Y133.689
G1 X203.571 Y133.292
G1 X202.97 Y132.507
G1 E.5 F1800
;TYPE:Inner wall
G1 F3000
G1 X202.598 Y132.261 E.01577
G2 X201.782 Y131.942 I-1.491 J2.612 E.03107
G1 X201.817 Y131.708 E.00837
G1 X209.24 Y131.708 E.26239
G1 X209.24 Y175.844 E1.56001
G1 X209.199 Y175.844 E.00143
G1 X209.199 Y184.193 E.29511
G1 X209.162 Y184.193 E.00134
G1 X209.153 Y185.907 E.06057
G1 X212.308 Y185.907 E.1115
G1 X212.308 Y197.211 E.39956
G1 X210.019 Y197.393 E.08117
G1 X195.022 Y197.393 E.53007
G1 X192.022 Y194.393 E.14996
G1 X192.022 Y189.72 E.16517
G1 X192.255 Y189.685 E.00834
G2 X192.899 Y191.021 I3.385 J-.806 E.05284
G2 X192.299 Y188.355 I2.315 J-1.921 E.56791
G1 X192.273 Y188.507 E.00542
G1 X192.022 Y188.485 E.0089
G1 X192.022 Y183.807 E.16534
G1 X195.022 Y180.807 E.14998
G1 X195.829 Y180.73 E.02864
G1 X195.829 Y131.707 E1.73276
G1 X200.142 Y131.708 E.15242
G1 X200.176 Y131.941 E.00836
G2 X203.003 Y132.529 I.809 J3.204 E.62829
G1 X203.316 Y132.198 F12000
G1 F3000
G1 X203.279 Y132.165 E.00177
G1 X208.783 Y132.165 E.19454
G1 X208.783 Y175.387 E1.5277
G1 X208.742 Y175.387 E.00143
G1 X208.742 Y183.736 E.29511
G1 X208.707 Y183.736 E.00126
G1 X208.694 Y186.364 E.09288
G1 X211.851 Y186.364 E.11158
G1 X211.851 Y196.789 E.36848
G1 X210.001 Y196.936 E.06561
G1 X195.211 Y196.936 E.52274
G1 X192.479 Y194.204 E.13658
G1 X192.479 Y191.246 E.10455
G1 X192.925 Y191.704 E.02261
G2 X193.001 Y186.431 I2.283 J-2.604 E.55732
G1 X192.479 Y186.938 E.02571
G1 X192.479 Y183.996 E.10396
G1 X195.229 Y181.246 E.13747
G1 X196.286 Y181.146 E.03753
G1 X196.286 Y132.164 E1.7313
M73 P2 R21
G1 X198.676 Y132.164 E.08446
G2 X203.688 Y132.532 I2.301 J2.978 E.64135
G1 X203.346 Y132.225 E.01623
G1 E-.5
G1 X208.398 Y186.821 F12000
G1 E.5 F1800
G1 F3000
G1 X211.394 Y186.821 E.1059
G1 X211.394 Y196.367 E.3374
G1 X209.982 Y196.479 E.05004
G1 X195.401 Y196.479 E.5154
G1 X192.936 Y194.014 E.12319
G1 X192.936 Y192.324 E.05976
G1 X193.66 Y192.706 E.02894
G1 X194.243 Y192.904 E.02178
G1 X194.841 Y193.008 E.02144
G1 X195.464 Y193.019 E.02202
G1 X196.077 Y192.931 E.02187
G1 X196.665 Y192.749 E.02178
G1 X197.218 Y192.477 E.02178
G1 X197.722 Y192.122 E.02178
G1 X198.164 Y191.693 E.02178
G1 X198.533 Y191.2 E.02178
G1 X198.821 Y190.655 E.02178
G1 X199.019 Y190.072 E.02178
G1 X199.123 Y189.474 E.02144
G1 X199.134 Y188.851 E.02202
G1 X199.046 Y188.239 E.02187
G1 X198.864 Y187.65 E.02178
G1 X198.592 Y187.097 E.02178
G1 X198.243 Y186.601 E.02144
G1 X197.81 Y186.153 E.02202
G1 X197.315 Y185.782 E.02187
G1 X196.77 Y185.494 E.02178
G1 X196.187 Y185.296 E.02178
G1 X195.58 Y185.19 E.02178
G1 X194.963 Y185.182 E.02178
G1 X194.363 Y185.268 E.02144
G1 X193.767 Y185.45 E.02202
G1 X193.212 Y185.723 E.02187
G1 X192.936 Y185.917 E.01192
G1 X192.936 Y184.186 E.06119
G1 X195.436 Y181.686 E.12497
G1 X196.743 Y181.562 E.04641
G1 X196.743 Y147.697 E1.19698
G1 X196.973 Y147.659 E.00822
G1 X197.089 Y147.999 E.01272
G2 X197.22 Y144.414 I3.883 J-1.653 E.80634
G1 X196.963 Y145.019 E.02323
G1 X196.743 Y144.975 E.00792
G1 X196.743 Y136.497 E.29965
G1 X196.973 Y136.459 E.00822
G1 X197.09 Y136.802 E.0128
G2 X204.736 Y133.214 I3.886 J-1.66 E.47964
G1 X204.375 Y132.622 E.02453
G1 X208.326 Y132.622 E.13965
G1 X208.326 Y174.93 E1.49538
G1 X208.285 Y174.93 E.00143
G1 X208.285 Y183.279 E.29511
G1 X208.252 Y183.279 E.00119
G1 X208.236 Y186.594 E.11718
G1 X207.81 Y186.153 E.02167
G1 X207.315 Y185.782 E.02187
G1 X206.77 Y185.494 E.02178
G1 X206.187 Y185.296 E.02178
G1 X205.58 Y185.19 E.02178
G1 X204.963 Y185.182 E.02178
G1 X204.363 Y185.268 E.02144
G1 X203.767 Y185.45 E.02202
G1 X203.212 Y185.723 E.02187
G1 X202.708 Y186.078 E.02178
G1 X202.266 Y186.507 E.02178
G1 X201.897 Y187 E.02178
G1 X201.609 Y187.545 E.02178
G1 X201.411 Y188.128 E.02178
G1 X201.307 Y188.726 E.02144
G1 X201.296 Y189.349 E.02202
G1 X201.384 Y189.962 E.02187
G1 X201.566 Y190.55 E.02178
G1 X201.838 Y191.103 E.02178
G1 X202.193 Y191.607 E.02178
G1 X202.622 Y192.049 E.02178
G1 X203.115 Y192.418 E.02178
G1 X203.66 Y192.706 E.02178
G1 X204.243 Y192.904 E.02178
G1 X204.841 Y193.008 E.02144
G1 X205.464 Y193.019 E.02202
G1 X206.077 Y192.931 E.02187
G1 X206.665 Y192.749 E.02178
G1 X207.218 Y192.477 E.02178
G1 X207.722 Y192.122 E.02178
G1 X208.164 Y191.693 E.02178
G1 X208.533 Y191.2 E.02178
G1 X208.821 Y190.655 E.02178
G1 X209.019 Y190.072 E.02178
G1 X209.123 Y189.474 E.02144
G1 X209.134 Y188.851 E.02202
G1 X209.046 Y188.239 E.02187
G1 X208.864 Y187.65 E.02178
G1 X208.592 Y187.097 E.02178
G1 X208.421 Y186.853 E.01053
G1 E-.5
G1 X197.894 Y147.153 F12000
G1 X197.81 Y146.695
G1 X197.793 Y146.23
G1 X197.582 Y132.621
G1 E.5 F1800
G1 F3000
G1 X197.22 Y133.214 E.02455
G1 X196.963 Y133.819 E.02323
G1 X196.743 Y133.775 E.00792
G1 X196.743 Y132.621 E.04076
G1 X197.542 Y132.621 E.02822
G1 E-.5
G1 X197.811 Y135.503 F12000
G1 X197.894 Y135.953
G1 X198.045 Y136.394
G1 X198.262 Y136.814
G1 X203.549 Y144.466
G1 X203.291 Y144.68
G1 E.5 F1800
;TYPE:Outer wall
G1 F3000
G1 X203.296 Y144.688 E.00034
G3 X200.77 Y143.503 I-2.318 J1.657 E.52968
G1 X201.186 Y143.503 E.01471
G3 X203.03 Y144.368 I-.208 J2.842 E.07362
G1 X203.265 Y144.65 E.01296
G1 X203.651 Y144.399 F12000
;TYPE:Inner wall
G1 F3000
G1 X203.669 Y144.422 E.00102
G3 X200.737 Y143.046 I-2.691 J1.923 E.61486
G1 X201.22 Y143.046 E.01708
G3 X203.36 Y144.05 I-.242 J3.298 E.08545
G1 X203.625 Y144.368 E.01464
G1 X204.073 Y144.205 F12000
G1 F3000
G1 X204.328 Y144.625 E.01735
G3 X200.703 Y142.589 I-3.35 J1.72 E.68059
G1 X201.253 Y142.589 E.01944
G3 X204.042 Y144.155 I-.275 J3.755 E.11674
G1 X204.052 Y144.171 E.00067
G1 E-.5
G1 X203.923 Y186.901 F12000
G1 E.5 F1800
;TYPE:Outer wall
G1 F3000
G1 X204.274 Y186.73 E.0138
G3 X204.663 Y186.61 I.944 J2.365 E.0144
G1 X205.052 Y186.554 E.01389
G3 X203.889 Y186.923 I.167 J2.542 E.52213
G1 X203.655 Y186.529 F12000
;TYPE:Inner wall
G1 F3000
G1 X203.681 Y186.513 E.00109
G3 X204.563 Y186.163 I1.538 J2.582 E.03369
G1 X205.022 Y186.097 E.0164
G3 X203.296 Y186.786 I.196 J2.998 E.60051
G1 X203.622 Y186.553 E.01418
G1 X203.394 Y186.153 F12000
G1 F3000
G1 X203.447 Y186.119 E.00222
G3 X204.463 Y185.715 I1.77 J2.978 E.03881
G3 X205.537 Y185.647 I.753 J3.356 E.0382
G3 X203.002 Y186.432 I-.32 J3.45 E.67321
G1 X203.362 Y186.177 E.0156
G1 E-.5
G1 X204.164 Y146.23 F12000
G1 X204.164 Y135.03
G1 X204.113 Y134.568
G1 X203.995 Y134.117
G1 X203.813 Y133.689
G1 X203.571 Y133.292
G1 X203.189 Y133.014
G1 X202.773 Y132.81
G1 X202.732 Y132.795
G1 X202.702 Y132.878
G1 E.5 F1800
;TYPE:Outer wall
G1 F3000
G1 X202.714 Y132.886 E.00051
G3 X200.77 Y132.303 I-1.736 J2.258 E.5592
G1 X201.186 Y132.303 E.01471
G3 X202.373 Y132.661 I-.208 J2.841 E.04417
G1 X202.669 Y132.856 E.01251
G1 E-.5
G1 X202.696 Y132.781 F12000
G1 X202.773 Y132.81
G1 X203.189 Y133.014
G1 X203.571 Y133.292
G1 X203.813 Y133.689
G1 X203.995 Y134.117
G1 X204.113 Y134.568
G1 X204.164 Y135.03
G1 X204.147 Y135.495
G1 X204.064 Y135.945
G1 X203.912 Y136.392
G1 X200.745 Y143.168
G1 X200.285 Y143.235
G1 X199.839 Y143.369
G1 X199.418 Y143.567
G1 X199.029 Y143.824
G1 X198.678 Y144.141
G1 X198.386 Y144.492
G1 X198.143 Y144.889
G1 X197.961 Y145.317
G1 X197.844 Y145.768
G1 X197.793 Y146.23
G1 X195.708 Y180.62
G1 X193.03 Y187.717
G1 X192.915 Y188.108
G1 X192.842 Y188.494
G1 X192.806 Y188.868
G1 X192.803 Y189.255
G1 X192.84 Y190.03
G1 E.5 F1800
G1 F3000
G1 X192.734 Y189.658 E.01367
G3 X194.663 Y186.61 I2.484 J-.562 E.14166
G1 X195.052 Y186.554 E.01389
G3 X192.862 Y190.062 I.167 J2.542 E.3951
G1 X192.251 Y190.569 F12000
;TYPE:Gap infill
;WIDTH:0.124404
G1 F3000
G1 X192.393 Y190.77 E.00155
;WIDTH:0.103699
M73 P3 R21
G1 X192.497 Y190.896 E.00077
G1 X192.708 Y191.819 F12000
;WIDTH:0.110435
G1 F3000
G1 X192.753 Y191.917 E.00057
G1 X192.94 Y192.036 E.00116
G1 E-.5
G1 X192.251 Y187.605 F12000
G1 E.5 F1800
;WIDTH:0.155607
G1 F3000
G1 X192.346 Y187.477 E.00139
;WIDTH:0.124403
G1 X192.442 Y187.349 E.00101
;WIDTH:0.103699
G1 X192.55 Y187.226 E.00077
G1 E-.5
G1 X195.708 Y180.62 F12000
G1 X197.311 Y148.905
G1 E.5 F1800
;WIDTH:0.103803
G1 F3000
G1 X197.134 Y148.692 E.00131
;WIDTH:0.13885
G1 X196.972 Y148.465 E.00207
G1 X196.819 Y147.453 F12000
;WIDTH:0.56925
G1 F3000
G1 X196.791 Y147.141 E.01275
;WIDTH:0.537614
G1 X196.762 Y146.829 E.01199
;WIDTH:0.523475
G3 X196.766 Y145.883 I12.257 J-.421 E.03514
;WIDTH:0.577606
G1 X196.782 Y145.592 E.01208
;WIDTH:0.596571
G3 X196.828 Y145.225 I5.054 J.444 E.01582
G1 X196.994 Y144.304 F12000
;WIDTH:0.109873
G1 F3000
G1 X197.015 Y144.23 E.0004
G1 X197.133 Y144.064 E.00106
G1 E-.5
G1 X197.31 Y137.703 F12000
G1 E.5 F1800
;WIDTH:0.103778
G1 F3000
G1 X197.139 Y137.498 E.00126
;WIDTH:0.138105
G1 X196.972 Y137.265 E.00211
G1 X196.819 Y136.253 F12000
;WIDTH:0.570114
G1 F3000
G1 X196.791 Y135.945 E.01258
;WIDTH:0.539343
G1 X196.763 Y135.638 E.01185
;WIDTH:0.523291
G3 X196.766 Y134.684 I12.257 J-.437 E.03544
;WIDTH:0.577606
G1 X196.782 Y134.392 E.01213
;WIDTH:0.596571
G3 X196.828 Y134.025 I5.05 J.443 E.01582
G1 X197.949 Y132.512 F12000
;WIDTH:0.113423
G1 F3000
G1 X198.034 Y132.393 E.0008
G1 X199.117 Y132.113 F12000
;WIDTH:0.130774
G1 F3000
G1 X199.366 Y131.936 E.00208
G1 E-.5
G1 X202.587 Y131.936 F12000
G1 E.5 F1800
;WIDTH:0.111151
G1 F3000
G1 X202.825 Y132.104 E.00153
G1 X203.923 Y132.393 F12000
;WIDTH:0.102921
G1 F3000
G1 X204.007 Y132.511 E.00067
G1 E-.5
G1 X207.263 Y132.759 F12000
G1 E.5 F1800
;TYPE:Bottom surface
;WIDTH:0.500689
G1 F6300
G1 X207.983 Y133.479 E.03604
G1 X207.983 Y134.127 E.02292
G1 X206.821 Y132.965 E.05815
G1 X206.174 Y132.965 E.02292
G1 X207.983 Y134.774 E.09056
G1 X207.983 Y135.421 E.02292
G1 X205.527 Y132.965 E.12297
G1 X204.986 Y132.965 E.01915
G3 X205.094 Y133.18 I-.676 J.476 E.00856
G1 X207.983 Y136.069 E.14462
G1 X207.983 Y136.716 E.02292
G1 X205.432 Y134.165 E.1277
G1 X205.472 Y134.317 E.00554
G1 X205.538 Y134.918 E.02143
G1 X207.983 Y137.364 E.12241
G1 X207.983 Y138.011 E.02292
G1 X205.524 Y135.552 E.12311
G1 X205.435 Y136.11 E.02001
G1 X207.983 Y138.658 E.12757
G1 X207.983 Y139.306 E.02292
G1 X205.292 Y136.615 E.13471
G3 X205.109 Y137.079 I-1.639 J-.378 E.01773
G1 X207.983 Y139.953 E.14387
G1 X207.983 Y140.6 E.02292
G1 X204.889 Y137.507 E.15488
G1 X204.622 Y137.886 E.01645
G1 X207.983 Y141.248 E.16828
G1 X207.983 Y141.895 E.02292
G1 X204.327 Y138.239 E.18302
G1 X204.006 Y138.565 E.01621
G1 X207.983 Y142.543 E.19912
G1 X207.983 Y143.19 E.02292
G1 X203.641 Y138.848 E.21736
G3 X203.246 Y139.1 I-1.037 J-1.191 E.01666
G1 X207.983 Y143.837 E.23716
G1 X207.983 Y144.485 E.02292
G1 X202.82 Y139.322 E.25848
G1 X202.352 Y139.501 E.01775
G1 X207.983 Y145.132 E.28192
G1 X207.983 Y145.779 E.02292
G1 X201.83 Y139.626 E.30805
G3 X201.252 Y139.696 I-.531 J-1.967 E.02067
G1 X207.983 Y146.427 E.33697
G1 X207.983 Y147.074 E.02292
G1 X200.597 Y139.688 E.36975
G3 X199.819 Y139.557 I.055 J-2.71 E.02803
G1 X202.224 Y141.962 E.12039
G1 X201.972 Y141.886 E.00931
G1 X201.419 Y141.805 E.01977
G1 X198.717 Y139.103 E.13525
G1 X198.459 Y138.959 E.01047
G1 X197.929 Y138.55 E.02372
G1 X197.443 Y138.038 E.02496
G1 X197.226 Y138.22 E.01003
G1 X197.086 Y138.052 E.00773
G1 X197.086 Y138.12 E.0024
G1 X200.756 Y141.789 E.18371
G1 X200.645 Y141.789 E.00394
G1 X200.177 Y141.858 E.01672
G1 X197.086 Y138.767 E.15475
G1 X197.086 Y139.414 E.02292
G1 X199.657 Y141.985 E.12869
G2 X199.181 Y142.156 I.343 J1.704 E.01798
G1 X197.086 Y140.062 E.10485
G1 X197.086 Y140.709 E.02292
G1 X198.74 Y142.363 E.08279
G1 X198.35 Y142.621 E.01654
G1 X197.086 Y141.357 E.06329
G1 X197.086 Y142.004 E.02292
G1 X197.989 Y142.906 E.04518
G1 X197.653 Y143.218 E.01622
G1 X197.086 Y142.651 E.02837
G1 X197.086 Y143.299 E.02292
