; HEADER_BLOCK_START
; generated by OrcaSlicer 1.6.4-beta2 on 2023-08-08 at 09:29:34
; total layer number: 200
; HEADER_BLOCK_END

; THUMBNAIL_BLOCK_START
; THUMBNAIL_BLOCK_END

; external perimeters extrusion width = 0.40mm
; perimeters extrusion width = 0.42mm
; infill extrusion width = 0.64mm
; solid infill extrusion width = 0.56mm
; top infill extrusion width = 0.42mm
; first layer extrusion width = 0.50mm

; external perimeters extrusion width = 0.40mm
; perimeters extrusion width = 0.42mm
; infill extrusion width = 0.64mm
; solid infill extrusion width = 0.56mm
; top infill extrusion width = 0.42mm
; first layer extrusion width = 0.50mm

; EXECUTABLE_BLOCK_START
EXCLUDE_OBJECT_DEFINE NAME=Z_motor_upper_bracket.stl_id_0_copy_0 CENTER=199.674,165 POLYGON=[[173.524,130.427],[173.532,130.213],[173.543,130.091],[173.555,129.998],[173.594,129.784],[173.599,129.759],[173.649,129.571],[173.692,129.436],[173.72,129.36],[173.808,129.152],[173.821,129.125],[173.913,128.949],[173.984,128.83],[174.035,128.752],[174.178,128.556],[174.208,128.52],[174.403,128.305],[181.645,121.063],[181.896,120.838],[182.171,120.644],[182.465,120.481],[182.776,120.352],[183.099,120.259],[183.431,120.203],[183.767,120.184],[215.581,120.184],[215.917,120.203],[216.249,120.259],[216.572,120.352],[216.883,120.481],[217.177,120.644],[217.452,120.838],[217.703,121.063],[224.945,128.305],[225.14,128.52],[225.169,128.556],[225.313,128.752],[225.364,128.83],[225.435,128.949],[225.527,129.125],[225.54,129.152],[225.628,129.36],[225.656,129.436],[225.699,129.571],[225.749,129.759],[225.754,129.784],[225.793,129.998],[225.805,130.091],[225.816,130.213],[225.824,130.427],[225.824,145.255],[225.824,159.348],[224.86,209.816],[220.86,209.816],[178.488,209.816],[174.488,209.816],[173.524,159.348],[173.524,130.427]]
EXCLUDE_OBJECT_DEFINE NAME=Z_motor_Lower_bracket.stl_id_1_copy_0 CENTER=136.362,166.211 POLYGON=[[104.176,173.053],[104.176,160.655],[104.188,160.346],[104.194,160.284],[104.224,160.039],[104.245,159.917],[104.283,159.736],[104.33,159.556],[104.366,159.438],[104.448,159.205],[104.471,159.147],[104.599,158.866],[108.624,150.816],[108.747,150.603],[108.895,150.407],[109.067,150.231],[109.258,150.077],[109.259,150.077],[109.259,150.076],[109.468,149.947],[109.692,149.845],[109.926,149.77],[110.168,149.725],[110.413,149.71],[113.677,149.71],[162.312,149.711],[162.558,149.726],[162.799,149.771],[163.034,149.846],[163.257,149.948],[163.466,150.078],[163.658,150.232],[163.829,150.408],[163.978,150.604],[164.101,150.817],[168.126,158.867],[168.253,159.148],[168.276,159.206],[168.359,159.439],[168.394,159.557],[168.441,159.736],[168.479,159.918],[168.5,160.04],[168.531,160.285],[168.536,160.347],[168.548,160.655],[168.548,162.711],[168.547,173.054],[168.538,173.325],[168.532,173.403],[168.511,173.594],[168.487,173.749],[168.465,173.861],[168.444,173.957],[168.421,174.054],[168.411,174.09],[168.395,174.149],[168.367,174.243],[168.338,174.332],[168.309,174.416],[168.306,174.423],[168.279,174.494],[168.252,174.564],[168.225,174.628],[168.199,174.687],[168.176,174.739],[168.155,174.782],[168.138,174.817],[168.126,174.841],[168.119,174.856],[168.116,174.861],[168.011,175.055],[167.962,175.138],[167.824,175.349],[167.786,175.402],[167.611,175.626],[167.591,175.65],[167.376,175.883],[161.719,181.54],[161.462,181.775],[161.185,181.988],[161.184,181.988],[160.89,182.176],[160.581,182.337],[160.258,182.47],[159.925,182.575],[159.585,182.651],[159.239,182.696],[158.89,182.711],[113.833,182.711],[113.484,182.695],[113.138,182.65],[112.797,182.574],[112.465,182.469],[112.142,182.336],[111.833,182.175],[111.538,181.987],[111.262,181.775],[111.004,181.539],[105.348,175.882],[105.133,175.649],[105.112,175.625],[104.937,175.4],[104.899,175.348],[104.762,175.137],[104.712,175.053],[104.608,174.86],[104.605,174.855],[104.598,174.84],[104.585,174.816],[104.551,174.744],[104.525,174.685],[104.499,174.627],[104.472,174.563],[104.444,174.493],[104.417,174.422],[104.386,174.331],[104.357,174.241],[104.329,174.148],[104.312,174.089],[104.303,174.052],[104.28,173.956],[104.259,173.86],[104.237,173.748],[104.213,173.593],[104.191,173.402],[104.186,173.324],[104.176,173.053]]
M73 P0 R117
;TYPE:Custom
START_PRINT T_BED=110 T_EXTRUDER=260
G90
G21
M83 ; use relative distances for extrusion
; Filament gcode
M106 S0
;LAYER_CHANGE
;Z:0.2
;HEIGHT:0.2
;BEFORE_LAYER_CHANGE
;0.2
G92 E0

SET_VELOCITY_LIMIT ACCEL=1000 ACCEL_TO_DECEL=500
G1 E-.5 F3000
G1 X108.139 Y149.035 F12000
G1 Z.2
G1 E.5 F1800
;TYPE:Skirt
;WIDTH:0.5
G1 F3000
G1 X108.666 Y148.665 E.02277
G1 X182.313 Y118.44 E2.8138
G1 X182.938 Y118.292 E.02272
G1 X183.767 Y118.22 E.02939
G1 X215.598 Y118.221 E1.12511
G1 X216.41 Y118.292 E.02879
G1 X217.313 Y118.535 E.03308
G1 X218.23 Y118.988 E.03615
G1 X219.092 Y119.674 E.03891
G1 X226.66 Y127.281 E.37929
G1 X227.206 Y128.1 E.0348
G1 X227.473 Y128.695 E.02303
G1 X227.765 Y129.973 E.04635
G1 X227.788 Y161.602 E1.11795
G1 X227.374 Y209.841 E1.70513
G1 X226.968 Y211.299 E.0535
G1 X225.885 Y212.358 E.0535
G1 X224.46 Y212.73 E.05209
G1 X174.888 Y212.73 E1.75213
G1 X173.665 Y212.461 E.04428
G1 X111.291 Y183.6 E2.42923
G1 X110.514 Y183.11 E.03248
G1 X109.934 Y182.609 E.02707
G1 X104.278 Y176.952 E.28277
G1 X103.77 Y176.363 E.02748
G1 X103.28 Y175.583 E.03257
G1 X102.837 Y174.418 E.04404
G1 X102.668 Y173.214 E.04297
G1 X102.663 Y160.655 E.44392
G1 X102.791 Y159.484 E.0416
G1 X103.245 Y158.189 E.04852
G1 X107.27 Y150.139 E.31811
G1 X107.736 Y149.438 E.02976
G1 X108.111 Y149.063 E.01873
G1 X108.428 Y149.447 F12000
G1 F3000
G1 X108.899 Y149.058 E.02159
G1 X182.459 Y118.873 E2.81041
G1 X183.767 Y118.677 E.04676
G1 X215.598 Y118.678 E1.12511
G1 X216.321 Y118.74 E.02565
G1 X217.166 Y118.968 E.03092
G1 X217.976 Y119.368 E.03195
G1 X218.768 Y119.997 E.03574
G1 X226.315 Y127.58 E.37815
G1 X226.797 Y128.303 E.03072
G1 X227.04 Y128.842 E.02089
G1 X227.309 Y130.002 E.0421
G1 X227.331 Y161.598 E1.11677
G1 X226.917 Y209.837 E1.70513
G1 X226.513 Y211.165 E.04905
G1 X225.455 Y212.063 E.04905
G1 X224.46 Y212.273 E.03596
G1 X174.888 Y212.273 E1.75213
G1 X173.857 Y212.046 E.03733
G1 X111.513 Y183.2 E2.42803
G1 X110.779 Y182.738 E.03067
G1 X110.258 Y182.285 E.0244
G1 X104.601 Y176.628 E.28277
G1 X104.143 Y176.099 E.02475
G1 X103.68 Y175.362 E.03074
G1 X103.277 Y174.292 E.04041
G1 X103.124 Y173.189 E.03938
G1 X103.12 Y160.655 E.44303
G1 X103.235 Y159.591 E.03781
G1 X103.654 Y158.394 E.04484
G1 X107.679 Y150.344 E.31811
G1 X108.088 Y149.729 E.02609
G1 X108.398 Y149.473 E.01421
; printing object Z motor upper bracket.stl id:0 copy 0
EXCLUDE_OBJECT_START NAME=Z_motor_upper_bracket.stl_id_0_copy_0
G1 E-.5
G1 X175.238 Y209.466 F12000
G1 E.5 F1800
;TYPE:Outer wall
G1 F3000
G1 X175.238 Y162.359 E1.66503
G2 X174.824 Y161.454 I-1.385 J.087 E.03599
G1 X174.824 Y130.438 E1.09629
G3 X175.331 Y129.216 I1.727 J0 E.04799
G1 X182.557 Y121.99 E.36119
G3 X183.778 Y121.484 I1.217 J1.211 E.04797
G1 X184.264 Y121.484 E.01718
G1 X215.587 Y121.485 E1.10713
G3 X216.792 Y121.991 I-.014 J1.723 E.0474
G1 X224.017 Y129.216 E.36116
G3 X224.524 Y130.438 I-1.22 J1.222 E.04799
G1 X224.524 Y161.454 E1.09629
G2 X224.109 Y162.359 I.969 J.991 E.036
G1 X224.11 Y209.466 E1.66503
G1 X175.278 Y209.466 E1.72598
G1 E-.5
G1 X175.574 Y209.13 F12000
G1 X180.007 Y157.468
G1 X180.076 Y157.012
G1 X180.195 Y156.566
G1 X187.667 Y129.174
G1 X187.378 Y129.003
G1 E.5 F1800
G1 F3000
G1 X187.365 Y129.016 E.00067
G3 X183.591 Y123.063 I-3.191 J-2.15 E.53958
G3 X184.437 Y123.028 I.591 J3.995 E.02997
G3 X187.582 Y128.652 I-.263 J3.839 E.26996
G1 X187.399 Y128.968 E.01291
G1 E-.5
G1 X187.687 Y129.14 F12000
G1 X180.195 Y156.566
G1 X180.076 Y157.012
G1 X180.007 Y157.468
G1 X175.696 Y209.009
G1 E.5 F1800
;TYPE:Inner wall
G1 F3000
G1 X175.696 Y162.346 E1.64935
G2 X175.281 Y161.294 I-1.742 J.079 E.0407
G1 X175.281 Y130.453 E1.09011
G3 X175.665 Y129.527 I1.409 J.043 E.03621
G1 X179.965 Y125.228 E.2149
G1 X180.151 Y125.349 E.00785
G2 X182.648 Y122.843 I4.029 J1.517 E.82711
G1 X182.534 Y122.658 E.00765
G3 X183.298 Y122.035 I1.97 J1.634 E.03506
G3 X184.264 Y121.941 I.731 J2.508 E.0345
G1 X215.572 Y121.942 E1.1066
G3 X216.48 Y122.325 I-.058 J1.406 E.03562
G1 X216.816 Y122.661 E.01676
G1 X216.698 Y122.846 E.00776
G2 X219.197 Y125.345 I-1.526 J4.026 E.82739
G1 X219.383 Y125.228 E.00776
G1 X223.683 Y129.527 E.21493
G3 X224.067 Y130.453 I-1.025 J.968 E.03621
G1 X224.067 Y161.294 E1.0901
G2 X223.652 Y162.346 I1.318 J1.127 E.04071
G1 X223.652 Y209.009 E1.64935
G1 X175.736 Y209.009 E1.69366
G1 E-.5
G1 X186.543 Y183.777 F12000
G1 X205.35 Y152.585
G1 X205.974 Y152.212
G1 X206.573 Y151.801
G1 X207.147 Y151.354
G1 X207.701 Y150.862
G1 X208.204 Y150.357
G1 X208.684 Y149.812
G1 X209.129 Y149.237
G1 X209.538 Y148.636
G1 X209.908 Y148.011
G1 X210.239 Y147.363
G1 X210.529 Y146.697
G1 X210.781 Y146
G1 X210.982 Y145.316
G1 X214.54 Y131.591
G1 E.5 F1800
G1 F3000
G1 X214.586 Y131.596 E.00164
G2 X215.634 Y131.613 I.603 J-4.734 E.03713
G2 X219.936 Y127.065 I-.482 J-4.764 E.24116
G1 X219.927 Y126.418 E.02286
G1 X223.348 Y129.839 E.171
G3 X223.61 Y130.468 I-.647 J.638 E.02467
G1 X223.61 Y161.145 E1.08431
G2 X223.195 Y162.332 I1.657 J1.244 E.04518
G1 X223.195 Y208.552 E1.63367
G1 X176.153 Y208.552 E1.66277
G1 X176.153 Y162.332 E1.63367
G2 X175.738 Y161.144 I-2.058 J.051 E.0452
G1 X175.738 Y130.468 E1.0843
G3 X176 Y129.839 I.909 J.01 E.02467
G1 X179.43 Y126.409 E.17145
G2 X186.298 Y122.611 I4.74 J.462 E.73167
G1 X186.347 Y122.398 E.00771
G1 X212.986 Y122.399 E.94158
G1 X213.042 Y122.6 E.00738
G2 X214.07 Y131.501 I2.148 J4.261 E.41123
G1 X214.501 Y131.583 E.0155
G1 X214.461 Y132.041 F12000
G1 F3000
G1 X214.53 Y132.048 E.00246
G2 X220.222 Y128.216 I.646 J-5.183 E.26458
G1 X220.367 Y127.504 E.02566
G1 X223.013 Y130.151 E.13229
G3 X223.153 Y130.482 I-.282 J.314 E.01314
G1 X223.153 Y161.005 E1.07885
G2 X222.738 Y162.319 I2.029 J1.362 E.04937
G1 X222.738 Y208.095 E1.61799
G1 X176.61 Y208.095 E1.63046
G1 X176.61 Y162.319 E1.61799
G2 X176.195 Y161.004 I-2.433 J.044 E.04943
G1 X176.195 Y130.482 E1.0788
G3 X176.335 Y130.151 I.421 J-.018 E.01313
G1 X178.987 Y127.499 E.13258
G2 X188.065 Y123.383 I5.184 J-.633 E.69221
G1 X187.536 Y122.855 E.02641
G1 X211.826 Y122.856 E.85856
G2 X213.964 Y131.945 I3.35 J4.008 E.40829
G1 X214.422 Y132.033 E.01645
G1 E-.5
G1 X211.007 Y157.468 F12000
G1 X210.988 Y157.928
G1 X212.618 Y183.471
G1 X212.805 Y183.777
G1 X212.943 Y184.109
G1 X213.026 Y184.458
G1 X213.052 Y184.789
G1 X213.052 Y201.843
G1 X213.026 Y202.174
G1 X212.943 Y202.523
G1 X212.805 Y202.855
G1 X212.618 Y203.161
G1 X212.388 Y203.429
G1 X212.112 Y203.666
G1 X211.805 Y203.855
G1 X211.474 Y203.992
G1 X211.125 Y204.076
G1 X210.803 Y204.101
G1 X210.776 Y203.766
G1 E.5 F1800
;TYPE:Outer wall
G1 F3000
G1 X210.767 Y203.767 E.00034
G3 X208.817 Y201.83 I0 J-1.95 E.10779
G1 X208.817 Y184.802 E.60187
G3 X210.462 Y182.889 I1.968 J.028 E.0968
G3 X212.717 Y184.802 I.294 J1.939 E.11842
G1 X212.717 Y201.83 E.60185
G3 X211.072 Y203.743 I-1.95 J-.013 E.09698
G1 X210.816 Y203.763 E.00906
G1 X210.736 Y204.223 F12000
;TYPE:Inner wall
M73 P0 R116
G1 F3000
G1 X210.39 Y204.196 E.01227
G3 X208.36 Y201.849 I.377 J-2.378 E.11919
G1 X208.36 Y184.784 E.60317
G3 X210.39 Y182.436 I2.429 J.048 E.11902
G3 X213.174 Y184.784 I.364 J2.393 E.14572
G1 X213.174 Y201.848 E.60312
G3 X210.776 Y204.225 I-2.407 J-.03 E.13228
G1 X210.704 Y204.679 F12000
G1 F3000
G1 X210.318 Y204.649 E.01369
G3 X207.903 Y201.868 I.449 J-2.829 E.14142
G1 X207.903 Y184.766 E.60446
G3 X210.318 Y181.983 I2.889 J.068 E.14124
G3 X213.631 Y184.766 I.434 J2.847 E.17302
G1 X213.631 Y201.866 E.60439
G3 X210.767 Y204.684 I-2.864 J-.046 E.15741
G1 X210.744 Y204.682 E.0008
G1 X210.861 Y205.135 F12000
G1 F3000
G1 X210.767 Y205.143 E.00335
G3 X207.446 Y201.886 I0 J-3.322 E.18211
G1 X207.446 Y184.748 E.60576
G3 X210.246 Y181.53 I3.349 J.087 E.16346
G3 X214.088 Y184.748 I.503 J3.301 E.20032
G1 X214.088 Y201.884 E.60566
G3 X211.287 Y205.102 I-3.321 J-.063 E.16374
G1 X210.901 Y205.132 E.01369
G1 E-.5
G1 X190.867 Y186.103 F12000
G1 X190.867 Y184.789
G1 X190.841 Y184.458
G1 X190.757 Y184.109
G1 X190.62 Y183.777
G1 X190.432 Y183.471
G1 X190.199 Y183.198
G1 X189.926 Y182.965
G1 X189.62 Y182.778
G1 X189.288 Y182.64
G1 X188.938 Y182.556
G1 X188.575 Y182.529
G1 X188.223 Y182.556
G1 X187.874 Y182.64
G1 X187.543 Y182.778
G1 X187.512 Y182.797
G1 X187.687 Y183.083
G1 E.5 F1800
;TYPE:Outer wall
G1 F3000
G1 X187.697 Y183.081 E.00036
G3 X188.276 Y182.889 I.902 J1.75 E.02164
G3 X190.531 Y184.802 I.294 J1.939 E.11842
G1 X190.531 Y201.83 E.60185
G3 X186.631 Y201.83 I-1.95 J-.013 E.21561
G1 X186.631 Y184.802 E.60185
G3 X187.437 Y183.242 I1.968 J.028 E.06435
G1 X187.653 Y183.104 E.00905
G1 X187.461 Y182.685 F12000
;TYPE:Inner wall
G1 F3000
G1 X187.489 Y182.673 E.00109
G3 X188.204 Y182.436 I1.113 J2.159 E.02673
G3 X190.988 Y184.784 I.364 J2.393 E.14572
G1 X190.988 Y201.848 E.60312
G3 X186.174 Y201.848 I-2.407 J-.03 E.26521
G1 X186.174 Y184.784 E.60312
G3 X187.169 Y182.872 I2.429 J.048 E.07895
G1 X187.427 Y182.707 E.01084
G1 X187.337 Y182.237 F12000
G1 F3000
G1 X187.696 Y182.091 E.01368
G3 X188.133 Y181.983 I.91 J2.743 E.01592
G3 X191.445 Y184.766 I.434 J2.847 E.17302
G1 X191.445 Y201.866 E.60439
G3 X185.717 Y201.866 I-2.864 J-.046 E.31481
G1 X185.717 Y184.766 E.60439
G3 X187.282 Y182.266 I2.889 J.068 E.10943
G1 X187.302 Y182.255 E.0008
G1 X187.159 Y181.816 F12000
G1 F3000
G1 X187.554 Y181.656 E.01509
G3 X188.061 Y181.53 I1.055 J3.18 E.01846
G3 X191.902 Y184.748 I.503 J3.301 E.20032
G1 X191.902 Y201.884 E.60566
G3 X185.26 Y201.884 I-3.321 J-.063 E.36441
G1 X185.26 Y184.748 E.60566
G3 X187.074 Y181.858 I3.349 J.087 E.12656
G1 X187.123 Y181.834 E.00193
G1 E-.5
G1 X188.357 Y158.041 F12000
G1 X188.351 Y157.58
G1 X188.294 Y157.122
G1 X188.186 Y156.673
G1 X188.03 Y156.239
G1 X187.828 Y155.825
G1 X187.581 Y155.435
G1 X187.292 Y155.075
G1 X186.966 Y154.749
G1 X186.623 Y154.475
G1 X186.413 Y154.737
G1 E.5 F1800
;TYPE:Outer wall
G1 F3000
G1 X186.741 Y155 E.01489
G3 X183.591 Y154.063 I-2.567 J2.866 E.73448
G3 X184.437 Y154.028 I.591 J3.995 E.02997
G3 X186.38 Y154.714 I-.263 J3.839 E.07374
G1 X186.657 Y154.35 F12000
;TYPE:Inner wall
G1 F3000
G1 X186.676 Y154.363 E.00082
G3 X183.522 Y153.611 I-2.502 J3.504 E.83859
G3 X184.467 Y153.571 I.661 J4.465 E.03349
G3 X186.275 Y154.108 I-.293 J4.295 E.06722
G1 X186.623 Y154.328 E.01454
G1 X186.978 Y154.019 F12000
G1 F3000
G1 X187.352 Y154.318 E.01692
G3 X183.453 Y153.158 I-3.177 J3.548 E.90912
G3 X184.497 Y153.114 I.731 J4.935 E.03702
G3 X186.942 Y153.99 I-.323 J4.752 E.09297
G1 X186.947 Y153.994 E.00023
G1 X187.149 Y153.58 F12000
G1 F3000
G1 X187.208 Y153.617 E.00246
G3 X183.384 Y152.706 I-3.033 J4.248 E1.0168
G3 X184.527 Y152.657 I.802 J5.404 E.04054
G3 X186.722 Y153.309 I-.353 J5.208 E.08158
G1 X187.115 Y153.558 E.01647
G1 E-.5
G1 X199.058 Y154.039 F12000
G1 X199.785 Y154.055
G1 X200.511 Y154.025
G1 X201.234 Y153.951
G1 X201.951 Y153.831
G1 X202.673 Y153.664
G1 X203.356 Y153.46
G1 X204.038 Y153.21
G1 X204.704 Y152.918
G1 X205.35 Y152.585
G1 X205.974 Y152.212
G1 X206.573 Y151.801
G1 X207.147 Y151.354
G1 X207.701 Y150.862
G1 X208.204 Y150.357
G1 X208.684 Y149.812
G1 X209.129 Y149.237
G1 X209.538 Y148.636
G1 X209.908 Y148.011
G1 X210.239 Y147.363
G1 X210.529 Y146.697
G1 X210.781 Y146
G1 X210.982 Y145.316
G1 X211.144 Y144.608
G1 X211.261 Y143.89
G1 X211.333 Y143.167
G1 X211.36 Y142.441
G1 X211.342 Y141.714
G1 X211.278 Y140.99
G1 X211.17 Y140.271
G1 X211.017 Y139.56
G1 X210.821 Y138.861
G1 X210.581 Y138.174
G1 X210.299 Y137.504
G1 X209.976 Y136.853
G1 X209.613 Y136.223
G1 X209.212 Y135.617
G1 X209.2 Y135.602
G1 X208.933 Y135.805
G1 E.5 F1800
;TYPE:Outer wall
G1 F3000
G1 X208.94 Y135.81 E.00032
G3 X199.56 Y131.025 I-9.258 J6.562 E2.13306
G3 X206.486 Y133.291 I.107 J11.394 E.26219
G3 X208.514 Y135.247 I-6.804 J9.081 E.09984
G1 X208.909 Y135.773 E.02323
G1 X209.303 Y135.537 F12000
;TYPE:Inner wall
G1 F3000
G1 X209.313 Y135.546 E.00048
G3 X199.555 Y130.568 I-9.631 J6.826 E2.21902
G3 X207.334 Y133.384 I.133 J11.784 E.29877
G3 X208.869 Y134.961 I-7.653 J8.988 E.07789
